/* XPM */
static const char *cone_resized[] = {
/* columns rows colors chars-per-pixel */
"47 50 164 2 ",
"   c #3D3D3D",
".  c #3E3E3E",
"X  c #3F3F3F",
"o  c #404040",
"O  c #414141",
"+  c #424242",
"@  c #434343",
"#  c #444444",
"$  c #454545",
"%  c #464646",
"&  c #474747",
"*  c #484848",
"=  c #494949",
"-  c #4A4A4A",
";  c #4B4B4B",
":  c #4C4C4C",
">  c #4D4D4D",
",  c #4E4E4E",
"<  c #4F4F4F",
"1  c #505050",
"2  c #515151",
"3  c #525252",
"4  c #535353",
"5  c #545454",
"6  c #555555",
"7  c #565656",
"8  c #575757",
"9  c #585858",
"0  c #595959",
"q  c #5A5A5A",
"w  c #5C5C5C",
"e  c #5D5D5D",
"r  c #5F5F5F",
"t  c #606060",
"y  c #616161",
"u  c #626262",
"i  c #636363",
"p  c #646464",
"a  c #656565",
"s  c #666666",
"d  c #676767",
"f  c #686868",
"g  c #696969",
"h  c #6A6A6A",
"j  c #6B6B6B",
"k  c #6C6C6C",
"l  c #6D6D6D",
"z  c #6E6E6E",
"x  c #6F6F6F",
"c  c #717171",
"v  c #727272",
"b  c #737373",
"n  c #747474",
"m  c #767676",
"M  c #777777",
"N  c #787878",
"B  c #7A7A7A",
"V  c #7B7B7B",
"C  c #7D7D7D",
"Z  c #7E7E7E",
"A  c #7F7F7F",
"S  c #808080",
"D  c #828282",
"F  c #838383",
"G  c #868686",
"H  c #878787",
"J  c #888888",
"K  c #898989",
"L  c #8C8C8C",
"P  c #8D8D8D",
"I  c #8E8E8E",
"U  c #8F8F8F",
"Y  c #909090",
"T  c #929292",
"R  c #939393",
"E  c #959595",
"W  c #979797",
"Q  c #989898",
"!  c #999999",
"~  c #9A9A9A",
"^  c #9D9D9D",
"/  c #9E9E9E",
"(  c #9F9F9F",
")  c #A0A0A0",
"_  c #A1A1A1",
"`  c #A2A2A2",
"'  c #A5A5A5",
"]  c #A6A6A6",
"[  c #A7A7A7",
"{  c #A8A8A8",
"}  c #A9A9A9",
"|  c #ADADAD",
" . c #AEAEAE",
".. c #B0B0B0",
"X. c #B1B1B1",
"o. c #B2B2B2",
"O. c #B3B3B3",
"+. c #B5B5B5",
"@. c #B6B6B6",
"#. c #B7B7B7",
"$. c #B8B8B8",
"%. c #BABABA",
"&. c #BCBCBC",
"*. c #BDBDBD",
"=. c #BEBEBE",
"-. c #BFBFBF",
";. c #C1C1C1",
":. c #C2C2C2",
">. c #C3C3C3",
",. c #C5C5C5",
"<. c #C6C6C6",
"1. c gray78",
"2. c #C8C8C8",
"3. c #CACACA",
"4. c #CDCDCD",
"5. c #CECECE",
"6. c #CFCFCF",
"7. c #D0D0D0",
"8. c #D1D1D1",
"9. c #D2D2D2",
"0. c #D3D3D3",
"q. c #D4D4D4",
"w. c #D5D5D5",
"e. c #D6D6D6",
"r. c #D7D7D7",
"t. c #D8D8D8",
"y. c #D9D9D9",
"u. c #DADADA",
"i. c #DBDBDB",
"p. c #DCDCDC",
"a. c #DDDDDD",
"s. c #DEDEDE",
"d. c #DFDFDF",
"f. c #E0E0E0",
"g. c #E1E1E1",
"h. c #E2E2E2",
"j. c #E4E4E4",
"k. c #E5E5E5",
"l. c #E6E6E6",
"z. c #E7E7E7",
"x. c #E8E8E8",
"c. c #E9E9E9",
"v. c #EAEAEA",
"b. c #EBEBEB",
"n. c #ECECEC",
"m. c #EDEDED",
"M. c #EEEEEE",
"N. c #EFEFEF",
"B. c #F0F0F0",
"V. c #F1F1F1",
"C. c #F2F2F2",
"Z. c #F3F3F3",
"A. c #F4F4F4",
"S. c #F5F5F5",
"D. c #F6F6F6",
"F. c #F7F7F7",
"G. c #F8F8F8",
"H. c #F9F9F9",
"J. c #FAFAFA",
"K. c #FBFBFB",
"L. c #FCFCFC",
"P. c #FDFDFD",
"I. c #FEFEFE",
"U. c #FFFFFF",
/* pixels */
"U.U.U.U.U.U.U.U.U.U.U.U.U.U.U.U.U.U.U.U.U.U.U.U.U.U.U.U.U.U.U.U.U.U.U.U.U.U.U.U.U.U.U.U.U.U.U.",
"U.U.U.U.U.U.U.U.U.U.U.U.U.U.U.U.U.U.U.U.U.U.U.U.U.U.U.U.U.U.U.U.U.U.U.U.U.U.U.U.U.U.U.U.U.U.U.",
"U.U.U.U.U.U.U.U.U.U.U.U.U.U.U.U.U.U.U.U.U.U.U.U.U.U.U.U.U.U.U.U.U.U.U.U.U.U.U.U.U.U.U.U.U.U.U.",
"U.U.U.U.U.U.U.U.U.U.U.U.U.U.U.U.U.U.U.U.U.U.U.U.U.U.U.U.U.U.U.U.U.U.U.U.U.U.U.U.U.U.U.U.U.U.U.",
"U.U.U.U.U.U.U.U.U.U.U.U.U.U.U.U.U.U.U.U.U.U.U.U.U.U.U.U.U.U.U.U.U.U.U.U.U.U.U.U.U.U.U.U.U.U.U.",
"U.U.U.U.U.U.U.U.U.U.U.U.U.U.U.U.U.U.U.U.U.U.U.U.U.U.U.U.U.U.U.U.U.U.U.U.U.U.U.U.U.U.U.U.U.U.U.",
"U.U.U.U.U.U.U.U.U.U.U.U.U.U.U.U.U.U.U.U.U.U.U.U.U.U.U.U.U.U.U.U.U.U.U.U.U.U.U.U.U.U.U.U.U.U.U.",
"U.U.U.U.U.U.U.U.U.U.U.U.U.U.U.U.U.U.U.U.U.U.U.U.U.U.U.U.U.U.U.U.U.U.U.U.U.U.U.U.U.U.U.U.U.U.U.",
"U.U.U.U.U.U.U.U.U.U.U.U.U.U.U.U.U.U.U.U.U.U.U.U.U.U.U.U.U.U.U.U.U.U.U.U.U.U.U.U.U.U.U.U.U.U.U.",
"U.U.U.U.U.U.U.U.U.U.U.U.U.U.U.U.U.U.U.U.U.U.U.U.U.U.U.U.U.U.U.U.U.U.U.U.U.U.U.U.U.U.U.U.U.U.U.",
"U.U.U.U.U.U.U.U.U.U.U.U.U.U.U.U.U.U.U.U.U.U.U.K.U.U.U.U.U.U.U.U.U.U.U.U.U.U.U.U.U.U.U.U.U.U.U.",
"U.U.U.U.U.U.U.U.U.U.U.U.U.U.U.U.U.U.U.U.U.U.K.<.S.U.U.U.U.U.U.U.U.U.U.U.U.U.U.U.U.U.U.U.U.U.U.",
"U.U.U.U.U.U.U.U.U.U.U.U.U.U.U.U.U.U.U.U.U.U.S.E r.U.U.U.U.U.U.U.U.U.U.U.U.U.U.U.U.U.U.U.U.U.U.",
"U.U.U.U.U.U.U.U.U.U.U.U.U.U.U.U.U.U.U.U.U.U.c.V } U.U.U.U.U.U.U.U.U.U.U.U.U.U.U.U.U.U.U.U.U.U.",
"U.U.U.U.U.U.U.U.U.U.U.U.U.U.U.U.U.U.U.U.U.S.g.k C B.U.U.U.U.U.U.U.U.U.U.U.U.U.U.U.U.U.U.U.U.U.",
"U.U.U.U.U.U.U.U.U.U.U.U.U.U.U.U.U.U.U.U.U.n.p.t t 4.U.U.U.U.U.U.U.U.U.U.U.U.U.U.U.U.U.U.U.U.U.",
"U.U.U.U.U.U.U.U.U.U.U.U.U.U.U.U.U.U.U.U.K.l.7.8 2 ^ K.U.U.U.U.U.U.U.U.U.U.U.U.U.U.U.U.U.U.U.U.",
"U.U.U.U.U.U.U.U.U.U.U.U.U.U.U.U.U.U.U.U.c.c.<.2 > n l.U.U.U.U.U.U.U.U.U.U.U.U.U.U.U.U.U.U.U.U.",
"U.U.U.U.U.U.U.U.U.U.U.U.U.U.U.U.U.U.U.U.i.S.O.> ; w *.U.U.U.U.U.U.U.U.U.U.U.U.U.U.U.U.U.U.U.U.",
"U.U.U.U.U.U.U.U.U.U.U.U.U.U.U.U.U.U.U.B.r.K.) ; ; 2 U S.U.U.U.U.U.U.U.U.U.U.U.U.U.U.U.U.U.U.U.",
"U.U.U.U.U.U.U.U.U.U.U.U.U.U.U.U.U.U.U.p.i.K.U ; & > h r.U.U.U.U.U.U.U.U.U.U.U.U.U.U.U.U.U.U.U.",
"U.U.U.U.U.U.U.U.U.U.U.U.U.U.U.U.U.U.K.2.c.B.C ; & ; 8 | K.U.U.U.U.U.U.U.U.U.U.U.U.U.U.U.U.U.U.",
"U.U.U.U.U.U.U.U.U.U.U.U.U.U.U.U.U.U.c.:.S.l.v > & & > F c.U.U.U.U.U.U.U.U.U.U.U.U.U.U.U.U.U.U.",
"U.U.U.U.U.U.U.U.U.U.U.U.U.U.U.U.U.U.7.2.U.i.d > & & ; d <.U.U.U.U.U.U.U.U.U.U.U.U.U.U.U.U.U.U.",
"U.U.U.U.U.U.U.U.U.U.U.U.U.U.U.U.U.S.$.r.U.2.w > ; + & 2 ^ S.U.U.U.U.U.U.U.U.U.U.U.U.U.U.U.U.U.",
"U.U.U.U.U.U.U.U.U.U.U.U.U.U.U.U.U.p.O.g.K.$.0 2 ; + & & V i.U.U.U.U.U.U.U.U.U.U.U.U.U.U.U.U.U.",
"U.U.U.U.U.U.U.U.U.U.U.U.U.U.U.U.K.:.O.n.S.} 8 2 > + + & w #.K.U.U.U.U.U.U.U.U.U.U.U.U.U.U.U.U.",
"U.U.U.U.U.U.U.U.U.U.U.U.U.U.U.U.c.| $.B.n.~ 2 8 2 + + + > T c.U.U.U.U.U.U.U.U.U.U.U.U.U.U.U.U.",
"U.U.U.U.U.U.U.U.U.U.U.U.U.U.U.U.7.) :.S.l.U > 0 8 + + + & v 2.U.U.U.U.U.U.U.U.U.U.U.U.U.U.U.U.",
"U.U.U.U.U.U.U.U.U.U.U.U.U.U.U.S.#.^ 4.B.i.C > w w + . + + w [ S.U.U.U.U.U.U.U.U.U.U.U.U.U.U.U.",
"U.U.U.U.U.U.U.U.U.U.U.U.U.U.U.p.) ^ i.n.7.n > w t & . + + > H i.U.U.U.U.U.U.U.U.U.U.U.U.U.U.U.",
"U.U.U.U.U.U.U.U.U.U.U.U.U.U.K.:.E [ p.c.<.h > t d & . + + & k $.K.U.U.U.U.U.U.U.U.U.U.U.U.U.U.",
"U.U.U.U.U.U.U.U.U.U.U.U.U.U.c.} T O.l.c.$.t > d h ; . . + + 0 ~ l.U.U.U.U.U.U.U.U.U.U.U.U.U.U.",
"U.U.U.U.U.U.U.U.U.U.U.U.U.K.4.~ U *.l.l.| w > h v > . . + + > C <.K.K.U.U.U.U.U.U.U.U.U.U.U.U.",
"U.U.U.U.U.U.U.U.U.U.U.U.K.B.O.U E 2.l.g.) 0 > h v 2 . . . + & h [ n.K.K.U.U.U.U.U.U.U.U.U.U.U.",
"U.U.U.U.U.U.U.U.U.U.U.K.K.i.^ H ) r.l.p.E 8 > k n 8 . . . + & 8 U 7.K.K.K.U.U.U.U.U.U.U.U.U.U.",
"U.U.U.U.U.U.U.U.U.U.U.K.S.*.T H | i.l.r.J 2 2 k V 0 + . . + + > V #.B.K.K.U.U.U.U.U.U.U.U.U.U.",
"U.U.U.U.U.U.U.U.U.U.U.K.n.| J U *.p.c.7.C 2 2 v C w + . . + + ; d ) n.K.K.U.U.U.U.U.U.U.U.U.U.",
"U.U.U.U.U.U.U.U.U.U.U.K.n.[ F ~ 2.g.c.<.n > 2 v C t + . . + + & 8 E n.K.K.U.U.U.U.U.U.U.U.U.U.",
"U.U.U.U.U.U.U.U.U.U.U.K.S.| F [ 7.l.l.*.k > 2 v C d & . . + + & 2 ^ S.K.U.U.U.U.U.U.U.U.U.U.U.",
"U.U.U.U.U.U.U.U.U.U.K.K.K.i.~ O.i.l.l.O.h > 2 v C d & . . . + & h r.K.K.U.U.U.U.U.U.U.U.U.U.U.",
"U.U.U.U.U.U.U.U.U.U.K.K.K.S.r.:.p.c.g.} t > 8 v C h ; . . . + h 2.K.K.U.U.U.U.U.U.U.U.U.U.U.U.",
"U.U.U.U.U.U.U.U.U.U.U.K.K.K.S.l.p.l.p.^ w ; 8 v C h ; . + 0 T i.K.K.U.U.U.U.U.U.U.U.U.U.U.U.U.",
"U.U.U.U.U.U.U.U.U.U.U.U.K.K.K.S.B.c.p.#.C t w k n k h C } r.S.K.K.U.U.U.U.U.U.U.U.U.U.U.U.U.U.",
"U.U.U.U.U.U.U.U.U.U.U.U.U.K.K.K.S.S.S.B.l.i.7.4.7.i.l.B.K.K.K.K.U.U.U.U.U.U.U.U.U.U.U.U.U.U.U.",
"U.U.U.U.U.U.U.U.U.U.U.U.U.U.U.K.K.K.K.K.S.K.K.K.K.K.K.K.K.K.U.U.U.U.U.U.U.U.U.U.U.U.U.U.U.U.U.",
"U.U.U.U.U.U.U.U.U.U.U.U.U.U.U.U.K.K.K.K.K.K.K.K.K.K.K.K.U.U.U.U.U.U.U.U.U.U.U.U.U.U.U.U.U.U.U.",
"U.U.U.U.U.U.U.U.U.U.U.U.U.U.U.U.U.U.K.K.K.K.K.K.K.U.U.U.U.U.U.U.U.U.U.U.U.U.U.U.U.U.U.U.U.U.U.",
"U.U.U.U.U.U.U.U.U.U.U.U.U.U.U.U.U.U.U.U.U.U.U.U.U.U.U.U.U.U.U.U.U.U.U.U.U.U.U.U.U.U.U.U.U.U.U.",
"U.U.U.U.U.U.U.U.U.U.U.U.U.U.U.U.U.U.U.U.U.U.U.U.U.U.U.U.U.U.U.U.U.U.U.U.U.U.U.U.U.U.U.U.U.U.U."
};
