/* XPM */
static const char *plane_resized[] = {
/* columns rows colors chars-per-pixel */
"47 50 2 1 ",
"  c black",
". c None",
/* pixels */
"...............................................",
"...............................................",
"...............................................",
"...............................................",
"...............................................",
"...............................................",
"...............................................",
"...............................................",
"...............................................",
".... ..................................... ....",
"...............................................",
"...............................................",
"...............................................",
"...............................................",
"...............................................",
"...............................................",
"...............................................",
"...............................................",
"...............................................",
"...............................................",
"...............................................",
"...............................................",
"...............................................",
"...............................................",
"...............................................",
"...............................................",
"...............................................",
"...............................................",
"...............................................",
"...............................................",
"...............................................",
"...............................................",
"...............................................",
"...............................................",
".... ..................................... ....",
"...............................................",
"...............................................",
"...............................................",
"...............................................",
"...............................................",
"...............................................",
"...............................................",
"...............................................",
"...............................................",
"...............................................",
"...............................................",
"...............................................",
"...............................................",
"...............................................",
"..............................................."
};
