/* XPM */
static char *df421151328b47dba23aa1dfb04b77631n771F8rOymdhdCy[] = {
/* columns rows colors chars-per-pixel */
"512 512 2 1 ",
"  c None",
". c black",
/* pixels */
"                                                                                                                                                                                                                                                                                                                                                                                                                                                                                                                                ",
"                                                                                                                                                                                                                                                                                                                                                                                                                                                                                                                                ",
"                                                                                                                                                                                                                                                                                                                                                                                                                                                                                                                                ",
"                                                                                                                                                                                                                                                                                                                                                                                                                                                                                                                                ",
"                                                                                                                                                                                                                                                                                                                                                                                                                                                                                                                                ",
"                                                                                                                                                                                                                                                                                                                                                                                                                                                                                                                                ",
"                                                                                                                                                                                                                                                                                                                                                                                                                                                                                                                                ",
"                                                                                                                                                                                                                                                                                                                                                                                                                                                                                                                                ",
"                                                                                                                                                                                                                                                                                                                                                                                                                                                                                                                                ",
"                                                                                                                                                                                                                                                                                                                                                                                                                                                                                                                                ",
"                                                                                                                                                                                                                                                                                                                                                                                                                                                                                                                                ",
"                                                                                                                                                                                                                                                                                                                                                                                                                                                                                                                                ",
"                                                                                                                                                                                                                                                                                                                                                                                                                                                                                                                                ",
"                                                                                                                                                                                                                                                                                                                                                                                                                                                                                                                                ",
"                                                                                                                                                                                                                                                                                                                                                                                                                                                                                                                                ",
"                                                                                                                                                                                                                                                                                                                                                                                                                                                                                                                                ",
"                                                                                                                                                                                                                                                                                                                                                                                                                                                                                                                                ",
"                                                                                                                                                                                                                                                                                                                                                                                                                                                                                                                                ",
"                                                                                                                                                                                                                                                                                                                                                                                                                                                                                                                                ",
"                                                                                                                                                                                                                                                                                                                                                                                                                                                                                                                                ",
"                                                                                                                                                                                                                                                                                                                                                                                                                                                                                                                                ",
"                                                                                                                                                                                                                                                                                                                                                                                                                                                                                                                                ",
"                                                                                                                                                                                                                                                                                                                                                                                                                                                                                                                                ",
"                                                                                                                                                                                                                                                                                                                                                                                                                                                                                                                                ",
"                                                                                                                                                                                                                                                                                                                                                                                                                                                                                                                                ",
"                                                                                                                                                                                                                                                                                                                                                                                                                                                                                                                                ",
"                                                                                                                                                                                                                                                                                                                                                                                                                                                                                                                                ",
"                                                                                                                                                                                                                                                                                                                                                                                                                                                                                                                                ",
"                                                                                                                                                                                                                                                                                                                                                                                                                                                                                                                                ",
"                                                                                                                                                                                                                                                                                                                                                                                                                                                                                                                                ",
"                                                                                                                                                                                                                                                                                                                                                                                                                                                                                                                                ",
"                                                                                                                                                                                                                                                                                                                                                                                                                                                                                                                                ",
"                                                                                                                                                                                                                                                                                                                                                                                                                                                                                                                                ",
"                                                                                                                                                                                                                                                                                                                                                                                                                                                                                                                                ",
"                                                                                                                                                                                                                                                                                                                                                                                                                                                                                                                                ",
"                                                                                                                                                                                                                                                                                                                                                                                                                                                                                                                                ",
"                                                                                                                                                                                                                                                                                                                                                                                                                                                                                                                                ",
"                                                                                                                                                                                                                                                                                                                                                                                                                                                                                                                                ",
"                                                                                                                                                                                                                                                                                                                                                                                                                                                                                                                                ",
"                                                                                                                                                                                                                                                                                                                                                                                                                                                                                                                                ",
"                                                                                                                                                                                                                                                                                                                                                                                                                                                                                                                                ",
"                                                                                                                                                                                                                                                                                                                                                                                                                                                                                                                                ",
"                                                                                                                                                                                                                                                                                                                                                                                                                                                                                                                                ",
"                                                                                                                                                                                                                                                                                                                                                                                                                                                                                                                                ",
"                                                                                                                                                                                                                                                                                                                                                                                                                                                                                                                                ",
"                                                                                                                                                                                                                                                                                                                                                                                                                                                                                                                                ",
"                                                                                                                                                                                                                                                                                                                                                                                                                                                                                                                                ",
"                                                                                                                                                                                                                                                                                                                                                                                                                                                                                                                                ",
"                                                                                                                                                                                                                                                                                                                                                                                                                                                                                                                                ",
"                                                                                                                                                                                                                                                                                                                                                                                                                                                                                                                                ",
"                                                                                                                                                                                                                                                                                                                                                                                                                                                                                                                                ",
"                                                                                                                                                                                                                                                                                                                                                                                                                                                                                                                                ",
"                                                                                                                                                                                                                                                                                                                                                                                                                                                                                                                                ",
"                                                                                                                                                                                                                                                                                                                                                                                                                                                                                                                                ",
"                                                                                                                                                                                                                                                                                                                                                                                                                                                                                                                                ",
"                                                                                                                                                                                                                                                                                                                                                                                                                                                                                                                                ",
"                                                                                                                                                                                                                                                                                                                                                                                                                                                                                                                                ",
"                                                                                                                                                                                                                                                                                                                                                                                                                                                                                                                                ",
"                                                                                                                                                                                                                                                                                                                                                                                                                                                                                                                                ",
"                                                                                                                                                                                                                                                                                                                                                                                                                                                                                                                                ",
"                                                                                                                                                                                                                                                                                                                                                                                                                                                                                                                                ",
"                                                                                                                                                                                                                                                                                                                                                                                                                                                                                                                                ",
"                                                                                                                                                                                                                                                                                                                                                                                                                                                                                                                                ",
"                                                                                                                                                                                                                                                                                                                                                                                                                                                                                                                                ",
"                                                                                                                                                                                                                                                                                                                                                                                                                                                                                                                                ",
"                                                                                                                                                                                                                                                                                                                                                                                                                                                                                                                                ",
"                                                                                                                                                                                                                                                                                                                                                                                                                                                                                                                                ",
"                                                                                                                                                                                                                                                                                                                                                                                                                                                                                                                                ",
"                                                                                                                                                                                                                                                                                                                                                                                                                                                                                                                                ",
"                                                                                                                                                                                                                                                                                                                                                                                                                                                                                                                                ",
"                                                                                                                                                                                                                                                                                                                                                                                                                                                                                                                                ",
"                                                                                                                                                                                                                                                                                                                                                                                                                                                                                                                                ",
"                                                                                                                                                                                                                                                                                                                                                                                                                                                                                                                                ",
"                                                                                                                                                                                                                                                                                                                                                                                                                                                                                                                                ",
"                                                                                                                                                                                                                                                                                                                                                                                                                                                                                                                                ",
"                                                                                                                                                                                                                                                                                                                                                                                                                                                                                                                                ",
"                                                                                                                                                                                                                                                                                                                                                                                                                                                                                                                                ",
"                                                                                                                                                                                                                                                                                                                                                                                                                                                                                                                                ",
"                                                                                                                                                                                                                                                                                                                                                                                                                                                                                                                                ",
"                                                                                                                                                                                                                                                                                                                                                                                                                                                                                                                                ",
"                                                                                                                                                                                                                                                                                                                                                                                                                                                                                                                                ",
"                                                                                                                                                                                                                                                                                                                                                                                                                                                                                                                                ",
"                                                                                                                                                                                                                                                                                                                                                                                                                                                                                                                                ",
"                                                                                                                                                                                                                                                                                                                                                                                                                                                                                                                                ",
"                                                                                                                                                                                                                                                                                                                                                                                                                                                                                                                                ",
"                                                                                                                                                                                                                                                                                                                                                                                                                                                                                                                                ",
"                                                                                                                                                                                                                                                                                                                                                                                                                                                                                                                                ",
"                                                                                                                                                                                                                                                                                                                                                                                                                                                                                                                                ",
"                                                                                                                                                                                                                                                                                                                                                                                                                                                                                                                                ",
"                                                                                                                                                                                                                                                                                                                                                                                                                                                                                                                                ",
"                                                                                                                                                                                                                                                                                                                                                                                                                                                                                                                                ",
"                                                                                                                                                                                                                                                                                                                                                                                                                                                                                                                                ",
"                                                                                                                                                                                                                                                                                                                                                                                                                                                                                                                                ",
"                                                                                                                                                                                                                                                                                                                                                                                                                                                                                                                                ",
"                                         ................................................................................................................................................................................................................................................................................................................................................................................................................................................                                       ",
"                                        .................................................................................................................................................................................................................................................................................................................................................................................................................................................                                       ",
"                                        .................................................................................................................................................................................................................................................................................................................................................................................................................................................                                       ",
"                                        .................................................................................................................................................................................................................................................................................................................................................................................................................................................                                       ",
"                                        .................................................................................................................................................................................................................................................................................................................................................................................................................................................                                       ",
"                                        .................................................................................................................................................................................................................................................................................................................................................................................................................................................                                       ",
"                                        .......                                                                                                                                                                                                                                                                                                                                                                                                                                    ......                                       ",
"                                        ......                                                                                                                                                                                                                                                                                                                                                                                                                                     ......                                       ",
"                                        ......                                                                                                                                                                                                                                                                                                                                                                                                                                     ......                                       ",
"                                        ......                                                                                                                                                                                                                                                                                                                                                                                                                                     ......                                       ",
"                                        ......                                                                                                                                                                                                                                                                                                                                                                                                                                     ......                                       ",
"                                        ......                                                                                                                                                                                                                                                                                                                                                                                                                                     ......                                       ",
"                                        ......                                                                                                                                                                                                                                                                                                                                                                                                                                     ......                                       ",
"                                        ......                                                                                                                                                                                                                                                                                                                                                                                                                                     ......                                       ",
"                                        ......                                                                                                                                                                                                                                                                                                                                                                                                                                     ......                                       ",
"                                        ......                                                                                                                                                                                                                                                                                                                                                                                                                                     ......                                       ",
"                                        ......                                                                                                                                                                                                                                                                                                                                                                                                                                     ......                                       ",
"                                        ......                                                                                                                                                                                                                                                                                                                                                                                                                                     ......                                       ",
"                                        ......                                                                                                                                                                                                                                                                                                                                                                                                                                     ......                                       ",
"                                        ......                                                                                                                                                                                                                                                                                                                                                                                                                                     ......                                       ",
"                                        ......                                                                                                                                                                                                                                                                                                                                                                                                                                     ......                                       ",
"                                        ......                                                                                                                                                                                                                                                                                                                                                                                                                                     ......                                       ",
"                                        ......                                                                                                                                                                                                                                                                                                                                                                                                                                     ......                                       ",
"                                        ......                                                                                                                                                                                                                                                                                                                                                                                                                                     ......                                       ",
"                                        ......                                                                                                                                                                                                                                                                                                                                                                                                                                     ......                                       ",
"                                        ......                                                                                                                                                                                                                                                                                                                                                                                                                                     ......                                       ",
"                                        ......                                                                                                                                                                                                                                                                                                                                                                                                                                     ......                                       ",
"                                        ......                                                                                                                                                                                                                                                                                                                                                                                                                                     ......                                       ",
"                                        ......                                                                                                                                                                                                                                                                                                                                                                                                                                     ......                                       ",
"                                        ......                                                                                                                                                                                                                                                                                                                                                                                                                                     ......                                       ",
"                                        ......                                                                                                                                                                                                                                                                                                                                                                                                                                     ......                                       ",
"                                        ......                                                                                                                                                                                                                                                                                                                                                                                                                                     ......                                       ",
"                                        ......                                                                                                                                                                                                                                                                                                                                                                                                                                     ......                                       ",
"                                        ......                                                                                                                                                                                                                                                                                                                                                                                                                                     ......                                       ",
"                                        ......                                                                                                                                                                                                                                                                                                                                                                                                                                     ......                                       ",
"                                        ......                                                                                                                                                                                                                                                                                                                                                                                                                                     ......                                       ",
"                                        ......                                                                                                                                                                                                                                                                                                                                                                                                                                     ......                                       ",
"                                        ......                                                                                                                                                                                                                                                                                                                                                                                                                                     ......                                       ",
"                                        ......                                                                                                                                                                                                                                                                                                                                                                                                                                     ......                                       ",
"                                        ......                                                                                                                                                                                                                                                                                                                                                                                                                                     ......                                       ",
"                                        ......                                                                                                                                                                                                                                                                                                                                                                                                                                     ......                                       ",
"                                        ......                                                                                                                                                                                                                                                                                                                                                                                                                                     ......                                       ",
"                                        ......                                                                                                                                                                                                                                                                                                                                                                                                                                     ......                                       ",
"                                        ......                                                                                                                                                                                                                                                                                                                                                                                                                                     ......                                       ",
"                                        ......                                                                                                                                                                                                                                                                                                                                                                                                                                     ......                                       ",
"                                        ......                                                                                                                                                                                                                                                                                                                                                                                                                                     ......                                       ",
"                                        ......                                                                                                                                                                                                                                                                                                                                                                                                                                     ......                                       ",
"                                        ......                                                                                                                                                                                                                                                                                                                                                                                                                                     ......                                       ",
"                                        ......                                                                                                                                                                                                                                                                                                                                                                                                                                     ......                                       ",
"                                        ......                                                                                                                                                                                                                                                                                                                                                                                                                                     ......                                       ",
"                                        ......                                                                                                                                                                                                                                                                                                                                                                                                                                     ......                                       ",
"                                        ......                                                                                                                                                                                                                                                                                                                                                                                                                                     ......                                       ",
"                                        ......                                                                                                                                                                                                                                                                                                                                                                                                                                     ......                                       ",
"                                        ......                                                                                                                                                                                                                                                                                                                                                                                                                                     ......                                       ",
"                                        ......                                                                                                                                                                                                                                                                                                                                                                                                                                     ......                                       ",
"                                        ......                                                                                                                                                                                                                                                                                                                                                                                                                                     ......                                       ",
"                                        ......                                                                                                                                                                                                                                                                                                                                                                                                                                     ......                                       ",
"                                        ......                                                                                                                                                                                                                                                                                                                                                                                                                                     ......                                       ",
"                                        ......                                                                                                                                                                                                                                                                                                                                                                                                                                     ......                                       ",
"                                        ......                                                                                                                                                                                                                                                                                                                                                                                                                                     ......                                       ",
"                                        ......                                                                                                                                                                                                                                                                                                                                                                                                                                     ......                                       ",
"                                        ......                                                                                                                                                                                                                                                                                                                                                                                                                                     ......                                       ",
"                                        ......                                                                                                                                                                                                                                                                                                                                                                                                                                     ......                                       ",
"                                        ......                                                                                                                                                                                                                                                                                                                                                                                                                                     ......                                       ",
"                                        ......                                                                                                                                                                                                                                                                                                                                                                                                                                     ......                                       ",
"                                        ......                                                                                                                                                                                                                                                                                                                                                                                                                                     ......                                       ",
"                                        ......                                                                                                                                                                                                                                                                                                                                                                                                                                     ......                                       ",
"                                        ......                                                                                                                                                                                                                                                                                                                                                                                                                                     ......                                       ",
"                                        ......                                                                                                                                                                                                                                                                                                                                                                                                                                     ......                                       ",
"                                        ......                                                                                                                                                                                                                                                                                                                                                                                                                                     ......                                       ",
"                                        ......                                                                                                                                                                                                                                                                                                                                                                                                                                     ......                                       ",
"                                        ......                                                                                                                                                                                                                                                                                                                                                                                                                                     ......                                       ",
"                                        ......                                                                                                                                                                                                                                                                                                                                                                                                                                     ......                                       ",
"                                        ......                                                                                                                                                                                                                                                                                                                                                                                                                                     ......                                       ",
"                                        ......                                                                                                                                                                                                                                                                                                                                                                                                                                     ......                                       ",
"                                        ......                                                                                                                                                                                                                                                                                                                                                                                                                                     ......                                       ",
"                                        ......                                                                                                                                                                                                                                                                                                                                                                                                                                     ......                                       ",
"                                        ......                                                                                                                                                                                                                                                                                                                                                                                                                                     ......                                       ",
"                                        ......                                                                                                                                                                                                                                                                                                                                                                                                                                     ......                                       ",
"                                        ......                                                                                                                                                                                                                                                                                                                                                                                                                                     ......                                       ",
"                                        ......                                                                                                                                                                                                                                                                                                                                                                                                                                     ......                                       ",
"                                        ......                                                                                                                                                                                                                                                                                                                                                                                                                                     ......                                       ",
"                                        ......                                                                                                                                                                                                                                                                                                                                                                                                                                     ......                                       ",
"                                        ......                                                                                                                                                                                                                                                                                                                                                                                                                                     ......                                       ",
"                                        ......                                                                                                                                                                                                                                                                                                                                                                                                                                     ......                                       ",
"                                        ......                                                                                                                                                                                                                                                                                                                                                                                                                                     ......                                       ",
"                                        ......                                                                                                                                                                                                                                                                                                                                                                                                                                     ......                                       ",
"                                        ......                                                                                                                                                                                                                                                                                                                                                                                                                                     ......                                       ",
"                                        ......                                                                                                                                                                                                                                                                                                                                                                                                                                     ......                                       ",
"                                        ......                                                                                                                                                                                                                                                                                                                                                                                                                                     ......                                       ",
"                                        ......                                                                                                                                                                                                                                                                                                                                                                                                                                     ......                                       ",
"                                        ......                                                                                                                                                                                                                                                                                                                                                                                                                                     ......                                       ",
"                                        ......                                                                                                                                                                                                                                                                                                                                                                                                                                     ......                                       ",
"                                        ......                                                                                                                                                                                                                                                                                                                                                                                                                                     ......                                       ",
"                                        ......                                                                                                                                                                                                                                                                                                                                                                                                                                     ......                                       ",
"                                        ......                                                                                                                                                                                                                                                                                                                                                                                                                                     ......                                       ",
"                                        ......                                                                                                                                                                                                                                                                                                                                                                                                                                     ......                                       ",
"                                        ......                                                                                                                                                                                                                                                                                                                                                                                                                                     ......                                       ",
"                                        ......                                                                                                                                                                                                                                                                                                                                                                                                                                     ......                                       ",
"                                        ......                                                                                                                                                                                                                                                                                                                                                                                                                                     ......                                       ",
"                                        ......                                                                                                                                                                                                                                                                                                                                                                                                                                     ......                                       ",
"                                        ......                                                                                                                                                                                                                                                                                                                                                                                                                                     ......                                       ",
"                                        ......                                                                                                                                                                                                                                                                                                                                                                                                                                     ......                                       ",
"                                        ......                                                                                                                                                                                                                                                                                                                                                                                                                                     ......                                       ",
"                                        ......                                                                                                                                                                                                                                                                                                                                                                                                                                     ......                                       ",
"                                        ......                                                                                                                                                                                                                                                                                                                                                                                                                                     ......                                       ",
"                                        ......                                                                                                                                                                                                                                                                                                                                                                                                                                     ......                                       ",
"                                        ......                                                                                                                                                                                                                                                                                                                                                                                                                                     ......                                       ",
"                                        ......                                                                                                                                                                                                                                                                                                                                                                                                                                     ......                                       ",
"                                        ......                                                                                                                                                                                                                                                                                                                                                                                                                                     ......                                       ",
"                                        ......                                                                                                                                                                                                                                                                                                                                                                                                                                     ......                                       ",
"                                        ......                                                                                                                                                                                                                                                                                                                                                                                                                                     ......                                       ",
"                                        ......                                                                                                                                                                                                                                                                                                                                                                                                                                     ......                                       ",
"                                        ......                                                                                                                                                                                                                                                                                                                                                                                                                                     ......                                       ",
"                                        ......                                                                                                                                                                                                                                                                                                                                                                                                                                     ......                                       ",
"                                        ......                                                                                                                                                                                                                                                                                                                                                                                                                                     ......                                       ",
"                                        ......                                                                                                                                                                                                                                                                                                                                                                                                                                     ......                                       ",
"                                        ......                                                                                                                                                                                                                                                                                                                                                                                                                                     ......                                       ",
"                                        ......                                                                                                                                                                                                                                                                                                                                                                                                                                     ......                                       ",
"                                        ......                                                                                                                                                                                                                                                                                                                                                                                                                                     ......                                       ",
"                                        ......                                                                                                                                                                                                                                                                                                                                                                                                                                     ......                                       ",
"                                        ......                                                                                                                                                                                                                                                                                                                                                                                                                                     ......                                       ",
"                                        ......                                                                                                                                                                                                                                                                                                                                                                                                                                     ......                                       ",
"                                        ......                                                                                                                                                                                                                                                                                                                                                                                                                                     ......                                       ",
"                                        ......                                                                                                                                                                                                                                                                                                                                                                                                                                     ......                                       ",
"                                        ......                                                                                                                                                                                                                                                                                                                                                                                                                                     ......                                       ",
"                                        ......                                                                                                                                                                                                                                                                                                                                                                                                                                     ......                                       ",
"                                        ......                                                                                                                                                                                                                                                                                                                                                                                                                                     ......                                       ",
"                                        ......                                                                                                                                                                                                                                                                                                                                                                                                                                     ......                                       ",
"                                        ......                                                                                                                                                                                                                                                                                                                                                                                                                                     ......                                       ",
"                                        ......                                                                                                                                                                                                                                                                                                                                                                                                                                     ......                                       ",
"                                        ......                                                                                                                                                                                                                                                                                                                                                                                                                                     ......                                       ",
"                                        ......                                                                                                                                                                                                                                                                                                                                                                                                                                     ......                                       ",
"                                        ......                                                                                                                                                                                                                                                                                                                                                                                                                                     ......                                       ",
"                                        ......                                                                                                                                                                                                                                                                                                                                                                                                                                     ......                                       ",
"                                        ......                                                                                                                                                                                                                                                                                                                                                                                                                                     ......                                       ",
"                                        ......                                                                                                                                                                                                                                                                                                                                                                                                                                     ......                                       ",
"                                        ......                                                                                                                                                                                                                                                                                                                                                                                                                                     ......                                       ",
"                                        ......                                                                                                                                                                                                                                                                                                                                                                                                                                     ......                                       ",
"                                        ......                                                                                                                                                                                                                                                                                                                                                                                                                                     ......                                       ",
"                                        ......                                                                                                                                                                                                                                                                                                                                                                                                                                     ......                                       ",
"                                        ......                                                                                                                                                                                                                                                                                                                                                                                                                                     ......                                       ",
"                                        ......                                                                                                                                                                                                                                                                                                                                                                                                                                     ......                                       ",
"                                        ......                                                                                                                                                                                                                                                                                                                                                                                                                                     ......                                       ",
"                                        ......                                                                                                                                                                                                                                                                                                                                                                                                                                     ......                                       ",
"                                        ......                                                                                                                                                                                                                                                                                                                                                                                                                                     ......                                       ",
"                                        ......                                                                                                                                                                                                                                                                                                                                                                                                                                     ......                                       ",
"                                        ......                                                                                                                                                                                                                                                                                                                                                                                                                                     ......                                       ",
"                                        ......                                                                                                                                                                                                                                                                                                                                                                                                                                     ......                                       ",
"                                        ......                                                                                                                                                                                                                                                                                                                                                                                                                                     ......                                       ",
"                                        ......                                                                                                                                                                                                                                                                                                                                                                                                                                     ......                                       ",
"                                        ......                                                                                                                                                                                                                                                                                                                                                                                                                                     ......                                       ",
"                                        ......                                                                                                                                                                                                                                                                                                                                                                                                                                     ......                                       ",
"                                        ......                                                                                                                                                                                                                                                                                                                                                                                                                                     ......                                       ",
"                                        ......                                                                                                                                                                                                                                                                                                                                                                                                                                     ......                                       ",
"                                        ......                                                                                                                                                                                                                                                                                                                                                                                                                                     ......                                       ",
"                                        ......                                                                                                                                                                                                                                                                                                                                                                                                                                     ......                                       ",
"                                        ......                                                                                                                                                                                                                                                                                                                                                                                                                                     ......                                       ",
"                                        ......                                                                                                                                                                                                                                                                                                                                                                                                                                     ......                                       ",
"                                        ......                                                                                                                                                                                                                                                                                                                                                                                                                                     ......                                       ",
"                                        ......                                                                                                                                                                                                                                                                                                                                                                                                                                     ......                                       ",
"                                        ......                                                                                                                                                                                                                                                                                                                                                                                                                                     ......                                       ",
"                                        ......                                                                                                                                                                                                                                                                                                                                                                                                                                     ......                                       ",
"                                        ......                                                                                                                                                                                                                                                                                                                                                                                                                                     ......                                       ",
"                                        ......                                                                                                                                                                                                                                                                                                                                                                                                                                     ......                                       ",
"                                        ......                                                                                                                                                                                                                                                                                                                                                                                                                                     ......                                       ",
"                                        ......                                                                                                                                                                                                                                                                                                                                                                                                                                     ......                                       ",
"                                        ......                                                                                                                                                                                                                                                                                                                                                                                                                                     ......                                       ",
"                                        ......                                                                                                                                                                                                                                                                                                                                                                                                                                     ......                                       ",
"                                        ......                                                                                                                                                                                                                                                                                                                                                                                                                                     ......                                       ",
"                                        ......                                                                                                                                                                                                                                                                                                                                                                                                                                     ......                                       ",
"                                        ......                                                                                                                                                                                                                                                                                                                                                                                                                                     ......                                       ",
"                                        ......                                                                                                                                                                                                                                                                                                                                                                                                                                     ......                                       ",
"                                        ......                                                                                                                                                                                                                                                                                                                                                                                                                                     ......                                       ",
"                                        ......                                                                                                                                                                                                                                                                                                                                                                                                                                     ......                                       ",
"                                        ......                                                                                                                                                                                                                                                                                                                                                                                                                                     ......                                       ",
"                                        ......                                                                                                                                                                                                                                                                                                                                                                                                                                     ......                                       ",
"                                        ......                                                                                                                                                                                                                                                                                                                                                                                                                                     ......                                       ",
"                                        ......                                                                                                                                                                                                                                                                                                                                                                                                                                     ......                                       ",
"                                        ......                                                                                                                                                                                                                                                                                                                                                                                                                                     ......                                       ",
"                                        ......                                                                                                                                                                                                                                                                                                                                                                                                                                     ......                                       ",
"                                        ......                                                                                                                                                                                                                                                                                                                                                                                                                                     ......                                       ",
"                                        ......                                                                                                                                                                                                                                                                                                                                                                                                                                     ......                                       ",
"                                        ......                                                                                                                                                                                                                                                                                                                                                                                                                                     ......                                       ",
"                                        ......                                                                                                                                                                                                                                                                                                                                                                                                                                     ......                                       ",
"                                        ......                                                                                                                                                                                                                                                                                                                                                                                                                                     ......                                       ",
"                                        ......                                                                                                                                                                                                                                                                                                                                                                                                                                     ......                                       ",
"                                        ......                                                                                                                                                                                                                                                                                                                                                                                                                                     ......                                       ",
"                                        ......                                                                                                                                                                                                                                                                                                                                                                                                                                     ......                                       ",
"                                        ......                                                                                                                                                                                                                                                                                                                                                                                                                                     ......                                       ",
"                                        ......                                                                                                                                                                                                                                                                                                                                                                                                                                     ......                                       ",
"                                        ......                                                                                                                                                                                                                                                                                                                                                                                                                                     ......                                       ",
"                                        ......                                                                                                                                                                                                                                                                                                                                                                                                                                     ......                                       ",
"                                        ......                                                                                                                                                                                                                                                                                                                                                                                                                                     ......                                       ",
"                                        ......                                                                                                                                                                                                                                                                                                                                                                                                                                     ......                                       ",
"                                        ......                                                                                                                                                                                                                                                                                                                                                                                                                                     ......                                       ",
"                                        ......                                                                                                                                                                                                                                                                                                                                                                                                                                     ......                                       ",
"                                        ......                                                                                                                                                                                                                                                                                                                                                                                                                                     ......                                       ",
"                                        ......                                                                                                                                                                                                                                                                                                                                                                                                                                     ......                                       ",
"                                        ......                                                                                                                                                                                                                                                                                                                                                                                                                                     ......                                       ",
"                                        ......                                                                                                                                                                                                                                                                                                                                                                                                                                     ......                                       ",
"                                        ......                                                                                                                                                                                                                                                                                                                                                                                                                                     ......                                       ",
"                                        ......                                                                                                                                                                                                                                                                                                                                                                                                                                     ......                                       ",
"                                        ......                                                                                                                                                                                                                                                                                                                                                                                                                                     ......                                       ",
"                                        ......                                                                                                                                                                                                                                                                                                                                                                                                                                     ......                                       ",
"                                        ......                                                                                                                                                                                                                                                                                                                                                                                                                                     ......                                       ",
"                                        ......                                                                                                                                                                                                                                                                                                                                                                                                                                     ......                                       ",
"                                        ......                                                                                                                                                                                                                                                                                                                                                                                                                                     ......                                       ",
"                                        ......                                                                                                                                                                                                                                                                                                                                                                                                                                     ......                                       ",
"                                        ......                                                                                                                                                                                                                                                                                                                                                                                                                                     ......                                       ",
"                                        ......                                                                                                                                                                                                                                                                                                                                                                                                                                     ......                                       ",
"                                        ......                                                                                                                                                                                                                                                                                                                                                                                                                                     ......                                       ",
"                                        ......                                                                                                                                                                                                                                                                                                                                                                                                                                     ......                                       ",
"                                        ......                                                                                                                                                                                                                                                                                                                                                                                                                                     ......                                       ",
"                                        ......                                                                                                                                                                                                                                                                                                                                                                                                                                     ......                                       ",
"                                        ......                                                                                                                                                                                                                                                                                                                                                                                                                                     ......                                       ",
"                                        ......                                                                                                                                                                                                                                                                                                                                                                                                                                     ......                                       ",
"                                        ......                                                                                                                                                                                                                                                                                                                                                                                                                                     ......                                       ",
"                                        ......                                                                                                                                                                                                                                                                                                                                                                                                                                     ......                                       ",
"                                        ......                                                                                                                                                                                                                                                                                                                                                                                                                                     ......                                       ",
"                                        ......                                                                                                                                                                                                                                                                                                                                                                                                                                     ......                                       ",
"                                        ......                                                                                                                                                                                                                                                                                                                                                                                                                                     ......                                       ",
"                                        ......                                                                                                                                                                                                                                                                                                                                                                                                                                     ......                                       ",
"                                        ......                                                                                                                                                                                                                                                                                                                                                                                                                                     ......                                       ",
"                                        ......                                                                                                                                                                                                                                                                                                                                                                                                                                     ......                                       ",
"                                        ......                                                                                                                                                                                                                                                                                                                                                                                                                                     ......                                       ",
"                                        ......                                                                                                                                                                                                                                                                                                                                                                                                                                     ......                                       ",
"                                        ......                                                                                                                                                                                                                                                                                                                                                                                                                                     ......                                       ",
"                                        ......                                                                                                                                                                                                                                                                                                                                                                                                                                     ......                                       ",
"                                        ......                                                                                                                                                                                                                                                                                                                                                                                                                                     ......                                       ",
"                                        ......                                                                                                                                                                                                                                                                                                                                                                                                                                     ......                                       ",
"                                        ......                                                                                                                                                                                                                                                                                                                                                                                                                                     ......                                       ",
"                                        ......                                                                                                                                                                                                                                                                                                                                                                                                                                     ......                                       ",
"                                        ......                                                                                                                                                                                                                                                                                                                                                                                                                                     ......                                       ",
"                                        ......                                                                                                                                                                                                                                                                                                                                                                                                                                     ......                                       ",
"                                        ......                                                                                                                                                                                                                                                                                                                                                                                                                                     ......                                       ",
"                                        ......                                                                                                                                                                                                                                                                                                                                                                                                                                     ......                                       ",
"                                        ......                                                                                                                                                                                                                                                                                                                                                                                                                                     ......                                       ",
"                                        ......                                                                                                                                                                                                                                                                                                                                                                                                                                     ......                                       ",
"                                        ......                                                                                                                                                                                                                                                                                                                                                                                                                                     ......                                       ",
"                                        ......                                                                                                                                                                                                                                                                                                                                                                                                                                     ......                                       ",
"                                        ......                                                                                                                                                                                                                                                                                                                                                                                                                                     ......                                       ",
"                                        ......                                                                                                                                                                                                                                                                                                                                                                                                                                     ......                                       ",
"                                        ......                                                                                                                                                                                                                                                                                                                                                                                                                                     ......                                       ",
"                                        ......                                                                                                                                                                                                                                                                                                                                                                                                                                     ......                                       ",
"                                        ......                                                                                                                                                                                                                                                                                                                                                                                                                                     ......                                       ",
"                                        ......                                                                                                                                                                                                                                                                                                                                                                                                                                     ......                                       ",
"                                        ......                                                                                                                                                                                                                                                                                                                                                                                                                                     ......                                       ",
"                                        ......                                                                                                                                                                                                                                                                                                                                                                                                                                     ......                                       ",
"                                        ......                                                                                                                                                                                                                                                                                                                                                                                                                                     ......                                       ",
"                                        ......                                                                                                                                                                                                                                                                                                                                                                                                                                     ......                                       ",
"                                        ......                                                                                                                                                                                                                                                                                                                                                                                                                                     ......                                       ",
"                                        ......                                                                                                                                                                                                                                                                                                                                                                                                                                     ......                                       ",
"                                        ......                                                                                                                                                                                                                                                                                                                                                                                                                                     ......                                       ",
"                                        ......                                                                                                                                                                                                                                                                                                                                                                                                                                     ......                                       ",
"                                        ......                                                                                                                                                                                                                                                                                                                                                                                                                                     ......                                       ",
"                                        ......                                                                                                                                                                                                                                                                                                                                                                                                                                     ......                                       ",
"                                        ......                                                                                                                                                                                                                                                                                                                                                                                                                                     ......                                       ",
"                                        .................................................................................................................................................................................................................................................................................................................................................................................................................................................                                       ",
"                                        .................................................................................................................................................................................................................................................................................................................................................................................................................................................                                       ",
"                                        .................................................................................................................................................................................................................................................................................................................................................................................................................................................                                       ",
"                                        .................................................................................................................................................................................................................................................................................................................................................................................................................................................                                       ",
"                                        .................................................................................................................................................................................................................................................................................................................................................................................................................................................                                       ",
"                                        .................................................................................................................................................................................................................................................................................................................................................................................................................................................                                       ",
"                                                                                                                                                                                                                                                                                                                                                                                                                                                                                                                                ",
"                                                                                                                                                                                                                                                                                                                                                                                                                                                                                                                                ",
"                                                                                                                                                                                                                                                                                                                                                                                                                                                                                                                                ",
"                                                                                                                                                                                                                                                                                                                                                                                                                                                                                                                                ",
"                                                                                                                                                                                                                                                                                                                                                                                                                                                                                                                                ",
"                                                                                                                                                                                                                                                                                                                                                                                                                                                                                                                                ",
"                                                                                                                                                                                                                                                                                                                                                                                                                                                                                                                                ",
"                                                                                                                                                                                                                                                                                                                                                                                                                                                                                                                                ",
"                                                                                                                                                                                                                                                                                                                                                                                                                                                                                                                                ",
"                                                                                                                                                                                                                                                                                                                                                                                                                                                                                                                                ",
"                                                                                                                                                                                                                                                                                                                                                                                                                                                                                                                                ",
"                                                                                                                                                                                                                                                                                                                                                                                                                                                                                                                                ",
"                                                                                                                                                                                                                                                                                                                                                                                                                                                                                                                                ",
"                                                                                                                                                                                                                                                                                                                                                                                                                                                                                                                                ",
"                                                                                                                                                                                                                                                                                                                                                                                                                                                                                                                                ",
"                                                                                                                                                                                                                                                                                                                                                                                                                                                                                                                                ",
"                                                                                                                                                                                                                                                                                                                                                                                                                                                                                                                                ",
"                                                                                                                                                                                                                                                                                                                                                                                                                                                                                                                                ",
"                                                                                                                                                                                                                                                                                                                                                                                                                                                                                                                                ",
"                                                                                                                                                                                                                                                                                                                                                                                                                                                                                                                                ",
"                                                                                                                                                                                                                                                                                                                                                                                                                                                                                                                                ",
"                                                                                                                                                                                                                                                                                                                                                                                                                                                                                                                                ",
"                                                                                                                                                                                                                                                                                                                                                                                                                                                                                                                                ",
"                                                                                                                                                                                                                                                                                                                                                                                                                                                                                                                                ",
"                                                                                                                                                                                                                                                                                                                                                                                                                                                                                                                                ",
"                                                                                                                                                                                                                                                                                                                                                                                                                                                                                                                                ",
"                                                                                                                                                                                                                                                                                                                                                                                                                                                                                                                                ",
"                                                                                                                                                                                                                                                                                                                                                                                                                                                                                                                                ",
"                                                                                                                                                                                                                                                                                                                                                                                                                                                                                                                                ",
"                                                                                                                                                                                                                                                                                                                                                                                                                                                                                                                                ",
"                                                                                                                                                                                                                                                                                                                                                                                                                                                                                                                                ",
"                                                                                                                                                                                                                                                                                                                                                                                                                                                                                                                                ",
"                                                                                                                                                                                                                                                                                                                                                                                                                                                                                                                                ",
"                                                                                                                                                                                                                                                                                                                                                                                                                                                                                                                                ",
"                                                                                                                                                                                                                                                                                                                                                                                                                                                                                                                                ",
"                                                                                                                                                                                                                                                                                                                                                                                                                                                                                                                                ",
"                                                                                                                                                                                                                                                                                                                                                                                                                                                                                                                                ",
"                                                                                                                                                                                                                                                                                                                                                                                                                                                                                                                                ",
"                                                                                                                                                                                                                                                                                                                                                                                                                                                                                                                                ",
"                                                                                                                                                                                                                                                                                                                                                                                                                                                                                                                                ",
"                                                                                                                                                                                                                                                                                                                                                                                                                                                                                                                                ",
"                                                                                                                                                                                                                                                                                                                                                                                                                                                                                                                                ",
"                                                                                                                                                                                                                                                                                                                                                                                                                                                                                                                                ",
"                                                                                                                                                                                                                                                                                                                                                                                                                                                                                                                                ",
"                                                                                                                                                                                                                                                                                                                                                                                                                                                                                                                                ",
"                                                                                                                                                                                                                                                                                                                                                                                                                                                                                                                                ",
"                                                                                                                                                                                                                                                                                                                                                                                                                                                                                                                                ",
"                                                                                                                                                                                                                                                                                                                                                                                                                                                                                                                                ",
"                                                                                                                                                                                                                                                                                                                                                                                                                                                                                                                                ",
"                                                                                                                                                                                                                                                                                                                                                                                                                                                                                                                                ",
"                                                                                                                                                                                                                                                                                                                                                                                                                                                                                                                                ",
"                                                                                                                                                                                                                                                                                                                                                                                                                                                                                                                                ",
"                                                                                                                                                                                                                                                                                                                                                                                                                                                                                                                                ",
"                                                                                                                                                                                                                                                                                                                                                                                                                                                                                                                                ",
"                                                                                                                                                                                                                                                                                                                                                                                                                                                                                                                                ",
"                                                                                                                                                                                                                                                                                                                                                                                                                                                                                                                                ",
"                                                                                                                                                                                                                                                                                                                                                                                                                                                                                                                                ",
"                                                                                                                                                                                                                                                                                                                                                                                                                                                                                                                                ",
"                                                                                                                                                                                                                                                                                                                                                                                                                                                                                                                                ",
"                                                                                                                                                                                                                                                                                                                                                                                                                                                                                                                                ",
"                                                                                                                                                                                                                                                                                                                                                                                                                                                                                                                                ",
"                                                                                                                                                                                                                                                                                                                                                                                                                                                                                                                                ",
"                                                                                                                                                                                                                                                                                                                                                                                                                                                                                                                                ",
"                                                                                                                                                                                                                                                                                                                                                                                                                                                                                                                                ",
"                                                                                                                                                                                                                                                                                                                                                                                                                                                                                                                                ",
"                                                                                                                                                                                                                                                                                                                                                                                                                                                                                                                                ",
"                                                                                                                                                                                                                                                                                                                                                                                                                                                                                                                                ",
"                                                                                                                                                                                                                                                                                                                                                                                                                                                                                                                                ",
"                                                                                                                                                                                                                                                                                                                                                                                                                                                                                                                                ",
"                                                                                                                                                                                                                                                                                                                                                                                                                                                                                                                                ",
"                                                                                                                                                                                                                                                                                                                                                                                                                                                                                                                                ",
"                                                                                                                                                                                                                                                                                                                                                                                                                                                                                                                                ",
"                                                                                                                                                                                                                                                                                                                                                                                                                                                                                                                                ",
"                                                                                                                                                                                                                                                                                                                                                                                                                                                                                                                                ",
"                                                                                                                                                                                                                                                                                                                                                                                                                                                                                                                                ",
"                                                                                                                                                                                                                                                                                                                                                                                                                                                                                                                                ",
"                                                                                                                                                                                                                                                                                                                                                                                                                                                                                                                                ",
"                                                                                                                                                                                                                                                                                                                                                                                                                                                                                                                                ",
"                                                                                                                                                                                                                                                                                                                                                                                                                                                                                                                                ",
"                                                                                                                                                                                                                                                                                                                                                                                                                                                                                                                                ",
"                                                                                                                                                                                                                                                                                                                                                                                                                                                                                                                                ",
"                                                                                                                                                                                                                                                                                                                                                                                                                                                                                                                                ",
"                                                                                                                                                                                                                                                                                                                                                                                                                                                                                                                                ",
"                                                                                                                                                                                                                                                                                                                                                                                                                                                                                                                                ",
"                                                                                                                                                                                                                                                                                                                                                                                                                                                                                                                                ",
"                                                                                                                                                                                                                                                                                                                                                                                                                                                                                                                                ",
"                                                                                                                                                                                                                                                                                                                                                                                                                                                                                                                                ",
"                                                                                                                                                                                                                                                                                                                                                                                                                                                                                                                                ",
"                                                                                                                                                                                                                                                                                                                                                                                                                                                                                                                                ",
"                                                                                                                                                                                                                                                                                                                                                                                                                                                                                                                                ",
"                                                                                                                                                                                                                                                                                                                                                                                                                                                                                                                                ",
"                                                                                                                                                                                                                                                                                                                                                                                                                                                                                                                                ",
"                                                                                                                                                                                                                                                                                                                                                                                                                                                                                                                                ",
"                                                                                                                                                                                                                                                                                                                                                                                                                                                                                                                                ",
"                                                                                                                                                                                                                                                                                                                                                                                                                                                                                                                                ",
"                                                                                                                                                                                                                                                                                                                                                                                                                                                                                                                                ",
"                                                                                                                                                                                                                                                                                                                                                                                                                                                                                                                                ",
"                                                                                                                                                                                                                                                                                                                                                                                                                                                                                                                                ",
"                                                                                                                                                                                                                                                                                                                                                                                                                                                                                                                                ",
"                                                                                                                                                                                                                                                                                                                                                                                                                                                                                                                                ",
"                                                                                                                                                                                                                                                                                                                                                                                                                                                                                                                                ",
"                                                                                                                                                                                                                                                                                                                                                                                                                                                                                                                                ",
"                                                                                                                                                                                                                                                                                                                                                                                                                                                                                                                                ",
"                                                                                                                                                                                                                                                                                                                                                                                                                                                                                                                                ",
"                                                                                                                                                                                                                                                                                                                                                                                                                                                                                                                                ",
"                                                                                                                                                                                                                                                                                                                                                                                                                                                                                                                                ",
"                                                                                                                                                                                                                                                                                                                                                                                                                                                                                                                                ",
"                                                                                                                                                                                                                                                                                                                                                                                                                                                                                                                                ",
"                                                                                                                                                                                                                                                                                                                                                                                                                                                                                                                                ",
"                                                                                                                                                                                                                                                                                                                                                                                                                                                                                                                                ",
"                                                                                                                                                                                                                                                                                                                                                                                                                                                                                                                                ",
"                                                                                                                                                                                                                                                                                                                                                                                                                                                                                                                                ",
"                                                                                                                                                                                                                                                                                                                                                                                                                                                                                                                                ",
"                                                                                                                                                                                                                                                                                                                                                                                                                                                                                                                                ",
"                                                                                                                                                                                                                                                                                                                                                                                                                                                                                                                                ",
"                                                                                                                                                                                                                                                                                                                                                                                                                                                                                                                                ",
"                                                                                                                                                                                                                                                                                                                                                                                                                                                                                                                                ",
"                                                                                                                                                                                                                                                                                                                                                                                                                                                                                                                                ",
"                                                                                                                                                                                                                                                                                                                                                                                                                                                                                                                                ",
"                                                                                                                                                                                                                                                                                                                                                                                                                                                                                                                                ",
"                                                                                                                                                                                                                                                                                                                                                                                                                                                                                                                                ",
"                                                                                                                                                                                                                                                                                                                                                                                                                                                                                                                                ",
"                                                                                                                                                                                                                                                                                                                                                                                                                                                                                                                                ",
"                                                                                                                                                                                                                                                                                                                                                                                                                                                                                                                                ",
"                                                                                                                                                                                                                                                                                                                                                                                                                                                                                                                                ",
"                                                                                                                                                                                                                                                                                                                                                                                                                                                                                                                                ",
"                                                                                                                                                                                                                                                                                                                                                                                                                                                                                                                                ",
"                                                                                                                                                                                                                                                                                                                                                                                                                                                                                                                                ",
"                                                                                                                                                                                                                                                                                                                                                                                                                                                                                                                                ",
"                                                                                                                                                                                                                                                                                                                                                                                                                                                                                                                                ",
"                                                                                                                                                                                                                                                                                                                                                                                                                                                                                                                                ",
"                                                                                                                                                                                                                                                                                                                                                                                                                                                                                                                                ",
"                                                                                                                                                                                                                                                                                                                                                                                                                                                                                                                                ",
"                                                                                                                                                                                                                                                                                                                                                                                                                                                                                                                                ",
"                                                                                                                                                                                                                                                                                                                                                                                                                                                                                                                                ",
"                                                                                                                                                                                                                                                                                                                                                                                                                                                                                                                                ",
"                                                                                                                                                                                                                                                                                                                                                                                                                                                                                                                                ",
"                                                                                                                                                                                                                                                                                                                                                                                                                                                                                                                                ",
"                                                                                                                                                                                                                                                                                                                                                                                                                                                                                                                                ",
"                                                                                                                                                                                                                                                                                                                                                                                                                                                                                                                                ",
"                                                                                                                                                                                                                                                                                                                                                                                                                                                                                                                                ",
"                                                                                                                                                                                                                                                                                                                                                                                                                                                                                                                                ",
"                                                                                                                                                                                                                                                                                                                                                                                                                                                                                                                                ",
"                                                                                                                                                                                                                                                                                                                                                                                                                                                                                                                                ",
"                                                                                                                                                                                                                                                                                                                                                                                                                                                                                                                                ",
"                                                                                                                                                                                                                                                                                                                                                                                                                                                                                                                                ",
"                                                                                                                                                                                                                                                                                                                                                                                                                                                                                                                                ",
"                                                                                                                                                                                                                                                                                                                                                                                                                                                                                                                                ",
"                                                                                                                                                                                                                                                                                                                                                                                                                                                                                                                                ",
"                                                                                                                                                                                                                                                                                                                                                                                                                                                                                                                                ",
"                                                                                                                                                                                                                                                                                                                                                                                                                                                                                                                                ",
"                                                                                                                                                                                                                                                                                                                                                                                                                                                                                                                                ",
"                                                                                                                                                                                                                                                                                                                                                                                                                                                                                                                                ",
"                                                                                                                                                                                                                                                                                                                                                                                                                                                                                                                                "
};
