/* XPM */
static char *_23d5933b9014755a3302135b958f9ffLPpulZBLH4eXT6Jd[] = {
/* columns rows colors chars-per-pixel */
"860 921 64 1 ",
"  c gray1",
". c #070707",
"X c #0B0B0B",
"o c gray6",
"O c #131313",
"+ c #151515",
"@ c #1B1B1B",
"# c gray12",
"$ c #232323",
"% c gray15",
"& c gray17",
"* c #2F2F2F",
"= c gray20",
"- c #373737",
"; c gray23",
": c #3F3F3F",
"> c #434343",
", c gray28",
"< c #4B4B4B",
"1 c gray31",
"2 c gray32",
"3 c #565656",
"4 c gray35",
"5 c #5F5F5F",
"6 c gray39",
"7 c #676767",
"8 c #6A6A6A",
"9 c #6F6F6F",
"0 c gray45",
"q c #777777",
"w c #7B7B7B",
"e c #7C7C7C",
"r c #838383",
"t c gray53",
"y c #8B8B8B",
"u c gray56",
"i c #939393",
"p c gray59",
"a c #9A9A9A",
"s c #9D9D9D",
"d c gray63",
"f c #A4A4A4",
"g c #A9A9A9",
"h c #AEAEAE",
"j c #B1B1B1",
"k c gray71",
"l c #BBBBBB",
"z c gray",
"x c #C0C0C0",
"c c gray77",
"v c #CBCBCB",
"b c #CECECE",
"n c LightGray",
"m c gray83",
"M c gray86",
"N c gray87",
"B c gray89",
"V c #E6E6E6",
"C c gray92",
"Z c #EEEEEE",
"A c #F1F1F1",
"S c gray97",
"D c #F8F8F8",
"F c white",
/* pixels */
"FFFFFFFFFFFFFFFFFFFFZZZZZZZZZZZZZZZZZZZZFFFFFFFFFFFFFFFFFFFFZZZZZZZZZZZZZZZZZZZZFFFFFFFFFFFFFFFFFFFFZZZZZZZZZZZZZZZZZZZZFFFFFFFFFFFFFFFFFFFFZZZZZZZZZZZZZZZZZZZZFFFFFFFFFFFFFFFFFFFFZZZZZZZZZZZZZZZZZZZZFFFFFFFFFFFFFFFFFFFFZZZZZZZZZZZZZZZZZZZZFFFFFFFFFFFFFFFFFFFFZZZZZZZZZZZZZZZZZZZZFFFFFFFFFFFFFFFFFFFFZZZZZZZZZZZZZZZZZZZZFFFFFFFFFFFFFFFFFFFFZZZZZZZZZZZZZZZZZZZZFFFFFFFFFFFFFFFFFFFFZZZZZZZZZZZZZZZZZZZZFFFFFFFFFFFFFFFFFFFFZZZZZZZZZZZZZZZZZZZZFFFFFFFFFFFFFFFFFFFFZZZZZZZZZZZZZZZZZZZZFFFFFFFFFFFFFFFFFFFFZZZZZZZZZZZZZZZZZZZZFFFFFFFFFFFFFFFFFFFFZZZZZZZZZZZZZZZZZZZZFFFFFFFFFFFFFFFFFFFFZZZZZZZZZZZZZZZZZZZZFFFFFFFFFFFFFFFFFFFFZZZZZZZZZZZZZZZZZZZZFFFFFFFFFFFFFFFFFFFFZZZZZZZZZZZZZZZZZZZZFFFFFFFFFFFFFFFFFFFFZZZZZZZZZZZZZZZZZZZZFFFFFFFFFFFFFFFFFFFFZZZZZZZZZZZZZZZZZZZZFFFFFFFFFFFFFFFFFFFFZZZZZZZZZZZZZZZZZZZZFFFFFFFFFFFFFFFFFFFFZZZZZZZZZZZZZZZZZZZZFFFFFFFFFFFFFFFFFFFF",
"FFFFFFFFFFFFFFFFFFFFZZZZZZZZZZZZZZZZZZZZFFFFFFFFFFFFFFFFFFFFZZZZZZZZZZZZZZZZZZZZFFFFFFFFFFFFFFFFFFFFZZZZZZZZZZZZZZZZZZZZFFFFFFFFFFFFFFFFFFFFZZZZZZZZZZZZZZZZZZZZFFFFFFFFFFFFFFFFFFFFZZZZZZZZZZZZZZZZZZZZFFFFFFFFFFFFFFFFFFFFZZZZZZZZZZZZZZZZZZZZFFFFFFFFFFFFFFFFFFFFZZZZZZZZZZZZZZZZZZZZFFFFFFFFFFFFFFFFFFFFZZZZZZZZZZZZZZZZZZZZFFFFFFFFFFFFFFFFFFFFZZZZZZZZZZZZZZZZZZZZFFFFFFFFFFFFFFFFFFFFZZZZZZZZZZZZZZZZZZZZFFFFFFFFFFFFFFFFFFFFZZZZZZZZZZZZZZZZZZZZFFFFFFFFFFFFFFFFFFFFZZZZZZZZZZZZZZZZZZZZFFFFFFFFFFFFFFFFFFFFZZZZZZZZZZZZZZZZZZZZFFFFFFFFFFFFFFFFFFFFZZZZZZZZZZZZZZZZZZZZFFFFFFFFFFFFFFFFFFFFZZZZZZZZZZZZZZZZZZZZFFFFFFFFFFFFFFFFFFFFZZZZZZZZZZZZZZZZZZZZFFFFFFFFFFFFFFFFFFFFZZZZZZZZZZZZZZZZZZZZFFFFFFFFFFFFFFFFFFFFZZZZZZZZZZZZZZZZZZZZFFFFFFFFFFFFFFFFFFFFZZZZZZZZZZZZZZZZZZZZFFFFFFFFFFFFFFFFFFFFZZZZZZZZZZZZZZZZZZZZFFFFFFFFFFFFFFFFFFFFZZZZZZZZZZZZZZZZZZZZFFFFFFFFFFFFFFFFFFFF",
"FFFFFFFFFFFFFFFFFFFFZZZZZZZZZZZZZZZZZZZZFFFFFFFFFFFFFFFFFFFFZZZZZZZZZZZZZZZZZZZZFFFFFFFFFFFFFFFFFFFFZZZZZZZZZZZZZZZZZZZZFFFFFFFFFFFFFFFFFFFFZZZZZZZZZZZZZZZZZZZZFFFFFFFFFFFFFFFFFFFFZZZZZZZZZZZZZZZZZZZZFFFFFFFFFFFFFFFFFFFFZZZZZZZZZZZZZZZZZZZZFFFFFFFFFFFFFFFFFFFFZZZZZZZZZZZZZZZZZZZZFFFFFFFFFFFFFFFFFFFFZZZZZZZZZZZZZZZZZZZZFFFFFFFFFFFFFFFFFFFFZZZZZZZZZZZZZZZZZZZZFFFFFFFFFFFFFFFFFFFFZZZZZZZZZZZZZZZZZZZZFFFFFFFFFFFFFFFFFFFFZZZZZZZZZZZZZZZZZZZZFFFFFFFFFFFFFFFFFFFFZZZZZZZZZZZZZZZZZZZZFFFFFFFFFFFFFFFFFFFFZZZZZZZZZZZZZZZZZZZZFFFFFFFFFFFFFFFFFFFFZZZZZZZZZZZZZZZZZZZZFFFFFFFFFFFFFFFFFFFFZZZZZZZZZZZZZZZZZZZZFFFFFFFFFFFFFFFFFFFFZZZZZZZZZZZZZZZZZZZZFFFFFFFFFFFFFFFFFFFFZZZZZZZZZZZZZZZZZZZZFFFFFFFFFFFFFFFFFFFFZZZZZZZZZZZZZZZZZZZZFFFFFFFFFFFFFFFFFFFFZZZZZZZZZZZZZZZZZZZZFFFFFFFFFFFFFFFFFFFFZZZZZZZZZZZZZZZZZZZZFFFFFFFFFFFFFFFFFFFFZZZZZZZZZZZZZZZZZZZZFFFFFFFFFFFFFFFFFFFF",
"FFFFFFFFFFFFFFFFFFFFZZZZZZZZZZZZZZZZZZZZFFFFFFFFFFFFFFFFFFFFZZZZZZZZZZZZZZZZZZZZFFFFFFFFFFFFFFFFFFFFZZZZZZZZZZZZZZZZZZZZFFFFFFFFFFFFFFFFFFFFZZZZZZZZZZZZZZZZZZZZFFFFFFFFFFFFFFFFFFFFZZZZZZZZZZZZZZZZZZZZFFFFFFFFFFFFFFFFFFFFZZZZZZZZZZZZZZZZZZZZFFFFFFFFFFFFFFFFFFFFZZZZZZZZZZZZZZZZZZZZFFFFFFFFFFFFFFFFFFFFZZZZZZZZZZZZZZZZZZZZFFFFFFFFFFFFFFFFFFFFZZZZZZZZZZZZZZZZZZZZFFFFFFFFFFFFFFFFFFFFZZZZZZZZZZZZZZZZZZZZFFFFFFFFFFFFFFFFFFFFZZZZZZZZZZZZZZZZZZZZFFFFFFFFFFFFFFFFFFFFZZZZZZZZZZZZZZZZZZZZFFFFFFFFFFFFFFFFFFFFZZZZZZZZZZZZZZZZZZZZFFFFFFFFFFFFFFFFFFFFZZZZZZZZZZZZZZZZZZZZFFFFFFFFFFFFFFFFFFFFZZZZZZZZZZZZZZZZZZZZFFFFFFFFFFFFFFFFFFFFZZZZZZZZZZZZZZZZZZZZFFFFFFFFFFFFFFFFFFFFZZZZZZZZZZZZZZZZZZZZFFFFFFFFFFFFFFFFFFFFZZZZZZZZZZZZZZZZZZZZFFFFFFFFFFFFFFFFFFFFZZZZZZZZZZZZZZZZZZZZFFFFFFFFFFFFFFFFFFFFZZZZZZZZZZZZZZZZZZZZFFFFFFFFFFFFFFFFFFFFZZZZZZZZZZZZZZZZZZZZFFFFFFFFFFFFFFFFFFFF",
"FFFFFFFFFFFFFFFFFFFFZZZZZZZZZZZZZZZZZZZZFFFFFFFFFFFFFFFFFFFFZZZZZZZZZZZZZZZZZZZZFFFFFFFFFFFFFFFFFFFFZZZZZZZZZZZZZZZZZZZZFFFFFFFFFFFFFFFFFFFFZZZZZZZZZZZZZZZZZZZZFFFFFFFFFFFFFFFFFFFFZZZZZZZZZZZZZZZZZZZZFFFFFFFFFFFFFFFFFFFFZZZZZZZZZZZZZZZZZZZZFFFFFFFFFFFFFFFFFFFFZZZZZZZZZZZZZZZZZZZZFFFFFFFFFFFFFFFFFFFFZZZZZZZZZZZZZZZZZZZZFFFFFFFFFFFFFFFFFFFFZZZZZZZZZZZZZZZZZZZZFFFFFFFFFFFFFFFFFFFFZZZZZZZZZZZZZZZZZZZZFFFFFFFFFFFFFFFFFFFFZZZZZZZZZZZZZZZZZZZZFFFFFFFFFFFFFFFFFFFFZZZZZZZZZZZZZZZZZZZZFFFFFFFFFFFFFFFFFFFFZZZZZZZZZZZZZZZZZZZZFFFFFFFFFFFFFFFFFFFFZZZZZZZZZZZZZZZZZZZZFFFFFFFFFFFFFFFFFFFFZZZZZZZZZZZZZZZZZZZZFFFFFFFFFFFFFFFFFFFFZZZZZZZZZZZZZZZZZZZZFFFFFFFFFFFFFFFFFFFFZZZZZZZZZZZZZZZZZZZZFFFFFFFFFFFFFFFFFFFFZZZZZZZZZZZZZZZZZZZZFFFFFFFFFFFFFFFFFFFFZZZZZZZZZZZZZZZZZZZZFFFFFFFFFFFFFFFFFFFFZZZZZZZZZZZZZZZZZZZZFFFFFFFFFFFFFFFFFFFFZZZZZZZZZZZZZZZZZZZZFFFFFFFFFFFFFFFFFFFF",
"FFFFFFFFFFFFFFFFFFFFZZZZZZZZZZZZZZZZZZZZFFFFFFFFFFFFFFFFFFFFZZZZZZZZZZZZZZZZZZZZFFFFFFFFFFFFFFFFFFFFZZZZZZZZZZZZZZZZZZZZFFFFFFFFFFFFFFFFFFFFZZZZZZZZZZZZZZZZZZZZFFFFFFFFFFFFFFFFFFFFZZZZZZZZZZZZZZZZZZZZFFFFFFFFFFFFFFFFFFFFZZZZZZZZZZZZZZZZZZZZFFFFFFFFFFFFFFFFFFFFZZZZZZZZZZZZZZZZZZZZFFFFFFFFFFFFFFFFFFFFZZZZZZZZZZZZZZZZZZZZFFFFFFFFFFFFFFFFFFFFZZZZZZZZZZZZZZZZZZZZFFFFFFFFFFFFFFFFFFFFZZZZZZZZZZZZZZZZZZZZFFFFFFFFFFFFFFFFFFFFZZZZZZZZZZZZZZZZZZZZFFFFFFFFFFFFFFFFFFFFZZZZZZZZZZZZZZZZZZZZFFFFFFFFFFFFFFFFFFFFZZZZZZZZZZZZZZZZZZZZFFFFFFFFFFFFFFFFFFFFZZZZZZZZZZZZZZZZZZZZFFFFFFFFFFFFFFFFFFFFZZZZZZZZZZZZZZZZZZZZFFFFFFFFFFFFFFFFFFFFZZZZZZZZZZZZZZZZZZZZFFFFFFFFFFFFFFFFFFFFZZZZZZZZZZZZZZZZZZZZFFFFFFFFFFFFFFFFFFFFZZZZZZZZZZZZZZZZZZZZFFFFFFFFFFFFFFFFFFFFZZZZZZZZZZZZZZZZZZZZFFFFFFFFFFFFFFFFFFFFZZZZZZZZZZZZZZZZZZZZFFFFFFFFFFFFFFFFFFFFZZZZZZZZZZZZZZZZZZZZFFFFFFFFFFFFFFFFFFFF",
"FFFFFFFFFFFFFFFFFFFFZZZZZZZZZZZZZZZZZZZZFFFFFFFFFFFFFFFFFFFFZZZZZZZZZZZZZZZZZZZZFFFFFFFFFFFFFFFFFFFFZZZZZZZZZZZZZZZZZZZZFFFFFFFFFFFFFFFFFFFFZZZZZZZZZZZZZZZZZZZZFFFFFFFFFFFFFFFFFFFFZZZZZZZZZZZZZZZZZZZZFFFFFFFFFFFFFFFFFFFFZZZZZZZZZZZZZZZZZZZZFFFFFFFFFFFFFFFFFFFFZZZZZZZZZZZZZZZZZZZZFFFFFFFFFFFFFFFFFFFFZZZZZZZZZZZZZZZZZZZZFFFFFFFFFFFFFFFFFFFFZZZZZZZZZZZZZZZZZZZZFFFFFFFFFFFFFFFFFFFFZZZZZZZZZZZZZZZZZZZZFFFFFFFFFFFFFFFFFFFFZZZZZZZZZZZZZZZZZZZZFFFFFFFFFFFFFFFFFFFFZZZZZZZZZZZZZZZZZZZZFFFFFFFFFFFFFFFFFFFFZZZZZZZZZZZZZZZZZZZZFFFFFFFFFFFFFFFFFFFFZZZZZZZZZZZZZZZZZZZZFFFFFFFFFFFFFFFFFFFFZZZZZZZZZZZZZZZZZZZZFFFFFFFFFFFFFFFFFFFFZZZZZZZZZZZZZZZZZZZZFFFFFFFFFFFFFFFFFFFFZZZZZZZZZZZZZZZZZZZZFFFFFFFFFFFFFFFFFFFFZZZZZZZZZZZZZZZZZZZZFFFFFFFFFFFFFFFFFFFFZZZZZZZZZZZZZZZZZZZZFFFFFFFFFFFFFFFFFFFFZZZZZZZZZZZZZZZZZZZZFFFFFFFFFFFFFFFFFFFFZZZZZZZZZZZZZZZZZZZZFFFFFFFFFFFFFFFFFFFF",
"FFFFFFFFFFFFFFFFFFFFZZZZZZZZZZZZZZZZZZZZFFFFFFFFFFFFFFFFFFFFZZZZZZZZZZZZZZZZZZZZFFFFFFFFFFFFFFFFFFFFZZZZZZZZZZZZZZZZZZZZFFFFFFFFFFFFFFFFFFFFZZZZZZZZZZZZZZZZZZZZFFFFFFFFFFFFFFFFFFFFZZZZZZZZZZZZZZZZZZZZFFFFFFFFFFFFFFFFFFFFZZZZZZZZZZZZZZZZZZZZFFFFFFFFFFFFFFFFFFFFZZZZZZZZZZZZZZZZZZZZFFFFFFFFFFFFFFFFFFFFZZZZZZZZZZZZZZZZZZZZFFFFFFFFFFFFFFFFFFFFZZZZZZZZZZZZZZZZZZZZFFFFFFFFFFFFFFFFFFFFZZZZZZZZZZZZZZZZZZZZFFFFFFFFFFFFFFFFFFFFZZZZZZZZZZZZZZZZZZZZFFFFFFFFFFFFFFFFFFFFZZZZZZZZZZZZZZZZZZZZFFFFFFFFFFFFFFFFFFFFZZZZZZZZZZZZZZZZZZZZFFFFFFFFFFFFFFFFFFFFZZZZZZZZZZZZZZZZZZZZFFFFFFFFFFFFFFFFFFFFZZZZZZZZZZZZZZZZZZZZFFFFFFFFFFFFFFFFFFFFZZZZZZZZZZZZZZZZZZZZFFFFFFFFFFFFFFFFFFFFZZZZZZZZZZZZZZZZZZZZFFFFFFFFFFFFFFFFFFFFZZZZZZZZZZZZZZZZZZZZFFFFFFFFFFFFFFFFFFFFZZZZZZZZZZZZZZZZZZZZFFFFFFFFFFFFFFFFFFFFZZZZZZZZZZZZZZZZZZZZFFFFFFFFFFFFFFFFFFFFZZZZZZZZZZZZZZZZZZZZFFFFFFFFFFFFFFFFFFFF",
"FFFFFFFFFFFFFFFFFFFFZZZZZZZZZZZZZZZZZZZZFFFFFFFFFFFFFFFFFFFFZZZZZZZZZZZZZZZZZZZZFFFFFFFFFFFFFFFFFFFFZZZZZZZZZZZZZZZZZZZZFFFFFFFFFFFFFFFFFFFFZZZZZZZZZZZZZZZZZZZZFFFFFFFFFFFFFFFFFFFFZZZZZZZZZZZZZZZZZZZZFFFFFFFFFFFFFFFFFFFFZZZZZZZZZZZZZZZZZZZZFFFFFFFFFFFFFFFFFFFFZZZZZZZZZZZZZZZZZZZZFFFFFFFFFFFFFFFFFFFFZZZZZZZZZZZZZZZZZZZZFFFFFFFFFFFFFFFFFFFFZZZZZZZZZZZZZZZZZZZZFFFFFFFFFFFFFFFFFFFFZZZZZZZZZZZZZZZZZZZZFFFFFFFFFFFFFFFFFFFFZZZZZZZZZZZZZZZZZZZZFFFFFFFFFFFFFFFFFFFFZZZZZZZZZZZZZZZZZZZZFFFFFFFFFFFFFFFFFFFFZZZZZZZZZZZZZZZZZZZZFFFFFFFFFFFFFFFFFFFFZZZZZZZZZZZZZZZZZZZZFFFFFFFFFFFFFFFFFFFFZZZZZZZZZZZZZZZZZZZZFFFFFFFFFFFFFFFFFFFFZZZZZZZZZZZZZZZZZZZZFFFFFFFFFFFFFFFFFFFFZZZZZZZZZZZZZZZZZZZZFFFFFFFFFFFFFFFFFFFFZZZZZZZZZZZZZZZZZZZZFFFFFFFFFFFFFFFFFFFFZZZZZZZZZZZZZZZZZZZZFFFFFFFFFFFFFFFFFFFFZZZZZZZZZZZZZZZZZZZZFFFFFFFFFFFFFFFFFFFFZZZZZZZZZZZZZZZZZZZZFFFFFFFFFFFFFFFFFFFF",
"FFFFFFFFFFFFFFFFFFFFZZZZZZZZZZZZZZZZZZZZFFFFFFFFFFFFFFFFFFFFZZZZZZZZZZZZZZZZZZZZFFFFFFFFFFFFFFFFFFFFZZZZZZZZZZZZZZZZZZZZFFFFFFFFFFFFFFFFFFFFZZZZZZZZZZZZZZZZZZZZFFFFFFFFFFFFFFFFFFFFZZZZZZZZZZZZZZZZZZZZFFFFFFFFFFFFFFFFFFFFZZZZZZZZZZZZZZZZZZZZFFFFFFFFFFFFFFFFFFFFZZZZZZZZZZZZZZZZZZZZFFFFFFFFFFFFFFFFFFFFZZZZZZZZZZZZZZZZZZZZFFFFFFFFFFFFFFFFFFFFZZZZZZZZZZZZZZZZZZZZFFFFFFFFFFFFFFFFFFFFZZZZZZZZZZZZZZZZZZZZFFFFFFFFFFFFFFFFFFFFZZZZZZZZZZZZZZZZZZZZFFFFFFFFFFFFFFFFFFFFZZZZZZZZZZZZZZZZZZZZFFFFFFFFFFFFFFFFFFFFZZZZZZZZZZZZZZZZZZZZFFFFFFFFFFFFFFFFFFFFZZZZZZZZZZZZZZZZZZZZFFFFFFFFFFFFFFFFFFFFZZZZZZZZZZZZZZZZZZZZFFFFFFFFFFFFFFFFFFFFZZZZZZZZZZZZZZZZZZZZFFFFFFFFFFFFFFFFFFFFZZZZZZZZZZZZZZZZZZZZFFFFFFFFFFFFFFFFFFFFZZZZZZZZZZZZZZZZZZZZFFFFFFFFFFFFFFFFFFFFZZZZZZZZZZZZZZZZZZZZFFFFFFFFFFFFFFFFFFFFZZZZZZZZZZZZZZZZZZZZFFFFFFFFFFFFFFFFFFFFZZZZZZZZZZZZZZZZZZZZFFFFFFFFFFFFFFFFFFFF",
"FFFFFFFFFFFFFFFFFFFFZZZZZZZZZZZZZZZZZZZZFFFFFFFFFFFFFFFFFFFFZZZZZZZZZZZZZZZZZZZZFFFFFFFFFFFFFFFFFFFFZZZZZZZZZZZZZZZZZZZZFFFFFFFFFFFFFFFFFFFFZZZZZZZZZZZZZZZZZZZZFFFFFFFFFFFFFFFFFFFFZZZZZZZZZZZZZZZZZZZZFFFFFFFFFFFFFFFFFFFFZZZZZZZZZZZZZZZZZZZZFFFFFFFFFFFFFFFFFFFFZZZZZZZZZZZZZZZZZZZZFFFFFFFFFFFFFFFFFFFFZZZZZZZZZZZZZZZZZZZZFFFFFFFFFFFFFFFFFFFFZZZZZZZZZZZZZZZZZZZZFFFFFFFFFFFFFFFFFFFFZZZZZZZZZZZZZZZZZZZZFFFFFFFFFFFFFFFFFFFFZZZZZZZZZZZZZZZZZZZZFFFFFFFFFFFFFFFFFFFFZZZZZZZZZZZZZZZZZZZZFFFFFFFFFFFFFFFFFFFFZZZZZZZZZZZZZZZZZZZZFFFFFFFFFFFFFFFFFFFFZZZZZZZZZZZZZZZZZZZZFFFFFFFFFFFFFFFFFFFFZZZZZZZZZZZZZZZZZZZZFFFFFFFFFFFFFFFFFFFFZZZZZZZZZZZZZZZZZZZZFFFFFFFFFFFFFFFFFFFFZZZZZZZZZZZZZZZZZZZZFFFFFFFFFFFFFFFFFFFFZZZZZZZZZZZZZZZZZZZZFFFFFFFFFFFFFFFFFFFFZZZZZZZZZZZZZZZZZZZZFFFFFFFFFFFFFFFFFFFFZZZZZZZZZZZZZZZZZZZZFFFFFFFFFFFFFFFFFFFFZZZZZZZZZZZZZZZZZZZZFFFFFFFFFFFFFFFFFFFF",
"FFFFFFFFFFFFFFFFFFFFZZZZZZZZZZZZZZZZZZZZFFFFFFFFFFFFFFFFFFFFZZZZZZZZZZZZZZZZZZZZFFFFFFFFFFFFFFFFFFFFZZZZZZZZZZZZZZZZZZZZFFFFFFFFFFFFFFFFFFFFZZZZZZZZZZZZZZZZZZZZFFFFFFFFFFFFFFFFFFFFZZZZZZZZZZZZZZZZZZZZFFFFFFFFFFFFFFFFFFFFZZZZZZZZZZZZZZZZZZZZFFFFFFFFFFFFFFFFFFFFZZZZZZZZZZZZZZZZZZZZFFFFFFFFFFFFFFFFFFFFZZZZZZZZZZZZZZZZZZZZFFFFFFFFFFFFFFFFFFFFZZZZZZZZZZZZZZZZZZZZFFFFFFFFFFFFFFFFFFFFZZZZZZZZZZZZZZZZZZZZFFFFFFFFFFFFFFFFFFFFZZZZZZZZZZZZZZZZZZZZFFFFFFFFFFFFFFFFFFFFZZZZZZZZZZZZZZZZZZZZFFFFFFFFFFFFFFFFFFFFZZZZZZZZZZZZZZZZZZZZFFFFFFFFFFFFFFFFFFFFZZZZZZZZZZZZZZZZZZZZFFFFFFFFFFFFFFFFFFFFZZZZZZZZZZZZZZZZZZZZFFFFFFFFFFFFFFFFFFFFZZZZZZZZZZZZZZZZZZZZFFFFFFFFFFFFFFFFFFFFZZZZZZZZZZZZZZZZZZZZFFFFFFFFFFFFFFFFFFFFZZZZZZZZZZZZZZZZZZZZFFFFFFFFFFFFFFFFFFFFZZZZZZZZZZZZZZZZZZZZFFFFFFFFFFFFFFFFFFFFZZZZZZZZZZZZZZZZZZZZFFFFFFFFFFFFFFFFFFFFZZZZZZZZZZZZZZZZZZZZFFFFFFFFFFFFFFFFFFFF",
"FFFFFFFFFFFFFFFFFFFFZZZZZZZZZZZZZZZZZZZZFFFFFFFFFFFFFFFFFFFFZZZZZZZZZZZZZZZZZZZZFFFFFFFFFFFFFFFFFFFFZZZZZZZZZZZZZZZZZZZZFFFFFFFFFFFFFFFFFFFFZZZZZZZZZZZZZZZZZZZZFFFFFFFFFFFFFFFFFFFFZZZZZZZZZZZZZZZZZZZZFFFFFFFFFFFFFFFFFFFFZZZZZZZZZZZZZZZZZZZZFFFFFFFFFFFFFFFFFFFFZZZZZZZZZZZZZZZZZZZZFFFFFFFFFFFFFFFFFFFFZZZZZZZZZZZZZZZZZZZZFFFFFFFFFFFFFFFFFFFFZZZZZZZZZZZZZZZZZZZZFFFFFFFFFFFFFFFFFFFFZZZZZZZZZZZZZZZZZZZZFFFFFFFFFFFFFFFFFFFFZZZZZZZZZZZZZZZZZZZZFFFFFFFFFFFFFFFFFFFFZZZZZZZZZZZZZZZZZZZZFFFFFFFFFFFFFFFFFFFFZZZZZZZZZZZZZZZZZZZZFFFFFFFFFFFFFFFFFFFFZZZZZZZZZZZZZZZZZZZZFFFFFFFFFFFFFFFFFFFFZZZZZZZZZZZZZZZZZZZZFFFFFFFFFFFFFFFFFFFFZZZZZZZZZZZZZZZZZZZZFFFFFFFFFFFFFFFFFFFFZZZZZZZZZZZZZZZZZZZZFFFFFFFFFFFFFFFFFFFFZZZZZZZZZZZZZZZZZZZZFFFFFFFFFFFFFFFFFFFFZZZZZZZZZZZZZZZZZZZZFFFFFFFFFFFFFFFFFFFFZZZZZZZZZZZZZZZZZZZZFFFFFFFFFFFFFFFFFFFFZZZZZZZZZZZZZZZZZZZZFFFFFFFFFFFFFFFFFFFF",
"FFFFFFFFFFFFFFFFFFFFZZZZZZZZZZZZZZZZZZZZFFFFFFFFFFFFFFFFFFFFZZZZZZZZZZZZZZZZZZZZFFFFFFFFFFFFFFFFFFFFZZZZZZZZZZZZZZZZZZZZFFFFFFFFFFFFFFFFFFFFZZZZZZZZZZZZZZZZZZZZFFFFFFFFFFFFFFFFFFFFZZZZZZZZZZZZZZZZZZZZFFFFFFFFFFFFFFFFFFFFZZZZZZZZZZZZZZZZZZZZFFFFFFFFFFFFFFFFFFFFZZZZZZZZZZZZZZZZZZZZFFFFFFFFFFFFFFFFFFFFZZZZZZZZZZZZZZZZZZZZFFFFFFFFFFFFFFFFFFFFZZZZZZZZZZZZZZZZZZZZFFFFFFFFFFFFFFFFFFFFZZZZZZZZZZZZZZZZZZZZFFFFFFFFFFFFFFFFFFFFZZZZZZZZZZZZZZZZZZZZFFFFFFFFFFFFFFFFFFFFZZZZZZZZZZZZZZZZZZZZFFFFFFFFFFFFFFFFFFFFZZZZZZZZZZZZZZZZZZZZFFFFFFFFFFFFFFFFFFFFZZZZZZZZZZZZZZZZZZZZFFFFFFFFFFFFFFFFFFFFZZZZZZZZZZZZZZZZZZZZFFFFFFFFFFFFFFFFFFFFZZZZZZZZZZZZZZZZZZZZFFFFFFFFFFFFFFFFFFFFZZZZZZZZZZZZZZZZZZZZFFFFFFFFFFFFFFFFFFFFZZZZZZZZZZZZZZZZZZZZFFFFFFFFFFFFFFFFFFFFZZZZZZZZZZZZZZZZZZZZFFFFFFFFFFFFFFFFFFFFZZZZZZZZZZZZZZZZZZZZFFFFFFFFFFFFFFFFFFFFZZZZZZZZZZZZZZZZZZZZFFFFFFFFFFFFFFFFFFFF",
"FFFFFFFFFFFFFFFFFFFFZZZZZZZZZZZZZZZZZZZZFFFFFFFFFFFFFFFFFFFFZZZZZZZZZZZZZZZZZZZZFFFFFFFFFFFFFFFFFFFFZZZZZZZZZZZZZZZZZZZZFFFFFFFFFFFFFFFFFFFFZZZZZZZZZZZZZZZZZZZZFFFFFFFFFFFFFFFFFFFFZZZZZZZZZZZZZZZZZZZZFFFFFFFFFFFFFFFFFFFFZZZZZZZZZZZZZZZZZZZZFFFFFFFFFFFFFFFFFFFFZZZZZZZZZZZZZZZZZZZZFFFFFFFFFFFFFFFFFFFFZZZZZZZZZZZZZZZZZZZZFFFFFFFFFFFFFFFFFFFFZZZZZZZZZZZZZZZZZZZZFFFFFFFFFFFFFFFFFFFFZZZZZZZZZZZZZZZZZZZZFFFFFFFFFFFFFFFFFFFFZZZZZZZZZZZZZZZZZZZZFFFFFFFFFFFFFFFFFFFFZZZZZZZZZZZZZZZZZZZZFFFFFFFFFFFFFFFFFFFFZZZZZZZZZZZZZZZZZZZZFFFFFFFFFFFFFFFFFFFFZZZZZZZZZZZZZZZZZZZZFFFFFFFFFFFFFFFFFFFFZZZZZZZZZZZZZZZZZZZZFFFFFFFFFFFFFFFFFFFFZZZZZZZZZZZZZZZZZZZZFFFFFFFFFFFFFFFFFFFFZZZZZZZZZZZZZZZZZZZZFFFFFFFFFFFFFFFFFFFFZZZZZZZZZZZZZZZZZZZZFFFFFFFFFFFFFFFFFFFFZZZZZZZZZZZZZZZZZZZZFFFFFFFFFFFFFFFFFFFFZZZZZZZZZZZZZZZZZZZZFFFFFFFFFFFFFFFFFFFFZZZZZZZZZZZZZZZZZZZZFFFFFFFFFFFFFFFFFFFF",
"FFFFFFFFFFFFFFFFFFFFZZZZZZZZZZZZZZZZZZZZFFFFFFFFFFFFFFFFFFFFZZZZZZZZZZZZZZZZZZZZFFFFFFFFFFFFFFFFFFFFZZZZZZZZZZZZZZZZZZZZFFFFFFFFFFFFFFFFFFFFZZZZZZZZZZZZZZZZZZZZFFFFFFFFFFFFFFFFFFFFZZZZZZZZZZZZZZZZZZZZFFFFFFFFFFFFFFFFFFFFZZZZZZZZZZZZZZZZZZZZFFFFFFFFFFFFFFFFFFFFZZZZZZZZZZZZZZZZZZZZFFFFFFFFFFFFFFFFFFFFZZZZZZZZZZZZZZZZZZZZFFFFFFFFFFFFFFFFFFFFZZZZZZZZZZZZZZZZZZZZFFFFFFFFFFFFFFFFFFFFZZZZZZZZZZZZZZZZZZZZFFFFFFFFFFFFFFFFFFFFZZZZZZZZZZZZZZZZZZZZFFFFFFFFFFFFFFFFFFFFZZZZZZZZZZZZZZZZZZZZFFFFFFFFFFFFFFFFFFFFZZZZZZZZZZZZZZZZZZZZFFFFFFFFFFFFFFFFFFFFZZZZZZZZZZZZZZZZZZZZFFFFFFFFFFFFFFFFFFFFZZZZZZZZZZZZZZZZZZZZFFFFFFFFFFFFFFFFFFFFZZZZZZZZZZZZZZZZZZZZFFFFFFFFFFFFFFFFFFFFZZZZZZZZZZZZZZZZZZZZFFFFFFFFFFFFFFFFFFFFZZZZZZZZZZZZZZZZZZZZFFFFFFFFFFFFFFFFFFFFZZZZZZZZZZZZZZZZZZZZFFFFFFFFFFFFFFFFFFFFZZZZZZZZZZZZZZZZZZZZFFFFFFFFFFFFFFFFFFFFZZZZZZZZZZZZZZZZZZZZFFFFFFFFFFFFFFFFFFFF",
"FFFFFFFFFFFFFFFFFFFFZZZZZZZZZZZZZZZZZZZZFFFFFFFFFFFFFFFFFFFFZZZZZZZZZZZZZZZZZZZZFFFFFFFFFFFFFFFFFFFFZZZZZZZZZZZZZZZZZZZZFFFFFFFFFFFFFFFFFFFFZZZZZZZZZZZZZZZZZZZZFFFFFFFFFFFFFFFFFFFFZZZZZZZZZZZZZZZZZZZZFFFFFFFFFFFFFFFFFFFFZZZZZZZZZZZZZZZZZZZZFFFFFFFFFFFFFFFFFFFFZZZZZZZZZZZZZZZZZZZZFFFFFFFFFFFFFFFFFFFFZZZZZZZZZZZZZZZZZZZZFFFFFFFFFFFFFFFFFFFFZZZZZZZZZZZZZZZZZZZZFFFFFFFFFFFFFFFFFFFFZZZZZZZZZZZZZZZZZZZZFFFFFFFFFFFFFFFFFFFFZZZZZZZZZZZZZZZZZZZZFFFFFFFFFFFFFFFFFFFFZZZZZZZZZZZZZZZZZZZZFFFFFFFFFFFFFFFFFFFFZZZZZZZZZZZZZZZZZZZZFFFFFFFFFFFFFFFFFFFFZZZZZZZZZZZZZZZZZZZZFFFFFFFFFFFFFFFFFFFFZZZZZZZZZZZZZZZZZZZZFFFFFFFFFFFFFFFFFFFFZZZZZZZZZZZZZZZZZZZZFFFFFFFFFFFFFFFFFFFFZZZZZZZZZZZZZZZZZZZZFFFFFFFFFFFFFFFFFFFFZZZZZZZZZZZZZZZZZZZZFFFFFFFFFFFFFFFFFFFFZZZZZZZZZZZZZZZZZZZZFFFFFFFFFFFFFFFFFFFFZZZZZZZZZZZZZZZZZZZZFFFFFFFFFFFFFFFFFFFFZZZZZZZZZZZZZZZZZZZZFFFFFFFFFFFFFFFFFFFF",
"FFFFFFFFFFFFFFFFFFFFZZZZZZZZZZZZZZZZZZZZFFFFFFFFFFFFFFFFFFFFZZZZZZZZZZZZZZZZZZZZFFFFFFFFFFFFFFFFFFFFZZZZZZZZZZZZZZZZZZZZFFFFFFFFFFFFFFFFFFFFZZZZZZZZZZZZZZZZZZZZFFFFFFFFFFFFFFFFFFFFZZZZZZZZZZZZZZZZZZZZFFFFFFFFFFFFFFFFFFFFZZZZZZZZZZZZZZZZZZZZFFFFFFFFFFFFFFFFFFFFZZZZZZZZZZZZZZZZZZZZFFFFFFFFFFFFFFFFFFFFZZZZZZZZZZZZZZZZZZZZFFFFFFFFFFFFFFFFFFFFZZZZZZZZZZZZZZZZZZZZFFFFFFFFFFFFFFFFFFFFZZZZZZZZZZZZZZZZZZZZFFFFFFFFFFFFFFFFFFFFZZZZZZZZZZZZZZZZZZZZFFFFFFFFFFFFFFFFFFFFZZZZZZZZZZZZZZZZZZZZFFFFFFFFFFFFFFFFFFFFZZZZZZZZZZZZZZZZZZZZFFFFFFFFFFFFFFFFFFFFZZZZZZZZZZZZZZZZZZZZFFFFFFFFFFFFFFFFFFFFZZZZZZZZZZZZZZZZZZZZFFFFFFFFFFFFFFFFFFFFZZZZZZZZZZZZZZZZZZZZFFFFFFFFFFFFFFFFFFFFZZZZZZZZZZZZZZZZZZZZFFFFFFFFFFFFFFFFFFFFZZZZZZZZZZZZZZZZZZZZFFFFFFFFFFFFFFFFFFFFZZZZZZZZZZZZZZZZZZZZFFFFFFFFFFFFFFFFFFFFZZZZZZZZZZZZZZZZZZZZFFFFFFFFFFFFFFFFFFFFZZZZZZZZZZZZZZZZZZZZFFFFFFFFFFFFFFFFFFFF",
"FFFFFFFFFFFFFFFFFFFFZZZZZZZZZZZZZZZZZZZZFFFFFFFFFFFFFFFFFFFFZZZZZZZZZZZZZZZZZZZZFFFFFFFFFFFFFFFFFFFFZZZZZZZZZZZZZZZZZZZZFFFFFFFFFFFFFFFFFFFFZZZZZZZZZZZZZZZZZZZZFFFFFFFFFFFFFFFFFFFFZZZZZZZZZZZZZZZZZZZZFFFFFFFFFFFFFFFFFFFFZZZZZZZZZZZZZZZZZZZZFFFFFFFFFFFFFFFFFFFFZZZZZZZZZZZZZZZZZZZZFFFFFFFFFFFFFFFFFFFFZZZZZZZZZZZZZZZZZZZZFFFFFFFFFFFFFFFFFFFFZZZZZZZZZZZZZZZZZZZZFFFFFFFFFFFFFFFFFFFFZZZZZZZZZZZZZZZZZZZZFFFFFFFFFFFFFFFFFFFFZZZZZZZZZZZZZZZZZZZZFFFFFFFFFFFFFFFFFFFFZZZZZZZZZZZZZZZZZZZZFFFFFFFFFFFFFFFFFFFFZZZZZZZZZZZZZZZZZZZZFFFFFFFFFFFFFFFFFFFFZZZZZZZZZZZZZZZZZZZZFFFFFFFFFFFFFFFFFFFFZZZZZZZZZZZZZZZZZZZZFFFFFFFFFFFFFFFFFFFFZZZZZZZZZZZZZZZZZZZZFFFFFFFFFFFFFFFFFFFFZZZZZZZZZZZZZZZZZZZZFFFFFFFFFFFFFFFFFFFFZZZZZZZZZZZZZZZZZZZZFFFFFFFFFFFFFFFFFFFFZZZZZZZZZZZZZZZZZZZZFFFFFFFFFFFFFFFFFFFFZZZZZZZZZZZZZZZZZZZZFFFFFFFFFFFFFFFFFFFFZZZZZZZZZZZZZZZZZZZZFFFFFFFFFFFFFFFFFFFF",
"FFFFFFFFFFFFFFFFFFFFZZZZZZZZZZZZZZZZZZZZFFFFFFFFFFFFFFFFFFFFZZZZZZZZZZZZZZZZZZZZFFFFFFFFFFFFFFFFFFFFZZZZZZZZZZZZZZZZZZZZFFFFFFFFFFFFFFFFFFFFZZZZZZZZZZZZZZZZZZZZFFFFFFFFFFFFFFFFFFFFZZZZZZZZZZZZZZZZZZZZFFFFFFFFFFFFFFFFFFFFZZZZZZZZZZZZZZZZZZZZFFFFFFFFFFFFFFFFFFFFZZZZZZZZZZZZZZZZZZZZFFFFFFFFFFFFFFFFFFFFZZZZZZZZZZZZZZZZZZZZFFFFFFFFFFFFFFFFFFFFZZZZZZZZZZZZZZZZZZZZFFFFFFFFFFFFFFFFFFFFZZZZZZZZZZZZZZZZZZZZFFFFFFFFFFFFFFFFFFFFZZZZZZZZZZZZZZZZZZZZFFFFFFFFFFFFFFFFFFFFZZZZZZZZZZZZZZZZZZZZFFFFFFFFFFFFFFFFFFFFZZZZZZZZZZZZZZZZZZZZFFFFFFFFFFFFFFFFFFFFZZZZZZZZZZZZZZZZZZZZFFFFFFFFFFFFFFFFFFFFZZZZZZZZZZZZZZZZZZZZFFFFFFFFFFFFFFFFFFFFZZZZZZZZZZZZZZZZZZZZFFFFFFFFFFFFFFFFFFFFZZZZZZZZZZZZZZZZZZZZFFFFFFFFFFFFFFFFFFFFZZZZZZZZZZZZZZZZZZZZFFFFFFFFFFFFFFFFFFFFZZZZZZZZZZZZZZZZZZZZFFFFFFFFFFFFFFFFFFFFZZZZZZZZZZZZZZZZZZZZFFFFFFFFFFFFFFFFFFFFZZZZZZZZZZZZZZZZZZZZFFFFFFFFFFFFFFFFFFFF",
"ZZZZZZZZZZZZZZZZZZZZFFFFFFFFFFFFFFFFFFFFZZZZZZZZZZZZZZZZZZZZFFFFFFFFFFFFFFFFFFFFZZZZZZZZZZZZZZZZZZZZFFFFFFFFFFFFFFFFFFFFZZZZZZZZZZZZZZZZZZZZFFFFFFFFFFFFFFFFFFFFZZZZZZZZZZZZZZZZZZZZFFFFFFFFFFFFFFFFFFFFZZZZZZZZZZZZZZZZZZZZFFFFFFFFFFFFFFFFFFFFZZZZZZZZZZZZZZZZZZZZFFFFFFFFFFFFFFFFFFFFZZZZZZZZZZZZZZZZZZZZFFFFFFFFFFFFFFFFFFFFZZZZZZZZZZZZZZZZZZZZFFFFFFFFFFFFFFFFFFFFZZZZZZZZZZZZZZZZZZZZFFFFFFFFFFFFFFFFFFFFZZZZZZZZZZZZZZZZZZZZFFFFFFFFFFFFFFFFFFFFZZZZZZZZZZZZZZZZZZZZFFFFFFFFFFFFFFFFFFFFZZZZZZZZZZZZZZZZZZZZFFFFFFFFFFFFFFFFFFFFZZZZZZZZZZZZZZZZZZZZFFFFFFFFFFFFFFFFFFFFZZZZZZZZZZZZZZZZZZZZFFFFFFFFFFFFFFFFFFFFZZZZZZZZZZZZZZZZZZZZFFFFFFFFFFFFFFFFFFFFZZZZZZZZZZZZZZZZZZZZFFFFFFFFFFFFFFFFFFFFZZZZZZZZZZZZZZZZZZZZFFFFFFFFFFFFFFFFFFFFZZZZZZZZZZZZZZZZZZZZFFFFFFFFFFFFFFFFFFFFZZZZZZZZZZZZZZZZZZZZFFFFFFFFFFFFFFFFFFFFZZZZZZZZZZZZZZZZZZZZFFFFFFFFFFFFFFFFFFFFZZZZZZZZZZZZZZZZZZZZ",
"ZZZZZZZZZZZZZZZZZZZZFFFFFFFFFFFFFFFFFFFFZZZZZZZZZZZZZZZZZZZZFFFFFFFFFFFFFFFFFFFFZZZZZZZZZZZZZZZZZZZZFFFFFFFFFFFFFFFFFFFFZZZZZZZZZZZZZZZZZZZZFFFFFFFFFFFFFFFFFFFFZZZZZZZZZZZZZZZZZZZZFFFFFFFFFFFFFFFFFFFFZZZZZZZZZZZZZZZZZZZZFFFFFFFFFFFFFFFFFFFFZZZZZZZZZZZZZZZZZZZZFFFFFFFFFFFFFFFFFFFFZZZZZZZZZZZZZZZZZZZZFFFFFFFFFFFFFFFFFFFFZZZZZZZZZZZZZZZZZZZZFFFFFFFFFFFFFFFFFFFFZZZZZZZZZZZZZZZZZZZZFFFFFFFFFFFFFFFFFFFFZZZZZZZZZZZZZZZZZZZZFFFFFFFFFFFFFFFFFFFFZZZZZZZZZZZZZZZZZZZZFFFFFFFFFFFFFFFFFFFFZZZZZZZZZZZZZZZZZZZZFFFFFFFFFFFFFFFFFFFFZZZZZZZZZZZZZZZZZZZZFFFFFFFFFFFFFFFFFFFFZZZZZZZZZZZZZZZZZZZZFFFFFFFFFFFFFFFFFFFFZZZZZZZZZZZZZZZZZZZZFFFFFFFFFFFFFFFFFFFFZZZZZZZZZZZZZZZZZZZZFFFFFFFFFFFFFFFFFFFFZZZZZZZZZZZZZZZZZZZZFFFFFFFFFFFFFFFFFFFFZZZZZZZZZZZZZZZZZZZZFFFFFFFFFFFFFFFFFFFFZZZZZZZZZZZZZZZZZZZZFFFFFFFFFFFFFFFFFFFFZZZZZZZZZZZZZZZZZZZZFFFFFFFFFFFFFFFFFFFFZZZZZZZZZZZZZZZZZZZZ",
"ZZZZZZZZZZZZZZZZZZZZFFFFFFFFFFFFFFFFFFFFZZZZZZZZZZZZZZZZZZZZFFFFFFFFFFFFFFFFFFFFZZZZZZZZZZZZZZZZZZZZFFFFFFFFFFFFFFFFFFFFZZZZZZZZZZZZZZZZZZZZFFFFFFFFFFFFFFFFFFFFZZZZZZZZZZZZZZZZZZZZFFFFFFFFFFFFFFFFFFFFZZZZZZZZZZZZZZZZZZZZFFFFFFFFFFFFFFFFFFFFZZZZZZZZZZZZZZZZZZZZFFFFFFFFFFFFFFFFFFFFZZZZZZZZZZZZZZZZZZZZFFFFFFFFFFFFFFFFFFFFZZZZZZZZZZZZZZZZZZZZFFFFFFFFFFFFFFFFFFFFZZZZZZZZZZZZZZZZZZZZFFFFFFFFFFFFFFFFFFFFZZZZZZZZZZZZZZZZZZZZFFFFFFFFFFFFFFFFFFFFZZZZZZZZZZZZZZZZZZZZFFFFFFFFFFFFFFFFFFFFZZZZZZZZZZZZZZZZZZZZFFFFFFFFFFFFFFFFFFFFZZZZZZZZZZZZZZZZZZZZFFFFFFFFFFFFFFFFFFFFZZZZZZZZZZZZZZZZZZZZFFFFFFFFFFFFFFFFFFFFZZZZZZZZZZZZZZZZZZZZFFFFFFFFFFFFFFFFFFFFZZZZZZZZZZZZZZZZZZZZFFFFFFFFFFFFFFFFFFFFZZZZZZZZZZZZZZZZZZZZFFFFFFFFFFFFFFFFFFFFZZZZZZZZZZZZZZZZZZZZFFFFFFFFFFFFFFFFFFFFZZZZZZZZZZZZZZZZZZZZFFFFFFFFFFFFFFFFFFFFZZZZZZZZZZZZZZZZZZZZFFFFFFFFFFFFFFFFFFFFZZZZZZZZZZZZZZZZZZZZ",
"ZZZZZZZZZZZZZZZZZZZZFFFFFFFFFFFFFFFFFFFFZZZZZZZZZZZZZZZZZZZZFFFFFFFFFFFFFFFFFFFFZZZZZZZZZZZZZZZZZZZZFFFFFFFFFFFFFFFFFFFFZZZZZZZZZZZZZZZZZZZZFFFFFFFFFFFFFFFFFFFFZZZZZZZZZZZZZZZZZZZZFFFFFFFFFFFFFFFFFFFFZZZZZZZZZZZZZZZZZZZZFFFFFFFFFFFFFFFFFFFFZZZZZZZZZZZZZZZZZZZZFFFFFFFFFFFFFFFFFFFFZZZZZZZZZZZZZZZZZZZZFFFFFFFFFFFFFFFFFFFFZZZZZZZZZZZZZZZZZZZZFFFFFFFFFFFFFFFFFFFFZZZZZZZZZZZZZZZZZZZZFFFFFFFFFFFFFFFFFFFFZZZZZZZZZZZZZZZZZZZZFFFFFFFFFFFFFFFFFFFFZZZZZZZZZZZZZZZZZZZZFFFFFFFFFFFFFFFFFFFFZZZZZZZZZZZZZZZZZZZZFFFFFFFFFFFFFFFFFFFFZZZZZZZZZZZZZZZZZZZZFFFFFFFFFFFFFFFFFFFFZZZZZZZZZZZZZZZZZZZZFFFFFFFFFFFFFFFFFFFFZZZZZZZZZZZZZZZZZZZZFFFFFFFFFFFFFFFFFFFFZZZZZZZZZZZZZZZZZZZZFFFFFFFFFFFFFFFFFFFFZZZZZZZZZZZZZZZZZZZZFFFFFFFFFFFFFFFFFFFFZZZZZZZZZZZZZZZZZZZZFFFFFFFFFFFFFFFFFFFFZZZZZZZZZZZZZZZZZZZZFFFFFFFFFFFFFFFFFFFFZZZZZZZZZZZZZZZZZZZZFFFFFFFFFFFFFFFFFFFFZZZZZZZZZZZZZZZZZZZZ",
"ZZZZZZZZZZZZZZZZZZZZFFFFFFFFFFFFFFFFFFFFZZZZZZZZZZZZZZZZZZZZFFFFFFFFFFFFFFFFFFFFZZZZZZZZZZZZZZZZZZZZFFFFFFFFFFFFFFFFFFFFZZZZZZZZZZZZZZZZZZZZFFFFFFFFFFFFFFFFFFFFZZZZZZZZZZZZZZZZZZZZFFFFFFFFFFFFFFFFFFFFZZZZZZZZZZZZZZZZZZZZFFFFFFFFFFFFFFFFFFFFZZZZZZZZZZZZZZZZZZZZFFFFFFFFFFFFFFFFFFFFZZZZZZZZZZZZZZZZZZZZFFFFFFFFFFFFFFFFFFFFZZZZZZZZZZZZZZZZZZZZFFFFFFFFFFFFFFFFFFFFZZZZZZZZZZZZZZZZZZZZFFFFFFFFFFFFFFFFFFFFZZZZZZZZZZZZZZZZZZZZFFFFFFFFFFFFFFFFFFFFZZZZZZZZZZZZZZZZZZZZFFFFFFFFFFFFFFFFFFFFZZZZZZZZZZZZZZZZZZZZFFFFFFFFFFFFFFFFFFFFZZZZZZZZZZZZZZZZZZZZFFFFFFFFFFFFFFFFFFFFZZZZZZZZZZZZZZZZZZZZFFFFFFFFFFFFFFFFFFFFZZZZZZZZZZZZZZZZZZZZFFFFFFFFFFFFFFFFFFFFZZZZZZZZZZZZZZZZZZZZFFFFFFFFFFFFFFFFFFFFZZZZZZZZZZZZZZZZZZZZFFFFFFFFFFFFFFFFFFFFZZZZZZZZZZZZZZZZZZZZFFFFFFFFFFFFFFFFFFFFZZZZZZZZZZZZZZZZZZZZFFFFFFFFFFFFFFFFFFFFZZZZZZZZZZZZZZZZZZZZFFFFFFFFFFFFFFFFFFFFZZZZZZZZZZZZZZZZZZZZ",
"ZZZZZZZZZZZZZZZZZZZZFFFFFFFFFFFFFFFFFFFFZZZZZZZZZZZZZZZZZZZZFFFFFFFFFFFFFFFFFFFFZZZZZZZZZZZZZZZZZZZZFFFFFFFFFFFFFFFFFFFFZZZZZZZZZZZZZZZZZZZZFFFFFFFFFFFFFFFFFFFFZZZZZZZZZZZZZZZZZZZZFFFFFFFFFFFFFFFFFFFFZZZZZZZZZZZZZZZZZZZZFFFFFFFFFFFFFFFFFFFFZZZZZZZZZZZZZZZZZZZZFFFFFFFFFFFFFFFFFFFFZZZZZZZZZZZZZZZZZZZZFFFFFFFFFFFFFFFFFFFFZZZZZZZZZZZZZZZZZZZZFFFFFFFFFFFFFFFFFFFFZZZZZZZZZZZZZZZZZZZZFFFFFFFFFFFFFFFFFFFFZZZZZZZZZZZZZZZZZZZZFFFFFFFFFFFFFFFFFFFFZZZZZZZZZZZZZZZZZZZZFFFFFFFFFFFFFFFFFFFFZZZZZZZZZZZZZZZZZZZZFFFFFFFFFFFFFFFFFFFFZZZZZZZZZZZZZZZZZZZZFFFFFFFFFFFFFFFFFFFFZZZZZZZZZZZZZZZZZZZZFFFFFFFFFFFFFFFFFFFFZZZZZZZZZZZZZZZZZZZZFFFFFFFFFFFFFFFFFFFFZZZZZZZZZZZZZZZZZZZZFFFFFFFFFFFFFFFFFFFFZZZZZZZZZZZZZZZZZZZZFFFFFFFFFFFFFFFFFFFFZZZZZZZZZZZZZZZZZZZZFFFFFFFFFFFFFFFFFFFFZZZZZZZZZZZZZZZZZZZZFFFFFFFFFFFFFFFFFFFFZZZZZZZZZZZZZZZZZZZZFFFFFFFFFFFFFFFFFFFFZZZZZZZZZZZZZZZZZZZZ",
"ZZZZZZZZZZZZZZZZZZZZFFFFFFFFFFFFFFFFFFFFZZZZZZZZZZZZZZZZZZZZFFFFFFFFFFFFFFFFFFFFZZZZZZZZZZZZZZZZZZZZFFFFFFFFFFFFFFFFFFFFZZZZZZZZZZZZZZZZZZZZFFFFFFFFFFFFFFFFFFFFZZZZZZZZZZZZZZZZZZZZFFFFFFFFFFFFFFFFFFFFZZZZZZZZZZZZZZZZZZZZFFFFFFFFFFFFFFFFFFFFZZZZZZZZZZZZZZZZZZZZFFFFFFFFFFFFFFFFFFFFZZZZZZZZZZZZZZZZZZZZFFFFFFFFFFFFFFFFFFFFZZZZZZZZZZZZZZZZZZZZFFFFFFFFFFFFFFFFFFFFZZZZZZZZZZZZZZZZZZZZFFFFFFFFFFFFFFFFFFFFZZZZZZZZZZZZZZZZZZZZFFFFFFFFFFFFFFFFFFFFZZZZZZZZZZZZZZZZZZZZFFFFFFFFFFFFFFFFFFFFZZZZZZZZZZZZZZZZZZZZFFFFFFFFFFFFFFFFFFFFZZZZZZZZZZZZZZZZZZZZFFFFFFFFFFFFFFFFFFFFZZZZZZZZZZZZZZZZZZZZFFFFFFFFFFFFFFFFFFFFZZZZZZZZZZZZZZZZZZZZFFFFFFFFFFFFFFFFFFFFZZZZZZZZZZZZZZZZZZZZFFFFFFFFFFFFFFFFFFFFZZZZZZZZZZZZZZZZZZZZFFFFFFFFFFFFFFFFFFFFZZZZZZZZZZZZZZZZZZZZFFFFFFFFFFFFFFFFFFFFZZZZZZZZZZZZZZZZZZZZFFFFFFFFFFFFFFFFFFFFZZZZZZZZZZZZZZZZZZZZFFFFFFFFFFFFFFFFFFFFZZZZZZZZZZZZZZZZZZZZ",
"ZZZZZZZZZZZZZZZZZZZZFFFFFFFFFFFFFFFFFFFFZZZZZZZZZZZZZZZZZZZZFFFFFFFFFFFFFFFFFFFFZZZZZZZZZZZZZZZZZZZZFFFFFFFFFFFFFFFFFFFFZZZZZZZZZZZZZZZZZZZZFFFFFFFFFFFFFFFFFFFFZZZZZZZZZZZZZZZZZZZZFFFFFFFFFFFFFFFFFFFFZZZZZZZZZZZZZZZZZZZZFFFFFFFFFFFFFFFFFFFFZZZZZZZZZZZZZZZZZZZZFFFFFFFFFFFFFFFFFFFFZZZZZZZZZZZZZZZZZZZZFFFFFFFFFFFFFFFFFFFFZZZZZZZZZZZZZZZZZZZZFFFFFFFFFFFFFFFFFFFFZZZZZZZZZZZZZZZZZZZZFFFFFFFFFFFFFFFFFFFFZZZZZZZZZZZZZZZZZZZZFFFFFFFFFFFFFFFFFFFFZZZZZZZZZZZZZZZZZZZZFFFFFFFFFFFFFFFFFFFFZZZZZZZZZZZZZZZZZZZZFFFFFFFFFFFFFFFFFFFFZZZZZZZZZZZZZZZZZZZZFFFFFFFFFFFFFFFFFFFFZZZZZZZZZZZZZZZZZZZZFFFFFFFFFFFFFFFFFFFFZZZZZZZZZZZZZZZZZZZZFFFFFFFFFFFFFFFFFFFFZZZZZZZZZZZZZZZZZZZZFFFFFFFFFFFFFFFFFFFFZZZZZZZZZZZZZZZZZZZZFFFFFFFFFFFFFFFFFFFFZZZZZZZZZZZZZZZZZZZZFFFFFFFFFFFFFFFFFFFFZZZZZZZZZZZZZZZZZZZZFFFFFFFFFFFFFFFFFFFFZZZZZZZZZZZZZZZZZZZZFFFFFFFFFFFFFFFFFFFFZZZZZZZZZZZZZZZZZZZZ",
"ZZZZZZZZZZZZZZZZZZZZFFFFFFFFFFFFFFFFFFFFZZZZZZZZZZZZZZZZZZZZFFFFFFFFFFFFFFFFFFFFZZZZZZZZZZZZZZZZZZZZFFFFFFFFFFFFFFFFFFFFZZZZZZZZZZZZZZZZZZZZFFFFFFFFFFFFFFFFFFFFZZZZZZZZZZZZZZZZZZZZFFFFFFFFFFFFFFFFFFFFZZZZZZZZZZZZZZZZZZZZFFFFFFFFFFFFFFFFFFFFZZZZZZZZZZZZZZZZZZZZFFFFFFFFFFFFFFFFFFFFZZZZZZZZZZZZZZZZZZZZFFFFFFFFFFFFFFFFFFFFZZZZZZZZZZZZZZZZZZZZFFFFFFFFFFFFFFFFFFFFZZZZZZZZZZZZZZZZZZZZFFFFFFFFFFFFFFFFFFFFZZZZZZZZZZZZZZZZZZZZFFFFFFFFFFFFFFFFFFFFZZZZZZZZZZZZZZZZZZZZFFFFFFFFFFFFFFFFFFFFZZZZZZZZZZZZZZZZZZZZFFFFFFFFFFFFFFFFFFFFZZZZZZZZZZZZZZZZZZZZFFFFFFFFFFFFFFFFFFFFZZZZZZZZZZZZZZZZZZZZFFFFFFFFFFFFFFFFFFFFZZZZZZZZZZZZZZZZZZZZFFFFFFFFFFFFFFFFFFFFZZZZZZZZZZZZZZZZZZZZFFFFFFFFFFFFFFFFFFFFZZZZZZZZZZZZZZZZZZZZFFFFFFFFFFFFFFFFFFFFZZZZZZZZZZZZZZZZZZZZFFFFFFFFFFFFFFFFFFFFZZZZZZZZZZZZZZZZZZZZFFFFFFFFFFFFFFFFFFFFZZZZZZZZZZZZZZZZZZZZFFFFFFFFFFFFFFFFFFFFZZZZZZZZZZZZZZZZZZZZ",
"ZZZZZZZZZZZZZZZZZZZZFFFFFFFFFFFFFFFFFFFFZZZZZZZZZZZZZZZZZZZZFFFFFFFFFFFFFFFFFFFFZZZZZZZZZZZZZZZZZZZZFFFFFFFFFFFFFFFFFFFFZZZZZZZZZZZZZZZZZZZZFFFFFFFFFFFFFFFFFFFFZZZZZZZZZZZZZZZZZZZZFFFFFFFFFFFFFFFFFFFFZZZZZZZZZZZZZZZZZZZZFFFFFFFFFFFFFFFFFFFFZZZZZZZZZZZZZZZZZZZZFFFFFFFFFFFFFFFFFFFFZZZZZZZZZZZZZZZZZZZZFFFFFFFFFFFFFFFFFFFFZZZZZZZZZZZZZZZZZZZZFFFFFFFFFFFFFFFFFFFFZZZZZZZZZZZZZZZZZZZZFFFFFFFFFFFFFFFFFFFFZZZZZZZZZZZZZZZZZZZZFFFFFFFFFFFFFFFFFFFFZZZZZZZZZZZZZZZZZZZZFFFFFFFFFFFFFFFFFFFFZZZZZZZZZZZZZZZZZZZZFFFFFFFFFFFFFFFFFFFFZZZZZZZZZZZZZZZZZZZZFFFFFFFFFFFFFFFFFFFFZZZZZZZZZZZZZZZZZZZZFFFFFFFFFFFFFFFFFFFFZZZZZZZZZZZZZZZZZZZZFFFFFFFFFFFFFFFFFFFFZZZZZZZZZZZZZZZZZZZZFFFFFFFFFFFFFFFFFFFFZZZZZZZZZZZZZZZZZZZZFFFFFFFFFFFFFFFFFFFFZZZZZZZZZZZZZZZZZZZZFFFFFFFFFFFFFFFFFFFFZZZZZZZZZZZZZZZZZZZZFFFFFFFFFFFFFFFFFFFFZZZZZZZZZZZZZZZZZZZZFFFFFFFFFFFFFFFFFFFFZZZZZZZZZZZZZZZZZZZZ",
"ZZZZZZZZZZZZZZZZZZZZFFFFFFFFFFFFFFFFFFFFZZZZZZZZZZZZZZZZZZZZFFFFFFFFFFFFFFFFFFFFZZZZZZZZZZZZZZZZZZZZFFFFFFFFFFFFFFFFFFFFZZZZZZZZZZZZZZZZZZZZFFFFFFFFFFFFFFFFFFFFZZZZZZZZZZZZZZZZZZZZFFFFFFFFFFFFFFFFFFFFZZZZZZZZZZZZZZZZZZZZFFFFFFFFFFFFFFFFFFFFZZZZZZZZZZZZZZZZZZZZFFFFFFFFFFFFFFFFFFFFZZZZZZZZZZZZZZZZZZZZFFFFFFFFFFFFFFFFFFFFZZZZZZZZZZZZZZZZZZZZFFFFFFFFFFFFFFFFFFFFZZZZZZZZZZZZZZZZZZZZFFFFFFFFFFFFFFFFFFFFZZZZZZZZZZZZZZZZZZZZFFFFFFFFFFFFFFFFFFFFZZZZZZZZZZZZZZZZZZZZFFFFFFFFFFFFFFFFFFFFZZZZZZZZZZZZZZZZZZZZFFFFFFFFFFFFFFFFFFFFZZZZZZZZZZZZZZZZZZZZFFFFFFFFFFFFFFFFFFFFZZZZZZZZZZZZZZZZZZZZFFFFFFFFFFFFFFFFFFFFZZZZZZZZZZZZZZZZZZZZFFFFFFFFFFFFFFFFFFFFZZZZZZZZZZZZZZZZZZZZFFFFFFFFFFFFFFFFFFFFZZZZZZZZZZZZZZZZZZZZFFFFFFFFFFFFFFFFFFFFZZZZZZZZZZZZZZZZZZZZFFFFFFFFFFFFFFFFFFFFZZZZZZZZZZZZZZZZZZZZFFFFFFFFFFFFFFFFFFFFZZZZZZZZZZZZZZZZZZZZFFFFFFFFFFFFFFFFFFFFZZZZZZZZZZZZZZZZZZZZ",
"ZZZZZZZZZZZZZZZZZZZZFFFFFFFFFFFFFFFFFFFFZZZZZZZZZZZZZZZZZZZZFFFFFFFFFFFFFFFFFFFFZZZZZZZZZZZZZZZZZZZZFFFFFFFFFFFFFFFFFFFFZZZZZZZZZZZZZZZZZZZZFFFFFFFFFFFFFFFFFFFFZZZZZZZZZZZZZZZZZZZZFFFFFFFFFFFFFFFFFFFFZZZZZZZZZZZZZZZZZZZZFFFFFFFFFFFFFFFFFFFFZZZZZZZZZZZZZZZZZZZZFFFFFFFFFFFFFFFFFFFFZZZZZZZZZZZZZZZZZZZZFFFFFFFFFFFFFFFFFFFFZZZZZZZZZZZZZZZZZZZZFFFFFFFFFFFFFFFFFFFFZZZZZZZZZZZZZZZZZZZZFFFFFFFFFFFFFFFFFFFFZZZZZZZZZZZZZZZZZZZZFFFFFFFFFFFFFFFFFFFFZZZZZZZZZZZZZZZZZZZZFFFFFFFFFFFFFFFFFFFFZZZZZZZZZZZZZZZZZZZZFFFFFFFFFFFFFFFFFFFFZZZZZZZZZZZZZZZZZZZZFFFFFFFFFFFFFFFFFFFFZZZZZZZZZZZZZZZZZZZZFFFFFFFFFFFFFFFFFFFFZZZZZZZZZZZZZZZZZZZZFFFFFFFFFFFFFFFFFFFFZZZZZZZZZZZZZZZZZZZZFFFFFFFFFFFFFFFFFFFFZZZZZZZZZZZZZZZZZZZZFFFFFFFFFFFFFFFFFFFFZZZZZZZZZZZZZZZZZZZZFFFFFFFFFFFFFFFFFFFFZZZZZZZZZZZZZZZZZZZZFFFFFFFFFFFFFFFFFFFFZZZZZZZZZZZZZZZZZZZZFFFFFFFFFFFFFFFFFFFFZZZZZZZZZZZZZZZZZZZZ",
"ZZZZZZZZZZZZZZZZZZZZFFFFFFFFFFFFFFFFFFFFZZZZZZZZZZZZZZZZZZZZFFFFFFFFFFFFFFFFFFFFZZZZZZZZZZZZZZZZZZZZFFFFFFFFFFFFFFFFFFFFZZZZZZZZZZZZZZZZZZZZFFFFFFFFFFFFFFFFFFFFZZZZZZZZZZZZZZZZZZZZFFFFFFFFFFFFFFFFFFFFZZZZZZZZZZZZZZZZZZZZFFFFFFFFFFFFFFFFFFFFZZZZZZZZZZZZZZZZZZZZFFFFFFFFFFFFFFFFFFFFZZZZZZZZZZZZZZZZZZZZFFFFFFFFFFFFFFFFFFFFZZZZZZZZZZZZZZZZZZZZFFFFFFFFFFFFFFFFFFFFZZZZZZZZZZZZZZZZZZZZFFFFFFFFFFFFFFFFFFFFZZZZZZZZZZZZZZZZZZZZFFFFFFFFFFFFFFFFFFFFZZZZZZZZZZZZZZZZZZZZFFFFFFFFFFFFFFFFFFFFZZZZZZZZZZZZZZZZZZZZFFFFFFFFFFFFFFFFFFFFZZZZZZZZZZZZZZZZZZZZFFFFFFFFFFFFFFFFFFFFZZZZZZZZZZZZZZZZZZZZFFFFFFFFFFFFFFFFFFFFZZZZZZZZZZZZZZZZZZZZFFFFFFFFFFFFFFFFFFFFZZZZZZZZZZZZZZZZZZZZFFFFFFFFFFFFFFFFFFFFZZZZZZZZZZZZZZZZZZZZFFFFFFFFFFFFFFFFFFFFZZZZZZZZZZZZZZZZZZZZFFFFFFFFFFFFFFFFFFFFZZZZZZZZZZZZZZZZZZZZFFFFFFFFFFFFFFFFFFFFZZZZZZZZZZZZZZZZZZZZFFFFFFFFFFFFFFFFFFFFZZZZZZZZZZZZZZZZZZZZ",
"ZZZZZZZZZZZZZZZZZZZZFFFFFFFFFFFFFFFFFFFFZZZZZZZZZZZZZZZZZZZZFFFFFFFFFFFFFFFFFFFFZZZZZZZZZZZZZZZZZZZZFFFFFFFFFFFFFFFFFFFFZZZZZZZZZZZZZZZZZZZZFFFFFFFFFFFFFFFFFFFFZZZZZZZZZZZZZZZZZZZZFFFFFFFFFFFFFFFFFFFFZZZZZZZZZZZZZZZZZZZZFFFFFFFFFFFFFFFFFFFFZZZZZZZZZZZZZZZZZZZZFFFFFFFFFFFFFFFFFFFFZZZZZZZZZZZZZZZZZZZZFFFFFFFFFFFFFFFFFFFFZZZZZZZZZZZZZZZZZZZZFFFFFFFFFFFFFFFFFFFFZZZZZZZZZZZZZZZZZZZZFFFFFFFFFFFFFFFFFFFFZZZZZZZZZZZZZZZZZZZZFFFFFFFFFFFFFFFFFFFFZZZZZZZZZZZZZZZZZZZZFFFFFFFFFFFFFFFFFFFFZZZZZZZZZZZZZZZZZZZZFFFFFFFFFFFFFFFFFFFFZZZZZZZZZZZZZZZZZZZZFFFFFFFFFFFFFFFFFFFFZZZZZZZZZZZZZZZZZZZZFFFFFFFFFFFFFFFFFFFFZZZZZZZZZZZZZZZZZZZZFFFFFFFFFFFFFFFFFFFFZZZZZZZZZZZZZZZZZZZZFFFFFFFFFFFFFFFFFFFFZZZZZZZZZZZZZZZZZZZZFFFFFFFFFFFFFFFFFFFFZZZZZZZZZZZZZZZZZZZZFFFFFFFFFFFFFFFFFFFFZZZZZZZZZZZZZZZZZZZZFFFFFFFFFFFFFFFFFFFFZZZZZZZZZZZZZZZZZZZZFFFFFFFFFFFFFFFFFFFFZZZZZZZZZZZZZZZZZZZZ",
"ZZZZZZZZZZZZZZZZZZZZFFFFFFFFFFFFFFFFFFFFZZZZZZZZZZZZZZZZZZZZFFFFFFFFFFFFFFFFFFFFZZZZZZZZZZZZZZZZZZZZFFFFFFFFFFFFFFFFFFFFZZZZZZZZZZZZZZZZZZZZFFFFFFFFFFFFFFFFFFFFZZZZZZZZZZZZZZZZZZZZFFFFFFFFFFFFFFFFFFFFZZZZZZZZZZZZZZZZZZZZFFFFFFFFFFFFFFFFFFFFZZZZZZZZZZZZZZZZZZZZFFFFFFFFFFFFFFFFFFFFZZZZZZZZZZZZZZZZZZZZFFFFFFFFFFFFFFFFFFFFZZZZZZZZZZZZZZZZZZZZFFFFFFFFFFFFFFFFFFFFZZZZZZZZZZZZZZZZZZZZFFFFFFFFFFFFFFFFFFFFZZZZZZZZZZZZZZZZZZZZFFFFFFFFFFFFFFFFFFFFZZZZZZZZZZZZZZZZZZZZFFFFFFFFFFFFFFFFFFFFZZZZZZZZZZZZZZZZZZZZFFFFFFFFFFFFFFFFFFFFZZZZZZZZZZZZZZZZZZZZFFFFFFFFFFFFFFFFFFFFZZZZZZZZZZZZZZZZZZZZFFFFFFFFFFFFFFFFFFFFZZZZZZZZZZZZZZZZZZZZFFFFFFFFFFFFFFFFFFFFZZZZZZZZZZZZZZZZZZZZFFFFFFFFFFFFFFFFFFFFZZZZZZZZZZZZZZZZZZZZFFFFFFFFFFFFFFFFFFFFZZZZZZZZZZZZZZZZZZZZFFFFFFFFFFFFFFFFFFFFZZZZZZZZZZZZZZZZZZZZFFFFFFFFFFFFFFFFFFFFZZZZZZZZZZZZZZZZZZZZFFFFFFFFFFFFFFFFFFFFZZZZZZZZZZZZZZZZZZZZ",
"ZZZZZZZZZZZZZZZZZZZZFFFFFFFFFFFFFFFFFFFFZZZZZZZZZZZZZZZZZZZZFFFFFFFFFFFFFFFFFFFFZZZZZZZZZZZZZZZZZZZZFFFFFFFFFFFFFFFFFFFFZZZZZZZZZZZZZZZZZZZZFFFFFFFFFFFFFFFFFFFFZZZZZZZZZZZZZZZZZZZZFFFFFFFFFFFFFFFFFFFFZZZZZZZZZZZZZZZZZZZZFFFFFFFFFFFFFFFFFFFFZZZZZZZZZZZZZZZZZZZZFFFFFFFFFFFFFFFFFFFFZZZZZZZZZZZZZZZZZZZZFFFFFFFFFFFFFFFFFFFFZZZZZZZZZZZZZZZZZZZZFFFFFFFFFFFFFFFFFFFFZZZZZZZZZZZZZZZZZZZZFFFFFFFFFFFFFFFFFFFFZZZZZZZZZZZZZZZZZZZZFFFFFFFFFFFFFFFFFFFFZZZZZZZZZZZZZZZZZZZZFFFFFFFFFFFFFFFFFFFFZZZZZZZZZZZZZZZZZZZZFFFFFFFFFFFFFFFFFFFFZZZZZZZZZZZZZZZZZZZZFFFFFFFFFFFFFFFFFFFFZZZZZZZZZZZZZZZZZZZZFFFFFFFFFFFFFFFFFFFFZZZZZZZZZZZZZZZZZZZZFFFFFFFFFFFFFFFFFFFFZZZZZZZZZZZZZZZZZZZZFFFFFFFFFFFFFFFFFFFFZZZZZZZZZZZZZZZZZZZZFFFFFFFFFFFFFFFFFFFFZZZZZZZZZZZZZZZZZZZZFFFFFFFFFFFFFFFFFFFFZZZZZZZZZZZZZZZZZZZZFFFFFFFFFFFFFFFFFFFFZZZZZZZZZZZZZZZZZZZZFFFFFFFFFFFFFFFFFFFFZZZZZZZZZZZZZZZZZZZZ",
"ZZZZZZZZZZZZZZZZZZZZFFFFFFFFFFFFFFFFFFFFZZZZZZZZZZZZZZZZZZZZFFFFFFFFFFFFFFFFFFFFZZZZZZZZZZZZZZZZZZZZFFFFFFFFFFFFFFFFFFFFZZZZZZZZZZZZZZZZZZZZFFFFFFFFFFFFFFFFFFFFZZZZZZZZZZZZZZZZZZZZFFFFFFFFFFFFFFFFFFFFZZZZZZZZZZZZZZZZZZZZFFFFFFFFFFFFFFFFFFFFZZZZZZZZZZZZZZZZZZZZFFFFFFFFFFFFFFFFFFFFZZZZZZZZZZZZZZZZZZZZFFFFFFFFFFFFFFFFFFFFZZZZZZZZZZZZZZZZZZZZFFFFFFFFFFFFFFFFFFFFZZZZZZZZZZZZZZZZZZZZFFFFFFFFFFFFFFFFFFFFZZZZZZZZZZZZZZZZZZZZFFFFFFFFFFFFFFFFFFFFZZZZZZZZZZZZZZZZZZZZFFFFFFFFFFFFFFFFFFFFZZZZZZZZZZZZZZZZZZZZFFFFFFFFFFFFFFFFFFFFZZZZZZZZZZZZZZZZZZZZFFFFFFFFFFFFFFFFFFFFZZZZZZZZZZZZZZZZZZZZFFFFFFFFFFFFFFFFFFFFZZZZZZZZZZZZZZZZZZZZFFFFFFFFFFFFFFFFFFFFZZZZZZZZZZZZZZZZZZZZFFFFFFFFFFFFFFFFFFFFZZZZZZZZZZZZZZZZZZZZFFFFFFFFFFFFFFFFFFFFZZZZZZZZZZZZZZZZZZZZFFFFFFFFFFFFFFFFFFFFZZZZZZZZZZZZZZZZZZZZFFFFFFFFFFFFFFFFFFFFZZZZZZZZZZZZZZZZZZZZFFFFFFFFFFFFFFFFFFFFZZZZZZZZZZZZZZZZZZZZ",
"ZZZZZZZZZZZZZZZZZZZZFFFFFFFFFFFFFFFFFFFFZZZZZZZZZZZZZZZZZZZZFFFFFFFFFFFFFFFFFFFFZZZZZZZZZZZZZZZZZZZZFFFFFFFFFFFFFFFFFFFFZZZZZZZZZZZZZZZZZZZZFFFFFFFFFFFFFFFFFFFFZZZZZZZZZZZZZZZZZZZZFFFFFFFFFFFFFFFFFFFFZZZZZZZZZZZZZZZZZZZZFFFFFFFFFFFFFFFFFFFFZZZZZZZZZZZZZZZZZZZZFFFFFFFFFFFFFFFFFFFFZZZZZZZZZZZZZZZZZZZZFFFFFFFFFFFFFFFFFFFFZZZZZZZZZZZZZZZZZZZZFFFFFFFFFFFFFFFFFFFFZZZZZZZZZZZZZZZZZZZZFFFFFFFFFFFFFFFFFFFFZZZZZZZZZZZZZZZZZZZZFFFFFFFFFFFFFFFFFFFFZZZZZZZZZZZZZZZZZZZZFFFFFFFFFFFFFFFFFFFFZZZZZZZZZZZZZZZZZZZZFFFFFFFFFFFFFFFFFFFFZZZZZZZZZZZZZZZZZZZZFFFFFFFFFFFFFFFFFFFFZZZZZZZZZZZZZZZZZZZZFFFFFFFFFFFFFFFFFFFFZZZZZZZZZZZZZZZZZZZZFFFFFFFFFFFFFFFFFFFFZZZZZZZZZZZZZZZZZZZZFFFFFFFFFFFFFFFFFFFFZZZZZZZZZZZZZZZZZZZZFFFFFFFFFFFFFFFFFFFFZZZZZZZZZZZZZZZZZZZZFFFFFFFFFFFFFFFFFFFFZZZZZZZZZZZZZZZZZZZZFFFFFFFFFFFFFFFFFFFFZZZZZZZZZZZZZZZZZZZZFFFFFFFFFFFFFFFFFFFFZZZZZZZZZZZZZZZZZZZZ",
"ZZZZZZZZZZZZZZZZZZZZFFFFFFFFFFFFFFFFFFFFZZZZZZZZZZZZZZZZZZZZFFFFFFFFFFFFFFFFFFFFZZZZZZZZZZZZZZZZZZZZFFFFFFFFFFFFFFFFFFFFZZZZZZZZZZZZZZZZZZZZFFFFFFFFFFFFFFFFFFFFZZZZZZZZZZZZZZZZZZZZFFFFFFFFFFFFFFFFFFFFZZZZZZZZZZZZZZZZZZZZFFFFFFFFFFFFFFFFFFFFZZZZZZZZZZZZZZZZZZZZFFFFFFFFFFFFFFFFFFFFZZZZZZZZZZZZZZZZZZZZFFFFFFFFFFFFFFFFFFFFZZZZZZZZZZZZZZZZZZZZFFFFFFFFFFFFFFFFFFFFZZZZZZZZZZZZZZZZZZZZFFFFFFFFFFFFFFFFFFFFZZZZZZZZZZZZZZZZZZZZFFFFFFFFFFFFFFFFFFFFZZZZZZZZZZZZZZZZZZZZFFFFFFFFFFFFFFFFFFFFZZZZZZZZZZZZZZZZZZZZFFFFFFFFFFFFFFFFFFFFZZZZZZZZZZZZZZZZZZZZFFFFFFFFFFFFFFFFFFFFZZZZZZZZZZZZZZZZZZZZFFFFFFFFFFFFFFFFFFFFZZZZZZZZZZZZZZZZZZZZFFFFFFFFFFFFFFFFFFFFZZZZZZZZZZZZZZZZZZZZFFFFFFFFFFFFFFFFFFFFZZZZZZZZZZZZZZZZZZZZFFFFFFFFFFFFFFFFFFFFZZZZZZZZZZZZZZZZZZZZFFFFFFFFFFFFFFFFFFFFZZZZZZZZZZZZZZZZZZZZFFFFFFFFFFFFFFFFFFFFZZZZZZZZZZZZZZZZZZZZFFFFFFFFFFFFFFFFFFFFZZZZZZZZZZZZZZZZZZZZ",
"ZZZZZZZZZZZZZZZZZZZZFFFFFFFFFFFFFFFFFFFFZZZZZZZZZZZZZZZZZZZZFFFFFFFFFFFFFFFFFFFFZZZZZZZZZZZZZZZZZZZZFFFFFFFFFFFFFFFFFFFFZZZZZZZZZZZZZZZZZZZZFFFFFFFFFFFFFFFFFFFFZZZZZZZZZZZZZZZZZZZZFFFFFFFFFFFFFFFFFFFFZZZZZZZZZZZZZZZZZZZZFFFFFFFFFFFFFFFFFFFFZZZZZZZZZZZZZZZZZZZZFFFFFFFFFFFFFFFFFFFFZZZZZZZZZZZZZZZZZZZZFFFFFFFFFFFFFFFFFFFFZZZZZZZZZZZZZZZZZZZZFFFFFFFFFFFFFFFFFFFFZZZZZZZZZZZZZZZZZZZZFFFFFFFFFFFFFFFFFFFFZZZZZZZZZZZZZZZZZZZZFFFFFFFFFFFFFFFFFFFFZZZZZZZZZZZZZZZZZZZZFFFFFFFFFFFFFFFFFFFFZZZZZZZZZZZZZZZZZZZZFFFFFFFFFFFFFFFFFFFFZZZZZZZZZZZZZZZZZZZZFFFFFFFFFFFFFFFFFFFFZZZZZZZZZZZZZZZZZZZZFFFFFFFFFFFFFFFFFFFFZZZZZZZZZZZZZZZZZZZZFFFFFFFFFFFFFFFFFFFFZZZZZZZZZZZZZZZZZZZZFFFFFFFFFFFFFFFFFFFFZZZZZZZZZZZZZZZZZZZZFFFFFFFFFFFFFFFFFFFFZZZZZZZZZZZZZZZZZZZZFFFFFFFFFFFFFFFFFFFFZZZZZZZZZZZZZZZZZZZZFFFFFFFFFFFFFFFFFFFFZZZZZZZZZZZZZZZZZZZZFFFFFFFFFFFFFFFFFFFFZZZZZZZZZZZZZZZZZZZZ",
"FFFFFFFFFFFFFFFFFFFFZZZZZZZZZZZZZZZZZZZZFFFFFFFFFFFFFFFFFFFFZZZZZZZZZZZZZZZZZZZZFFFFFFFFFFFFFFFFFFFFZZZZZZZZZZZZZZZZZZZZFFFFFFFFFFFFFFFFFFFFZZZZZZZZZZZZZZZZZZZZFFFFFFFFFFFFFFFFFFFFZZZZZZZZZZZZZZZZZZZZFFFFFFFFFFFFFFFFFFFFZZZZZZZZZZZZZZZZZZZZFFFFFFFFFFFFFFFFFFFFZZZZZZZZZZZZZZZZZZZZFFFFFFFFFFFFFFFFFFFFZZZZZZZZZZZZZZZZZZZZFFFFFFFFFFFFFFFFFFFFZZZZZZZZZZZZZZZZZZZZFFFFFFFFFFFFFFFFFFFFZZZZZZZZZZZZZZZZZZZZFFFFFFFFFFFDAZVNMmbvlkkkjjhhhffghhjhjkklcvnmNBCZSFFFFFFFFFFFZZZZZZZZZZZZZZZZZZZZFFFFFFFFFFFFFFFFFFFFZZZZZZZZZZZZZZZZZZZZFFFFFFFFFFFFFFFFFFFFZZZZZZZZZZZZZZZZZZZZFFFFFFFFFFFFFFFFFFFFZZZZZZZZZZZZZZZZZZZZFFFFFFFFFFFFFFFFFFFFZZZZZZZZZZZZZZZZZZZZFFFFFFFFFFFFFFFFFFFFZZZZZZZZZZZZZZZZZZZZFFFFFFFFFFFFFFFFFFFFZZZZZZZZZZZZZZZZZZZZFFFFFFFFFFFFFFFFFFFFZZZZZZZZZZZZZZZZZZZZFFFFFFFFFFFFFFFFFFFFZZZZZZZZZZZZZZZZZZZZFFFFFFFFFFFFFFFFFFFFZZZZZZZZZZZZZZZZZZZZFFFFFFFFFFFFFFFFFFFF",
"FFFFFFFFFFFFFFFFFFFFZZZZZZZZZZZZZZZZZZZZFFFFFFFFFFFFFFFFFFFFZZZZZZZZZZZZZZZZZZZZFFFFFFFFFFFFFFFFFFFFZZZZZZZZZZZZZZZZZZZZFFFFFFFFFFFFFFFFFFFFZZZZZZZZZZZZZZZZZZZZFFFFFFFFFFFFFFFFFFFFZZZZZZZZZZZZZZZZZZZZFFFFFFFFFFFFFFFFFFFFZZZZZZZZZZZZZZZZZZZZFFFFFFFFFFFFFFFFFFFFZZZZZZZZZZZZZZZZZZZZFFFFFFFFFFFFFFFFFFFFZZZZZZZZZZZZZZZZZZZZFFFFFFFFFFFFFFFFFFFFZZZZZZZZZZZZZZZZZZZZFFFFFFFFFFFFFFFFFFFFZZZZZZZZZZZZZZZZCNncczjgspyrq97777777777666666666666666665655555555555680etisfjzlcmBZZZZZZZZZZZZZZZZFFFFFFFFFFFFFFFFFFFFZZZZZZZZZZZZZZZZZZZZFFFFFFFFFFFFFFFFFFFFZZZZZZZZZZZZZZZZZZZZFFFFFFFFFFFFFFFFFFFFZZZZZZZZZZZZZZZZZZZZFFFFFFFFFFFFFFFFFFFFZZZZZZZZZZZZZZZZZZZZFFFFFFFFFFFFFFFFFFFFZZZZZZZZZZZZZZZZZZZZFFFFFFFFFFFFFFFFFFFFZZZZZZZZZZZZZZZZZZZZFFFFFFFFFFFFFFFFFFFFZZZZZZZZZZZZZZZZZZZZFFFFFFFFFFFFFFFFFFFFZZZZZZZZZZZZZZZZZZZZFFFFFFFFFFFFFFFFFFFFZZZZZZZZZZZZZZZZZZZZFFFFFFFFFFFFFFFFFFFF",
"FFFFFFFFFFFFFFFFFFFFZZZZZZZZZZZZZZZZZZZZFFFFFFFFFFFFFFFFFFFFZZZZZZZZZZZZZZZZZZZZFFFFFFFFFFFFFFFFFFFFZZZZZZZZZZZZZZZZZZZZFFFFFFFFFFFFFFFFFFFFZZZZZZZZZZZZZZZZZZZZFFFFFFFFFFFFFFFFFFFFZZZZZZZZZZZZZZZZZZZZFFFFFFFFFFFFFFFFFFFFZZZZZZZZZZZZZZZZZZZZFFFFFFFFFFFFFFFFFFFFZZZZZZZZZZZZZZZZZZZZFFFFFFFFFFFFFFFFFFFFZZZZZZZZZZZZZZZZZZZZFFFFFFFFFFFFFFFFFFFFZZZZZZZZZZZZZZZZZZZZFFFFFFFFFFFFFFFFFFFFZZZZZZVmvlhdpye08888888888777777777777776776766666666666665666555555555555555544444458qrisglbNCZZZZZFFFFFFFFFFFFFFFFFFFFZZZZZZZZZZZZZZZZZZZZFFFFFFFFFFFFFFFFFFFFZZZZZZZZZZZZZZZZZZZZFFFFFFFFFFFFFFFFFFFFZZZZZZZZZZZZZZZZZZZZFFFFFFFFFFFFFFFFFFFFZZZZZZZZZZZZZZZZZZZZFFFFFFFFFFFFFFFFFFFFZZZZZZZZZZZZZZZZZZZZFFFFFFFFFFFFFFFFFFFFZZZZZZZZZZZZZZZZZZZZFFFFFFFFFFFFFFFFFFFFZZZZZZZZZZZZZZZZZZZZFFFFFFFFFFFFFFFFFFFFZZZZZZZZZZZZZZZZZZZZFFFFFFFFFFFFFFFFFFFFZZZZZZZZZZZZZZZZZZZZFFFFFFFFFFFFFFFFFFFF",
"FFFFFFFFFFFFFFFFFFFFZZZZZZZZZZZZZZZZZZZZFFFFFFFFFFFFFFFFFFFFZZZZZZZZZZZZZZZZZZZZFFFFFFFFFFFFFFFFFFFFZZZZZZZZZZZZZZZZZZZZFFFFFFFFFFFFFFFFFFFFZZZZZZZZZZZZZZZZZZZZFFFFFFFFFFFFFFFFFFFFZZZZZZZZZZZZZZZZZZZZFFFFFFFFFFFFFFFFFFFFZZZZZZZZZZZZZZZZZZZZFFFFFFFFFFFFFFFFFFFFZZZZZZZZZZZZZZZZZZZZFFFFFFFFFFFFFFFFFFFFZZZZZZZZZZZZZZZZZZZZFFFFFFFFFFFFFFFFFFFFZZZZZZZZZZZZZZZZZZZZFFFFFFFFFFFFFFFFFFANxjditq988888888888888888888877777777777777667776666666666666666655555555555555544444444444444458eushbBDFFFFFFFFFFFFFFFFFZZZZZZZZZZZZZZZZZZZZFFFFFFFFFFFFFFFFFFFFZZZZZZZZZZZZZZZZZZZZFFFFFFFFFFFFFFFFFFFFZZZZZZZZZZZZZZZZZZZZFFFFFFFFFFFFFFFFFFFFZZZZZZZZZZZZZZZZZZZZFFFFFFFFFFFFFFFFFFFFZZZZZZZZZZZZZZZZZZZZFFFFFFFFFFFFFFFFFFFFZZZZZZZZZZZZZZZZZZZZFFFFFFFFFFFFFFFFFFFFZZZZZZZZZZZZZZZZZZZZFFFFFFFFFFFFFFFFFFFFZZZZZZZZZZZZZZZZZZZZFFFFFFFFFFFFFFFFFFFFZZZZZZZZZZZZZZZZZZZZFFFFFFFFFFFFFFFFFFFF",
"FFFFFFFFFFFFFFFFFFFFZZZZZZZZZZZZZZZZZZZZFFFFFFFFFFFFFFFFFFFFZZZZZZZZZZZZZZZZZZZZFFFFFFFFFFFFFFFFFFFFZZZZZZZZZZZZZZZZZZZZFFFFFFFFFFFFFFFFFFFFZZZZZZZZZZZZZZZZZZZZFFFFFFFFFFFFFFFFFFFFZZZZZZZZZZZZZZZZZZZZFFFFFFFFFFFFFFFFFFFFZZZZZZZZZZZZZZZZZZZZFFFFFFFFFFFFFFFFFFFFZZZZZZZZZZZZZZZZZZZZFFFFFFFFFFFFFFFFFFFFZZZZZZZZZZZZZZZZZZZZFFFFFFFFFFFFFFFFFFFFZZZZZZZZZZZZZZZZZZZZFFFFFFFFFFFANvjsyq9999999999888888888888888887778877777777777777666676666666666666665555555555555544444454444444444433333348rajvBDFFFFFFFFFFZZZZZZZZZZZZZZZZZZZZFFFFFFFFFFFFFFFFFFFFZZZZZZZZZZZZZZZZZZZZFFFFFFFFFFFFFFFFFFFFZZZZZZZZZZZZZZZZZZZZFFFFFFFFFFFFFFFFFFFFZZZZZZZZZZZZZZZZZZZZFFFFFFFFFFFFFFFFFFFFZZZZZZZZZZZZZZZZZZZZFFFFFFFFFFFFFFFFFFFFZZZZZZZZZZZZZZZZZZZZFFFFFFFFFFFFFFFFFFFFZZZZZZZZZZZZZZZZZZZZFFFFFFFFFFFFFFFFFFFFZZZZZZZZZZZZZZZZZZZZFFFFFFFFFFFFFFFFFFFFZZZZZZZZZZZZZZZZZZZZFFFFFFFFFFFFFFFFFFFF",
"FFFFFFFFFFFFFFFFFFFFZZZZZZZZZZZZZZZZZZZZFFFFFFFFFFFFFFFFFFFFZZZZZZZZZZZZZZZZZZZZFFFFFFFFFFFFFFFFFFFFZZZZZZZZZZZZZZZZZZZZFFFFFFFFFFFFFFFFFFFFZZZZZZZZZZZZZZZZZZZZFFFFFFFFFFFFFFFFFFFFZZZZZZZZZZZZZZZZZZZZFFFFFFFFFFFFFFFFFFFFZZZZZZZZZZZZZZZZZZZZFFFFFFFFFFFFFFFFFFFFZZZZZZZZZZZZZZZZZZZZFFFFFFFFFFFFFFFFFFFFZZZZZZZZZZZZZZZZZZZZFFFFFFFFFFFFFFFFFFFFZZZZZZZZZZZZZZZZZZZZFFFFDCnlfuw999999999999999999988888888888888888788887777777777777766777666666666666555555555555555544554544444444444443333333333338tdzMSFFFFZZZZZZZZZZZZZZZZZZZZFFFFFFFFFFFFFFFFFFFFZZZZZZZZZZZZZZZZZZZZFFFFFFFFFFFFFFFFFFFFZZZZZZZZZZZZZZZZZZZZFFFFFFFFFFFFFFFFFFFFZZZZZZZZZZZZZZZZZZZZFFFFFFFFFFFFFFFFFFFFZZZZZZZZZZZZZZZZZZZZFFFFFFFFFFFFFFFFFFFFZZZZZZZZZZZZZZZZZZZZFFFFFFFFFFFFFFFFFFFFZZZZZZZZZZZZZZZZZZZZFFFFFFFFFFFFFFFFFFFFZZZZZZZZZZZZZZZZZZZZFFFFFFFFFFFFFFFFFFFFZZZZZZZZZZZZZZZZZZZZFFFFFFFFFFFFFFFFFFFF",
"FFFFFFFFFFFFFFFFFFFFZZZZZZZZZZZZZZZZZZZZFFFFFFFFFFFFFFFFFFFFZZZZZZZZZZZZZZZZZZZZFFFFFFFFFFFFFFFFFFFFZZZZZZZZZZZZZZZZZZZZFFFFFFFFFFFFFFFFFFFFZZZZZZZZZZZZZZZZZZZZFFFFFFFFFFFFFFFFFFFFZZZZZZZZZZZZZZZZZZZZFFFFFFFFFFFFFFFFFFFFZZZZZZZZZZZZZZZZZZZZFFFFFFFFFFFFFFFFFFFFZZZZZZZZZZZZZZZZZZZZFFFFFFFFFFFFFFFFFFFFZZZZZZZZZZZZZZZZZZZZFFFFFFFFFFFFFFFFFFFFZZZZZZZZZZZZZZZZZZZBmzfuq000009999999999999999999999998888888888888888888877777777777777667766666666666665656555555555555455554444444444444333333333333332238tdzbVZZZZZZZZZZZZZZZZZZFFFFFFFFFFFFFFFFFFFFZZZZZZZZZZZZZZZZZZZZFFFFFFFFFFFFFFFFFFFFZZZZZZZZZZZZZZZZZZZZFFFFFFFFFFFFFFFFFFFFZZZZZZZZZZZZZZZZZZZZFFFFFFFFFFFFFFFFFFFFZZZZZZZZZZZZZZZZZZZZFFFFFFFFFFFFFFFFFFFFZZZZZZZZZZZZZZZZZZZZFFFFFFFFFFFFFFFFFFFFZZZZZZZZZZZZZZZZZZZZFFFFFFFFFFFFFFFFFFFFZZZZZZZZZZZZZZZZZZZZFFFFFFFFFFFFFFFFFFFFZZZZZZZZZZZZZZZZZZZZFFFFFFFFFFFFFFFFFFFF",
"FFFFFFFFFFFFFFFFFFFFZZZZZZZZZZZZZZZZZZZZFFFFFFFFFFFFFFFFFFFFZZZZZZZZZZZZZZZZZZZZFFFFFFFFFFFFFFFFFFFFZZZZZZZZZZZZZZZZZZZZFFFFFFFFFFFFFFFFFFFFZZZZZZZZZZZZZZZZZZZZFFFFFFFFFFFFFFFFFFFFZZZZZZZZZZZZZZZZZZZZFFFFFFFFFFFFFFFFFFFFZZZZZZZZZZZZZZZZZZZZFFFFFFFFFFFFFFFFFFFFZZZZZZZZZZZZZZZZZZZZFFFFFFFFFFFFFFFFFFFFZZZZZZZZZZZZZZZZZZZZFFFFFFFFFFFFFFFFFFFFZZZZZZZZZZZZZCNchpe000000009990009999999999999999999999988888888888888888888777777777777777766666666666666656655555555555555554444444444444433333333333333222222239ugvVZZZZZZZZZZZZZFFFFFFFFFFFFFFFFFFFFZZZZZZZZZZZZZZZZZZZZFFFFFFFFFFFFFFFFFFFFZZZZZZZZZZZZZZZZZZZZFFFFFFFFFFFFFFFFFFFFZZZZZZZZZZZZZZZZZZZZFFFFFFFFFFFFFFFFFFFFZZZZZZZZZZZZZZZZZZZZFFFFFFFFFFFFFFFFFFFFZZZZZZZZZZZZZZZZZZZZFFFFFFFFFFFFFFFFFFFFZZZZZZZZZZZZZZZZZZZZFFFFFFFFFFFFFFFFFFFFZZZZZZZZZZZZZZZZZZZZFFFFFFFFFFFFFFFFFFFFZZZZZZZZZZZZZZZZZZZZFFFFFFFFFFFFFFFFFFFF",
"FFFFFFFFFFFFFFFFFFFFZZZZZZZZZZZZZZZZZZZZFFFFFFFFFFFFFFFFFFFFZZZZZZZZZZZZZZZZZZZZFFFFFFFFFFFFFFFFFFFFZZZZZZZZZZZZZZZZZZZZFFFFFFFFFFFFFFFFFFFFZZZZZZZZZZZZZZZZZZZZFFFFFFFFFFFFFFFFFFFFZZZZZZZZZZZZZZZZZZZZFFFFFFFFFFFFFFFFFFFFZZZZZZZZZZZZZZZZZZZZFFFFFFFFFFFFFFFFFFFFZZZZZZZZZZZZZZZZZZZZFFFFFFFFFFFFFFFFFFFFZZZZZZZZZZZZZZZZZZZZFFFFFFFFFFFFFFFFFFFFZZZZZZZZCMxgie0000000000000000099900999999999999999998888898888888888888888888777777777777776667666666666666666655555555555544444444444444444433333333333333222222222228yfcVZZZZZZZZFFFFFFFFFFFFFFFFFFFFZZZZZZZZZZZZZZZZZZZZFFFFFFFFFFFFFFFFFFFFZZZZZZZZZZZZZZZZZZZZFFFFFFFFFFFFFFFFFFFFZZZZZZZZZZZZZZZZZZZZFFFFFFFFFFFFFFFFFFFFZZZZZZZZZZZZZZZZZZZZFFFFFFFFFFFFFFFFFFFFZZZZZZZZZZZZZZZZZZZZFFFFFFFFFFFFFFFFFFFFZZZZZZZZZZZZZZZZZZZZFFFFFFFFFFFFFFFFFFFFZZZZZZZZZZZZZZZZZZZZFFFFFFFFFFFFFFFFFFFFZZZZZZZZZZZZZZZZZZZZFFFFFFFFFFFFFFFFFFFF",
"FFFFFFFFFFFFFFFFFFFFZZZZZZZZZZZZZZZZZZZZFFFFFFFFFFFFFFFFFFFFZZZZZZZZZZZZZZZZZZZZFFFFFFFFFFFFFFFFFFFFZZZZZZZZZZZZZZZZZZZZFFFFFFFFFFFFFFFFFFFFZZZZZZZZZZZZZZZZZZZZFFFFFFFFFFFFFFFFFFFFZZZZZZZZZZZZZZZZZZZZFFFFFFFFFFFFFFFFFFFFZZZZZZZZZZZZZZZZZZZZFFFFFFFFFFFFFFFFFFFFZZZZZZZZZZZZZZZZZZZZFFFFFFFFFFFFFFFFFFFFZZZZZZZZZZZZZZZZZZZZFFFFFFFFFFFFFFFFFFFFZZZZVbjae00000000000000000000000990909999999999999999999989988888888888888888788777777777777766676666666666666665555555555555444544444444444444333333333333332222222222222129ijmCZZZFFFFFFFFFFFFFFFFFFFFZZZZZZZZZZZZZZZZZZZZFFFFFFFFFFFFFFFFFFFFZZZZZZZZZZZZZZZZZZZZFFFFFFFFFFFFFFFFFFFFZZZZZZZZZZZZZZZZZZZZFFFFFFFFFFFFFFFFFFFFZZZZZZZZZZZZZZZZZZZZFFFFFFFFFFFFFFFFFFFFZZZZZZZZZZZZZZZZZZZZFFFFFFFFFFFFFFFFFFFFZZZZZZZZZZZZZZZZZZZZFFFFFFFFFFFFFFFFFFFFZZZZZZZZZZZZZZZZZZZZFFFFFFFFFFFFFFFFFFFFZZZZZZZZZZZZZZZZZZZZFFFFFFFFFFFFFFFFFFFF",
"FFFFFFFFFFFFFFFFFFFFZZZZZZZZZZZZZZZZZZZZFFFFFFFFFFFFFFFFFFFFZZZZZZZZZZZZZZZZZZZZFFFFFFFFFFFFFFFFFFFFZZZZZZZZZZZZZZZZZZZZFFFFFFFFFFFFFFFFFFFFZZZZZZZZZZZZZZZZZZZZFFFFFFFFFFFFFFFFFFFFZZZZZZZZZZZZZZZZZZZZFFFFFFFFFFFFFFFFFFFFZZZZZZZZZZZZZZZZZZZZFFFFFFFFFFFFFFFFFFFFZZZZZZZZZZZZZZZZZZZZFFFFFFFFFFFFFFFFFFFFZZZZZZZZZZZZZZZZZZZZFFFFFFFFFFFFFFFFFFFFNxfuwqqqqq00qq0000000000000000000009999999999999999999999999888888888888888888888877777777777776777666666666666655555555555555545544444444444444333333333333332222222222222111115rdcSFFFFFFFFFFFFFFFFFFFZZZZZZZZZZZZZZZZZZZZFFFFFFFFFFFFFFFFFFFFZZZZZZZZZZZZZZZZZZZZFFFFFFFFFFFFFFFFFFFFZZZZZZZZZZZZZZZZZZZZFFFFFFFFFFFFFFFFFFFFZZZZZZZZZZZZZZZZZZZZFFFFFFFFFFFFFFFFFFFFZZZZZZZZZZZZZZZZZZZZFFFFFFFFFFFFFFFFFFFFZZZZZZZZZZZZZZZZZZZZFFFFFFFFFFFFFFFFFFFFZZZZZZZZZZZZZZZZZZZZFFFFFFFFFFFFFFFFFFFFZZZZZZZZZZZZZZZZZZZZFFFFFFFFFFFFFFFFFFFF",
"FFFFFFFFFFFFFFFFFFFFZZZZZZZZZZZZZZZZZZZZFFFFFFFFFFFFFFFFFFFFZZZZZZZZZZZZZZZZZZZZFFFFFFFFFFFFFFFFFFFFZZZZZZZZZZZZZZZZZZZZFFFFFFFFFFFFFFFFFFFFZZZZZZZZZZZZZZZZZZZZFFFFFFFFFFFFFFFFFFFFZZZZZZZZZZZZZZZZZZZZFFFFFFFFFFFFFFFFFFFFZZZZZZZZZZZZZZZZZZZZFFFFFFFFFFFFFFFFFFFFZZZZZZZZZZZZZZZZZZZZFFFFFFFFFFFFFFFFFFFFZZZZZZZZZZZZZZZZZZZZFFFFFFFFFFFFFFFFCcftqqqqqqqqqq00qqqq000000000000000000000009999999999999999999998888988888888888888888887777777777777777766666666666655565555555555555554454444444444433333333333332222222222222111111112qdbSFFFFFFFFFFFFFFFZZZZZZZZZZZZZZZZZZZZFFFFFFFFFFFFFFFFFFFFZZZZZZZZZZZZZZZZZZZZFFFFFFFFFFFFFFFFFFFFZZZZZZZZZZZZZZZZZZZZFFFFFFFFFFFFFFFFFFFFZZZZZZZZZZZZZZZZZZZZFFFFFFFFFFFFFFFFFFFFZZZZZZZZZZZZZZZZZZZZFFFFFFFFFFFFFFFFFFFFZZZZZZZZZZZZZZZZZZZZFFFFFFFFFFFFFFFFFFFFZZZZZZZZZZZZZZZZZZZZFFFFFFFFFFFFFFFFFFFFZZZZZZZZZZZZZZZZZZZZFFFFFFFFFFFFFFFFFFFF",
"FFFFFFFFFFFFFFFFFFFFZZZZZZZZZZZZZZZZZZZZFFFFFFFFFFFFFFFFFFFFZZZZZZZZZZZZZZZZZZZZFFFFFFFFFFFFFFFFFFFFZZZZZZZZZZZZZZZZZZZZFFFFFFFFFFFFFFFFFFFFZZZZZZZZZZZZZZZZZZZZFFFFFFFFFFFFFFFFFFFFZZZZZZZZZZZZZZZZZZZZFFFFFFFFFFFFFFFFFFFFZZZZZZZZZZZZZZZZZZZZFFFFFFFFFFFFFFFFFFFFZZZZZZZZZZZZZZZZZZZZFFFFFFFFFFFFFFFFFFFFZZZZZZZZZZZZZZZZZZZZFFFFFFFFFFFFCvftqqqqqqqqqqqqqqqqqq0000qq000000000000000000000999999999999999999999889998888888888888888877777777777777766666666666666665555555555555555554444444444444433333333333332222222222222111111111112qsbAFFFFFFFFFFFZZZZZZZZZZZZZZZZZZZZFFFFFFFFFFFFFFFFFFFFZZZZZZZZZZZZZZZZZZZZFFFFFFFFFFFFFFFFFFFFZZZZZZZZZZZZZZZZZZZZFFFFFFFFFFFFFFFFFFFFZZZZZZZZZZZZZZZZZZZZFFFFFFFFFFFFFFFFFFFFZZZZZZZZZZZZZZZZZZZZFFFFFFFFFFFFFFFFFFFFZZZZZZZZZZZZZZZZZZZZFFFFFFFFFFFFFFFFFFFFZZZZZZZZZZZZZZZZZZZZFFFFFFFFFFFFFFFFFFFFZZZZZZZZZZZZZZZZZZZZFFFFFFFFFFFFFFFFFFFF",
"FFFFFFFFFFFFFFFFFFFFZZZZZZZZZZZZZZZZZZZZFFFFFFFFFFFFFFFFFFFFZZZZZZZZZZZZZZZZZZZZFFFFFFFFFFFFFFFFFFFFZZZZZZZZZZZZZZZZZZZZFFFFFFFFFFFFFFFFFFFFZZZZZZZZZZZZZZZZZZZZFFFFFFFFFFFFFFFFFFFFZZZZZZZZZZZZZZZZZZZZFFFFFFFFFFFFFFFFFFFFZZZZZZZZZZZZZZZZZZZZFFFFFFFFFFFFFFFFFFFFZZZZZZZZZZZZZZZZZZZZFFFFFFFFFFFFFFFFFFFFZZZZZZZZZZZZZZZZZZZZFFFFFFFFZvftqqqqqqqqqqqqqqqqqqqqqqqqq0q000000000000000000000000999999999999999999999999998888888888888887877777777777777666666666666666655555555555555555544444444444444333333333332332222222222221111111111<<<<2qdnSFFFFFFFZZZZZZZZZZZZZZZZZZZZFFFFFFFFFFFFFFFFFFFFZZZZZZZZZZZZZZZZZZZZFFFFFFFFFFFFFFFFFFFFZZZZZZZZZZZZZZZZZZZZFFFFFFFFFFFFFFFFFFFFZZZZZZZZZZZZZZZZZZZZFFFFFFFFFFFFFFFFFFFFZZZZZZZZZZZZZZZZZZZZFFFFFFFFFFFFFFFFFFFFZZZZZZZZZZZZZZZZZZZZFFFFFFFFFFFFFFFFFFFFZZZZZZZZZZZZZZZZZZZZFFFFFFFFFFFFFFFFFFFFZZZZZZZZZZZZZZZZZZZZFFFFFFFFFFFFFFFFFFFF",
"FFFFFFFFFFFFFFFFFFFFZZZZZZZZZZZZZZZZZZZZFFFFFFFFFFFFFFFFFFFFZZZZZZZZZZZZZZZZZZZZFFFFFFFFFFFFFFFFFFFFZZZZZZZZZZZZZZZZZZZZFFFFFFFFFFFFFFFFFFFFZZZZZZZZZZZZZZZZZZZZFFFFFFFFFFFFFFFFFFFFZZZZZZZZZZZZZZZZZZZZFFFFFFFFFFFFFFFFFFFFZZZZZZZZZZZZZZZZZZZZFFFFFFFFFFFFFFFFFFFFZZZZZZZZZZZZZZZZZZZZFFFFFFFFFFFFFFFFFFFFZZZZZZZZZZZZZZZZZZZZFFFFSMkiwwwwqqqqqqqqqqqqqqqqqqqqqqqqqqqq00q0qqq00000000000000000000900099999999999999999999888888888888888888877777777777777776666666666666666555555555555554444444444444433333333333332222222222222111111111<<<<<<<3rkVDFFFZZZZZZZZZZZZZZZZZZZZFFFFFFFFFFFFFFFFFFFFZZZZZZZZZZZZZZZZZZZZFFFFFFFFFFFFFFFFFFFFZZZZZZZZZZZZZZZZZZZZFFFFFFFFFFFFFFFFFFFFZZZZZZZZZZZZZZZZZZZZFFFFFFFFFFFFFFFFFFFFZZZZZZZZZZZZZZZZZZZZFFFFFFFFFFFFFFFFFFFFZZZZZZZZZZZZZZZZZZZZFFFFFFFFFFFFFFFFFFFFZZZZZZZZZZZZZZZZZZZZFFFFFFFFFFFFFFFFFFFFZZZZZZZZZZZZZZZZZZZZFFFFFFFFFFFFFFFFFFFF",
"FFFFFFFFFFFFFFFFFFFFZZZZZZZZZZZZZZZZZZZZFFFFFFFFFFFFFFFFFFFFZZZZZZZZZZZZZZZZZZZZFFFFFFFFFFFFFFFFFFFFZZZZZZZZZZZZZZZZZZZZFFFFFFFFFFFFFFFFFFFFZZZZZZZZZZZZZZZZZZZZFFFFFFFFFFFFFFFFFFFFZZZZZZZZZZZZZZZZZZZZFFFFFFFFFFFFFFFFFFFFZZZZZZZZZZZZZZZZZZZZFFFFFFFFFFFFFFFFFFFFZZZZZZZZZZZZZZZZZZZZFFFFFFFFFFFFFFFFFFFFZZZZZZZZZZZZZZZZZZZZDCxsewwwwwwwqqqqwwwwqqqqqqqqqqqqqqqqqqqqqqqqqqqq00000000000000000000000090999999999999999999998888888888888888877777777777777766666666666666666555555555555544444444444444433333333333332222222222222111111111<<1<<<<<<<7pcAZZZZZZZZZZZZZZZZZZZZFFFFFFFFFFFFFFFFFFFFZZZZZZZZZZZZZZZZZZZZFFFFFFFFFFFFFFFFFFFFZZZZZZZZZZZZZZZZZZZZFFFFFFFFFFFFFFFFFFFFZZZZZZZZZZZZZZZZZZZZFFFFFFFFFFFFFFFFFFFFZZZZZZZZZZZZZZZZZZZZFFFFFFFFFFFFFFFFFFFFZZZZZZZZZZZZZZZZZZZZFFFFFFFFFFFFFFFFFFFFZZZZZZZZZZZZZZZZZZZZFFFFFFFFFFFFFFFFFFFFZZZZZZZZZZZZZZZZZZZZFFFFFFFFFFFFFFFFFFFF",
"FFFFFFFFFFFFFFFFFFFFZZZZZZZZZZZZZZZZZZZZFFFFFFFFFFFFFFFFFFFFZZZZZZZZZZZZZZZZZZZZFFFFFFFFFFFFFFFFFFFFZZZZZZZZZZZZZZZZZZZZFFFFFFFFFFFFFFFFFFFFZZZZZZZZZZZZZZZZZZZZFFFFFFFFFFFFFFFFFFFFZZZZZZZZZZZZZZZZZZZZFFFFFFFFFFFFFFFFFFFFZZZZZZZZZZZZZZZZZZZZFFFFFFFFFFFFFFFFFFFFZZZZZZZZZZZZZZZZZZZZFFFFFFFFFFFFFFFFFFFFZZZZZZZZZZZZZZZZZCbguwwwwwwwwwwwwwwwwwqqqqqqqqqqqqqqqqqqqqqqqqqqqqqq000000000000000000000009909999999999999999988888888888888888888877777777777776667666666666666666555555555555444444444444444433333333333332222222222222111111111111<<<<<<<<<1qfmCZZZZZZZZZZZZZZZZFFFFFFFFFFFFFFFFFFFFZZZZZZZZZZZZZZZZZZZZFFFFFFFFFFFFFFFFFFFFZZZZZZZZZZZZZZZZZZZZFFFFFFFFFFFFFFFFFFFFZZZZZZZZZZZZZZZZZZZZFFFFFFFFFFFFFFFFFFFFZZZZZZZZZZZZZZZZZZZZFFFFFFFFFFFFFFFFFFFFZZZZZZZZZZZZZZZZZZZZFFFFFFFFFFFFFFFFFFFFZZZZZZZZZZZZZZZZZZZZFFFFFFFFFFFFFFFFFFFFZZZZZZZZZZZZZZZZZZZZFFFFFFFFFFFFFFFFFFFF",
"FFFFFFFFFFFFFFFFFFFFZZZZZZZZZZZZZZZZZZZZFFFFFFFFFFFFFFFFFFFFZZZZZZZZZZZZZZZZZZZZFFFFFFFFFFFFFFFFFFFFZZZZZZZZZZZZZZZZZZZZFFFFFFFFFFFFFFFFFFFFZZZZZZZZZZZZZZZZZZZZFFFFFFFFFFFFFFFFFFFFZZZZZZZZZZZZZZZZZZZZFFFFFFFFFFFFFFFFFFFFZZZZZZZZZZZZZZZZZZZZFFFFFFFFFFFFFFFFFFFFZZZZZZZZZZZZZZZZZZZZFFFFFFFFFFFFFFFFFFFFZZZZZZZZZZZZZZVcdrwwwwwwwwwwwwwwwwwwwwwqqqqqqqwwqqqqqqqqqqqqqqqqqqqqqq0000qq0000000000000000099999999999999999999888988888888888888877877777777777766776666666666655555555555555444544444444444443333333333333222222222222111111111111<<<<<<<<<<,,<8abCZZZZZZZZZZZZZFFFFFFFFFFFFFFFFFFFFZZZZZZZZZZZZZZZZZZZZFFFFFFFFFFFFFFFFFFFFZZZZZZZZZZZZZZZZZZZZFFFFFFFFFFFFFFFFFFFFZZZZZZZZZZZZZZZZZZZZFFFFFFFFFFFFFFFFFFFFZZZZZZZZZZZZZZZZZZZZFFFFFFFFFFFFFFFFFFFFZZZZZZZZZZZZZZZZZZZZFFFFFFFFFFFFFFFFFFFFZZZZZZZZZZZZZZZZZZZZFFFFFFFFFFFFFFFFFFFFZZZZZZZZZZZZZZZZZZZZFFFFFFFFFFFFFFFFFFFF",
"FFFFFFFFFFFFFFFFFFFFZZZZZZZZZZZZZZZZZZZZFFFFFFFFFFFFFFFFFFFFZZZZZZZZZZZZZZZZZZZZFFFFFFFFFFFFFFFFFFFFZZZZZZZZZZZZZZZZZZZZFFFFFFFFFFFFFFFFFFFFZZZZZZZZZZZZZZZZZZZZFFFFFFFFFFFFFFFFFFFFZZZZZZZZZZZZZZZZZZZZFFFFFFFFFFFFFFFFFFFFZZZZZZZZZZZZZZZZZZZZFFFFFFFFFFFFFFFFFFFFZZZZZZZZZZZZZZZZZZZZFFFFFFFFFFFFFFFFFFFFZZZZZZZZZZZNlaewwwwwwwwwwwwwwwwwwwwwwwwwwwwwqqqqwwwqqqqqqqqqqqqqqqqqqqqqqqqqq0q00000000000000009999999999999999999999998888888888888888887777777777776776666666666665555555555555555544444444444444333333333333322222222222111111111111<<<<<<<<<<,,,,,5yzVZZZZZZZZZZFFFFFFFFFFFFFFFFFFFFZZZZZZZZZZZZZZZZZZZZFFFFFFFFFFFFFFFFFFFFZZZZZZZZZZZZZZZZZZZZFFFFFFFFFFFFFFFFFFFFZZZZZZZZZZZZZZZZZZZZFFFFFFFFFFFFFFFFFFFFZZZZZZZZZZZZZZZZZZZZFFFFFFFFFFFFFFFFFFFFZZZZZZZZZZZZZZZZZZZZFFFFFFFFFFFFFFFFFFFFZZZZZZZZZZZZZZZZZZZZFFFFFFFFFFFFFFFFFFFFZZZZZZZZZZZZZZZZZZZZFFFFFFFFFFFFFFFFFFFF",
"FFFFFFFFFFFFFFFFFFFFZZZZZZZZZZZZZZZZZZZZFFFFFFFFFFFFFFFFFFFFZZZZZZZZZZZZZZZZZZZZFFFFFFFFFFFFFFFFFFFFZZZZZZZZZZZZZZZZZZZZFFFFFFFFFFFFFFFFFFFFZZZZZZZZZZZZZZZZZZZZFFFFFFFFFFFFFFFFFFFFZZZZZZZZZZZZZZZZZZZZFFFFFFFFFFFFFFFFFFFFZZZZZZZZZZZZZZZZZZZZFFFFFFFFFFFFFFFFFFFFZZZZZZZZZZZZZZZZZZZZFFFFFFFFFFFFFFFFFFFFZZZZZZZCNkpeeeewwwwwwwwwwwwwwwwwwwwwwwwwwwwwwwwqwwwwwwwqqqqqqqqqqqqqqqqqqqqq00qqq00000000000000000990099999999999999999988888888888888888877777777777777776666666666655565555555555555444444444444443333333333333222222222222111111111111<<<<<<<<<,,<,,,,3rlVZZZZZZZFFFFFFFFFFFFFFFFFFFFZZZZZZZZZZZZZZZZZZZZFFFFFFFFFFFFFFFFFFFFZZZZZZZZZZZZZZZZZZZZFFFFFFFFFFFFFFFFFFFFZZZZZZZZZZZZZZZZZZZZFFFFFFFFFFFFFFFFFFFFZZZZZZZZZZZZZZZZZZZZFFFFFFFFFFFFFFFFFFFFZZZZZZZZZZZZZZZZZZZZFFFFFFFFFFFFFFFFFFFFZZZZZZZZZZZZZZZZZZZZFFFFFFFFFFFFFFFFFFFFZZZZZZZZZZZZZZZZZZZZFFFFFFFFFFFFFFFFFFFF",
"ZZZZZZZZZZZZZZZZZZZZFFFFFFFFFFFFFFFFFFFFZZZZZZZZZZZZZZZZZZZZFFFFFFFFFFFFFFFFFFFFZZZZZZZZZZZZZZZZZZZZFFFFFFFFFFFFFFFFFFFFZZZZZZZZZZZZZZZZZZZZFFFFFFFFFFFFFFFFFFFFZZZZZZZZZZZZZZZZZZZZFFFFFFFFFFFFFFFFFFFFZZZZZZZZZZZZZZZZZZZZFFFFFFFFFFFFFFFFFFFFZZZZZZZZZZZZZZZZZZZZFFFFFFFFFFFFFFFFFFFFZZZZZZZZZZZZZZZZZZZZFFFFFCxpeeeeeeeeeeeeeewwwwwwwwwwwwwwwwwwwwwwwwwwwwwqwwwwwwwqqqqqqqqqqqqqqqqqqqqq0000000000000000000000999999999999999998889888888888888888777777777777776666666666666665555555555555544444444444444443333333333333222222222121111111111<1<<<<<<<<<<<<<,,,,,,2tcAFFFFZZZZZZZZZZZZZZZZZZZZFFFFFFFFFFFFFFFFFFFFZZZZZZZZZZZZZZZZZZZZFFFFFFFFFFFFFFFFFFFFZZZZZZZZZZZZZZZZZZZZFFFFFFFFFFFFFFFFFFFFZZZZZZZZZZZZZZZZZZZZFFFFFFFFFFFFFFFFFFFFZZZZZZZZZZZZZZZZZZZZFFFFFFFFFFFFFFFFFFFFZZZZZZZZZZZZZZZZZZZZFFFFFFFFFFFFFFFFFFFFZZZZZZZZZZZZZZZZZZZZFFFFFFFFFFFFFFFFFFFFZZZZZZZZZZZZZZZZZZZZ",
"ZZZZZZZZZZZZZZZZZZZZFFFFFFFFFFFFFFFFFFFFZZZZZZZZZZZZZZZZZZZZFFFFFFFFFFFFFFFFFFFFZZZZZZZZZZZZZZZZZZZZFFFFFFFFFFFFFFFFFFFFZZZZZZZZZZZZZZZZZZZZFFFFFFFFFFFFFFFFFFFFZZZZZZZZZZZZZZZZZZZZFFFFFFFFFFFFFFFFFFFFZZZZZZZZZZZZZZZZZZZZFFFFFFFFFFFFFFFFFFFFZZZZZZZZZZZZZZZZZZZZFFFFFFFFFFFFFFFFFFFFZZZZZZZZZZZZZZZZZZZZFFCxpeeeeeeeeeeeeeeeeeeeeeeewwwwwwwwwwwwwwwwwwwwwwwwwwwwwwwqwwqqqqqqqqqqqqqqqqqqqq000000000000000000009999099999999999999899988888888888887777777777777776667666666666665565555555555545545544444444443333333333333222222222222111111111111<<<<<<<<<<<,,,,,,,,,2txAFZZZZZZZZZZZZZZZZZZZZFFFFFFFFFFFFFFFFFFFFZZZZZZZZZZZZZZZZZZZZFFFFFFFFFFFFFFFFFFFFZZZZZZZZZZZZZZZZZZZZFFFFFFFFFFFFFFFFFFFFZZZZZZZZZZZZZZZZZZZZFFFFFFFFFFFFFFFFFFFFZZZZZZZZZZZZZZZZZZZZFFFFFFFFFFFFFFFFFFFFZZZZZZZZZZZZZZZZZZZZFFFFFFFFFFFFFFFFFFFFZZZZZZZZZZZZZZZZZZZZFFFFFFFFFFFFFFFFFFFFZZZZZZZZZZZZZZZZZZZZ",
"ZZZZZZZZZZZZZZZZZZZZFFFFFFFFFFFFFFFFFFFFZZZZZZZZZZZZZZZZZZZZFFFFFFFFFFFFFFFFFFFFZZZZZZZZZZZZZZZZZZZZFFFFFFFFFFFFFFFFFFFFZZZZZZZZZZZZZZZZZZZZFFFFFFFFFFFFFFFFFFFFZZZZZZZZZZZZZZZZZZZZFFFFFFFFFFFFFFFFFFFFZZZZZZZZZZZZZZZZZZZZFFFFFFFFFFFFFFFFFFFFZZZZZZZZZZZZZZZZZZZZFFFFFFFFFFFFFFFFFFFFZZZZZZZZZZZZZZZZZZZBcareeeeeeeeeeeeeeeeeeeeeeeeeeewwewwwwwwwwwwwwwwwwwwwwwwwwwqqqqwwwqqqqqqqqqqqqqqqqqqq0qqq0000000000000000990099999999999999889998888888888887788777777777777777666666666665666555555555555555444444444443333333333333222222222222111111111<11<<<<<<<<<,,<,,,,,,,,,,2yxVZZZZZZZZZZZZZZZZZZFFFFFFFFFFFFFFFFFFFFZZZZZZZZZZZZZZZZZZZZFFFFFFFFFFFFFFFFFFFFZZZZZZZZZZZZZZZZZZZZFFFFFFFFFFFFFFFFFFFFZZZZZZZZZZZZZZZZZZZZFFFFFFFFFFFFFFFFFFFFZZZZZZZZZZZZZZZZZZZZFFFFFFFFFFFFFFFFFFFFZZZZZZZZZZZZZZZZZZZZFFFFFFFFFFFFFFFFFFFFZZZZZZZZZZZZZZZZZZZZFFFFFFFFFFFFFFFFFFFFZZZZZZZZZZZZZZZZZZZZ",
"ZZZZZZZZZZZZZZZZZZZZFFFFFFFFFFFFFFFFFFFFZZZZZZZZZZZZZZZZZZZZFFFFFFFFFFFFFFFFFFFFZZZZZZZZZZZZZZZZZZZZFFFFFFFFFFFFFFFFFFFFZZZZZZZZZZZZZZZZZZZZFFFFFFFFFFFFFFFFFFFFZZZZZZZZZZZZZZZZZZZZFFFFFFFFFFFFFFFFFFFFZZZZZZZZZZZZZZZZZZZZFFFFFFFFFFFFFFFFFFFFZZZZZZZZZZZZZZZZZZZZFFFFFFFFFFFFFFFFFFFFZZZZZZZZZZZZZZZZVcsreeeeeeeeeeeeeeeeeeeeeeeeeeeeeeeweeeeewwwwwwwwwwwwwwwwwwwwwwwwqwwwqqqqqqqqqqqqqqqqqqqqqqq0000000000000000000099999999999999999999888888888888888877777777777777666666666666666655555555555554444444444444433333333333322222222222111111111111<<<<<<<<<<,,<,,,,,,,,,,,,4ibCZZZZZZZZZZZZZZZFFFFFFFFFFFFFFFFFFFFZZZZZZZZZZZZZZZZZZZZFFFFFFFFFFFFFFFFFFFFZZZZZZZZZZZZZZZZZZZZFFFFFFFFFFFFFFFFFFFFZZZZZZZZZZZZZZZZZZZZFFFFFFFFFFFFFFFFFFFFZZZZZZZZZZZZZZZZZZZZFFFFFFFFFFFFFFFFFFFFZZZZZZZZZZZZZZZZZZZZFFFFFFFFFFFFFFFFFFFFZZZZZZZZZZZZZZZZZZZZFFFFFFFFFFFFFFFFFFFFZZZZZZZZZZZZZZZZZZZZ",
"ZZZZZZZZZZZZZZZZZZZZFFFFFFFFFFFFFFFFFFFFZZZZZZZZZZZZZZZZZZZZFFFFFFFFFFFFFFFFFFFFZZZZZZZZZZZZZZZZZZZZFFFFFFFFFFFFFFFFFFFFZZZZZZZZZZZZZZZZZZZZFFFFFFFFFFFFFFFFFFFFZZZZZZZZZZZZZZZZZZZZFFFFFFFFFFFFFFFFFFFFZZZZZZZZZZZZZZZZZZZZFFFFFFFFFFFFFFFFFFFFZZZZZZZZZZZZZZZZZZZZFFFFFFFFFFFFFFFFFFFFZZZZZZZZZZZZZCbgteeeeeerreeeeeeeeeeeeeeeeeeeeeeeeeeeeeeeeeeeeeewwwwwwwwwwwwwwwwwwwwwwwqqqqwqqqqqqqqqqqqqqqqq00qq000000000000000099009999999999999999888888888888887888777777777777666666666666665665555555555555544544444444443333333333222222222222222111111111<<<<<<<<<<<<,,,,,,,,,,,,,,>,7sMCZZZZZZZZZZZZFFFFFFFFFFFFFFFFFFFFZZZZZZZZZZZZZZZZZZZZFFFFFFFFFFFFFFFFFFFFZZZZZZZZZZZZZZZZZZZZFFFFFFFFFFFFFFFFFFFFZZZZZZZZZZZZZZZZZZZZFFFFFFFFFFFFFFFFFFFFZZZZZZZZZZZZZZZZZZZZFFFFFFFFFFFFFFFFFFFFZZZZZZZZZZZZZZZZZZZZFFFFFFFFFFFFFFFFFFFFZZZZZZZZZZZZZZZZZZZZFFFFFFFFFFFFFFFFFFFFZZZZZZZZZZZZZZZZZZZZ",
"ZZZZZZZZZZZZZZZZZZZZFFFFFFFFFFFFFFFFFFFFZZZZZZZZZZZZZZZZZZZZFFFFFFFFFFFFFFFFFFFFZZZZZZZZZZZZZZZZZZZZFFFFFFFFFFFFFFFFFFFFZZZZZZZZZZZZZZZZZZZZFFFFFFFFFFFFFFFFFFFFZZZZZZZZZZZZZZZZZZZZFFFFFFFFFFFFFFFFFFFFZZZZZZZZZZZZZZZZZZZZFFFFFFFFFFFFFFFFFFFFZZZZZZZZZZZZZZZZZZZZFFFFFFFFFFFFFFFFFFFFZZZZZZZZZZCMjueeeeeeeeerrreeeereeeeeeeeeeeeeeeeeeeeeeeeeeeeeeeeeeewwwwwwwwwwwwwwwwwwwwwqqqwwwqqqqqqqqqqqqqqqqqqq00qq00000000000000009999999999999999988988888888888888887777777777766666666666666655555555555555544444444444444333333333332222222222222111111111<<<<<<<<<<<<,,<,,,,,,,,,>>>>>>,0jBZZZZZZZZZZFFFFFFFFFFFFFFFFFFFFZZZZZZZZZZZZZZZZZZZZFFFFFFFFFFFFFFFFFFFFZZZZZZZZZZZZZZZZZZZZFFFFFFFFFFFFFFFFFFFFZZZZZZZZZZZZZZZZZZZZFFFFFFFFFFFFFFFFFFFFZZZZZZZZZZZZZZZZZZZZFFFFFFFFFFFFFFFFFFFFZZZZZZZZZZZZZZZZZZZZFFFFFFFFFFFFFFFFFFFFZZZZZZZZZZZZZZZZZZZZFFFFFFFFFFFFFFFFFFFFZZZZZZZZZZZZZZZZZZZZ",
"ZZZZZZZZZZZZZZZZZZZZFFFFFFFFFFFFFFFFFFFFZZZZZZZZZZZZZZZZZZZZFFFFFFFFFFFFFFFFFFFFZZZZZZZZZZZZZZZZZZZZFFFFFFFFFFFFFFFFFFFFZZZZZZZZZZZZZZZZZZZZFFFFFFFFFFFFFFFFFFFFZZZZZZZZZZZZZZZZZZZZFFFFFFFFFFFFFFFFFFFFZZZZZZZZZZZZZZZZZZZZFFFFFFFFFFFFFFFFFFFFZZZZZZZZZZZZZZZZZZZZFFFFFFFFFFFFFFFFFFFFZZZZZZZZVxarrrrrrrrrrreeeeeerreeeeeerrrreeeeeeeeeeeeeeeeeeeeeeeeeeeeewwwwwwwwwwwwwwwwwwwwwqwwqqqqqqqqqqqqqqqqqqqq0qqqq0000000000000000990999999999999988998888888888888887777777777777676666666666655555555555554444444444444444333333333333222222222222211111111<1<<<<<<<<<<,,,,,,,,,,,,>>>>>>>>2yvCZZZZZZZFFFFFFFFFFFFFFFFFFFFZZZZZZZZZZZZZZZZZZZZFFFFFFFFFFFFFFFFFFFFZZZZZZZZZZZZZZZZZZZZFFFFFFFFFFFFFFFFFFFFZZZZZZZZZZZZZZZZZZZZFFFFFFFFFFFFFFFFFFFFZZZZZZZZZZZZZZZZZZZZFFFFFFFFFFFFFFFFFFFFZZZZZZZZZZZZZZZZZZZZFFFFFFFFFFFFFFFFFFFFZZZZZZZZZZZZZZZZZZZZFFFFFFFFFFFFFFFFFFFFZZZZZZZZZZZZZZZZZZZZ",
"ZZZZZZZZZZZZZZZZZZZZFFFFFFFFFFFFFFFFFFFFZZZZZZZZZZZZZZZZZZZZFFFFFFFFFFFFFFFFFFFFZZZZZZZZZZZZZZZZZZZZFFFFFFFFFFFFFFFFFFFFZZZZZZZZZZZZZZZZZZZZFFFFFFFFFFFFFFFFFFFFZZZZZZZZZZZZZZZZZZZZFFFFFFFFFFFFFFFFFFFFZZZZZZZZZZZZZZZZZZZZFFFFFFFFFFFFFFFFFFFFZZZZZZZZZZZZZZZZZZZZFFFFFFFFFFFFFFFFFFFFZZZZZCmhyeeerrrrrrrreeeerrrrrrrreeeerrrreeeerreeeeeeeeeeeeeeeeeeeeeeeeeeewwwwwwwwwwwwwwwwwwwwqqqqqqqqqqqqqqqqqqqqqqqqq000000000000000099009999999999999899988888888888888887777777777777766666666666555555555555544454444444444443333333333333222222222221111111111<1<<<<<<<<<,,<,,,,,,,,>>>>>>>>>>>7fNCZZZZFFFFFFFFFFFFFFFFFFFFZZZZZZZZZZZZZZZZZZZZFFFFFFFFFFFFFFFFFFFFZZZZZZZZZZZZZZZZZZZZFFFFFFFFFFFFFFFFFFFFZZZZZZZZZZZZZZZZZZZZFFFFFFFFFFFFFFFFFFFFZZZZZZZZZZZZZZZZZZZZFFFFFFFFFFFFFFFFFFFFZZZZZZZZZZZZZZZZZZZZFFFFFFFFFFFFFFFFFFFFZZZZZZZZZZZZZZZZZZZZFFFFFFFFFFFFFFFFFFFFZZZZZZZZZZZZZZZZZZZZ",
"ZZZZZZZZZZZZZZZZZZZZFFFFFFFFFFFFFFFFFFFFZZZZZZZZZZZZZZZZZZZZFFFFFFFFFFFFFFFFFFFFZZZZZZZZZZZZZZZZZZZZFFFFFFFFFFFFFFFFFFFFZZZZZZZZZZZZZZZZZZZZFFFFFFFFFFFFFFFFFFFFZZZZZZZZZZZZZZZZZZZZFFFFFFFFFFFFFFFFFFFFZZZZZZZZZZZZZZZZZZZZFFFFFFFFFFFFFFFFFFFFZZZZZZZZZZZZZZZZZZZZFFFFFFFFFFFFFFFFFFFFZZZBzarrrrrrrrrrrrrrrrreeeeerrrrrreeeeeeeeeerrreeeeeeeeeeeeeeeeeeeeeeeeeeeeeeewwwwwwwwwwwwwwwwwwwqqqqqqqqqqqqqqqqqqqqq00q000000000000000000099999999999999999888888888888877777777777777666666666666655565555555555455444444444444333333333333322222222212211111111<<<<<<<<<<<<,<<,,,,,,,,>>,>>>>>>>>><rxCZZFFFFFFFFFFFFFFFFFFFFZZZZZZZZZZZZZZZZZZZZFFFFFFFFFFFFFFFFFFFFZZZZZZZZZZZZZZZZZZZZFFFFFFFFFFFFFFFFFFFFZZZZZZZZZZZZZZZZZZZZFFFFFFFFFFFFFFFFFFFFZZZZZZZZZZZZZZZZZZZZFFFFFFFFFFFFFFFFFFFFZZZZZZZZZZZZZZZZZZZZFFFFFFFFFFFFFFFFFFFFZZZZZZZZZZZZZZZZZZZZFFFFFFFFFFFFFFFFFFFFZZZZZZZZZZZZZZZZZZZZ",
"ZZZZZZZZZZZZZZZZZZZZFFFFFFFFFFFFFFFFFFFFZZZZZZZZZZZZZZZZZZZZFFFFFFFFFFFFFFFFFFFFZZZZZZZZZZZZZZZZZZZZFFFFFFFFFFFFFFFFFFFFZZZZZZZZZZZZZZZZZZZZFFFFFFFFFFFFFFFFFFFFZZZZZZZZZZZZZZZZZZZZFFFFFFFFFFFFFFFFFFFFZZZZZZZZZZZZZZZZZZZZFFFFFFFFFFFFFFFFFFFFZZZZZZZZZZZZZZZZZZZZFFFFFFFFFFFFFFFFFFFFCmgtrrrrrrrrrrrrrrrrrrrrrrrrrrrrrreeeeereerrrreeeeeereeeeeeeeeeeeeeeeeeeeeeeeeewwwwwwwwwwwwwwwwwwwqqqqqwqqqqqqqqqqqqqqq0q0qq00000000000000000099999999999999998888888888887788777777777776666666666666656655555555555454444444444443333333333333222222222222111111111<<<<<<<<<<<<<<,,,,,,,,>,>>>>>>>>>::>6fNFFFFFFFFFFFFFFFFFFFFZZZZZZZZZZZZZZZZZZZZFFFFFFFFFFFFFFFFFFFFZZZZZZZZZZZZZZZZZZZZFFFFFFFFFFFFFFFFFFFFZZZZZZZZZZZZZZZZZZZZFFFFFFFFFFFFFFFFFFFFZZZZZZZZZZZZZZZZZZZZFFFFFFFFFFFFFFFFFFFFZZZZZZZZZZZZZZZZZZZZFFFFFFFFFFFFFFFFFFFFZZZZZZZZZZZZZZZZZZZZFFFFFFFFFFFFFFFFFFFFZZZZZZZZZZZZZZZZZZZZ",
"ZZZZZZZZZZZZZZZZZZZZFFFFFFFFFFFFFFFFFFFFZZZZZZZZZZZZZZZZZZZZFFFFFFFFFFFFFFFFFFFFZZZZZZZZZZZZZZZZZZZZFFFFFFFFFFFFFFFFFFFFZZZZZZZZZZZZZZZZZZZZFFFFFFFFFFFFFFFFFFFFZZZZZZZZZZZZZZZZZZZZFFFFFFFFFFFFFFFFFFFFZZZZZZZZZZZZZZZZZZZZFFFFFFFFFFFFFFFFFFFFZZZZZZZZZZZZZZZZZZZZFFFFFFFFFFFFFFFFFFSnsrrrrrrrrrrrrrrrrrrrrrrrrrrrrrrrrrrrrrrrerrrrrrrrrrrrreeerrreeeeeeeeeeeeeeeeeeeewwewwwwwwwwwwwwwwwwwwqwwwwqqqqqqqqqqqqqqqqqqqq0000000000000000009999999999999999888888888888888777777777777777666666666666555555555555554444444444443333333333333222222222222111111111<<<<<<<<<<<,,,,,,,,,,,,,>>>>>>>>>:>>:1iNDFFFFFFFFFFFFFFFFFZZZZZZZZZZZZZZZZZZZZFFFFFFFFFFFFFFFFFFFFZZZZZZZZZZZZZZZZZZZZFFFFFFFFFFFFFFFFFFFFZZZZZZZZZZZZZZZZZZZZFFFFFFFFFFFFFFFFFFFFZZZZZZZZZZZZZZZZZZZZFFFFFFFFFFFFFFFFFFFFZZZZZZZZZZZZZZZZZZZZFFFFFFFFFFFFFFFFFFFFZZZZZZZZZZZZZZZZZZZZFFFFFFFFFFFFFFFFFFFFZZZZZZZZZZZZZZZZZZZZ",
"ZZZZZZZZZZZZZZZZZZZZFFFFFFFFFFFFFFFFFFFFZZZZZZZZZZZZZZZZZZZZFFFFFFFFFFFFFFFFFFFFZZZZZZZZZZZZZZZZZZZZFFFFFFFFFFFFFFFFFFFFZZZZZZZZZZZZZZZZZZZZFFFFFFFFFFFFFFFFFFFFZZZZZZZZZZZZZZZZZZZZFFFFFFFFFFFFFFFFFFFFZZZZZZZZZZZZZZZZZZZZFFFFFFFFFFFFFFFFFFFFZZZZZZZZZZZZZZZZZZZZFFFFFFFFFFFFFFFFZzirrrrrrrrrrrrrrrrrrrrrrrrrrrrrrrrrrrrrrrrrrrrrerrrrrrrrreeeerreeeeeeeeeeeeeeeeeeeewweeewwwwwwwwwwwwwwwwwwwwwqqqqqqqqqqqqqqqqqqq00000000000000009900999999999999999998888888888888887777777777777666666666666555555555555445444444444444433333333333322222222222211111111<<<<<<<<<<<<<<<,,,,,,,,,>>>>>>>>>>>>>::>qxSFFFFFFFFFFFFFFFZZZZZZZZZZZZZZZZZZZZFFFFFFFFFFFFFFFFFFFFZZZZZZZZZZZZZZZZZZZZFFFFFFFFFFFFFFFFFFFFZZZZZZZZZZZZZZZZZZZZFFFFFFFFFFFFFFFFFFFFZZZZZZZZZZZZZZZZZZZZFFFFFFFFFFFFFFFFFFFFZZZZZZZZZZZZZZZZZZZZFFFFFFFFFFFFFFFFFFFFZZZZZZZZZZZZZZZZZZZZFFFFFFFFFFFFFFFFFFFFZZZZZZZZZZZZZZZZZZZZ",
"ZZZZZZZZZZZZZZZZZZZZFFFFFFFFFFFFFFFFFFFFZZZZZZZZZZZZZZZZZZZZFFFFFFFFFFFFFFFFFFFFZZZZZZZZZZZZZZZZZZZZFFFFFFFFFFFFFFFFFFFFZZZZZZZZZZZZZZZZZZZZFFFFFFFFFFFFFFFFFFFFZZZZZZZZZZZZZZZZZZZZFFFFFFFFFFFFFFFFFFFFZZZZZZZZZZZZZZZZZZZZFFFFFFFFFFFFFFFFFFFFZZZZZZZZZZZZZZZZZZZZFFFFFFFFFFFFFDNgtrrrrrrrrrrrrrrrrrrrrrrrrrrrrrrrrrrrrrrrrrrrrrrrrrrrrreerreeerreeeeerreeeeeeeeeeeeeeeeeeeeeewwwwwwwwwwwwwwwwwwqqqqqqqqqqqqqqqqqqq000000000000000000099999999999999998888888888888888887777777777776666666666665555555555555444545444444444433333333333322222222222211111111<11<<<<<<<<<,,,,,,,,,,,>>,>>>>>>>>>::::::4dCFFFFFFFFFFFFFZZZZZZZZZZZZZZZZZZZZFFFFFFFFFFFFFFFFFFFFZZZZZZZZZZZZZZZZZZZZFFFFFFFFFFFFFFFFFFFFZZZZZZZZZZZZZZZZZZZZFFFFFFFFFFFFFFFFFFFFZZZZZZZZZZZZZZZZZZZZFFFFFFFFFFFFFFFFFFFFZZZZZZZZZZZZZZZZZZZZFFFFFFFFFFFFFFFFFFFFZZZZZZZZZZZZZZZZZZZZFFFFFFFFFFFFFFFFFFFFZZZZZZZZZZZZZZZZZZZZ",
"ZZZZZZZZZZZZZZZZZZZZFFFFFFFFFFFFFFFFFFFFZZZZZZZZZZZZZZZZZZZZFFFFFFFFFFFFFFFFFFFFZZZZZZZZZZZZZZZZZZZZFFFFFFFFFFFFFFFFFFFFZZZZZZZZZZZZZZZZZZZZFFFFFFFFFFFFFFFFFFFFZZZZZZZZZZZZZZZZZZZZFFFFFFFFFFFFFFFFFFFFZZZZZZZZZZZZZZZZZZZZFFFFFFFFFFFFFFFFFFFFZZZZZZZZZZZZZZZZZZZZFFFFFFFFFFFSbsrrrrrrrrrrrrrrrrrrrrrrrrrrrrrrrrrrrrrrrrrrrrrrrrrrrrrrrrrrrreeerrrreeerreeeeeeeeeeeeeeeeeeeeeewwewwwwwwwwwwwwwwwwwqqqqqqqqqqqqqqqqqqq000qq000000000000099999999999999998889888888888887787777777777766766666666666556555555555555554444444444433333333333322222222222111111111111<<<<<<<<<,,,,,,,,,,,>,>>>>>>>>>::::::::<yNDFFFFFFFFFFZZZZZZZZZZZZZZZZZZZZFFFFFFFFFFFFFFFFFFFFZZZZZZZZZZZZZZZZZZZZFFFFFFFFFFFFFFFFFFFFZZZZZZZZZZZZZZZZZZZZFFFFFFFFFFFFFFFFFFFFZZZZZZZZZZZZZZZZZZZZFFFFFFFFFFFFFFFFFFFFZZZZZZZZZZZZZZZZZZZZFFFFFFFFFFFFFFFFFFFFZZZZZZZZZZZZZZZZZZZZFFFFFFFFFFFFFFFFFFFFZZZZZZZZZZZZZZZZZZZZ",
"ZZZZZZZZZZZZZZZZZZZZFFFFFFFFFFFFFFFFFFFFZZZZZZZZZZZZZZZZZZZZFFFFFFFFFFFFFFFFFFFFZZZZZZZZZZZZZZZZZZZZFFFFFFFFFFFFFFFFFFFFZZZZZZZZZZZZZZZZZZZZFFFFFFFFFFFFFFFFFFFFZZZZZZZZZZZZZZZZZZZZFFFFFFFFFFFFFFFFFFFFZZZZZZZZZZZZZZZZZZZZFFFFFFFFFFFFFFFFFFFFZZZZZZZZZZZZZZZZZZZZFFFFFFFFFAxirrttrtrrttttttrrrrrrttttrrttrrrrrrrrrrrrrrrrrrrrrrrrrrrrrrrrrrrrrrrrrreerrrerreeeeeeeeeeeeeeeeeeeeeeeeeewwwwwwwwwwwwwwqqqqqqqqqqqqqqqqqqq000qq00000000000000900999999999998899888888888888888777777777767776666666666555555555555555554444444444433333333333322222222222211111111<1<<<<<<<<<<<,,,,,,,,,,,,>>>>>>>>>:>:::::::>wvDFFFFFFFFZZZZZZZZZZZZZZZZZZZZFFFFFFFFFFFFFFFFFFFFZZZZZZZZZZZZZZZZZZZZFFFFFFFFFFFFFFFFFFFFZZZZZZZZZZZZZZZZZZZZFFFFFFFFFFFFFFFFFFFFZZZZZZZZZZZZZZZZZZZZFFFFFFFFFFFFFFFFFFFFZZZZZZZZZZZZZZZZZZZZFFFFFFFFFFFFFFFFFFFFZZZZZZZZZZZZZZZZZZZZFFFFFFFFFFFFFFFFFFFFZZZZZZZZZZZZZZZZZZZZ",
"ZZZZZZZZZZZZZZZZZZZZFFFFFFFFFFFFFFFFFFFFZZZZZZZZZZZZZZZZZZZZFFFFFFFFFFFFFFFFFFFFZZZZZZZZZZZZZZZZZZZZFFFFFFFFFFFFFFFFFFFFZZZZZZZZZZZZZZZZZZZZFFFFFFFFFFFFFFFFFFFFZZZZZZZZZZZZZZZZZZZZFFFFFFFFFFFFFFFFFFFFZZZZZZZZZZZZZZZZZZZZFFFFFFFFFFFFFFFFFFFFZZZZZZZZZZZZZZZZZZZZFFFFFFFCkurrrrttttrrttttttttrrrrttttrrttttrrtrrtrrrrrrrrrrrrrrrrrrrrrrrrrrrrrrrrrrrerrrrrrrreeeerreeeeeeeeeeeeeeeeeewwwwwwwwwwwwwwwwqqqqwqqqqqqqqqqqqqq0qqqq0000000000000000999999999999999988888888888888777777777777776666666666556555555555555544444444444433333333333322222222222111111111111<<<<<<<<<,,,,,,,,,,,,>>>>>>>>>:>>:::::::::8lAFFFFFFZZZZZZZZZZZZZZZZZZZZFFFFFFFFFFFFFFFFFFFFZZZZZZZZZZZZZZZZZZZZFFFFFFFFFFFFFFFFFFFFZZZZZZZZZZZZZZZZZZZZFFFFFFFFFFFFFFFFFFFFZZZZZZZZZZZZZZZZZZZZFFFFFFFFFFFFFFFFFFFFZZZZZZZZZZZZZZZZZZZZFFFFFFFFFFFFFFFFFFFFZZZZZZZZZZZZZZZZZZZZFFFFFFFFFFFFFFFFFFFFZZZZZZZZZZZZZZZZZZZZ",
"ZZZZZZZZZZZZZZZZZZZZFFFFFFFFFFFFFFFFFFFFZZZZZZZZZZZZZZZZZZZZFFFFFFFFFFFFFFFFFFFFZZZZZZZZZZZZZZZZZZZZFFFFFFFFFFFFFFFFFFFFZZZZZZZZZZZZZZZZZZZZFFFFFFFFFFFFFFFFFFFFZZZZZZZZZZZZZZZZZZZZFFFFFFFFFFFFFFFFFFFFZZZZZZZZZZZZZZZZZZZZFFFFFFFFFFFFFFFFFFFFZZZZZZZZZZZZZZZZZZZZFFFFDBhyttttttttttttttttttttttttttttttttrttrttrrrrttttrrrrrrrrrrrrrrrrrrrrrrrrrrrrrrrreerrrreeeeeeeereeeeeeeeeeeeeeeeeewwwwwwwwwwwwwwwqqwwwqqqqqqqqqqqqqq0qqq0000000000000909999999999999999988888888888888877777777777766666666666566555555555544444444444444433333333333322222222222111111111<11<<<<<<<<<<<,,,,,,,,,,>>>>>>>>>>>>::::::::;:4fZFFFFZZZZZZZZZZZZZZZZZZZZFFFFFFFFFFFFFFFFFFFFZZZZZZZZZZZZZZZZZZZZFFFFFFFFFFFFFFFFFFFFZZZZZZZZZZZZZZZZZZZZFFFFFFFFFFFFFFFFFFFFZZZZZZZZZZZZZZZZZZZZFFFFFFFFFFFFFFFFFFFFZZZZZZZZZZZZZZZZZZZZFFFFFFFFFFFFFFFFFFFFZZZZZZZZZZZZZZZZZZZZFFFFFFFFFFFFFFFFFFFFZZZZZZZZZZZZZZZZZZZZ",
"ZZZZZZZZZZZZZZZZZZZZFFFFFFFFFFFFFFFFFFFFZZZZZZZZZZZZZZZZZZZZFFFFFFFFFFFFFFFFFFFFZZZZZZZZZZZZZZZZZZZZFFFFFFFFFFFFFFFFFFFFZZZZZZZZZZZZZZZZZZZZFFFFFFFFFFFFFFFFFFFFZZZZZZZZZZZZZZZZZZZZFFFFFFFFFFFFFFFFFFFFZZZZZZZZZZZZZZZZZZZZFFFFFFFFFFFFFFFFFFFFZZZZZZZZZZZZZZZZZZZZFFDNfttttttttttttttttttttttttttttttttttttttttttttrttttrrrrttttrrrrrrrrrrrrrrrrrrrrrrrrrrrrrrrreereeerereeeeeeeeeeeeeeeeeewwwwwwwwwwwwwwwwwwwwqqqqqqqqqqqqqqqqqq000000000000090099999999999999998888888888888877777777777667666666666665555555555554454444444444433333333333222222222221111111111111<<<<<<<<<<<,,,,,,,,>>,>>>>>>>>>>>::::::::::;1aCFFZZZZZZZZZZZZZZZZZZZZFFFFFFFFFFFFFFFFFFFFZZZZZZZZZZZZZZZZZZZZFFFFFFFFFFFFFFFFFFFFZZZZZZZZZZZZZZZZZZZZFFFFFFFFFFFFFFFFFFFFZZZZZZZZZZZZZZZZZZZZFFFFFFFFFFFFFFFFFFFFZZZZZZZZZZZZZZZZZZZZFFFFFFFFFFFFFFFFFFFFZZZZZZZZZZZZZZZZZZZZFFFFFFFFFFFFFFFFFFFFZZZZZZZZZZZZZZZZZZZZ",
"ZZZZZZZZZZZZZZZZZZZZFFFFFFFFFFFFFFFFFFFFZZZZZZZZZZZZZZZZZZZZFFFFFFFFFFFFFFFFFFFFZZZZZZZZZZZZZZZZZZZZFFFFFFFFFFFFFFFFFFFFZZZZZZZZZZZZZZZZZZZZFFFFFFFFFFFFFFFFFFFFZZZZZZZZZZZZZZZZZZZZFFFFFFFFFFFFFFFFFFFFZZZZZZZZZZZZZZZZZZZZFFFFFFFFFFFFFFFFFFFFZZZZZZZZZZZZZZZZZZZZDmdtttttttttttttttttttttttttttttttttttttttttttttttttttttrrttttttrrrtrrrrrrrrrrrrrrrrrrrrrrrrrrrrrrrreeerrreeeeeeeeeeeeeeeeeewwwwwwwwwwwwwwwwqqwqqqqqqqqqqqqqq0qqq000000000000900099999999999999988888888888878777777777766666666666666655555555555555544444444444333333333333222222222221111111111<<<<<<<<<<<<,,,,,,,,,>,,>>>>>>>>>::::::::::;:;;<iBZZZZZZZZZZZZZZZZZZZZFFFFFFFFFFFFFFFFFFFFZZZZZZZZZZZZZZZZZZZZFFFFFFFFFFFFFFFFFFFFZZZZZZZZZZZZZZZZZZZZFFFFFFFFFFFFFFFFFFFFZZZZZZZZZZZZZZZZZZZZFFFFFFFFFFFFFFFFFFFFZZZZZZZZZZZZZZZZZZZZFFFFFFFFFFFFFFFFFFFFZZZZZZZZZZZZZZZZZZZZFFFFFFFFFFFFFFFFFFFFZZZZZZZZZZZZZZZZZZZZ",
"ZZZZZZZZZZZZZZZZZZZZFFFFFFFFFFFFFFFFFFFFZZZZZZZZZZZZZZZZZZZZFFFFFFFFFFFFFFFFFFFFZZZZZZZZZZZZZZZZZZZZFFFFFFFFFFFFFFFFFFFFZZZZZZZZZZZZZZZZZZZZFFFFFFFFFFFFFFFFFFFFZZZZZZZZZZZZZZZZZZZZFFFFFFFFFFFFFFFFFFFFZZZZZZZZZZZZZZZZZZZZFFFFFFFFFFFFFFFFFFFFZZZZZZZZZZZZZZZZZZVcstttttttttttttttttttttttttttttttttttttttttttttttttttttttttttttttrrrrtrrrrrrrrrrrrrrrrrrrrrrrrrrrrrrrrrreeeeeeeeeeeeeeeeeeeeeeewwwwwwwwwwwwwwwqwwwqqqqqqqqqqqqqqqq000000000000000009999999999999998888888888877777777777777666666666666665555555555555544444444444433333333333322222222221111111111<<<<<<<<<<<,,,,,,,,,,,,>>>>>>>>>>::::::::::;::;;;,rbCZZZZZZZZZZZZZZZZZFFFFFFFFFFFFFFFFFFFFZZZZZZZZZZZZZZZZZZZZFFFFFFFFFFFFFFFFFFFFZZZZZZZZZZZZZZZZZZZZFFFFFFFFFFFFFFFFFFFFZZZZZZZZZZZZZZZZZZZZFFFFFFFFFFFFFFFFFFFFZZZZZZZZZZZZZZZZZZZZFFFFFFFFFFFFFFFFFFFFZZZZZZZZZZZZZZZZZZZZFFFFFFFFFFFFFFFFFFFFZZZZZZZZZZZZZZZZZZZZ",
"FFFFFFFFFFFFFFFFFFFFZZZZZZZZZZZZZZZZZZZZFFFFFFFFFFFFFFFFFFFFZZZZZZZZZZZZZZZZZZZZFFFFFFFFFFFFFFFFFFFFZZZZZZZZZZZZZZZZZZZZFFFFFFFFFFFFFFFFFFFFZZZZZZZZZZZZZZZZZZZZFFFFFFFFFFFFFFFFFFFFZZZZZZZZZZZZZZZZZZZZFFFFFFFFFFFFFFFFFFFFZZZZZZZZZZZZZZZZZZZZFFFFFFFFFFFFFFFFSbattttttttttttttttttttttttttttttttttttttttttttttttttttttttttttttttttttrrttrrrttrrrrrrrrrrrrrrrrrrrrrrrreeeeeeeeeeereeeeeeeeeeeeeeeeeewwwwwwwwwwwwwqqqwqqqqqqqqqqqqqq000000000000000009999999999999888888888888888888777777777766666666666665555555555554454444444444443333333333332222222222211111111111<<<<<<<<<,,,,,,,,,,,,>>>>>>>>>:::::::::::;;;;;;;>rmDFFFFFFFFFFFFFFFZZZZZZZZZZZZZZZZZZZZFFFFFFFFFFFFFFFFFFFFZZZZZZZZZZZZZZZZZZZZFFFFFFFFFFFFFFFFFFFFZZZZZZZZZZZZZZZZZZZZFFFFFFFFFFFFFFFFFFFFZZZZZZZZZZZZZZZZZZZZFFFFFFFFFFFFFFFFFFFFZZZZZZZZZZZZZZZZZZZZFFFFFFFFFFFFFFFFFFFFZZZZZZZZZZZZZZZZZZZZFFFFFFFFFFFFFFFFFFFF",
"FFFFFFFFFFFFFFFFFFFFZZZZZZZZZZZZZZZZZZZZFFFFFFFFFFFFFFFFFFFFZZZZZZZZZZZZZZZZZZZZFFFFFFFFFFFFFFFFFFFFZZZZZZZZZZZZZZZZZZZZFFFFFFFFFFFFFFFFFFFFZZZZZZZZZZZZZZZZZZZZFFFFFFFFFFFFFFFFFFFFZZZZZZZZZZZZZZZZZZZZFFFFFFFFFFFFFFFFFFFFZZZZZZZZZZZZZZZZZZZZFFFFFFFFFFFFFFSbptttttttttttttttttttttttttttttttttttttttttttttttttttttttttttttttttttttttttttrrrtrrttrrrrrrrrrrrrrrrrrrrrrreeeeeereereeeeeeeeeeeeeeeeeewwwwwwwwwwwwwwwqwqwqqqqqqqqqqqqq0000000000000000999999999999999888888888888888887777777777677666666666655555555555555444444444444433333333333322222222222111111111<<<<<<<<<<<,,,,,,,,,,,>>>>>>>>>>::>::::::::;;;;;;;;:eMDFFFFFFFFFFFFFZZZZZZZZZZZZZZZZZZZZFFFFFFFFFFFFFFFFFFFFZZZZZZZZZZZZZZZZZZZZFFFFFFFFFFFFFFFFFFFFZZZZZZZZZZZZZZZZZZZZFFFFFFFFFFFFFFFFFFFFZZZZZZZZZZZZZZZZZZZZFFFFFFFFFFFFFFFFFFFFZZZZZZZZZZZZZZZZZZZZFFFFFFFFFFFFFFFFFFFFZZZZZZZZZZZZZZZZZZZZFFFFFFFFFFFFFFFFFFFF",
"FFFFFFFFFFFFFFFFFFFFZZZZZZZZZZZZZZZZZZZZFFFFFFFFFFFFFFFFFFFFZZZZZZZZZZZZZZZZZZZZFFFFFFFFFFFFFFFFFFFFZZZZZZZZZZZZZZZZZZZZFFFFFFFFFFFFFFFFFFFFZZZZZZZZZZZZZZZZZZZZFFFFFFFFFFFFFFFFFFFFZZZZZZZZZZZZZZZZZZZZFFFFFFFFFFFFFFFFFFFFZZZZZZZZZZZZZZZZZZZZFFFFFFFFFFFFSbattttttyttttyyyyttyyyyttttyyyyyyttttttyyyyttttttttttttttttttttttttttttttttttttttttttttrrrrtrrrrrrrrrrrrrrrrrrrrerrrrrreeeereeeeeeeeeeeeeeeewwwwwwwwwwwwwwqqqqqqqqqqqqqqqqq0qqq0000000000090009999999999988998888888888778777777777767776666666665565555555554454444444444443333333333332222222212211111111<<<<<<<<<<<,<<,,,,,,,,>>,>>>>>>>>:::::::::::;;;;;;;;;:rMFFFFFFFFFFFFZZZZZZZZZZZZZZZZZZZZFFFFFFFFFFFFFFFFFFFFZZZZZZZZZZZZZZZZZZZZFFFFFFFFFFFFFFFFFFFFZZZZZZZZZZZZZZZZZZZZFFFFFFFFFFFFFFFFFFFFZZZZZZZZZZZZZZZZZZZZFFFFFFFFFFFFFFFFFFFFZZZZZZZZZZZZZZZZZZZZFFFFFFFFFFFFFFFFFFFFZZZZZZZZZZZZZZZZZZZZFFFFFFFFFFFFFFFFFFFF",
"FFFFFFFFFFFFFFFFFFFFZZZZZZZZZZZZZZZZZZZZFFFFFFFFFFFFFFFFFFFFZZZZZZZZZZZZZZZZZZZZFFFFFFFFFFFFFFFFFFFFZZZZZZZZZZZZZZZZZZZZFFFFFFFFFFFFFFFFFFFFZZZZZZZZZZZZZZZZZZZZFFFFFFFFFFFFFFFFFFFFZZZZZZZZZZZZZZZZZZZZFFFFFFFFFFFFFFFFFFFFZZZZZZZZZZZZZZZZZZZZFFFFFFFFFFDnstttttyyyyttttyyyyttyyyyttttyyyyyyyyttttyyyyyyytttttyyttttttttttttttttttttttttttttttttttrrrrttttrrrrrrrrrrrrrrrrrrrreerrrreerrreeeeeeeeeeeeeeeewwwwwwwwwwwwwwwwwqqqqqqqqqqqqq0qqq0000000000000000999999999999888888888888777777777777777776666666665665555555555555444444444443333333333332222222222111111111<<<<<<<<<<<<<<,,,,,,,,>,,>>>>>>>>::::::::::;;;;;;;;;;;:tNFFFFFFFFFFZZZZZZZZZZZZZZZZZZZZFFFFFFFFFFFFFFFFFFFFZZZZZZZZZZZZZZZZZZZZFFFFFFFFFFFFFFFFFFFFZZZZZZZZZZZZZZZZZZZZFFFFFFFFFFFFFFFFFFFFZZZZZZZZZZZZZZZZZZZZFFFFFFFFFFFFFFFFFFFFZZZZZZZZZZZZZZZZZZZZFFFFFFFFFFFFFFFFFFFFZZZZZZZZZZZZZZZZZZZZFFFFFFFFFFFFFFFFFFFF",
"FFFFFFFFFFFFFFFFFFFFZZZZZZZZZZZZZZZZZZZZFFFFFFFFFFFFFFFFFFFFZZZZZZZZZZZZZZZZZZZZFFFFFFFFFFFFFFFFFFFFZZZZZZZZZZZZZZZZZZZZFFFFFFFFFFFFFFFFFFFFZZZZZZZZZZZZZZZZZZZZFFFFFFFFFFFFFFFFFFFFZZZZZZZZZZZZZZZZZZZZFFFFFFFFFFFFFFFFFFFFZZZZZZZZZZZZZZZZZZZZFFFFFFFFDmsyytttyyyyttyyyyyyyyyyyyyyyyyyyyyyyyyyyyyyyyttyyttttyyyyyyttttytttttttttttttttttttttttttttttttrrrrtttrrrrrrrrrrrrrrrrrrrrrerrerrreeeeeeeeeeeeeeeeeewwwwwwwwwwwwwqqqqwqqqqqqqqqqqq0qqq000000000009999999999999998888888888888888877777777776666666666666655555555555555444444444443333333333332222222222211111111<<1<<<<<<<<<<<,,,,,,,,,,>>>>>>>>:>>::::::::;;;;;;;;;;-;>tNFFFFFFFFZZZZZZZZZZZZZZZZZZZZFFFFFFFFFFFFFFFFFFFFZZZZZZZZZZZZZZZZZZZZFFFFFFFFFFFFFFFFFFFFZZZZZZZZZZZZZZZZZZZZFFFFFFFFFFFFFFFFFFFFZZZZZZZZZZZZZZZZZZZZFFFFFFFFFFFFFFFFFFFFZZZZZZZZZZZZZZZZZZZZFFFFFFFFFFFFFFFFFFFFZZZZZZZZZZZZZZZZZZZZFFFFFFFFFFFFFFFFFFFF",
"FFFFFFFFFFFFFFFFFFFFZZZZZZZZZZZZZZZZZZZZFFFFFFFFFFFFFFFFFFFFZZZZZZZZZZZZZZZZZZZZFFFFFFFFFFFFFFFFFFFFZZZZZZZZZZZZZZZZZZZZFFFFFFFFFFFFFFFFFFFFZZZZZZZZZZZZZZZZZZZZFFFFFFFFFFFFFFFFFFFFZZZZZZZZZZZZZZZZZZZZFFFFFFFFFFFFFFFFFFFFZZZZZZZZZZZZZZZZZZZZFFFFFFDMdyyyyyyyyyyyyyyyyyyyyyyyyyyyyyyyyyyyyyyyyyyyyyyyyyyyyyyyyyyyttttytyytttttttttttttttttttttttttttttttrttttrrrrrrrrrrrrrrrrrrrrrerrrrreeeeeeeeeeeeeeeeeeeewwwwwwwwwwwwwqqwwqqqqqqqqqqqqqqqq000000000000990999999999998899888888888888777777777776666666666666555555555555555444444444443333333333322222222222211111111<1<<<<<<<<<,<<,,,,,,,,,>>>>>>>>>>>>::::::::;;;;;;;;;;;;->yBFFFFFFZZZZZZZZZZZZZZZZZZZZFFFFFFFFFFFFFFFFFFFFZZZZZZZZZZZZZZZZZZZZFFFFFFFFFFFFFFFFFFFFZZZZZZZZZZZZZZZZZZZZFFFFFFFFFFFFFFFFFFFFZZZZZZZZZZZZZZZZZZZZFFFFFFFFFFFFFFFFFFFFZZZZZZZZZZZZZZZZZZZZFFFFFFFFFFFFFFFFFFFFZZZZZZZZZZZZZZZZZZZZFFFFFFFFFFFFFFFFFFFF",
"FFFFFFFFFFFFFFFFFFFFZZZZZZZZZZZZZZZZZZZZFFFFFFFFFFFFFFFFFFFFZZZZZZZZZZZZZZZZZZZZFFFFFFFFFFFFFFFFFFFFZZZZZZZZZZZZZZZZZZZZFFFFFFFFFFFFFFFFFFFFZZZZZZZZZZZZZZZZZZZZFFFFFFFFFFFFFFFFFFFFZZZZZZZZZZZZZZZZZZZZFFFFFFFFFFFFFFFFFFFFZZZZZZZZZZZZZZZZZZZZFFFFDBgyyyyyyyyyyyyyyyyyyyyyyyyyyyyyyyyyyyyyyyyyyyyyyyyyyyyyyyyyyyyyyyyyyyyyttytyyttytttttttttttttttttttttttttttrrttttrrrrrrrrrrrrrrrrrreerreeeeeeeeeeeeeeeeeeeeewwwwwwwwwwwwwqwqqqqqqqqqqqqqqqqqq0000000000099909999999999999888888888888887777777777777666666666555655555555555544444444444333333333333222222222111111111111<<<<<<<<<,,,,,,,,,,,>>>>>>>>>>:>>::::::::::;;;;;;;;;;--,aZFFFFZZZZZZZZZZZZZZZZZZZZFFFFFFFFFFFFFFFFFFFFZZZZZZZZZZZZZZZZZZZZFFFFFFFFFFFFFFFFFFFFZZZZZZZZZZZZZZZZZZZZFFFFFFFFFFFFFFFFFFFFZZZZZZZZZZZZZZZZZZZZFFFFFFFFFFFFFFFFFFFFZZZZZZZZZZZZZZZZZZZZFFFFFFFFFFFFFFFFFFFFZZZZZZZZZZZZZZZZZZZZFFFFFFFFFFFFFFFFFFFF",
"FFFFFFFFFFFFFFFFFFFFZZZZZZZZZZZZZZZZZZZZFFFFFFFFFFFFFFFFFFFFZZZZZZZZZZZZZZZZZZZZFFFFFFFFFFFFFFFFFFFFZZZZZZZZZZZZZZZZZZZZFFFFFFFFFFFFFFFFFFFFZZZZZZZZZZZZZZZZZZZZFFFFFFFFFFFFFFFFFFFFZZZZZZZZZZZZZZZZZZZZFFFFFFFFFFFFFFFFFFFFZZZZZZZZZZZZZZZZZZZZFFFVhyyyyyyyyyyyyyyyyyyyyyyyyyyyyyyyyyyyyyyyyyyyyyyyyyyyyyyyyyyyyyyyyyyyyyyyyyytyyytyyyyytttttttttttttttttttttttttttttrrtrrrrrrrrrrrrrrrrrrreeeeeeereeeeeeeeeeeeeeewwwwwwwwwwwwwqqqwqqqqqqqqqqqq000q00000000000900999999999999888888888888888777777777777766666666665665555555555554444444444433333333333322222222111111111111<<<<<<<<<<,,,,,,,,,,>>,>>>>>>>>>>::::::::;::;;;;;;;;-----1gAFFZZZZZZZZZZZZZZZZZZZZFFFFFFFFFFFFFFFFFFFFZZZZZZZZZZZZZZZZZZZZFFFFFFFFFFFFFFFFFFFFZZZZZZZZZZZZZZZZZZZZFFFFFFFFFFFFFFFFFFFFZZZZZZZZZZZZZZZZZZZZFFFFFFFFFFFFFFFFFFFFZZZZZZZZZZZZZZZZZZZZFFFFFFFFFFFFFFFFFFFFZZZZZZZZZZZZZZZZZZZZFFFFFFFFFFFFFFFFFFFF",
"FFFFFFFFFFFFFFFFFFFFZZZZZZZZZZZZZZZZZZZZFFFFFFFFFFFFFFFFFFFFZZZZZZZZZZZZZZZZZZZZFFFFFFFFFFFFFFFFFFFFZZZZZZZZZZZZZZZZZZZZFFFFFFFFFFFFFFFFFFFFZZZZZZZZZZZZZZZZZZZZFFFFFFFFFFFFFFFFFFFFZZZZZZZZZZZZZZZZZZZZFFFFFFFFFFFFFFFFFFFFZZZZZZZZZZZZZZZZZZZZFZluyyyyyyyyyyyyyyyyyyyyyyyyyyyyyyyyyyyyyyyyyyyyyyyyyyyyyyyyyyyyyyyyyyyyyyyyyyyyyyyyyttttttttttttttttttttttttttttttttrrrtttrrrrrrrrrrrrrrrrreerrrrereeeeeeeeeeeeeeeeeewwwwwwwwwwwwwwqqqqqqqqqqqqq00000000000000000009999999999889888888888888887777777776666666666666555555555555444444444444443333333332222222222211111111111<<<<<<<<<<<<<,,,,,,,,,,>>>>>>>>>>>::::::::::;;;;;;;;--;----4lSZZZZZZZZZZZZZZZZZZZZFFFFFFFFFFFFFFFFFFFFZZZZZZZZZZZZZZZZZZZZFFFFFFFFFFFFFFFFFFFFZZZZZZZZZZZZZZZZZZZZFFFFFFFFFFFFFFFFFFFFZZZZZZZZZZZZZZZZZZZZFFFFFFFFFFFFFFFFFFFFZZZZZZZZZZZZZZZZZZZZFFFFFFFFFFFFFFFFFFFFZZZZZZZZZZZZZZZZZZZZFFFFFFFFFFFFFFFFFFFF",
"FFFFFFFFFFFFFFFFFFFFZZZZZZZZZZZZZZZZZZZZFFFFFFFFFFFFFFFFFFFFZZZZZZZZZZZZZZZZZZZZFFFFFFFFFFFFFFFFFFFFZZZZZZZZZZZZZZZZZZZZFFFFFFFFFFFFFFFFFFFFZZZZZZZZZZZZZZZZZZZZFFFFFFFFFFFFFFFFFFFFZZZZZZZZZZZZZZZZZZZZFFFFFFFFFFFFFFFFFFFFZZZZZZZZZZZZZZZZZZZBxiyyyyyyyyyyyyyyyyyyyyyyyyyyyyyyyyyyyyyyyyyyyyyyyyyyyyyyyyyyyyyyyyyyyyyyyyyyyyyyyyyyyyyyyyttttyyttttttttttttttttttttttttrtttrrrrrrrrrrrrrrrrrrrerrrreeeeeeeeeeeeeeeeeewwwwwwwwwwwwwwqqqqqqqqqqqqqqq000q00000000000009999999999989998888888888887777777777666666666666655555555555544444444444444333333333222222222221211111111<<<<<<<<<<<<,,,,,,,,,,,>>>>>>>>>:>>::::::::::;;;;;;;;;;------7lCZZZZZZZZZZZZZZZZZZFFFFFFFFFFFFFFFFFFFFZZZZZZZZZZZZZZZZZZZZFFFFFFFFFFFFFFFFFFFFZZZZZZZZZZZZZZZZZZZZFFFFFFFFFFFFFFFFFFFFZZZZZZZZZZZZZZZZZZZZFFFFFFFFFFFFFFFFFFFFZZZZZZZZZZZZZZZZZZZZFFFFFFFFFFFFFFFFFFFFZZZZZZZZZZZZZZZZZZZZFFFFFFFFFFFFFFFFFFFF",
"FFFFFFFFFFFFFFFFFFFFZZZZZZZZZZZZZZZZZZZZFFFFFFFFFFFFFFFFFFFFZZZZZZZZZZZZZZZZZZZZFFFFFFFFFFFFFFFFFFFFZZZZZZZZZZZZZZZZZZZZFFFFFFFFFFFFFFFFFFFFZZZZZZZZZZZZZZZZZZZZFFFFFFFFFFFFFFFFFFFFZZZZZZZZZZZZZZZZZZZZFFFFFFFFFFFFFFFFFFFFZZZZZZZZZZZZZZZZZCcpyyyyyyyyyyyyyyyyyyyyyyyyyyyyuuuuyyuuyuyyyyyuuuuuyyyyyyyyyyyyyyyyyyyyyyyyyyyyyyyyyyyyyyyyyyyyyyyyttyyyyttttttttttttttttttttttrtrrrrrrrrrrrrrrrrrrrerrrreeeeeeeeeeeeeeeeeewwwwwwwwwwwwwwqqqqqqqqqqqqqq00qq00000000000999999999999999998888888888887777777777666766666666655555555555545545444444444333333333332222222222211111111111<<<<<<<<,,<,,,,,,,,,>>>>>>>>>::>:::::::;::;;;;;;;;;;------;0vZZZZZZZZZZZZZZZZZFFFFFFFFFFFFFFFFFFFFZZZZZZZZZZZZZZZZZZZZFFFFFFFFFFFFFFFFFFFFZZZZZZZZZZZZZZZZZZZZFFFFFFFFFFFFFFFFFFFFZZZZZZZZZZZZZZZZZZZZFFFFFFFFFFFFFFFFFFFFZZZZZZZZZZZZZZZZZZZZFFFFFFFFFFFFFFFFFFFFZZZZZZZZZZZZZZZZZZZZFFFFFFFFFFFFFFFFFFFF",
"FFFFFFFFFFFFFFFFFFFFZZZZZZZZZZZZZZZZZZZZFFFFFFFFFFFFFFFFFFFFZZZZZZZZZZZZZZZZZZZZFFFFFFFFFFFFFFFFFFFFZZZZZZZZZZZZZZZZZZZZFFFFFFFFFFFFFFFFFFFFZZZZZZZZZZZZZZZZZZZZFFFFFFFFFFFFFFFFFFFFZZZZZZZZZZZZZZZZZZZZFFFFFFFFFFFFFFFFFFFFZZZZZZZZZZZZZZZCnsyyyyyyyyyyyyyyyuyyyyyyuuuuyyyyuuuuyyuuuuyyyyyyuuuuyyyyuuuuyyuuuuyyyyyyyyyyyyyyyyyyyyyyyyyyyyyyyyyyyyyyyyttytttttttttttttttttttttrrrrtrrrrrrrrrrrrrrrrrrreeeeerreeeeeeeeeeeeewwwwwwwwwwwwqqqqqqqqqqqqqqqqqqq00000000000999999999999999998888888888877777777777777766666666655655555555555444444444444333333333332222222222211111111111<<<<<<<<,<,,,,,,,,,>>>>>>>>>>:::::::::::::;;;;;;;;;--------:tMZZZZZZZZZZZZZZZFFFFFFFFFFFFFFFFFFFFZZZZZZZZZZZZZZZZZZZZFFFFFFFFFFFFFFFFFFFFZZZZZZZZZZZZZZZZZZZZFFFFFFFFFFFFFFFFFFFFZZZZZZZZZZZZZZZZZZZZFFFFFFFFFFFFFFFFFFFFZZZZZZZZZZZZZZZZZZZZFFFFFFFFFFFFFFFFFFFFZZZZZZZZZZZZZZZZZZZZFFFFFFFFFFFFFFFFFFFF",
"FFFFFFFFFFFFFFFFFFFFZZZZZZZZZZZZZZZZZZZZFFFFFFFFFFFFFFFFFFFFZZZZZZZZZZZZZZZZZZZZFFFFFFFFFFFFFFFFFFFFZZZZZZZZZZZZZZZZZZZZFFFFFFFFFFFFFFFFFFFFZZZZZZZZZZZZZZZZZZZZFFFFFFFFFFFFFFFFFFFFZZZZZZZZZZZZZZZZZZZZFFFFFFFFFFFFFFFFFFFFZZZZZZZZZZZZZCMguyyyyyyyyyyyuuuuuuyyyyyyuuuuyyyuuuuuuuuuuuuuuuuuuuuuuyyyyyyyyuuuyyyyyyyyuuuyyyyyyyyyyyyyyyyyyyyyyyyyyyyyyyttttttytttttttttttttttttttrrrrttrrrrrrrrrrrrrrrreeereerrreeeeeeeeeeeeewwwwwwwwwwwwqqqqqqqqqqqqqqq0qqq00000000000990999999999988888888888887787777777777676666666666566555555555554444444444443333333333322222222222111111111<<<<<<<<<<,,,,,,,,,,>>,>>>>>>>:::::::::::;:;;;;;;;;-----------<dBZZZZZZZZZZZZZFFFFFFFFFFFFFFFFFFFFZZZZZZZZZZZZZZZZZZZZFFFFFFFFFFFFFFFFFFFFZZZZZZZZZZZZZZZZZZZZFFFFFFFFFFFFFFFFFFFFZZZZZZZZZZZZZZZZZZZZFFFFFFFFFFFFFFFFFFFFZZZZZZZZZZZZZZZZZZZZFFFFFFFFFFFFFFFFFFFFZZZZZZZZZZZZZZZZZZZZFFFFFFFFFFFFFFFFFFFF",
"FFFFFFFFFFFFFFFFFFFFZZZZZZZZZZZZZZZZZZZZFFFFFFFFFFFFFFFFFFFFZZZZZZZZZZZZZZZZZZZZFFFFFFFFFFFFFFFFFFFFZZZZZZZZZZZZZZZZZZZZFFFFFFFFFFFFFFFFFFFFZZZZZZZZZZZZZZZZZZZZFFFFFFFFFFFFFFFFFFFFZZZZZZZZZZZZZZZZZZZZFFFFFFFFFFFFFFFFFFFFZZZZZZZZZZZZBkuyyyyuuuyyyyyyuuuuuuuuuuuuuuuuuuuuuuuuuuuuuuuuuuuuuuuuuuuuuuuuuuuuuuyyyyyyuuuuuuyyyyyyyyyyyyyyyyyyyyyyyyyyyyyyytttttyytttttttttttttttttttrttttrrrrrrrrrrrrrrreerrrrrereeeeeeeeeeeeewwwwwwwwwwwwwqqqqqqqqqqqqqqqqqq0000000000090099999999998899888888888788777777777767666666666656655555555555444444444444333333333332222222222211111111<<<<<<<<<<,,<,,,,,,,,>,>>>>>>>>>:::::::::;::;;;;;;;;------------4lCZZZZZZZZZZZFFFFFFFFFFFFFFFFFFFFZZZZZZZZZZZZZZZZZZZZFFFFFFFFFFFFFFFFFFFFZZZZZZZZZZZZZZZZZZZZFFFFFFFFFFFFFFFFFFFFZZZZZZZZZZZZZZZZZZZZFFFFFFFFFFFFFFFFFFFFZZZZZZZZZZZZZZZZZZZZFFFFFFFFFFFFFFFFFFFFZZZZZZZZZZZZZZZZZZZZFFFFFFFFFFFFFFFFFFFF",
"FFFFFFFFFFFFFFFFFFFFZZZZZZZZZZZZZZZZZZZZFFFFFFFFFFFFFFFFFFFFZZZZZZZZZZZZZZZZZZZZFFFFFFFFFFFFFFFFFFFFZZZZZZZZZZZZZZZZZZZZFFFFFFFFFFFFFFFFFFFFZZZZZZZZZZZZZZZZZZZZFFFFFFFFFFFFFFFFFFFFZZZZZZZZZZZZZZZZZZZZFFFFFFFFFFFFFFFFFFFFZZZZZZZZZZCcpyuuuyuuuuuyyyuuuuuuuuuuuuuuuuuuuuuuuuuuuuuuuuuuuuuuuuuuuuuuuuuuuuuuuuuuuuuuuuuuuuuuyyyyuyuyyyyyyyyyyyyyyyyyyyyyyyyyyyyyyyyttttttttttttttttttrttttrrrrrrrrrrrrrrrrrrrreerreeeeeeeeeeeeewwwwwwwwwwwwwwwwqqqqqqqqqqqqq00000000000000009999999999889888888888888877777777777766666666666655555555555544444444444333333332332222222222211111111<<<<<<<<<<,,,,,,,,,,,,,>>>>>>>>>>::::::::;;;;;;;;;;;;------------9bZZZZZZZZZZFFFFFFFFFFFFFFFFFFFFZZZZZZZZZZZZZZZZZZZZFFFFFFFFFFFFFFFFFFFFZZZZZZZZZZZZZZZZZZZZFFFFFFFFFFFFFFFFFFFFZZZZZZZZZZZZZZZZZZZZFFFFFFFFFFFFFFFFFFFFZZZZZZZZZZZZZZZZZZZZFFFFFFFFFFFFFFFFFFFFZZZZZZZZZZZZZZZZZZZZFFFFFFFFFFFFFFFFFFFF",
"FFFFFFFFFFFFFFFFFFFFZZZZZZZZZZZZZZZZZZZZFFFFFFFFFFFFFFFFFFFFZZZZZZZZZZZZZZZZZZZZFFFFFFFFFFFFFFFFFFFFZZZZZZZZZZZZZZZZZZZZFFFFFFFFFFFFFFFFFFFFZZZZZZZZZZZZZZZZZZZZFFFFFFFFFFFFFFFFFFFFZZZZZZZZZZZZZZZZZZZZFFFFFFFFFFFFFFFFFFFFZZZZZZZZZmdyyyuuuuuuuuuuuuuuuuuuuuuuuuuuuuuuuuuuuuuuuuuuuuuuuuuuuuuuuuuuuuuuuuuuuuuuuuuuuuuuuuuuuyuuyyuuuyyyyyyyyyyyyyyyyyyyyyyyyyyyyyyyyytttttttttttttttttttttttrrrrrrrrrrrrrreerrreeereeeeeeeeeewwwwwwwwwwwwwwwwwwqqqqqqqqqqqq000000000000000099999999999899888888888888877777777777766666666666655555555555544444444444333333333332222222222111111111<<<<<<<<<<,,,,,,,,,,,,>>>>>>>>>>>::::::::;;;;;;;;;;;;----------==>iNZZZZZZZZFFFFFFFFFFFFFFFFFFFFZZZZZZZZZZZZZZZZZZZZFFFFFFFFFFFFFFFFFFFFZZZZZZZZZZZZZZZZZZZZFFFFFFFFFFFFFFFFFFFFZZZZZZZZZZZZZZZZZZZZFFFFFFFFFFFFFFFFFFFFZZZZZZZZZZZZZZZZZZZZFFFFFFFFFFFFFFFFFFFFZZZZZZZZZZZZZZZZZZZZFFFFFFFFFFFFFFFFFFFF",
"FFFFFFFFFFFFFFFFFFFFZZZZZZZZZZZZZZZZZZZZFFFFFFFFFFFFFFFFFFFFZZZZZZZZZZZZZZZZZZZZFFFFFFFFFFFFFFFFFFFFZZZZZZZZZZZZZZZZZZZZFFFFFFFFFFFFFFFFFFFFZZZZZZZZZZZZZZZZZZZZFFFFFFFFFFFFFFFFFFFFZZZZZZZZZZZZZZZZZZZZFFFFFFFFFFFFFFFFFFFFZZZZZZZBjuuuuyuuuuuuuuuuuuuuuuuuuuuuuuuuuuuuuuuuuuuuuuuuuuuuuuuuuuuuuuuuuuuuuuuuuuuuuuuuuuuuuuuuuuuuuuuuuyyyyyuuyyyyyyyyyyyyyyyyyyyyyyytyyttttttttttttttttttttttrrrrrrrrrrrrrrrrreeereeeereeeeeeeeeeeeewwwwwwwwwwwwqqqqqqqqqqqqqq00000000000000099999999999999988888888888887777777777776666666666665555555555445444444444333333333332222222222211111111<<<<<<<<<<<<<,,,,,,,,>>>>>>>>>>>>>::::::::::;;;;;;;;-;--------=====2jCZZZZZZFFFFFFFFFFFFFFFFFFFFZZZZZZZZZZZZZZZZZZZZFFFFFFFFFFFFFFFFFFFFZZZZZZZZZZZZZZZZZZZZFFFFFFFFFFFFFFFFFFFFZZZZZZZZZZZZZZZZZZZZFFFFFFFFFFFFFFFFFFFFZZZZZZZZZZZZZZZZZZZZFFFFFFFFFFFFFFFFFFFFZZZZZZZZZZZZZZZZZZZZFFFFFFFFFFFFFFFFFFFF",
"FFFFFFFFFFFFFFFFFFFFZZZZZZZZZZZZZZZZZZZZFFFFFFFFFFFFFFFFFFFFZZZZZZZZZZZZZZZZZZZZFFFFFFFFFFFFFFFFFFFFZZZZZZZZZZZZZZZZZZZZFFFFFFFFFFFFFFFFFFFFZZZZZZZZZZZZZZZZZZZZFFFFFFFFFFFFFFFFFFFFZZZZZZZZZZZZZZZZZZZZFFFFFFFFFFFFFFFFFFFFZZZZZCcpuuuuuuuuuuuuuuuuuuuuuuuuuuuuuuuuuuuuuuuuuuuuuuuuuuuuuuuuuuuuuuuuuuuuuuuuuuuuuuuuuuuuuuuuuuuuuuuuuuuyyyuuuyyyyyyyyyyyyyyyyyyyyyyyyyttttyyttttttttttttttttrtrrrrrrrrrrrrrrrrrererreerreeeeeeeeeeeewwwwwwwwwwwwqqwqqqqqqqqqqq00qq0000000000999999999999999988888888888887777777776676666666665665555555554444444444444333333333332222222222211111111<<<<<<<<<<<,,,,,,,,,,>>>>>>>>>>>:>::::::::::;;;;;;;-;--------======-0bCZZZZFFFFFFFFFFFFFFFFFFFFZZZZZZZZZZZZZZZZZZZZFFFFFFFFFFFFFFFFFFFFZZZZZZZZZZZZZZZZZZZZFFFFFFFFFFFFFFFFFFFFZZZZZZZZZZZZZZZZZZZZFFFFFFFFFFFFFFFFFFFFZZZZZZZZZZZZZZZZZZZZFFFFFFFFFFFFFFFFFFFFZZZZZZZZZZZZZZZZZZZZFFFFFFFFFFFFFFFFFFFF",
"FFFFFFFFFFFFFFFFFFFFZZZZZZZZZZZZZZZZZZZZFFFFFFFFFFFFFFFFFFFFZZZZZZZZZZZZZZZZZZZZFFFFFFFFFFFFFFFFFFFFZZZZZZZZZZZZZZZZZZZZFFFFFFFFFFFFFFFFFFFFZZZZZZZZZZZZZZZZZZZZFFFFFFFFFFFFFFFFFFFFZZZZZZZZZZZZZZZZZZZZFFFFFFFFFFFFFFFFFFFFZZZZMfuuuuuuuuuuuuuuuuuuuuuuuuuuuuuuuuuuuuuuuuuuuuuuuuuuiiiiiiuuuuuuuuuuuuuuuuuuuuuuuuuuuuuuuuuuuuuuuuuuuuuuuuuuyyyyyyyyyyyyyyyyyyyyyyyyyyyyyttyyyttttttttttttttttttrrtrrrrrrrrrrrrrrrrrreeeereeeeeeeeeeeewwwwwwwwwwwqqqwqqqqqqqqqqqqq00000000000900999999999999988888888888887777777776666666666665565555555544544444444444333333333332222222222211111111<<<<<<<<<<,<<,,,,,,,,>>>>>>>>>>::::::::::;;;;;;;;;;----------=-=====>iBZZZFFFFFFFFFFFFFFFFFFFFZZZZZZZZZZZZZZZZZZZZFFFFFFFFFFFFFFFFFFFFZZZZZZZZZZZZZZZZZZZZFFFFFFFFFFFFFFFFFFFFZZZZZZZZZZZZZZZZZZZZFFFFFFFFFFFFFFFFFFFFZZZZZZZZZZZZZZZZZZZZFFFFFFFFFFFFFFFFFFFFZZZZZZZZZZZZZZZZZZZZFFFFFFFFFFFFFFFFFFFF",
"FFFFFFFFFFFFFFFFFFFFZZZZZZZZZZZZZZZZZZZZFFFFFFFFFFFFFFFFFFFFZZZZZZZZZZZZZZZZZZZZFFFFFFFFFFFFFFFFFFFFZZZZZZZZZZZZZZZZZZZZFFFFFFFFFFFFFFFFFFFFZZZZZZZZZZZZZZZZZZZZFFFFFFFFFFFFFFFFFFFFZZZZZZZZZZZZZZZZZZZZFFFFFFFFFFFFFFFFFFFFZZVkiuuuuuuuuuuuuuuuuuuuuuuuuuuuuuuuiuuuuuuuiiiiiiiiuuuuiiiiiiiiuuuuiiiiuuuuiiiiuuuuuuuuuuuuuuuuuuuuuuuuuuuuuuuuuuuuyyyyuuuuyyyyyyyyyyyyyyyyyyyyyyttttttttttttttttttrrtttrrrrrrrrrrrrrrrrreeeeeeeeeeeeeeeeewwwwwwwwwwwwqwwqqqqqqqqqqqq0q0000000000990099999999999988888888888887777777776666666666665555555555545544444444444333333333332222222222111111111<1<<<<<<<<<<,,,,,,,,,>>>>>>>>>:::::::::::;;;;;;;;;;------------======3kCZFFFFFFFFFFFFFFFFFFFFZZZZZZZZZZZZZZZZZZZZFFFFFFFFFFFFFFFFFFFFZZZZZZZZZZZZZZZZZZZZFFFFFFFFFFFFFFFFFFFFZZZZZZZZZZZZZZZZZZZZFFFFFFFFFFFFFFFFFFFFZZZZZZZZZZZZZZZZZZZZFFFFFFFFFFFFFFFFFFFFZZZZZZZZZZZZZZZZZZZZFFFFFFFFFFFFFFFFFFFF",
"ZZZZZZZZZZZZZZZZZZZZFFFFFFFFFFFFFFFFFFFFZZZZZZZZZZZZZZZZZZZZFFFFFFFFFFFFFFFFFFFFZZZZZZZZZZZZZZZZZZZZFFFFFFFFFFFFFFFFFFFFZZZZZZZZZZZZZZZZZZZZFFFFFFFFFFFFFFFFFFFFZZZZZZZZZZZZZZZZZZZZFFFFFFFFFFFFFFFFFFFFZZZZZZZZZZZZZZZZZZZZDMsuuuuuuuuuuuuuuuuuuuuuuuuuuuuuuuiiiiuuuuiiuuuuiiiiuuuuiuiuiiuuuuiiiiuuuuiiuuuuiiiiiiuuuuuuuuuuuuuuuuuuuuuuuuuuuuuuuuuuuuuuuuyyyyyyyyyyyyyyyyyyyyyyttttttttttttttttttrrtttrrrrrrrrrrrrrreeereeereeeeeeeeeeeewwwwwwwwwwwwwwwqqqqqqqqqqq0q000000000000009999999999888888888888887777777777666666666666555555555555544444444444433333333333222222222211111111<1<<<<<<<<<<<,,,,,,,,>>>>>>>>>>::>::::::::;;;;;;;;;-------------======-rVZZZZZZZZZZZZZZZZZZZZFFFFFFFFFFFFFFFFFFFFZZZZZZZZZZZZZZZZZZZZFFFFFFFFFFFFFFFFFFFFZZZZZZZZZZZZZZZZZZZZFFFFFFFFFFFFFFFFFFFFZZZZZZZZZZZZZZZZZZZZFFFFFFFFFFFFFFFFFFFFZZZZZZZZZZZZZZZZZZZZFFFFFFFFFFFFFFFFFFFFZZZZZZZZZZZZZZZZZZZZ",
"ZZZZZZZZZZZZZZZZZZZZFFFFFFFFFFFFFFFFFFFFZZZZZZZZZZZZZZZZZZZZFFFFFFFFFFFFFFFFFFFFZZZZZZZZZZZZZZZZZZZZFFFFFFFFFFFFFFFFFFFFZZZZZZZZZZZZZZZZZZZZFFFFFFFFFFFFFFFFFFFFZZZZZZZZZZZZZZZZZZZZFFFFFFFFFFFFFFFFFFFFZZZZZZZZZZZZZZZZZZZBkiuuuuuuuuuuuuuuuuuuuuuuuuiiiiuuuuiiiiiiiiiiiiiiiiiiiiiiiiiiiiiiiiiiiiiiiiiiiiiuiiiiiiuuuuuiuuiuuuuuuuuuuuuuuuuuuuuuuuuuuuuuuuyyyyyyyyyyyyyyyyyyyyyyyytttttttttttttttttttttttrrrrrrrrrrrrreerrrerrreeeeeeeeeeewwwwwwwwwwwwwwwqqqqqqqqqq0qq0000000000000099999999998898888888888777777777776676666666665555555555554444444444444333333333332222222221111111111<1<<<<<<<<<,,,,,,,,,>>>>>>>>>>:>:::::::::;;;;;;;;;------------========<gVZZZZZZZZZZZZZZZZZZFFFFFFFFFFFFFFFFFFFFZZZZZZZZZZZZZZZZZZZZFFFFFFFFFFFFFFFFFFFFZZZZZZZZZZZZZZZZZZZZFFFFFFFFFFFFFFFFFFFFZZZZZZZZZZZZZZZZZZZZFFFFFFFFFFFFFFFFFFFFZZZZZZZZZZZZZZZZZZZZFFFFFFFFFFFFFFFFFFFFZZZZZZZZZZZZZZZZZZZZ",
"ZZZZZZZZZZZZZZZZZZZZFFFFFFFFFFFFFFFFFFFFZZZZZZZZZZZZZZZZZZZZFFFFFFFFFFFFFFFFFFFFZZZZZZZZZZZZZZZZZZZZFFFFFFFFFFFFFFFFFFFFZZZZZZZZZZZZZZZZZZZZFFFFFFFFFFFFFFFFFFFFZZZZZZZZZZZZZZZZZZZZFFFFFFFFFFFFFFFFFFFFZZZZZZZZZZZZZZZZZCcauuuuuuuuuuuuuuuuiiiiuuuuiiiiiiiiiiiiiiiiiiiiiiiiiiiiiiiiiiiiiiiiiiiiiiiiiiiiiiiiiiiiiiiiuuiiuiiiuuuiuuuuuuuuuuuuuuuuuuuuuuuuuuuuyyyuyyyyyyyyyyyyyyyyyyyytyttttttttttttttttttttttrrrrrrrrrrrrrrrreereeeeeeeeeeeeewwwwwwwwwwwqwwqqqqqqqqqqqqqq00000000000999999999999999888888888877777777777677666666666665555555554454444444444433333333332222222222211111111<11<<<<<<<<<<,,,,,,,,>>>>>>>>>>>>::::::::::;;;;;;;;---------=--=========9bZZZZZZZZZZZZZZZZZFFFFFFFFFFFFFFFFFFFFZZZZZZZZZZZZZZZZZZZZFFFFFFFFFFFFFFFFFFFFZZZZZZZZZZZZZZZZZZZZFFFFFFFFFFFFFFFFFFFFZZZZZZZZZZZZZZZZZZZZFFFFFFFFFFFFFFFFFFFFZZZZZZZZZZZZZZZZZZZZFFFFFFFFFFFFFFFFFFFFZZZZZZZZZZZZZZZZZZZZ",
"ZZZZZZZZZZZZZZZZZZZZFFFFFFFFFFFFFFFFFFFFZZZZZZZZZZZZZZZZZZZZFFFFFFFFFFFFFFFFFFFFZZZZZZZZZZZZZZZZZZZZFFFFFFFFFFFFFFFFFFFFZZZZZZZZZZZZZZZZZZZZFFFFFFFFFFFFFFFFFFFFZZZZZZZZZZZZZZZZZZZZFFFFFFFFFFFFFFFFFFFFZZZZZZZZZZZZZZZZMguuuuuuuuuuuuuuuuuuiiiiiiiiiiiiiiiiiiiiiiiiiiiiiiiiiiiiiiiiiiiiiiiiiiiiiiiiiiiiiiiiiiiiiiiiiiiiiiiiuuuuuuuiiiuuuuuuuuuuuuuuuuuuuuuuuuuuyyyuyyyyyyyyyyyyyyyyyytttttttttttttttttttttttrrrrrrrrrrrrrrrrreeeeeeeeeeeeeeewwwwwwwwwwwwwwwqqqqqqqqqq0qq0000000000999999999999999988888888888877777777777666666666666555555555455444444444433333333333222222222221111111111<<<<<<<<<<<,,,,,,,>>>>>>>>>>>>:::::::::::;;;;;;;--;-------============>aBZZZZZZZZZZZZZZZFFFFFFFFFFFFFFFFFFFFZZZZZZZZZZZZZZZZZZZZFFFFFFFFFFFFFFFFFFFFZZZZZZZZZZZZZZZZZZZZFFFFFFFFFFFFFFFFFFFFZZZZZZZZZZZZZZZZZZZZFFFFFFFFFFFFFFFFFFFFZZZZZZZZZZZZZZZZZZZZFFFFFFFFFFFFFFFFFFFFZZZZZZZZZZZZZZZZZZZZ",
"ZZZZZZZZZZZZZZZZZZZZFFFFFFFFFFFFFFFFFFFFZZZZZZZZZZZZZZZZZZZZFFFFFFFFFFFFFFFFFFFFZZZZZZZZZZZZZZZZZZZZFFFFFFFFFFFFFFFFFFFFZZZZZZZZZZZZZZZZZZZZFFFFFFFFFFFFFFFFFFFFZZZZZZZZZZZZZZZZZZZZFFFFFFFFFFFFFFFFFFFFZZZZZZZZZZZZZZVxpuuuuuuuuuuuuiiuuuuuiiiiiiiiiiiiiiiiiiiiiiiiiiiiiiiiiiiiiiiiiiiiiiiiiiiiiiiiiiiiiiiiiiiiiiiiiiiiiiiiiiiiuuiuuuiiiiuuuuuuuuuuuuuuuuuuuuuuuuuuyyyyyyyyyyyyyyyyyyyyttyyttttttttttttttttrrrrrrrrrrrrrrreerrreeeeeeeeeeeeeeeewwwwwwwwwwwwqqqqqqqqqqq0000000000000999999999999999988888888888877777777776666666666665555555555554444444444433333333333222222222211111111<<<<<<<<<<<,,,,,,,,,,>,>>>>>>>>>:::::::::;;;;;;;;;;----------=============6cCZZZZZZZZZZZZZFFFFFFFFFFFFFFFFFFFFZZZZZZZZZZZZZZZZZZZZFFFFFFFFFFFFFFFFFFFFZZZZZZZZZZZZZZZZZZZZFFFFFFFFFFFFFFFFFFFFZZZZZZZZZZZZZZZZZZZZFFFFFFFFFFFFFFFFFFFFZZZZZZZZZZZZZZZZZZZZFFFFFFFFFFFFFFFFFFFFZZZZZZZZZZZZZZZZZZZZ",
"ZZZZZZZZZZZZZZZZZZZZFFFFFFFFFFFFFFFFFFFFZZZZZZZZZZZZZZZZZZZZFFFFFFFFFFFFFFFFFFFFZZZZZZZZZZZZZZZZZZZZFFFFFFFFFFFFFFFFFFFFZZZZZZZZZZZZZZZZZZZZFFFFFFFFFFFFFFFFFFFFZZZZZZZZZZZZZZZZZZZZFFFFFFFFFFFFFFFFFFFFZZZZZZZZZZZZZMfuuuuuuuuuuuuuiiiiiiiiiiiiiiiiiiiiiiiiiiiiiiiiiiiiiiiiiiiiiiiiiiiiiiiiiiiiiiiiiiiiiiiiiiiiiiiiiiiiiiiiiiiiiiiiiuuiuiuuuuuuuuuuuuuuuuuuuuuuuuuuyyyyyyyyyyyyyyyyyyyyyyyytttttttttttttttttrrrtrrrrrrrrrrrrreereeeeeeeeeeeeeeewwwwwwwwwwwwqqqqqqqqqqqqq000000000000099099999999999988888888888877777777766666666666655555555555554444444444433333333333222222222111111111<<<<<<<<<<,,,,,,,,,,,,,>>>>>>>>::::::::::;;;;;;;;;----------============**;uBZZZZZZZZZZZZFFFFFFFFFFFFFFFFFFFFZZZZZZZZZZZZZZZZZZZZFFFFFFFFFFFFFFFFFFFFZZZZZZZZZZZZZZZZZZZZFFFFFFFFFFFFFFFFFFFFZZZZZZZZZZZZZZZZZZZZFFFFFFFFFFFFFFFFFFFFZZZZZZZZZZZZZZZZZZZZFFFFFFFFFFFFFFFFFFFFZZZZZZZZZZZZZZZZZZZZ",
"ZZZZZZZZZZZZZZZZZZZZFFFFFFFFFFFFFFFFFFFFZZZZZZZZZZZZZZZZZZZZFFFFFFFFFFFFFFFFFFFFZZZZZZZZZZZZZZZZZZZZFFFFFFFFFFFFFFFFFFFFZZZZZZZZZZZZZZZZZZZZFFFFFFFFFFFFFFFFFFFFZZZZZZZZZZZZZZZZZZZZFFFFFFFFFFFFFFFFFFFFZZZZZZZZZZZCzpuuuuiiiiuuuuiiiiiiiiiiiiiiiiiiiiiiiiiiiiiiiiiiiiiiiiiiiiiiiiiiiiiiiiiiiiiiiiiiiiiiiiiiiiiiiiiiiiiiiiiiiiiiiiiiiiiiiiiiiiuiuuuuuuuuuuuuuuuuuuuuuuyuyyyuyyyyyyyyyyyyyyyyyyttyttttttttttttttttrtrrrrrrrrrrrrerrreeereeeeeeeeeeewwwwwwwwwwqqqqqqqqqqqqqq000000000000099999999999989988888888888877777777767766666666556555555555554544444444433333333332222222222111111111<<<<<<<<<<<,<,,,,,,,,,>>>>>>>>::>:::::::;;;;;;;;;;--;---------========*****5cZZZZZZZZZZZFFFFFFFFFFFFFFFFFFFFZZZZZZZZZZZZZZZZZZZZFFFFFFFFFFFFFFFFFFFFZZZZZZZZZZZZZZZZZZZZFFFFFFFFFFFFFFFFFFFFZZZZZZZZZZZZZZZZZZZZFFFFFFFFFFFFFFFFFFFFZZZZZZZZZZZZZZZZZZZZFFFFFFFFFFFFFFFFFFFFZZZZZZZZZZZZZZZZZZZZ",
"ZZZZZZZZZZZZZZZZZZZZFFFFFFFFFFFFFFFFFFFFZZZZZZZZZZZZZZZZZZZZFFFFFFFFFFFFFFFFFFFFZZZZZZZZZZZZZZZZZZZZFFFFFFFFFFFFFFFFFFFFZZZZZZZZZZZZZZZZZZZZFFFFFFFFFFFFFFFFFFFFZZZZZZZZZZZZZZZZZZZZFFFFFFFFFFFFFFFFFFFFZZZZZZZZZZMfuuuuiiiiiiiiiiiiiiiiiiiiiiiiiiiiiiiiiiiiiiiiiiiippippipippppipppppppiippppppppppiippiiiiiiiiiiiiiiiiiiiiiiiiiiiiiiiiiiiiiiiiuuuuiuuuuuuuuuuuuuuuuuuuuyyuuuuyyyyyyyyyyyyyyyttyyttttttttttttttrrtttrrrrrrrrrrrrrreeerreeeeeeeeeewwwwwwwwwwwwqqwqqqqqqqqqq0qq000000000099999999999998888888888888877777777777766666666566555555555554444444444433333333332222222222211111111<1<<<<<<<<<<,,,,,,,,,,,>>>>>>>:>::::::::;;;;;;;;;;-;----------========*=***;pBZZZZZZZZZFFFFFFFFFFFFFFFFFFFFZZZZZZZZZZZZZZZZZZZZFFFFFFFFFFFFFFFFFFFFZZZZZZZZZZZZZZZZZZZZFFFFFFFFFFFFFFFFFFFFZZZZZZZZZZZZZZZZZZZZFFFFFFFFFFFFFFFFFFFFZZZZZZZZZZZZZZZZZZZZFFFFFFFFFFFFFFFFFFFFZZZZZZZZZZZZZZZZZZZZ",
"ZZZZZZZZZZZZZZZZZZZZFFFFFFFFFFFFFFFFFFFFZZZZZZZZZZZZZZZZZZZZFFFFFFFFFFFFFFFFFFFFZZZZZZZZZZZZZZZZZZZZFFFFFFFFFFFFFFFFFFFFZZZZZZZZZZZZZZZZZZZZFFFFFFFFFFFFFFFFFFFFZZZZZZZZZZZZZZZZZZZZFFFFFFFFFFFFFFFFFFFFZZZZZZZZCxpiuuuuuuiiiiiiiiiiiiiiiiiiiiiiiiiiiiiiiippiippppppppppppppppppppppppppppppppppppppiippppiipppppiiiiiiiiiiiiiiiiiiiiiiiiiiiiiiiiuuuuuuuiuuuuuuuuuuuuuuuuuuuuuuuyyyyyyyyyyyyyyyyyyttttttttttttttttttrrrrrrrrrrrrrreeeeeereeeeeeeeeeewwwwwwwwwwwqqqqqqqqqqqqq00q00000000009999999999998888888888888887777777777776666666666655555555444444444444433333333333222222222221111111<<1<<<<<<<<<<,,,,,,,,>>>>>>>>>>>>:::::::;::;;;;;;;-;;--------=========*=*****5cZZZZZZZZFFFFFFFFFFFFFFFFFFFFZZZZZZZZZZZZZZZZZZZZFFFFFFFFFFFFFFFFFFFFZZZZZZZZZZZZZZZZZZZZFFFFFFFFFFFFFFFFFFFFZZZZZZZZZZZZZZZZZZZZFFFFFFFFFFFFFFFFFFFFZZZZZZZZZZZZZZZZZZZZFFFFFFFFFFFFFFFFFFFFZZZZZZZZZZZZZZZZZZZZ",
"ZZZZZZZZZZZZZZZZZZZZFFFFFFFFFFFFFFFFFFFFZZZZZZZZZZZZZZZZZZZZFFFFFFFFFFFFFFFFFFFFZZZZZZZZZZZZZZZZZZZZFFFFFFFFFFFFFFFFFFFFZZZZZZZZZZZZZZZZZZZZFFFFFFFFFFFFFFFFFFFFZZZZZZZZZZZZZZZZZZZZFFFFFFFFFFFFFFFFFFFFZZZZZZZMgiiiuuuiiiiiiiiiiiiiiiiiiiiiiiiiiiipipppppppiipippppipppppppppppppppppppppppppppppppppppppiippppppppipppiiiiiiiiiiiiiiiiiiiiiiiiiiiiiuuuuuiuuuuuuuuuuuuuuuuuuuuuyyyyyyyyyyyyyyyyyyttttytttttttttttttrrrrrrrrrrrrrrrrreeerereeeeeeeeeeewwwwwwwwwwqqwqqqqqqqqqq00qq0000000009909999999998898888888888887777777776766666666666655555555444444444444433333333333222222222211111111<1<<<<<<<<<<,,,,,,,,>>>>>>>>>>>>>:::::::::;;;;;;;;;;--------=========*==*****:aBZZZZZZFFFFFFFFFFFFFFFFFFFFZZZZZZZZZZZZZZZZZZZZFFFFFFFFFFFFFFFFFFFFZZZZZZZZZZZZZZZZZZZZFFFFFFFFFFFFFFFFFFFFZZZZZZZZZZZZZZZZZZZZFFFFFFFFFFFFFFFFFFFFZZZZZZZZZZZZZZZZZZZZFFFFFFFFFFFFFFFFFFFFZZZZZZZZZZZZZZZZZZZZ",
"ZZZZZZZZZZZZZZZZZZZZFFFFFFFFFFFFFFFFFFFFZZZZZZZZZZZZZZZZZZZZFFFFFFFFFFFFFFFFFFFFZZZZZZZZZZZZZZZZZZZZFFFFFFFFFFFFFFFFFFFFZZZZZZZZZZZZZZZZZZZZFFFFFFFFFFFFFFFFFFFFZZZZZZZZZZZZZZZZZZZZFFFFFFFFFFFFFFFFFFFFZZZZZCcauiiiiiiiiiiiiiiiiiiiiiiiiiiiipppipppiiipppppppppppppppppppppppppppppppppppppppppppppppppppppppppppiiiippppiippiiiiiiiiiiiiiiiiiiiiiiiiiiiiiiuuuuuuuuuuuuuuuuuuuuuuuuuuyyyyyyyyyyyyyytttyttttttttttttttttttrrrrrrrrrrrrrrrerreeeeeeeeeeewwwwwwwwwwqwwwqqqqqqqqqqqqq00000000000099999999989988888888877877777777666666666666555555555554444444444444333333333332222222122111111111<<<<<<<<<<<,,,,,,,,>>>>>>>>>>:>::::::::::;;;;;;;;-;-------============*******6bZZZZZFFFFFFFFFFFFFFFFFFFFZZZZZZZZZZZZZZZZZZZZFFFFFFFFFFFFFFFFFFFFZZZZZZZZZZZZZZZZZZZZFFFFFFFFFFFFFFFFFFFFZZZZZZZZZZZZZZZZZZZZFFFFFFFFFFFFFFFFFFFFZZZZZZZZZZZZZZZZZZZZFFFFFFFFFFFFFFFFFFFFZZZZZZZZZZZZZZZZZZZZ",
"ZZZZZZZZZZZZZZZZZZZZFFFFFFFFFFFFFFFFFFFFZZZZZZZZZZZZZZZZZZZZFFFFFFFFFFFFFFFFFFFFZZZZZZZZZZZZZZZZZZZZFFFFFFFFFFFFFFFFFFFFZZZZZZZZZZZZZZZZZZZZFFFFFFFFFFFFFFFFFFFFZZZZZZZZZZZZZZZZZZZZFFFFFFFFFFFFFFFFFFFFZZZZBhiiiiiiiiiiiiiiiiiiiiiiiiiipiiipppppppppppppppppppppppppppppppppppppppppppppppppppppppppppppppppppppppppppppppipppppiiiiiiiiiiiiiiiiiiiiiiiiiiiuuuuuuuuuuuuuuuuuuuuuuuuuuyyyyyyyyyyyyyyyyyyttttttttttttttttttrrrrrrrrrrrrrrrrrreeeeeeeeeeeewwwwwwwwwwwwwwqqqqqqqqqqqq0000000000009999999999999888888888777777777776666666666665655555555545444444444443333333333222222222221111111<<<<<<<<<<<,,,,,,,,,,>>>>>>>>>>:>::::::::::;;;;;;;----------=-==========*******:fCZZZFFFFFFFFFFFFFFFFFFFFZZZZZZZZZZZZZZZZZZZZFFFFFFFFFFFFFFFFFFFFZZZZZZZZZZZZZZZZZZZZFFFFFFFFFFFFFFFFFFFFZZZZZZZZZZZZZZZZZZZZFFFFFFFFFFFFFFFFFFFFZZZZZZZZZZZZZZZZZZZZFFFFFFFFFFFFFFFFFFFFZZZZZZZZZZZZZZZZZZZZ",
"ZZZZZZZZZZZZZZZZZZZZFFFFFFFFFFFFFFFFFFFFZZZZZZZZZZZZZZZZZZZZFFFFFFFFFFFFFFFFFFFFZZZZZZZZZZZZZZZZZZZZFFFFFFFFFFFFFFFFFFFFZZZZZZZZZZZZZZZZZZZZFFFFFFFFFFFFFFFFFFFFZZZZZZZZZZZZZZZZZZZZFFFFFFFFFFFFFFFFFFFFZZCbsiiiiiiiiiiiiiiiiiiiiiiiiipppiiippppppppppppppppppppppppppppppppppppppppppppppppppppppppppppppppppppppppppppppppppppppiiipppiiiiiiiiiiiiiiiiiiiiiiuuiiuuuuuuuuuuuuuuuuuuuuuuyyyyyyyyyyyyyyyyttyyttttttttttttttrrrrrrrrrrrrrrerrreeeeeeeeeewweewwwwwwwwwwqqqqqqqqqqqqq000000000000999999999999899888888888888777777776666666666655555555555555544444444443333333333222222222211111111111<<<<<<<,,<,,,,,,,>>,>>>>>>>>>>:::::::::;;;;;;;;;;-------=--=========*********qmZZFFFFFFFFFFFFFFFFFFFFZZZZZZZZZZZZZZZZZZZZFFFFFFFFFFFFFFFFFFFFZZZZZZZZZZZZZZZZZZZZFFFFFFFFFFFFFFFFFFFFZZZZZZZZZZZZZZZZZZZZFFFFFFFFFFFFFFFFFFFFZZZZZZZZZZZZZZZZZZZZFFFFFFFFFFFFFFFFFFFFZZZZZZZZZZZZZZZZZZZZ",
"ZZZZZZZZZZZZZZZZZZZZFFFFFFFFFFFFFFFFFFFFZZZZZZZZZZZZZZZZZZZZFFFFFFFFFFFFFFFFFFFFZZZZZZZZZZZZZZZZZZZZFFFFFFFFFFFFFFFFFFFFZZZZZZZZZZZZZZZZZZZZFFFFFFFFFFFFFFFFFFFFZZZZZZZZZZZZZZZZZZZZFFFFFFFFFFFFFFFFFFFFZVliiiiiiiiiiiiiiiiiiiiipppppippppppppppppppppppppppppppppppppppppppppppppppppppppppppppppppppppppppppppppppppppppppppppppppppppppiiiiiiiiiiiiiiiiiiiiiiiiuiuuuuuuuuuuuuuuuuuuuyyyyyyyyyyyyyyyyyyytyytttttttttttttrrrrrrrrrrrrrrrreereerreeeeeeeeeewwwwwwwwwwqqqqqqqqqqqqq00000000000099099999999999988888888888877777777666666666665565555555555544444444443333333333322222222221111111111<<<<<<<<,<,,,,,,,,>,>>>>>>>>>>:::::::::;;;;;;;;;;---------=========*********&&<kCFFFFFFFFFFFFFFFFFFFFZZZZZZZZZZZZZZZZZZZZFFFFFFFFFFFFFFFFFFFFZZZZZZZZZZZZZZZZZZZZFFFFFFFFFFFFFFFFFFFFZZZZZZZZZZZZZZZZZZZZFFFFFFFFFFFFFFFFFFFFZZZZZZZZZZZZZZZZZZZZFFFFFFFFFFFFFFFFFFFFZZZZZZZZZZZZZZZZZZZZ",
"ZZZZZZZZZZZZZZZZZZZZFFFFFFFFFFFFFFFFFFFFZZZZZZZZZZZZZZZZZZZZFFFFFFFFFFFFFFFFFFFFZZZZZZZZZZZZZZZZZZZZFFFFFFFFFFFFFFFFFFFFZZZZZZZZZZZZZZZZZZZZFFFFFFFFFFFFFFFFFFFFZZZZZZZZZZZZZZZZZZZZFFFFFFFFFFFFFFFFFFFFmdiiiiiiiiiiiiiiiiiipppppppppppppppppppppppppppppppppppppppppppppppppppppppppppppppppppppppppppppppppppppppppppppppppppppppppppppppppppiiiiiiiiiiiiiiiiiiiiiiiuiuuuuuuuuuuuuuuuuuyyyuuyyyyyyyyyyyyyyyyttttttttttttttttrtrrrrrrrrrrrerreerreeeeeeeeeewwwwwwwwwwwwqwqqqqqqqqq00000000000000099999999999988888888888777777777766666666665555555555555544444444443333333333322222222221111111111<<<<<<<<<<,,,,,,,,>>>>>>>>>::::::::::;;;;;;;;;;;;---------========**********&&=yAFFFFFFFFFFFFFFFFFFFZZZZZZZZZZZZZZZZZZZZFFFFFFFFFFFFFFFFFFFFZZZZZZZZZZZZZZZZZZZZFFFFFFFFFFFFFFFFFFFFZZZZZZZZZZZZZZZZZZZZFFFFFFFFFFFFFFFFFFFFZZZZZZZZZZZZZZZZZZZZFFFFFFFFFFFFFFFFFFFFZZZZZZZZZZZZZZZZZZZZ",
"ZZZZZZZZZZZZZZZZZZZZFFFFFFFFFFFFFFFFFFFFZZZZZZZZZZZZZZZZZZZZFFFFFFFFFFFFFFFFFFFFZZZZZZZZZZZZZZZZZZZZFFFFFFFFFFFFFFFFFFFFZZZZZZZZZZZZZZZZZZZZFFFFFFFFFFFFFFFFFFFFZZZZZZZZZZZZZZZZZZZZFFFFFFFFFFFFFFFFFFDbpiiiiiiiiiiiiiiipppppppppppppppppppppppppppppppppppppppppppppppppppaaaaaaaaaaaaaaaaaaaaaaaappppppppppppppppppppppppppppppppppppppppppipppppiiiiiiiiiiiiiiiiiiiiiuuuuuuuuuuuuuuuuuuuuuuuuyyyyyyyyyyyyyyttyttttttttttttttttrrrrrrrrrrrrreerreeeeeeeeeeeewwwwwwwwwwwwwqqqqqqqqq00q00000000000999999999999888888888887777777777777666666665555555555555444444444443333333333222222222211111111111<<<<<<<<<<,,,,,,,>>>>>>>>>>::::::::::;;;;;;;;;;;;--------=========*********&&*&5mFFFFFFFFFFFFFFFFFFZZZZZZZZZZZZZZZZZZZZFFFFFFFFFFFFFFFFFFFFZZZZZZZZZZZZZZZZZZZZFFFFFFFFFFFFFFFFFFFFZZZZZZZZZZZZZZZZZZZZFFFFFFFFFFFFFFFFFFFFZZZZZZZZZZZZZZZZZZZZFFFFFFFFFFFFFFFFFFFFZZZZZZZZZZZZZZZZZZZZ",
"ZZZZZZZZZZZZZZZZZZZZFFFFFFFFFFFFFFFFFFFFZZZZZZZZZZZZZZZZZZZZFFFFFFFFFFFFFFFFFFFFZZZZZZZZZZZZZZZZZZZZFFFFFFFFFFFFFFFFFFFFZZZZZZZZZZZZZZZZZZZZFFFFFFFFFFFFFFFFFFFFZZZZZZZZZZZZZZZZZZZZFFFFFFFFFFFFFFFFFZjiiiiiiiiiiiiiippppppppppppppppppppppppppppppppppppppppaaaaaaaaaaaaaaaaaaaaaaaaaaaaaaaaaaaaaaaaaaappaaaapppppppppppppppppppppppppppppppppppiiippiiiiiiiiiiiiiiiiiiiuuuuuuuuuuuuuuuuuuuuuuuuyyyyyyyyyyyyyytyytttttttttttttrrrrrrrrrrrrrrreereeereeeeeeeeeewwwwwwwwwwqwwqqqqqqqqq0qq00000000000099999999988888888888888777777777666666666665555555555555444444444443333333333222222222111111111<1<<<<<<<<,,,,,,,,,,>,>>>>>>>>>::::::::;;;;;;;;;;;;;-------============*********&&:hDFFFFFFFFFFFFFFFFZZZZZZZZZZZZZZZZZZZZFFFFFFFFFFFFFFFFFFFFZZZZZZZZZZZZZZZZZZZZFFFFFFFFFFFFFFFFFFFFZZZZZZZZZZZZZZZZZZZZFFFFFFFFFFFFFFFFFFFFZZZZZZZZZZZZZZZZZZZZFFFFFFFFFFFFFFFFFFFFZZZZZZZZZZZZZZZZZZZZ",
"ZZZZZZZZZZZZZZZZZZZZFFFFFFFFFFFFFFFFFFFFZZZZZZZZZZZZZZZZZZZZFFFFFFFFFFFFFFFFFFFFZZZZZZZZZZZZZZZZZZZZFFFFFFFFFFFFFFFFFFFFZZZZZZZZZZZZZZZZZZZZFFFFFFFFFFFFFFFFFFFFZZZZZZZZZZZZZZZZZZZZFFFFFFFFFFFFFFFFNdiiiiiiiiiiiippppiipppppppppppppppppppppppppppppppaaaaaaaaaaaapaaaaaaaaaaaaaaaaaaaaaaaaaaaaaaapaaaappaaaaaappaaapppppppppppppppppppppppppppppiipppppiiiiiiiiiiiiiiiiiiiuuuiiuuuuuuuuuuuuuuuuuuuyyyyyyyyyyyyyytttttttttttttttrrrrrrrrrrrrrrerrrerreeeeeeeeeewwwwwwwwwwqwqqqqqqqqqqqq00000000009009999999998898888888888877777777766666666666655555555545544444444443333333323322222222111111111111<<<<<<<<,,,,,,,,,,,,>>>>>>>>:::::::::;;;;;;;;;;;--------============**********&&*rZFFFFFFFFFFFFFFFZZZZZZZZZZZZZZZZZZZZFFFFFFFFFFFFFFFFFFFFZZZZZZZZZZZZZZZZZZZZFFFFFFFFFFFFFFFFFFFFZZZZZZZZZZZZZZZZZZZZFFFFFFFFFFFFFFFFFFFFZZZZZZZZZZZZZZZZZZZZFFFFFFFFFFFFFFFFFFFFZZZZZZZZZZZZZZZZZZZZ",
"ZZZZZZZZZZZZZZZZZZZZFFFFFFFFFFFFFFFFFFFFZZZZZZZZZZZZZZZZZZZZFFFFFFFFFFFFFFFFFFFFZZZZZZZZZZZZZZZZZZZZFFFFFFFFFFFFFFFFFFFFZZZZZZZZZZZZZZZZZZZZFFFFFFFFFFFFFFFFFFFFZZZZZZZZZZZZZZZZZZZZFFFFFFFFFFFFFFDvpiiiiiiiiiiiipppppppppppppppppppppppppppppppaaaappaaaaaaaaaaaaaaaaaaaaaaaaaaaaaaaaaaaaaaaaaaaaaaaaaaaaaaaaaaaaaaaaaaaaapppppppppppppppppppppppppppppppppiiiiiiiiiiiiiiiiiiiiiiiuuuuuuuuuuuuuuuuuuuyyyyyyyyyyyyyttyytttttttttttttttrrrrrrrrrrrerrrreeeeeeeeeewwwwwwwwwwwwwwqqqqqqqqqq0q0000000009909999999999998888888888877777777767666666666665555555545544444444443333333333222222222121111111<1<<<<<<<<,,,,,,,,,,,,>>>>>>>>>>::::::::;;;;;;;;;;-;--------==========**********&&&&4nFFFFFFFFFFFFFFZZZZZZZZZZZZZZZZZZZZFFFFFFFFFFFFFFFFFFFFZZZZZZZZZZZZZZZZZZZZFFFFFFFFFFFFFFFFFFFFZZZZZZZZZZZZZZZZZZZZFFFFFFFFFFFFFFFFFFFFZZZZZZZZZZZZZZZZZZZZFFFFFFFFFFFFFFFFFFFFZZZZZZZZZZZZZZZZZZZZ",
"ZZZZZZZZZZZZZZZZZZZZFFFFFFFFFFFFFFFFFFFFZZZZZZZZZZZZZZZZZZZZFFFFFFFFFFFFFFFFFFFFZZZZZZZZZZZZZZZZZZZZFFFFFFFFFFFFFFFFFFFFZZZZZZZZZZZZZZZZZZZZFFFFFFFFFFFFFFFFFFFFZZZZZZZZZZZZZZZZZZZZFFFFFFFFFFFFFZjiiiiiiiiipppiiipppppppppppppppppppppppppaaaaaaaaaaaaaaaaaaaaaaaaaaaaaaaaaaaaaaaaaaaaaaaaaaaaaaaaaaaaaaaaaaaaaaaaaaaaaaaaaaaaaappppppppppppppppppppppppppppppiiiiiiiiiiiiiiiiiuiiiuuuuuuuuuuuuuuuuuyyyyyyyyyyyyyyyttyyttttttttttttttrrrrrrrrrrrrerrrreeeeeeeeewwewwwwwwwwwwwwqqqqqqqqqqqq0000000009999999999999998888888888877777777666666666666665555555555544444444443333333333222222221211111111<<<<<<<<<<,,,,,,,,,,,>>>>>>>>>>>:::::::;;:;;;;;;;-;----------=======************&&&&;gDFFFFFFFFFFFFZZZZZZZZZZZZZZZZZZZZFFFFFFFFFFFFFFFFFFFFZZZZZZZZZZZZZZZZZZZZFFFFFFFFFFFFFFFFFFFFZZZZZZZZZZZZZZZZZZZZFFFFFFFFFFFFFFFFFFFFZZZZZZZZZZZZZZZZZZZZFFFFFFFFFFFFFFFFFFFFZZZZZZZZZZZZZZZZZZZZ",
"FFFFFFFFFFFFFFFFFFFFZZZZZZZZZZZZZZZZZZZZFFFFFFFFFFFFFFFFFFFFZZZZZZZZZZZZZZZZZZZZFFFFFFFFFFFFFFFFFFFFZZZZZZZZZZZZZZZZZZZZFFFFFFFFFFFFFFFFFFFFZZZZZZZZZZZZZZZZZZZZFFFFFFFFFFFFFFFFFFFFZZZZZZZZZZZZnsiiiiiiipppppipppppppppppppppppppppppaaaaaaaaaaaaaaaaaaaaaaaaaaaaaaaaaaaaaaaaaaaaaaaaaaaaaaaaaaaaaaaaaaaaaaaaaaaaaaaaaaaaaaaaaaaaaaappppppppppppppppppppppppppppiiiiiiiiiiiiiiiiiiiuuuuuuuuuuuuuuuuuyyyyyyyyyyyyyyyyyyyyyttttttttttttrrtrrrrrrrrrreerrerreeeeeeeeeewwwwwwwwwqwqqqqqqqqqqq0qq00000000099999999999899888888888887777777767766666666555555555555444444444444333333332222222222221111111111<<<<<<<<<<,,,,,,,,>>>>>>>>>::::::::::;;;;;;;;;;;;---------==========*******&*&&&&&&qNZZZZZZZZZZZFFFFFFFFFFFFFFFFFFFFZZZZZZZZZZZZZZZZZZZZFFFFFFFFFFFFFFFFFFFFZZZZZZZZZZZZZZZZZZZZFFFFFFFFFFFFFFFFFFFFZZZZZZZZZZZZZZZZZZZZFFFFFFFFFFFFFFFFFFFFZZZZZZZZZZZZZZZZZZZZFFFFFFFFFFFFFFFFFFFF",
"FFFFFFFFFFFFFFFFFFFFZZZZZZZZZZZZZZZZZZZZFFFFFFFFFFFFFFFFFFFFZZZZZZZZZZZZZZZZZZZZFFFFFFFFFFFFFFFFFFFFZZZZZZZZZZZZZZZZZZZZFFFFFFFFFFFFFFFFFFFFZZZZZZZZZZZZZZZZZZZZFFFFFFFFFFFFFFFFFFFFZZZZZZZZZZCxpiiiiippppppppppppppppppppppppppppaaaaaaaaaaaaaaaaaaaaaaaaaaaaaaaaaaaaaaaaaaaaaaaaaaaaaaaaaaaaaaaaaaaaaaaaaaaaaaaaaaaaaaaaaaaaaaaaaaaaaapppppppppppppppppppppppppipppiiiiiiiiiiiiiiiiiuuuuuuuuuuuuuuuuuyyyyyyyyyyyyyyyyyttttttttttttttrrttrrrrrrrrrrerrerereeeeeeeeeewwwwwwwwwqqqqqqqqqqqqqqq000000000990999999999999888888888887777777777766666666555555555554454444444443333333333322222222221111111<<1<<<<<<<<<<,,,,,,,>>>>>>>>>>:::::::::;;;;;;;;;;;;----------=========*******&**&&&&&&2cZZZZZZZZZZFFFFFFFFFFFFFFFFFFFFZZZZZZZZZZZZZZZZZZZZFFFFFFFFFFFFFFFFFFFFZZZZZZZZZZZZZZZZZZZZFFFFFFFFFFFFFFFFFFFFZZZZZZZZZZZZZZZZZZZZFFFFFFFFFFFFFFFFFFFFZZZZZZZZZZZZZZZZZZZZFFFFFFFFFFFFFFFFFFFF",
"FFFFFFFFFFFFFFFFFFFFZZZZZZZZZZZZZZZZZZZZFFFFFFFFFFFFFFFFFFFFZZZZZZZZZZZZZZZZZZZZFFFFFFFFFFFFFFFFFFFFZZZZZZZZZZZZZZZZZZZZFFFFFFFFFFFFFFFFFFFFZZZZZZZZZZZZZZZZZZZZFFFFFFFFFFFFFFFFFFFFZZZZZZZZZBhiiiiippppppppppppppppppppppppppaaaaaaaaaaaaaaaaaaaaaaaaaaaaaaaaaaaaaaaaaaaaaaaaaaaaaaaaaaaaaaaaaaaaaaaaaaaaaaaaaaaaaaaaaaaaaaaaaaaaaaaaaaaaaaappppppppppppppppppppppppppiiiiiiiiiiiiiiiiiiiiiuuuuuuuuuuuuuyyyuyyyyyyyyyyyyyyyyttttttttttttrtrrrrrrrrrrrrrreeeeeeeeeeeeewwwwwwwwwqqqqqqqqqqqqqqq000000000999999999999999888888888877777777776666666666665555555544554444444443333333333222222221211111111<1<<<<<<<<,<,,,,,,,,>,>>>>>>>::::::::::;;;;;;;;;;---------=-==========*********&&&&&&&;dCZZZZZZZZFFFFFFFFFFFFFFFFFFFFZZZZZZZZZZZZZZZZZZZZFFFFFFFFFFFFFFFFFFFFZZZZZZZZZZZZZZZZZZZZFFFFFFFFFFFFFFFFFFFFZZZZZZZZZZZZZZZZZZZZFFFFFFFFFFFFFFFFFFFFZZZZZZZZZZZZZZZZZZZZFFFFFFFFFFFFFFFFFFFF",
"FFFFFFFFFFFFFFFFFFFFZZZZZZZZZZZZZZZZZZZZFFFFFFFFFFFFFFFFFFFFZZZZZZZZZZZZZZZZZZZZFFFFFFFFFFFFFFFFFFFFZZZZZZZZZZZZZZZZZZZZFFFFFFFFFFFFFFFFFFFFZZZZZZZZZZZZZZZZZZZZFFFFFFFFFFFFFFFFFFFFZZZZZZZZmdiiippppppppppppppppppppppppppaaaaaaaaaaaaaaaaaaaaaaaaaaaaaaaaaaaaaaaaaaaaaaaaaaaasssssssssssssaaaaaaaaaaaaaaaaaaaaaaaaaaaaaaaaaaaaaaaaaaaaaaaaaaapapppppppppppppppppppppppppiiiiiiiiiiiiiiiiiiuuuuuuuuuuuuuuuyuuuyyyyyyyyyyyyyyytttttttttttrtttrrrrrrrrrrrrreeeeeeeeeeeeewwwwwwwwwwqqqqqqqqqqqqq00000000009999999999999988888888887777777777776666666666655555555455444444444433333333332222222222111111111<<<<<<<<,<<,,,,,,,>,,>>>>>>>::::::::::;;;;;;;;;------------=======*=********&&&&&&&&&*rBZZZZZZZFFFFFFFFFFFFFFFFFFFFZZZZZZZZZZZZZZZZZZZZFFFFFFFFFFFFFFFFFFFFZZZZZZZZZZZZZZZZZZZZFFFFFFFFFFFFFFFFFFFFZZZZZZZZZZZZZZZZZZZZFFFFFFFFFFFFFFFFFFFFZZZZZZZZZZZZZZZZZZZZFFFFFFFFFFFFFFFFFFFF",
"FFFFFFFFFFFFFFFFFFFFZZZZZZZZZZZZZZZZZZZZFFFFFFFFFFFFFFFFFFFFZZZZZZZZZZZZZZZZZZZZFFFFFFFFFFFFFFFFFFFFZZZZZZZZZZZZZZZZZZZZFFFFFFFFFFFFFFFFFFFFZZZZZZZZZZZZZZZZZZZZFFFFFFFFFFFFFFFFFFFFZZZZZZZvaiippppppppppppppppppppppppaaaaaaaaaaaaaaaaaaaaaaaaaaaaaaaaaaaaaaaaasssssssssssssssssssssssssssssssssssssssssssaaaaaaaaaaaaaaaaaaaaaaaaaaaaaaaaaaaapaaapppppppppppppppppppppppiiiiiiiiiiiiiiiiiuuuiuuuuuuuuuuuuuyyyyyyyyyyyyyyyyyyttttttttttttttrrrrrrrrrrrreeeeeeeeeeeeeeeewwwwwwwwwwqqwqqqqqqqqq00q0000000099999999999988888888888887777777776766666666665555555555544444444443333333333322222221221111111<<<<<<<<<<,,,,,,,,,,,,>>>>>>>>>>:::::::;::;;;;;;;;--------==========**********&&&&&&&&%%6nZZZZZZFFFFFFFFFFFFFFFFFFFFZZZZZZZZZZZZZZZZZZZZFFFFFFFFFFFFFFFFFFFFZZZZZZZZZZZZZZZZZZZZFFFFFFFFFFFFFFFFFFFFZZZZZZZZZZZZZZZZZZZZFFFFFFFFFFFFFFFFFFFFZZZZZZZZZZZZZZZZZZZZFFFFFFFFFFFFFFFFFFFF",
"FFFFFFFFFFFFFFFFFFFFZZZZZZZZZZZZZZZZZZZZFFFFFFFFFFFFFFFFFFFFZZZZZZZZZZZZZZZZZZZZFFFFFFFFFFFFFFFFFFFFZZZZZZZZZZZZZZZZZZZZFFFFFFFFFFFFFFFFFFFFZZZZZZZZZZZZZZZZZZZZFFFFFFFFFFFFFFFFFFFFZZZZZVlpiippppppppppppppppppppppppaaaaaaaaaaaaaaaaaaaaaaaaaaaaaaaaaasssssssssssssssssssssssssssssssssssssssssssssssssssssssssssaaaaaaaaaaaaaaaaaaaaaaaaaaaaaaaaaaaappppppppppppppppppppipiiiiiiiiiiiiiiiiuuuiuuuuuuuuuuuuuyyyyyyyyyyyyyyyyyyytttttttttttrrrrrrrrrrrrrreereeeeeeeeeeeewwwwwwwwwwqwwqqqqqqqqq0qq00000000990999999999888888888888777777777677666666665565555555555444444444433333333332222222212111111111<<<<<<<<<,,,,,,,,,,,,>>>>>>>>>:::::::::;;;;;;;;;---------=========**********&&&&&&&&&%&,lCZZZZFFFFFFFFFFFFFFFFFFFFZZZZZZZZZZZZZZZZZZZZFFFFFFFFFFFFFFFFFFFFZZZZZZZZZZZZZZZZZZZZFFFFFFFFFFFFFFFFFFFFZZZZZZZZZZZZZZZZZZZZFFFFFFFFFFFFFFFFFFFFZZZZZZZZZZZZZZZZZZZZFFFFFFFFFFFFFFFFFFFF",
"FFFFFFFFFFFFFFFFFFFFZZZZZZZZZZZZZZZZZZZZFFFFFFFFFFFFFFFFFFFFZZZZZZZZZZZZZZZZZZZZFFFFFFFFFFFFFFFFFFFFZZZZZZZZZZZZZZZZZZZZFFFFFFFFFFFFFFFFFFFFZZZZZZZZZZZZZZZZZZZZFFFFFFFFFFFFFFFFFFFFZZZZNgppiiippppppppppppppppppaaapppaaaaaaaaaaaaaaaaaaaaaaaaaaasssssssssssssssssssssssssssssssssssssssssssssssssssssssssssssssssssssssaaaaaaaaaaaaaaaaaaaaaaaaaaaaaapaappppppppppppppppppppppiiiiiiiiiiiiiiiuuuiuuuuuuuuuuuuuuuuuyyyyyyyyyyytyytttttttttttrtttrrrrrrrrrrrrrrereeeeeeeeewwwwwwwwwwwwqqqqqqqqqqqq0000000000009999999999988888888888777777777766666666655555555554554444444444333333333322222222221111111<11<<<<<<<,,,,,,,,,,>,>>>>>>>>>>:::::::::;;;;;;;;;;-------==========*********&&&&&&&&&%&&=pVZZZFFFFFFFFFFFFFFFFFFFFZZZZZZZZZZZZZZZZZZZZFFFFFFFFFFFFFFFFFFFFZZZZZZZZZZZZZZZZZZZZFFFFFFFFFFFFFFFFFFFFZZZZZZZZZZZZZZZZZZZZFFFFFFFFFFFFFFFFFFFFZZZZZZZZZZZZZZZZZZZZFFFFFFFFFFFFFFFFFFFF",
"FFFFFFFFFFFFFFFFFFFFZZZZZZZZZZZZZZZZZZZZFFFFFFFFFFFFFFFFFFFFZZZZZZZZZZZZZZZZZZZZFFFFFFFFFFFFFFFFFFFFZZZZZZZZZZZZZZZZZZZZFFFFFFFFFFFFFFFFFFFFZZZZZZZZZZZZZZZZZZZZFFFFFFFFFFFFFFFFFFFFZZZnspppipppppppppppppppppaaaaaaaaaaaaaaaaaaaaaaaaaaaaaaasssssssssssssssssssssssssssssssssssssssssssssssssssssssssssssssssssssssssssssssssaaaaaaaaaaaaaaaaaaaaaaaaapaaaaapppppppppppppppppppiiiiiiiiiiiiiiiiiuiiiuuuuuuuuuuuuuuuyyyyyyyyyyyyttttttttttttttrtttrrrrrrrrrrrrrrrreeeeeeeeeewwwwwwwwwwqqqqqqqqqqqq00000000000099999999999988888888788777777776666666666655555555554444444444444333333333322222222211111111111<<<<<<<,,,,,,,,,,>>>>>>>>>>>>::::::::;;;;;;;;;;;-------=========**********&&&&&&&&&&&%&qNZZFFFFFFFFFFFFFFFFFFFFZZZZZZZZZZZZZZZZZZZZFFFFFFFFFFFFFFFFFFFFZZZZZZZZZZZZZZZZZZZZFFFFFFFFFFFFFFFFFFFFZZZZZZZZZZZZZZZZZZZZFFFFFFFFFFFFFFFFFFFFZZZZZZZZZZZZZZZZZZZZFFFFFFFFFFFFFFFFFFFF",
"FFFFFFFFFFFFFFFFFFFFZZZZZZZZZZZZZZZZZZZZFFFFFFFFFFFFFFFFFFFFZZZZZZZZZZZZZZZZZZZZFFFFFFFFFFFFFFFFFFFFZZZZZZZZZZZZZZZZZZZZFFFFFFFFFFFFFFFFFFFFZZZZZZZZZZZZZZZZZZZZFFFFFFFFFFFFFFFFFFFFZCcappippppppppppppppppaaaaaaaaaaaaaaaaaaaaaaaaaaaaasssssssssssssssssssssssssssssssssssssssssssssssssssssssssssssssssssssssssssssssssssssssssssaaaaaaaaaaaaaaaaaaaaaapppaaaappppppppppppppppppppiiiiiiiiiiiiiiuuuuiuuuuuuuuuuuuuyyyyyyyyyyyyyyttttttttttttttttrrrrrrrrrrrreeeeeeeeeeeeeeeeeewwwwwwqqqqqqqqqqqq000000000000999999999988988888888888777777776666666666555555555555544444444443333333333222222222211111111<<<<<<<<<,,,,,,,,,,,,,>>>>>>>:>::::::::;;;;;;;;;-----------========***********&&&&&&&&&&%%4bZFFFFFFFFFFFFFFFFFFFFZZZZZZZZZZZZZZZZZZZZFFFFFFFFFFFFFFFFFFFFZZZZZZZZZZZZZZZZZZZZFFFFFFFFFFFFFFFFFFFFZZZZZZZZZZZZZZZZZZZZFFFFFFFFFFFFFFFFFFFFZZZZZZZZZZZZZZZZZZZZFFFFFFFFFFFFFFFFFFFF",
"FFFFFFFFFFFFFFFFFFFFZZZZZZZZZZZZZZZZZZZZFFFFFFFFFFFFFFFFFFFFZZZZZZZZZZZZZZZZZZZZFFFFFFFFFFFFFFFFFFFFZZZZZZZZZZZZZZZZZZZZFFFFFFFFFFFFFFFFFFFFZZZZZZZZZZZZZZZZZZZZFFFFFFFFFFFFFFFFFFFFVlppppppppppppppppppaaaaaaaaaaaaaaaaaaaaaaaaaaaasssssssssssssssssssssssssssssssssssssssssssssssssssssssssssssssssssssssssssssssssssssssssssssssssssaaaaaaaaaaaaaaaaaaaaaaaaaaappppppppppppppppppippiiiiiiiiiiiiiuuuiuuuuuuuuuuuuyyyyyyyyyyyyyyytttytttttttttttrrrrrrrrrrrreeeeeeeeeeeeeeeeeewwwwwwwqqqqqqqqqqq000000000000999999999999888888888888777777777666666666656655555555554444444444333333333322222222221111111<<<<<<<<<<,<<,,,,,,,,,>>>>>>>:>::::::::;;;;;;;;;-----------========************&&&&&&&&&%%%>lFFFFFFFFFFFFFFFFFFFFZZZZZZZZZZZZZZZZZZZZFFFFFFFFFFFFFFFFFFFFZZZZZZZZZZZZZZZZZZZZFFFFFFFFFFFFFFFFFFFFZZZZZZZZZZZZZZZZZZZZFFFFFFFFFFFFFFFFFFFFZZZZZZZZZZZZZZZZZZZZFFFFFFFFFFFFFFFFFFFF",
"FFFFFFFFFFFFFFFFFFFFZZZZZZZZZZZZZZZZZZZZFFFFFFFFFFFFFFFFFFFFZZZZZZZZZZZZZZZZZZZZFFFFFFFFFFFFFFFFFFFFZZZZZZZZZZZZZZZZZZZZFFFFFFFFFFFFFFFFFFFFZZZZZZZZZZZZZZZZZZZZFFFFFFFFFFFFFFFFFFFAhpppppppppppppppppaaaaaaaaaaaaaaaaaaaaaaaaaassssssssssssssssssssssssssssssssssssssssdsssssssddssssssdssssssssssssssssssssssssssssssssssssssssssssssssssaaaaaaaaaaaaaaaaaaaaaaaaappppppppppppppppiipppiiiiiiiiiiiiiuiuuuuuuuuuuuuuuuuuuyyyyyyyyyyyttyttttttttttrrttrrrrrrrrrerreeeeeeeeeeeeewwwwwwwwwwwqqqqqqqqq0qq000000000900999999998898888888888777777777666666666655555555555544444444444333333333322222222221111111<<<<<<<<<<,,,,,,,,,,>>>>>>>>>::::::::::;:;;;;;;;----------=========***********&&&&&&&&&&%%%-gDFFFFFFFFFFFFFFFFFFZZZZZZZZZZZZZZZZZZZZFFFFFFFFFFFFFFFFFFFFZZZZZZZZZZZZZZZZZZZZFFFFFFFFFFFFFFFFFFFFZZZZZZZZZZZZZZZZZZZZFFFFFFFFFFFFFFFFFFFFZZZZZZZZZZZZZZZZZZZZFFFFFFFFFFFFFFFFFFFF",
"FFFFFFFFFFFFFFFFFFFFZZZZZZZZZZZZZZZZZZZZFFFFFFFFFFFFFFFFFFFFZZZZZZZZZZZZZZZZZZZZFFFFFFFFFFFFFFFFFFFFZZZZZZZZZZZZZZZZZZZZFFFFFFFFFFFFFFFFFFFFZZZZZZZZZZZZZZZZZZZZFFFFFFFFFFFFFFFFFFVfppppppppppppppppaaaaaaaaaaaaaaaaaaaaaaaasssssssssssssssssssssssssssssssssssssdsdssssssddsssssdsdssssssddsssssssddsssddssssssssssssssssssssssssssssssssssssaaaaaaaaaaaaaaaaaaaaaaaaapppppppppppppppppppiiiiiiiiiiiiiiiiuuuuuuuuuuuuuuuuuyyyyyyyyyyyyyyttttttttttrtttrrrrrrrrrrrrreeeeeeeeeeeewwwwwwwwwwwwqqqqqqqqqqq000000000009999999998988888888887777777776666666666555555555555444444444443333333333222222222211111111<<<<<<<<<,,,,,,,,,,>>>>>>>>>::::::::::;:;;;;;;;--;-------=========*==********&&&&&&&&&&%%%%*uAFFFFFFFFFFFFFFFFFZZZZZZZZZZZZZZZZZZZZFFFFFFFFFFFFFFFFFFFFZZZZZZZZZZZZZZZZZZZZFFFFFFFFFFFFFFFFFFFFZZZZZZZZZZZZZZZZZZZZFFFFFFFFFFFFFFFFFFFFZZZZZZZZZZZZZZZZZZZZFFFFFFFFFFFFFFFFFFFF",
"FFFFFFFFFFFFFFFFFFFFZZZZZZZZZZZZZZZZZZZZFFFFFFFFFFFFFFFFFFFFZZZZZZZZZZZZZZZZZZZZFFFFFFFFFFFFFFFFFFFFZZZZZZZZZZZZZZZZZZZZFFFFFFFFFFFFFFFFFFFFZZZZZZZZZZZZZZZZZZZZFFFFFFFFFFFFFFFFFMsppppppppppppppaaaaaaaaaaaaaaaaaaaaaaaasssssssssssssssssssssssssssssssssssssssssssdddddddddddddddddddddddddddddddddddsdssssssssssssssssssssssssssssssssssssssssaaaaaaaaaaaaaaaaaaaaaaaappppppppppppppppppppiiiiiiiiiiiiuuuuuuuuuuuuuuuuyyyyyyyyyyyyyyyyyttttttttttttttrrrrrrrrrrerreeeeeeeeeeeewwwwwwwwwqqqqqqqqqqqqqq00000000009999999998998888888888877777777676666666656655555555444444444444333333333322222222221111111<<<<<<<<<<,<,,,,,,,,>>>>>>>>>::::::::::::;;;;;;;---------==-========*********&&&&&&&&%%&%%%%%9CFFFFFFFFFFFFFFFFZZZZZZZZZZZZZZZZZZZZFFFFFFFFFFFFFFFFFFFFZZZZZZZZZZZZZZZZZZZZFFFFFFFFFFFFFFFFFFFFZZZZZZZZZZZZZZZZZZZZFFFFFFFFFFFFFFFFFFFFZZZZZZZZZZZZZZZZZZZZFFFFFFFFFFFFFFFFFFFF",
"FFFFFFFFFFFFFFFFFFFFZZZZZZZZZZZZZZZZZZZZFFFFFFFFFFFFFFFFFFFFZZZZZZZZZZZZZZZZZZZZFFFFFFFFFFFFFFFFFFFFZZZZZZZZZZZZZZZZZZZZFFFFFFFFFFFFFFFFFFFFZZZZZZZZZZZZZZZZZZZZFFFFFFFFFFFFFFFDbapppppppppppppaaaaaaaaaaaaaaaaaaaaaaasssssssssssssssssssssssssssssssssssssdddddddddddddddddddddddddddddddddddddddddddddddddddddsssssssssssssssssssssssssssssssssssssaaaaaaaaaaaaaaaaaaaaaaappppppppppppppppppiiiiiiiiiiiiiuuuuuuuuuuuuuuuyuyyyyyyyyyyyyyyttttttttttttrttrrrrrrrrrrerreereeeeeeeeewwwwwwwwwqqqqqqqqqqq0qq00000000099999999999998888888888777777777776666666665555555554454444444444333333322322222222211111111<<<<<<<<<<<,,,,,,,,,>>>>>>>>>>::::::::::;;;;;;;;---------=-==========*******&&&&&&&&&%&%%%%%%2mFFFFFFFFFFFFFFFZZZZZZZZZZZZZZZZZZZZFFFFFFFFFFFFFFFFFFFFZZZZZZZZZZZZZZZZZZZZFFFFFFFFFFFFFFFFFFFFZZZZZZZZZZZZZZZZZZZZFFFFFFFFFFFFFFFFFFFFZZZZZZZZZZZZZZZZZZZZFFFFFFFFFFFFFFFFFFFF",
"FFFFFFFFFFFFFFFFFFFFZZZZZZZZZZZZZZZZZZZZFFFFFFFFFFFFFFFFFFFFZZZZZZZZZZZZZZZZZZZZFFFFFFFFFFFFFFFFFFFFZZZZZZZZZZZZZZZZZZZZFFFFFFFFFFFFFFFFFFFFZZZZZZZZZZZZZZZZZZZZFFFFFFFFFFFFFFSzppppppppppppaaaaaaaaaaaaaaaaaaaaaaasssssssssssssssssssssssssssssdsssddddddddddddddddddddddddddddddddddddddddddddddddddddddddddddddddddssssssssssssssssssssssssssssssssssaaaaaaaaaaaaaaaaaaaaaappppppppppppppppppiiiiiiiiiiiiiuiiuuuuuuuuuuuuuuuyyyyyyyyyyyyttttttttttttrttrrrrrrrrrrrererreeeeeeeeewwwwwwwwwqqqqqqqqqqq0qq0000000099999999999899888888888877777777777666666666555555555455444444444333333332322222222121111111<<<<<<<<<<<<,,,,,,,,,,>>>>>>>>:::::::::;:;;;;;;;------------=======*=*******&&&&&&&&&%&%%%%%%%:xFFFFFFFFFFFFFFZZZZZZZZZZZZZZZZZZZZFFFFFFFFFFFFFFFFFFFFZZZZZZZZZZZZZZZZZZZZFFFFFFFFFFFFFFFFFFFFZZZZZZZZZZZZZZZZZZZZFFFFFFFFFFFFFFFFFFFFZZZZZZZZZZZZZZZZZZZZFFFFFFFFFFFFFFFFFFFF",
"FFFFFFFFFFFFFFFFFFFFZZZZZZZZZZZZZZZZZZZZFFFFFFFFFFFFFFFFFFFFZZZZZZZZZZZZZZZZZZZZFFFFFFFFFFFFFFFFFFFFZZZZZZZZZZZZZZZZZZZZFFFFFFFFFFFFFFFFFFFFZZZZZZZZZZZZZZZZZZZZFFFFFFFFFFFFFAkpppppppppppaaaaaaaaaaaaaaaaaaaaaassssssssssssssssssssssssddsssssdddddddddddddddddddddddddddddddddddddddddddddddddddddddddddddddddddddddddddddssssssssssssssssssssssssssssssaaaaaaaaaaaaaaaaaaaaaappppppppppppppppppiiiiiiiiiiiiuiuuuuuuuuuuuuuuuuyyyyyyyyyyyyttttttttttttrrtrrrrrrrrrrerrrreeeeeeeeeewwwwwwwwwqqqqqqqqqqq0000000000090099999999999888888888877777777777666666665555555555554444444444333333323322222221221111111<<<<<<<<<<<,,,,,,,,,,,>>>>>>>:::::::::;;;;;;;;;;-;-------=-=======*=*******&&*&&&&&&&&&%%%%%%%=hFFFFFFFFFFFFFZZZZZZZZZZZZZZZZZZZZFFFFFFFFFFFFFFFFFFFFZZZZZZZZZZZZZZZZZZZZFFFFFFFFFFFFFFFFFFFFZZZZZZZZZZZZZZZZZZZZFFFFFFFFFFFFFFFFFFFFZZZZZZZZZZZZZZZZZZZZFFFFFFFFFFFFFFFFFFFF",
"FFFFFFFFFFFFFFFFFFFFZZZZZZZZZZZZZZZZZZZZFFFFFFFFFFFFFFFFFFFFZZZZZZZZZZZZZZZZZZZZFFFFFFFFFFFFFFFFFFFFZZZZZZZZZZZZZZZZZZZZFFFFFFFFFFFFFFFFFFFFZZZZZZZZZZZZZZZZZZZZFFFFFFFFFFFFZgppppppppppaaaapaaaaaaaaaaaaaaaasssssssssssssssssssssssssssddddddddddddddddddddddddddddddddddddddddddddddddddddddddddddddddddddddddddddddddddddddddsssssssssssssssssssssssssssssaaaaaaaaaaaaaaaaaaaaappppppppppppppppppiiiiiiiiiiiiuuuuuuuuuuuuuuuuyyyyyyyyyyyyttyytttttttttttttrrrrrrrrrrrrreeeeeeeeeeeewwwwwwwwwwqqqqqqqqqqqq000000009999999999999888888888887777777777666666665565555555554444444444433333332322222222221111111111<<<<<<<<,,,,,,,,,>>>>>>>>>>>::::::::;;;;;;;;;-;-------=--=======*********&&&&&&&&&%%%%%%%%%%*pSFFFFFFFFFFFZZZZZZZZZZZZZZZZZZZZFFFFFFFFFFFFFFFFFFFFZZZZZZZZZZZZZZZZZZZZFFFFFFFFFFFFFFFFFFFFZZZZZZZZZZZZZZZZZZZZFFFFFFFFFFFFFFFFFFFFZZZZZZZZZZZZZZZZZZZZFFFFFFFFFFFFFFFFFFFF",
"FFFFFFFFFFFFFFFFFFFFZZZZZZZZZZZZZZZZZZZZFFFFFFFFFFFFFFFFFFFFZZZZZZZZZZZZZZZZZZZZFFFFFFFFFFFFFFFFFFFFZZZZZZZZZZZZZZZZZZZZFFFFFFFFFFFFFFFFFFFFZZZZZZZZZZZZZZZZZZZZFFFFFFFFFFFVdpppppppppaaaaaaaaaaaaaaaaaaaaasssssssssssssssssssssssssssddddddddddddddddddddddddddddddddddddddddddddddddddddddddddddddddddddddddddddddddddddddddddddddssssssssssssssssssssssssssssaaaaaaaaaaaaaaaaaaaappppppppppppppppppiiiiiiiiiiiuuiiuuuuuuuuuuuyyyyyyyyyyyyyytytttttttttttttrrrrrrrrrrrrreeeeeeeeeeeewwwwwwwwqwqqqqqqqqqq0qq000000009999999999999888888888887777777767666666665655555555544444444444333333333322222222221111111111<<<<<<<,,,,,,,,,>>>>>>>>>>>::::::::;;;;;;;;;;;;-------=-=======*********&&&&&&&&&&%%%%%%%%%%%rAFFFFFFFFFFZZZZZZZZZZZZZZZZZZZZFFFFFFFFFFFFFFFFFFFFZZZZZZZZZZZZZZZZZZZZFFFFFFFFFFFFFFFFFFFFZZZZZZZZZZZZZZZZZZZZFFFFFFFFFFFFFFFFFFFFZZZZZZZZZZZZZZZZZZZZFFFFFFFFFFFFFFFFFFFF",
"FFFFFFFFFFFFFFFFFFFFZZZZZZZZZZZZZZZZZZZZFFFFFFFFFFFFFFFFFFFFZZZZZZZZZZZZZZZZZZZZFFFFFFFFFFFFFFFFFFFFZZZZZZZZZZZZZZZZZZZZFFFFFFFFFFFFFFFFFFFFZZZZZZZZZZZZZZZZZZZZFFFFFFFFFFMsppppppppaaaaaaaaaaaaaaaaaaaassssssssssssssssssssssssssddddddddddddddddddddddddddddddddddddddddddffddddddddffddddffddddddddddddddddddddddddddddddddddddddddddsssssddsssssssssssssssssssaaaaaaaaaaaaaaaaaaaapppppppppppppppppiiiiiiiiiiiiiiiuuuuuuuuuuuyyyuyyyyyyyyyyyyyttttttttttrrrrrrrrrrrrrrrerreeeeeeeeewwwwwwwwwwwqqqqqqqqq0q0000000009999999999888888888888877777777666666666666655555555544544444444333333323322222222211111111<<<<<<<<<,,<,,,,,,,>>>>>>>>>>:::::::::;:;;;;;;;-;-------==========*=*******&&&&&&&&&&%%%%%%%%%%$8CFFFFFFFFFZZZZZZZZZZZZZZZZZZZZFFFFFFFFFFFFFFFFFFFFZZZZZZZZZZZZZZZZZZZZFFFFFFFFFFFFFFFFFFFFZZZZZZZZZZZZZZZZZZZZFFFFFFFFFFFFFFFFFFFFZZZZZZZZZZZZZZZZZZZZFFFFFFFFFFFFFFFFFFFF",
"FFFFFFFFFFFFFFFFFFFFZZZZZZZZZZZZZZZZZZZZFFFFFFFFFFFFFFFFFFFFZZZZZZZZZZZZZZZZZZZZFFFFFFFFFFFFFFFFFFFFZZZZZZZZZZZZZZZZZZZZFFFFFFFFFFFFFFFFFFFFZZZZZZZZZZZZZZZZZZZZFFFFFFFFFbapppppppaaaaaaaaaaaaaaaaaaaassssssssssssssssssssssssddddddddddddddddddddddddddddddfdddddddddddddddffddddddddffddddffddddddddffddddddddddddddddddddddddddddddddddddsdsssssssssssssssssssssssaaaaaaaaaaaaaaaaaaapppppppppppppppppiiiiiiiiiiiiiuuuuuuuuuuuuuyuuyyyyyyyyyyyyyttttttttttrrrrrrrrrrrrrrerrreeeeeeeeewwwwwwwwwwwqqqqqqqq000000000009999999999988888888888887777777766766666666655555555545554444444433333333322222222211111111<11<<<<<<<,<,,,,,,,>>>>>>>>>>:::::::::;::;;;;;;;;;-------=========*=*******&&*&&&&&&&%%%%%%%%%%%$3NFFFFFFFFZZZZZZZZZZZZZZZZZZZZFFFFFFFFFFFFFFFFFFFFZZZZZZZZZZZZZZZZZZZZFFFFFFFFFFFFFFFFFFFFZZZZZZZZZZZZZZZZZZZZFFFFFFFFFFFFFFFFFFFFZZZZZZZZZZZZZZZZZZZZFFFFFFFFFFFFFFFFFFFF",
"ZZZZZZZZZZZZZZZZZZZZFFFFFFFFFFFFFFFFFFFFZZZZZZZZZZZZZZZZZZZZFFFFFFFFFFFFFFFFFFFFZZZZZZZZZZZZZZZZZZZZFFFFFFFFFFFFFFFFFFFFZZZZZZZZZZZZZZZZZZZZFFFFFFFFFFFFFFFFFFFFZZZZZZZCzappppppaaaaaaaaaaaaaaaaaaassssssssssssssssssssssssddddddddddddddddddddddddddddddddddffddddddffffffffffffffffffffffffffffffdddddddddddddddffdddddddddddddddddddddddddddssssssssssssssssssssssssaaaaaaaaaaaaaaaaaaappppppppppppppppiiiiiiiiiiiiuuiuuuuuuuuuuuyyyyyyyyyyyyyyttttttttttttrrrrrrrrrrrrrrreeeeeeeeeeewwwwwwwwwwqqqqqqqqqq00q000000009009999999988988888888877777777767666666666555555555554444444444333333333322222222211111111<<<<<<<<<<<<,,,,,,,>,>>>>>>>::>:::::::::;;;;;;;;;-------==-=========*******&&&&&&&&&&&%%%%%%%$%$$>xZZZZZZZFFFFFFFFFFFFFFFFFFFFZZZZZZZZZZZZZZZZZZZZFFFFFFFFFFFFFFFFFFFFZZZZZZZZZZZZZZZZZZZZFFFFFFFFFFFFFFFFFFFFZZZZZZZZZZZZZZZZZZZZFFFFFFFFFFFFFFFFFFFFZZZZZZZZZZZZZZZZZZZZ",
"ZZZZZZZZZZZZZZZZZZZZFFFFFFFFFFFFFFFFFFFFZZZZZZZZZZZZZZZZZZZZFFFFFFFFFFFFFFFFFFFFZZZZZZZZZZZZZZZZZZZZFFFFFFFFFFFFFFFFFFFFZZZZZZZZZZZZZZZZZZZZFFFFFFFFFFFFFFFFFFFFZZZZZZVlppppppaaaaaaaaaaaaaaaaaaasssssssssssssssssssddssdddddddddddddddddddddddddfdddddfddddffffffffffffffffffffffffffffffffffffffffffffffffffddddffddddffddddddddddddddddddddddddsssssssssssssssssssssssaaaaaaaaaaaaaaaaaapppppppppppppppipiiiiiiiiiiiuiiiuuuuuuuuuuyyuyyyyyyyyyytttttttttttttrrrrrrrrrrrrrrreereeeeeeewwwwwwwwwwqqqqqqqqqqq00000000000000999999998988888888877777777766766666666555555555555444444444433333333332222222211111111<<1<<<<<<<<<,,,,,,,,,>>>>>>>>:::::::::::;;;;;;;;;--------=-=========*******&&&&&&&&&&&&%%%%%%%%%$$-kZZZZZZFFFFFFFFFFFFFFFFFFFFZZZZZZZZZZZZZZZZZZZZFFFFFFFFFFFFFFFFFFFFZZZZZZZZZZZZZZZZZZZZFFFFFFFFFFFFFFFFFFFFZZZZZZZZZZZZZZZZZZZZFFFFFFFFFFFFFFFFFFFFZZZZZZZZZZZZZZZZZZZZ",
"ZZZZZZZZZZZZZZZZZZZZFFFFFFFFFFFFFFFFFFFFZZZZZZZZZZZZZZZZZZZZFFFFFFFFFFFFFFFFFFFFZZZZZZZZZZZZZZZZZZZZFFFFFFFFFFFFFFFFFFFFZZZZZZZZZZZZZZZZZZZZFFFFFFFFFFFFFFFFFFFFZZZZZVjpppppaaaaaaaaaaaaaaaaaaasssssssssssssssssssssddddddddddddddddddddddddddddffddddfffffffffffffffffffffffffffffffffffffffffffffffffffffffffffffdddddffdfddddddddddddddddddddddddddsssssssssssssssssssssaaaaaaaaaaaaaaaaaapppppppppppppppiiiiiiiiiiiiiuiuuuuuuuuuuuuuuuyyyyyyyyyytttttttttttttttrrrrrrrrrrereereeeeeeeeewwwwwwwwqqqqqqqqqqq00q00000000099999999999988888888887777777767766666665555555555555444444444433333333322222222221111111<<<<<<<<<,,<,,,,,,,,,>>>>>>>::>::::::::;;;;;;;;;;----------=======*=*******&&&&&&&&&&&%%%%%%%%%$$$=gCZZZZFFFFFFFFFFFFFFFFFFFFZZZZZZZZZZZZZZZZZZZZFFFFFFFFFFFFFFFFFFFFZZZZZZZZZZZZZZZZZZZZFFFFFFFFFFFFFFFFFFFFZZZZZZZZZZZZZZZZZZZZFFFFFFFFFFFFFFFFFFFFZZZZZZZZZZZZZZZZZZZZ",
"ZZZZZZZZZZZZZZZZZZZZFFFFFFFFFFFFFFFFFFFFZZZZZZZZZZZZZZZZZZZZFFFFFFFFFFFFFFFFFFFFZZZZZZZZZZZZZZZZZZZZFFFFFFFFFFFFFFFFFFFFZZZZZZZZZZZZZZZZZZZZFFFFFFFFFFFFFFFFFFFFZZZZBhpppppaaaaaaaaaaaaaaaaaasssssssssssssssssssssdddddddddddddddddddddfffddddddfffffffffffffffffffffffffffffffffffffffffffffffffffffffffffffffffffffffffddfddddddddddddddddddddddddddddsssssssssssssssssssssaaaaaaaaaaaaaaaaaapppppppppppppiipiiiiiiiiiiiiiiuuuuuuuuuuuuuuyyyyyyyyyytyyttttttttttttrrrrrrrrreereeeeeeeeeeewwwwwwwwwqqwqqqqqqqq0qq00000000909999999999988888888877777777777666666665555555555544444444444333333333322222222211111111<<<<<<<<<,,,,,,,,,,,,>>>>>>>:>::::::::;;;;;;;;;;;---------=======*********&&&&&&&&&&&&%%%%%%%%%$$$*aCZZZFFFFFFFFFFFFFFFFFFFFZZZZZZZZZZZZZZZZZZZZFFFFFFFFFFFFFFFFFFFFZZZZZZZZZZZZZZZZZZZZFFFFFFFFFFFFFFFFFFFFZZZZZZZZZZZZZZZZZZZZFFFFFFFFFFFFFFFFFFFFZZZZZZZZZZZZZZZZZZZZ",
"ZZZZZZZZZZZZZZZZZZZZFFFFFFFFFFFFFFFFFFFFZZZZZZZZZZZZZZZZZZZZFFFFFFFFFFFFFFFFFFFFZZZZZZZZZZZZZZZZZZZZFFFFFFFFFFFFFFFFFFFFZZZZZZZZZZZZZZZZZZZZFFFFFFFFFFFFFFFFFFFFZZZNfppppaaaaaaaaaaaaaaaaaasssssssssssssssddsssdddddddddddddddddddddffddffddffffffffffffffffffffffffffffffffffffffffffffffffffffffffffffffffffffffffffffffffffffdddddddddddddddddddddddddddssssssssssssssssssssaaaaaaaaaaaaaaaaaapppppppppppppppiiiiiiiiiiiuuuuuuuuuuuuuuuuuyyyyyyyyyytyytttttttttrrrrrrrrrrrreeeereeeeeeeeeeewwwwwwwqqqqqqqqqqqqq0000000099999999999988888888888877777777776666666655555555554444444444443333333332222222222111111111<<<<<<<<<<,,,,,,,>>>>>>>>>>>>:::::::;;;;;;;;;-;-------==========*********&&&&&&&&&%%%%%%%%%%%$$$$&yCZZFFFFFFFFFFFFFFFFFFFFZZZZZZZZZZZZZZZZZZZZFFFFFFFFFFFFFFFFFFFFZZZZZZZZZZZZZZZZZZZZFFFFFFFFFFFFFFFFFFFFZZZZZZZZZZZZZZZZZZZZFFFFFFFFFFFFFFFFFFFFZZZZZZZZZZZZZZZZZZZZ",
"ZZZZZZZZZZZZZZZZZZZZFFFFFFFFFFFFFFFFFFFFZZZZZZZZZZZZZZZZZZZZFFFFFFFFFFFFFFFFFFFFZZZZZZZZZZZZZZZZZZZZFFFFFFFFFFFFFFFFFFFFZZZZZZZZZZZZZZZZZZZZFFFFFFFFFFFFFFFFFFFFZZMdpppaaaaaaaaaaaaaaaaaasssssssssssssssddddsdddddddddddddddddddddddffffffffffffffffffffffffffffffffffffffffffffffffffffffffffffffffffffffffffffffffffffffffffffffddffdddddddddddddddddddddddssssssssssssssssssssaaaaaaaaaaaaaaaaaapppppppppppppiiiiiiiiiiiiiuuuuuuuuuuuuuyuyyyyyyyyyyyyyytttttttttrrrrrrrrrrrreeeeeeeeeeeeeeewwwwwwwwqqqqqqqqqqqqq0000000099999999999888888888888877777777766666666555555555544544444444433333333332222222221111111111<<<<<<<,<,,,,,,,,>>>>>>>>>>>::::::::;:;;;;;;-;;-------=========*********&&&&&&&&&%%%%%%%%%%%$$$$$%eVZFFFFFFFFFFFFFFFFFFFFZZZZZZZZZZZZZZZZZZZZFFFFFFFFFFFFFFFFFFFFZZZZZZZZZZZZZZZZZZZZFFFFFFFFFFFFFFFFFFFFZZZZZZZZZZZZZZZZZZZZFFFFFFFFFFFFFFFFFFFFZZZZZZZZZZZZZZZZZZZZ",
"ZZZZZZZZZZZZZZZZZZZZFFFFFFFFFFFFFFFFFFFFZZZZZZZZZZZZZZZZZZZZFFFFFFFFFFFFFFFFFFFFZZZZZZZZZZZZZZZZZZZZFFFFFFFFFFFFFFFFFFFFZZZZZZZZZZZZZZZZZZZZFFFFFFFFFFFFFFFFFFFFZmdpppaaaaaaaaaaaaaaaaasssssssssssssssssssddddddddddddddddddddddddddfffffffffffffffffffffffffffffffffffffffgggffffffggggggffffffffffffffffffffffffffffffffffffffffffffffdddfddddddddddddddddddddsssssssssssssssssssaaaaaaaaaaaaaaaaapppppppppppppppiiiiiiiiiiiuuuuuuuuuuuuuyyyyyyyyyyyyyyyytttttttttttrrrrrrrrrrrrreereeeeeeeewwwwwwwwqqwqqqqqqqq0000000000000099999998898888888888777777777666666666655555555545444444444433333333332222222221111111<<<<<<<<<<,,,,,,,,,,,>>>>>>>:>>:::::::;:;;;;;;;;;--------=========*=******&**&&&&&&&%%%%%%%%%%%$$$$$$9NFFFFFFFFFFFFFFFFFFFFZZZZZZZZZZZZZZZZZZZZFFFFFFFFFFFFFFFFFFFFZZZZZZZZZZZZZZZZZZZZFFFFFFFFFFFFFFFFFFFFZZZZZZZZZZZZZZZZZZZZFFFFFFFFFFFFFFFFFFFFZZZZZZZZZZZZZZZZZZZZ",
"ZZZZZZZZZZZZZZZZZZZZFFFFFFFFFFFFFFFFFFFFZZZZZZZZZZZZZZZZZZZZFFFFFFFFFFFFFFFFFFFFZZZZZZZZZZZZZZZZZZZZFFFFFFFFFFFFFFFFFFFFZZZZZZZZZZZZZZZZZZZZFFFFFFFFFFFFFFFFFFFFnsppaaaaaaaaaaaaaaaaasssssssssssssssssssddddddddddddddddddffffddfffffffffffffffffffffffffffffffggfffffffgggggggfffffgggggggfffffggffffffggfffffffffffffffffffffffffffffffdffdfddddddddddddddddddddsssssssssssssssssssaaaaaaaaaaaaaaaaapppppppppppppppiiiiiiiiiiuuuuuuuuuuuuuuyyyyyyyyyyyytyyttttttttttttrrrrrrrrrrrrrrreeeeeeeewwwwwwwwqwwqqqqqqqq00q0000000000999999998998888888888777777777766666665555555555455454444444433333333322222222211111111<<<<<<<<<,,,,,,,,,,,,>>>>>>>>>::::::::::;;;;;;;;--------=========*=*********&&&&&&&%%%%%%%%%%%$$$$$$$6ZFFFFFFFFFFFFFFFFFFFZZZZZZZZZZZZZZZZZZZZFFFFFFFFFFFFFFFFFFFFZZZZZZZZZZZZZZZZZZZZFFFFFFFFFFFFFFFFFFFFZZZZZZZZZZZZZZZZZZZZFFFFFFFFFFFFFFFFFFFFZZZZZZZZZZZZZZZZZZZZ",
"ZZZZZZZZZZZZZZZZZZZZFFFFFFFFFFFFFFFFFFFFZZZZZZZZZZZZZZZZZZZZFFFFFFFFFFFFFFFFFFFFZZZZZZZZZZZZZZZZZZZZFFFFFFFFFFFFFFFFFFFFZZZZZZZZZZZZZZZZZZZZFFFFFFFFFFFFFFFFFFFMspaaaaaaaaaaaaaaaaassssssssssssssssssddddddddddddddddddddddddfffffffffffffffffffffffffffffffffffggffffffffffgggggggggggggggggfffggffffffffffggggfffffffffffffffffffffffffffffdddddddddddddddddddddddssssdssssssssssssssaaaaaaaaaaaaappppppppppppppppppiiiiiiiiiiiuuuuuuuuuuuuuyyyyyyyyyyyyytyttttttttttttrrrrrrrrrrrreeeeeeeeeeewwwwwwwwwwqqqqqqqqq000000000000999999999998888888887877777777776666666666555555555444444444433333333332222222211111111<<<<<<<<<<<<,,,,,,,,>>>>>>>>::::::::::::;;;;;;;;----------=======*==********&&&&&&&&&&%%%%%%$$%$$$$$$#6CFFFFFFFFFFFFFFFFFFZZZZZZZZZZZZZZZZZZZZFFFFFFFFFFFFFFFFFFFFZZZZZZZZZZZZZZZZZZZZFFFFFFFFFFFFFFFFFFFFZZZZZZZZZZZZZZZZZZZZFFFFFFFFFFFFFFFFFFFFZZZZZZZZZZZZZZZZZZZZ",
"ZZZZZZZZZZZZZZZZZZZZFFFFFFFFFFFFFFFFFFFFZZZZZZZZZZZZZZZZZZZZFFFFFFFFFFFFFFFFFFFFZZZZZZZZZZZZZZZZZZZZFFFFFFFFFFFFFFFFFFFFZZZZZZZZZZZZZZZZZZZZFFFFFFFFFFFFFFFFFFmspaaaaaaaaaaaaaaaassssssssssssssssssddddddddddddddddddddddfffffffffffffffffffffffffffffggffffffffgggggggggggggggggggggggggggggggggggggggggfffggggggffffffffffffffffffffffffffffffdfddddddddddddddddddddssddsssssssssssssssaaaaaaaaaaaaapaapppppppppppppiiiiiiiiiiiiuuiuuuuuuuuuuyyyyyyyyyyyytyttttttttttrttrrrrrrrrrrrreeeeeeeeeewwwwwwwwwwwwqqqqqqqq000000000099099999999988888888877777777776766666666665555555555444444444433333333322222222111111111<1<<<<<<<<<,,,,,,,,>>>>>>>>>:::::::::::;;;;;;;;----------==========********&&&&&&&&&&%%%%%%%$%$$$$$$$#4VFFFFFFFFFFFFFFFFFZZZZZZZZZZZZZZZZZZZZFFFFFFFFFFFFFFFFFFFFZZZZZZZZZZZZZZZZZZZZFFFFFFFFFFFFFFFFFFFFZZZZZZZZZZZZZZZZZZZZFFFFFFFFFFFFFFFFFFFFZZZZZZZZZZZZZZZZZZZZ",
"ZZZZZZZZZZZZZZZZZZZZFFFFFFFFFFFFFFFFFFFFZZZZZZZZZZZZZZZZZZZZFFFFFFFFFFFFFFFFFFFFZZZZZZZZZZZZZZZZZZZZFFFFFFFFFFFFFFFFFFFFZZZZZZZZZZZZZZZZZZZZFFFFFFFFFFFFFFFFFnaaaaaaaaaaaaaaaaassssssssssssssssssdddddddddddddddddddddffffffffffffffffffffffffffffffggggggggggggggggggggggggggggggggggggggggggggggggggggggggggggggggfffffgggffffffffffffffffffffffffddddddddddddddddddddddsssssssssssssssssaaaaaaaaaaaaaaappppppppppppiipiiiiiiiiiiiiiuuuuuuuuuuuuuyyyyyyyyytttttttttttttttrrrrrrrrrrrreeeeeeeeeeewwwwwwwwwqqqqqqqqq000000000009999999999998888888877777777776666666666656555555555544444444433333333332222222221111111<11<<<<<<<<<,,,,,,,>>>>>>>>>:::::::::::;;;;;;;;----------==========********&&&&&&&&&&&%%%%%%%%%$$$$$$##2BFFFFFFFFFFFFFFFFZZZZZZZZZZZZZZZZZZZZFFFFFFFFFFFFFFFFFFFFZZZZZZZZZZZZZZZZZZZZFFFFFFFFFFFFFFFFFFFFZZZZZZZZZZZZZZZZZZZZFFFFFFFFFFFFFFFFFFFFZZZZZZZZZZZZZZZZZZZZ",
"ZZZZZZZZZZZZZZZZZZZZFFFFFFFFFFFFFFFFFFFFZZZZZZZZZZZZZZZZZZZZFFFFFFFFFFFFFFFFFFFFZZZZZZZZZZZZZZZZZZZZFFFFFFFFFFFFFFFFFFFFZZZZZZZZZZZZZZZZZZZZFFFFFFFFFFFFFFFFbaaaaaaaaaaaaaaaasssssssssssssssssddddddddddddddddddddddfffffffffffffffffffffgggggffffggggggggggggggggggggggggggggggggggggggggggggggggggggggggggggggggggggffffggffffffffffffffffffffffffffdddddddddddddddddddddsssssssssssssssssaaaaaaaaaaaaaaaapppppppppppippiiiiiiiiiiiiuuuuuuuuuuuuuuyyyyyyyyytttttttttttttttrrrrrrrrrrreeeeeeeeeeewwwwwwwwwqwqqqqqqqq00000000000999999999999888888887777777777766666666655555555555544444444443333333332222222221111111111<<<<<<<,<<,,,,,,,>,>>>>>>>::::::::::;;;;;;;;---------===========********&&&&&&&&&&&%%%%%%%%%$$$$$$$##1NFFFFFFFFFFFFFFFZZZZZZZZZZZZZZZZZZZZFFFFFFFFFFFFFFFFFFFFZZZZZZZZZZZZZZZZZZZZFFFFFFFFFFFFFFFFFFFFZZZZZZZZZZZZZZZZZZZZFFFFFFFFFFFFFFFFFFFFZZZZZZZZZZZZZZZZZZZZ",
"ZZZZZZZZZZZZZZZZZZZZFFFFFFFFFFFFFFFFFFFFZZZZZZZZZZZZZZZZZZZZFFFFFFFFFFFFFFFFFFFFZZZZZZZZZZZZZZZZZZZZFFFFFFFFFFFFFFFFFFFFZZZZZZZZZZZZZZZZZZZZFFFFFFFFFFFFFFFvaaaaaaaaaaaaaaasssssssssssssdsssddddddddddddddddffffdfffffffffffffffffffffffffggffgggggggggggggggggggggggggggggggggggggggggggggggggggggggggggggggggggggggggggggfffffffggffffffffffffffffffffdfffdddddddddddddddddsssssssssssssssssaaaaaaaaaaaaaaapppppppppppppiiiiiiiiiiiiuuiuuuuuuuuuyyyyyyyyyyyytttttttttttttttrrrrrrrreeeeeeeeeeeeeewwwwwwwwqqqqqqqqqqq0000000000999999999999988888888887777777766666666666655555555554444444443333333333222222222211111111<<<<<<<<,,,,,,,,,,>>>>>>>>:>>:::::::;;;;;;;;;-----------=========********&&&&&&&&%%%%%%%%%%%$$$$$$$###,MFFFFFFFFFFFFFFZZZZZZZZZZZZZZZZZZZZFFFFFFFFFFFFFFFFFFFFZZZZZZZZZZZZZZZZZZZZFFFFFFFFFFFFFFFFFFFFZZZZZZZZZZZZZZZZZZZZFFFFFFFFFFFFFFFFFFFFZZZZZZZZZZZZZZZZZZZZ",
"ZZZZZZZZZZZZZZZZZZZZFFFFFFFFFFFFFFFFFFFFZZZZZZZZZZZZZZZZZZZZFFFFFFFFFFFFFFFFFFFFZZZZZZZZZZZZZZZZZZZZFFFFFFFFFFFFFFFFFFFFZZZZZZZZZZZZZZZZZZZZFFFFFFFFFFFFFDvaaaaaaaaaaaaaasssssssssssssssssddddddddddddddddddffffffffffffffffffffffggffffffggggggggggggggggggggggggggggggggggggggggggggggggggggggggggggggggggggggggggggggggggggggfgggfffffffffffffffffffffffddddfdddddddddddddddsssssssssssssssssaaaaaaaaaaaaaappppppppppppiiiiiiiiiiiiiuiiuuuuuuuuuyyyyyyyyyyyyttttttttttttttrrrrrrrrreeeeeeeeeeeeeewwwwwwwwwqwqqqqqqqq000000000090099999999998888888888777777766666666666555555555454444444444333333333322222222211111111<<<<<<<<,,,,,,,,,,>>>>>>>>>:::::::::;;;;;;;;;-;----------=========******&&*&&&&&&&%%%%%%%%%%$$$$$$$####>mFFFFFFFFFFFFFZZZZZZZZZZZZZZZZZZZZFFFFFFFFFFFFFFFFFFFFZZZZZZZZZZZZZZZZZZZZFFFFFFFFFFFFFFFFFFFFZZZZZZZZZZZZZZZZZZZZFFFFFFFFFFFFFFFFFFFFZZZZZZZZZZZZZZZZZZZZ",
"ZZZZZZZZZZZZZZZZZZZZFFFFFFFFFFFFFFFFFFFFZZZZZZZZZZZZZZZZZZZZFFFFFFFFFFFFFFFFFFFFZZZZZZZZZZZZZZZZZZZZFFFFFFFFFFFFFFFFFFFFZZZZZZZZZZZZZZZZZZZZFFFFFFFFFFFFDvaaaaaaaaaaaaaassssssssssssssssddddddddddddddddddddffffffffffffffffffggggggffggggggggggggggggggggggggggggggggggggggggggggggggggggggggggggggggggggggggggggggggggggggggggggggfffffffffffffffffffffffffddfffdddddddddddddddssssssssssssssssaaaaaaaaaaaaaappppppppppppippiiiiiiiiiiiiuuuuuuuuuuuuyyyyyyyyyyyyytttttttttrrrrrrrrrrrrrreeeeeeeeeeewwwwwwwwqqqqqqqqqq00q00000000999999999999888888888877777777776666666655555555555544444444443333333332222222221111111<<<<<<<<<<,,,,,,,,,>>>>>>>>>::::::::::;;;;;;;;;;;-------===========*******&*&&&&&&&&&%%%%%%%%%$$$$$$$####:mFFFFFFFFFFFFZZZZZZZZZZZZZZZZZZZZFFFFFFFFFFFFFFFFFFFFZZZZZZZZZZZZZZZZZZZZFFFFFFFFFFFFFFFFFFFFZZZZZZZZZZZZZZZZZZZZFFFFFFFFFFFFFFFFFFFFZZZZZZZZZZZZZZZZZZZZ",
"ZZZZZZZZZZZZZZZZZZZZFFFFFFFFFFFFFFFFFFFFZZZZZZZZZZZZZZZZZZZZFFFFFFFFFFFFFFFFFFFFZZZZZZZZZZZZZZZZZZZZFFFFFFFFFFFFFFFFFFFFZZZZZZZZZZZZZZZZZZZZFFFFFFFFFFFDvaaaaaaaaaaaaassssssssssssdssssdddddddddddddddddddffffffffffffffffffggggggggggggggggggggggggggggggggggggggggggggggggggggggggggghhhgggggghhgggggggggggggggggggggggggggggggggggggffffgggfffffffffffffffffdffddddddddddddddddssssdssssssssssssaaaaaaaaaaappaapppppppppppppiiiiiiiiiiiiiuuuuuuuuuuuuyyyyyyyyyyyytttttttttrrrrrrrrrrrrrrreeeeeeeeeewwwwwwwwqqqqqqqqqq0qq00000000999999999998888888888777777777776666666556555555555544444444433333333332222222211111111<<<<<<<<<,,,,,,,,,,,>>>>>>>>:::::::::;:;;;;;;;;;-------============*********&&&&&&&&&%%%%%%%%%$$$$$$#####:mFFFFFFFFFFFZZZZZZZZZZZZZZZZZZZZFFFFFFFFFFFFFFFFFFFFZZZZZZZZZZZZZZZZZZZZFFFFFFFFFFFFFFFFFFFFZZZZZZZZZZZZZZZZZZZZFFFFFFFFFFFFFFFFFFFFZZZZZZZZZZZZZZZZZZZZ",
"ZZZZZZZZZZZZZZZZZZZZFFFFFFFFFFFFFFFFFFFFZZZZZZZZZZZZZZZZZZZZFFFFFFFFFFFFFFFFFFFFZZZZZZZZZZZZZZZZZZZZFFFFFFFFFFFFFFFFFFFFZZZZZZZZZZZZZZZZZZZZFFFFFFFFFFDvaaaaaaaaaaaaassssssssssssssssdddddddddddddddfffffffffffffffffffffffffffggggggggggggggggggggggggggggggggghgggggggggggggggggggggggggggggggggggggggggggggggggggggggggggggggggggggggggffgggggfffffffffffffffffddddddddddddddddddsddsssssssssssssaaaaaaaaaaaaaaapppppppppppppiiiiiiiiiiuuiuuuuuuuuuuuuyyyyyyyyyttttttttttttrrrrrrrrrrrreeeeeeeeeeeeewwwwwwwwqwqqqqqqqq0qq0000000900999999988888888887887777777766666666655555555554544444444443333333332222222222111111111<<<<<<<<<,,,,,,,,,>>>>>>>>>>:::::::::;;;;;;;;;-------=========***********&&&&&&&&&%%%%%%%%%$$$$$$$#$###:mFFFFFFFFFFZZZZZZZZZZZZZZZZZZZZFFFFFFFFFFFFFFFFFFFFZZZZZZZZZZZZZZZZZZZZFFFFFFFFFFFFFFFFFFFFZZZZZZZZZZZZZZZZZZZZFFFFFFFFFFFFFFFFFFFFZZZZZZZZZZZZZZZZZZZZ",
"ZZZZZZZZZZZZZZZZZZZZFFFFFFFFFFFFFFFFFFFFZZZZZZZZZZZZZZZZZZZZFFFFFFFFFFFFFFFFFFFFZZZZZZZZZZZZZZZZZZZZFFFFFFFFFFFFFFFFFFFFZZZZZZZZZZZZZZZZZZZZFFFFFFFFFDvaaaaaaaaaaaassssssssssssssssddddddddddddddddddfffffffffffffffffggffffgggggggggggggggggggggggghhggggggggghggghhhgghhhhhhhhhhghhhghhhhhhhhhhhhhhhgggggggggggggggggggggggggggggggggggggggggggggfffffffffffffffffdddddddddddddddddddsssssssssssssssaaaaaaaaaaaaaappppppppppppppiiiiiiiiiuiiuuuuuuuuuuuuyyyyyyyyyttttttttttttrrrrrrrrrrreerereeeeeeeewwwwwwwwwwqqqqqqqqqqq0000000000999999998898888888888777777766666666665555555554544444444443333333333222222211111111111<<<<<<<<<<,,,,,,,,,>>>>>>>>::::::::::;;;;;;;;;-------=========***********&&&&&&&&&%%%%%%%%%$$$$$$$#$####:mFFFFFFFFFZZZZZZZZZZZZZZZZZZZZFFFFFFFFFFFFFFFFFFFFZZZZZZZZZZZZZZZZZZZZFFFFFFFFFFFFFFFFFFFFZZZZZZZZZZZZZZZZZZZZFFFFFFFFFFFFFFFFFFFFZZZZZZZZZZZZZZZZZZZZ",
"ZZZZZZZZZZZZZZZZZZZZFFFFFFFFFFFFFFFFFFFFZZZZZZZZZZZZZZZZZZZZFFFFFFFFFFFFFFFFFFFFZZZZZZZZZZZZZZZZZZZZFFFFFFFFFFFFFFFFFFFFZZZZZZZZZZZZZZZZZZZZFFFFFFFFDvaaaaaaaaaaaassssssssssssssdddddddddddddddddddfffffffffffffffffggggfggggggggggggggggggggggggggghhhgggghhhhhhhhhhhhhhhhhhhhhhhhhhhhhhhhhgghhhhhhhhhhhhhhhhggggghhhggggggggggggggggggggggggggggggffffffffffffffffffdddfddddddddddddddsssssssssssssssaaaaaaaaaaaaaaappppppppppppiiiiiiiiiiiiuuuuuuuuuuuuuyyyyyyyyyttttttttttttrtrrrrrrrrrereereeeeeeeewwwwwwwwwwwqqqqqqqqqq0000000009999999999988888888877777777667666666655555555554444444444443333333332222222111111111111<<<<<<<<,,,,,,,,,,>>>>>>>>::::::::;;:;;;;;;;----------========**********&&&&&&&&&%%%%%%%%%%$$$$$$$$$####:mFFFFFFFFZZZZZZZZZZZZZZZZZZZZFFFFFFFFFFFFFFFFFFFFZZZZZZZZZZZZZZZZZZZZFFFFFFFFFFFFFFFFFFFFZZZZZZZZZZZZZZZZZZZZFFFFFFFFFFFFFFFFFFFFZZZZZZZZZZZZZZZZZZZZ",
"ZZZZZZZZZZZZZZZZZZZZFFFFFFFFFFFFFFFFFFFFZZZZZZZZZZZZZZZZZZZZFFFFFFFFFFFFFFFFFFFFZZZZZZZZZZZZZZZZZZZZFFFFFFFFFFFFFFFFFFFFZZZZZZZZZZZZZZZZZZZZFFFFFFFDvaaaaaaaaaaassssssssssssssdddddddddddddddddddffffffffffffffffffggggggggggggggggggggggggggggggggghhhhhhhhhhhhhhhhhhhhhhhhhhhhhhhhhhhhhhhhhhhhhhhhhhhhhhhhhhhhhhhhhhgggggggggggggggggggggggggggggfffgggfffffffffffffffffdddddddddddddddssssssssssssssssaaaaaaaaaaaaaappppppppppiiiiiiiiiiiiuuuuuuuuuuuuuuuyyyyyyyyyttytttttttttttrrrrrrrrrrrerreeeeeeewwwwwwwwwwwqqqqqqqqqqq000000009999999999998888888777777777767766666665555555554454444444443333333333222222211111111111<<<<<<<<,,,,,,,,>>>>>>>>>>:::::::::;:;;;;;;;;;---------=======*********&&&&&&&&&%%%%%%%%%%%$$$$$$$$$#####:mFFFFFFFZZZZZZZZZZZZZZZZZZZZFFFFFFFFFFFFFFFFFFFFZZZZZZZZZZZZZZZZZZZZFFFFFFFFFFFFFFFFFFFFZZZZZZZZZZZZZZZZZZZZFFFFFFFFFFFFFFFFFFFFZZZZZZZZZZZZZZZZZZZZ",
"FFFFFFFFFFFFFFFFFFFFZZZZZZZZZZZZZZZZZZZZFFFFFFFFFFFFFFFFFFFFZZZZZZZZZZZZZZZZZZZZFFFFFFFFFFFFFFFFFFFFZZZZZZZZZZZZZZZZZZZZFFFFFFFFFFFFFFFFFFFFZZZZZZCxaaaaaaaaaaasssssssssssssssddddddddddddddddffffffffffffffffffffgggggggggggggggggggggggggggggghhgghhhhhhhhhhhhhhhhhhhhhhhhhhhhhhhhhhhhhhhhhhhhhhhhhhhhhhhhhhhhhhgghhhhhgggggggggggggggggggggggggggggffffffffffffffffffffffdddddddddddddddsssssssssssssssaaaaaaaaaaaaaappppppppppppiiiiiiiiiiiiuuuuuuuuuuuuuyyyyyyyyytyyttttttttrttrrrrrrrreeeerreeeeeeeewwwwwwwwwwqqqqqqqq000000000099999999998898888888887777777776666666655555555555544444444443333333332222222222111111111<<<<<<<,,,,,,,,,,,>>>>>>>>>:::::::;;;;;;;;;------------======**********&&&&&&&&%&&%%%%%%%%$$$$$$$#$######;cZZZZZZFFFFFFFFFFFFFFFFFFFFZZZZZZZZZZZZZZZZZZZZFFFFFFFFFFFFFFFFFFFFZZZZZZZZZZZZZZZZZZZZFFFFFFFFFFFFFFFFFFFFZZZZZZZZZZZZZZZZZZZZFFFFFFFFFFFFFFFFFFFF",
"FFFFFFFFFFFFFFFFFFFFZZZZZZZZZZZZZZZZZZZZFFFFFFFFFFFFFFFFFFFFZZZZZZZZZZZZZZZZZZZZFFFFFFFFFFFFFFFFFFFFZZZZZZZZZZZZZZZZZZZZFFFFFFFFFFFFFFFFFFFFZZZZZZcaaaaaaaaaasssssssssssssssddddddddddddffdddffffffffffffffgfffffggggggggggggggggggggggggggghhhhhghghhhhhhhhhhhhhhhhhhhhhhhhhhhhhhhhhhhhhhhhhhhhhhhhhhhhhhhhhhhhhhhghhhhhhhhhgggggggggggggggggggggggggggffffffffffffffffffffdddddddddddddddddsssssssssssssssaaaaaaaaaaaaapppppppppppppiiiiiiiiiiuuiuuuuuuuuuuyyyyyyyyyyyyyttttttttrttrrrrrrrreereeeeeeeeeewwwwwwwwwwwqqqqqqqq000000000099999999999988888888887777777766666666655555555555544444444433333333332222222221111111<1<<<<<<<,,,,,,,,,,,>>>>>>>>>::::::::::;;;;;;;-----------=======*********&&&&&&&&&%%%%%%%%%%$$$$$$$$$#######:bZZZZZFFFFFFFFFFFFFFFFFFFFZZZZZZZZZZZZZZZZZZZZFFFFFFFFFFFFFFFFFFFFZZZZZZZZZZZZZZZZZZZZFFFFFFFFFFFFFFFFFFFFZZZZZZZZZZZZZZZZZZZZFFFFFFFFFFFFFFFFFFFF",
"FFFFFFFFFFFFFFFFFFFFZZZZZZZZZZZZZZZZZZZZFFFFFFFFFFFFFFFFFFFFZZZZZZZZZZZZZZZZZZZZFFFFFFFFFFFFFFFFFFFFZZZZZZZZZZZZZZZZZZZZFFFFFFFFFFFFFFFFFFFFZZZZZcaaaaaaaaaasssssssssssssssddddddddddddddddffffffffffffffgggffgggggggggggggggggggggggggghhhhhhhhhhhhhhhhhhhhhhhhhhhhhhhhhhhhhhhhhhhhhhhhhhhhhhhhhhhhhhhhhhhhhhhhhhhhhhhhhhhhhhhhhgggghgggggggggggggggggggggfggfgffffffffffffffffdfddddddddddddsssssssssssssssaaaaaaaaaaaaaappppppppppppiiiiiiiiiiuuuuuuuuuuuyyyyyyyyyyyyyyttttttttttttrrrrrrrrrrreeeeeeeeeewwwwwwwwwwwqqqqqqqq000000000900999999988888888888877777777766666666665555555555444444444433333333322222222221111111<<<<<<<<<,,,,,,,,,>>>>>>>>>:::::::::;;;;;;;;;;----------========*********&&&&&&&&%%%%%%%%%$$$$$$$$$$########>nZZZZFFFFFFFFFFFFFFFFFFFFZZZZZZZZZZZZZZZZZZZZFFFFFFFFFFFFFFFFFFFFZZZZZZZZZZZZZZZZZZZZFFFFFFFFFFFFFFFFFFFFZZZZZZZZZZZZZZZZZZZZFFFFFFFFFFFFFFFFFFFF",
"FFFFFFFFFFFFFFFFFFFFZZZZZZZZZZZZZZZZZZZZFFFFFFFFFFFFFFFFFFFFZZZZZZZZZZZZZZZZZZZZFFFFFFFFFFFFFFFFFFFFZZZZZZZZZZZZZZZZZZZZFFFFFFFFFFFFFFFFFFFFZZZZvaaaaaaaaasssssssssssssssddddddddddddddddfffffffffffffffgggggggggggggggggggggggggggghhhhhhhhhhhhhhhhhhhhhhhhhhhhhhhhhhhhhhhhhhhhhhhhhhhhhhhhhhhhhhhhhhhhhhhhhhhhhhhhhhhhhhhhhhhhhhhhhhhgggggggggggggggggggggggggffffffffffffffffdfffddddddddddddssssssssssssssaaaaaaaaaaaappppppppppppppiiiiiiiiiiuuiuuuuuuuuyyyyyyyyyyyyyyyttttttttttrrrrrrrrrereeeeeeeeeeewwwwwwwwwqqqqqqqqq000000000000099999998888888888887777777766666666656655555555544444444433333333332222222221111111<<<<<<<<<,,,,,,,,,>>>>>>>>>::::::::::::;;;;;;;----------========*********&*&&&&&&%%%%%%%%%$$$$$$$$$$########@<mZZZFFFFFFFFFFFFFFFFFFFFZZZZZZZZZZZZZZZZZZZZFFFFFFFFFFFFFFFFFFFFZZZZZZZZZZZZZZZZZZZZFFFFFFFFFFFFFFFFFFFFZZZZZZZZZZZZZZZZZZZZFFFFFFFFFFFFFFFFFFFF",
"FFFFFFFFFFFFFFFFFFFFZZZZZZZZZZZZZZZZZZZZFFFFFFFFFFFFFFFFFFFFZZZZZZZZZZZZZZZZZZZZFFFFFFFFFFFFFFFFFFFFZZZZZZZZZZZZZZZZZZZZFFFFFFFFFFFFFFFFFFFFZZZbsaaaaaaaasssssssssssssddddddddddddddffdfffffffffffffffffgggggggggggggggggggggggghhhhhhhhhhhhhhhhhhhhhhhhhhhhhhhhhhhhhhhhhhhhhhhhhhhhhhhhhhhhhhhhhhhhhhhhhhhhhhhhhhhhhhhhhhhhhhhhhhgghhhhgggggggggggggggggggggggffffffffffffffffffddddddddddddddddsssssssssssssssaaaaaaaaaaaaapppppppppppppiiiiiiiiiuuuuuuuuuuuyyyyyyyyyyyyttyttttttttrrrrrrrrrrrrrrrreeeeeeeewwwwwwwqqqqqqqqqqqqq0000000009999999999988888887887777777666666666665555555555555444444433333333322222222221111111<1<<<<<<<<<,,,,,,,,>>>>>>>>:::::::::::;;;;;;;----------==========*******&*&&&&&&&&&%%%%%%%%%$$$$$$$$$######@@1mZZFFFFFFFFFFFFFFFFFFFFZZZZZZZZZZZZZZZZZZZZFFFFFFFFFFFFFFFFFFFFZZZZZZZZZZZZZZZZZZZZFFFFFFFFFFFFFFFFFFFFZZZZZZZZZZZZZZZZZZZZFFFFFFFFFFFFFFFFFFFF",
"FFFFFFFFFFFFFFFFFFFFZZZZZZZZZZZZZZZZZZZZFFFFFFFFFFFFFFFFFFFFZZZZZZZZZZZZZZZZZZZZFFFFFFFFFFFFFFFFFFFFZZZZZZZZZZZZZZZZZZZZFFFFFFFFFFFFFFFFFFFFZZbsaaaaaaaassssssssssssssddddddddddddddfffffffffffffffffffggggggggggggggggggggggghhhhhhhhhhhhhhhhhhhhhhhhhhhhhhhhhhhhhhhhjjjjjjjjjjjjjjjjjjjjjjjjjjjjhhhhhhhhhhhhhhhhhhhhhhhhhhhhhhhhhhhhhhhhggggggggggggggggggggggggfffffffffffffffffddddddddddddddddssssssssssssssaaaaaaaaaapaapppppppppppppiiiiiiiiiiuuuuuuuuuuyyyyyyyyyyyytytttttttttrrrrrrrrrrrrrrrreeeeeeewwewwwwwqqqqqqqqqqqqq000000009999999999998888888887777777766666666666655555555544444444443333333332222222221111111<<<<<<<<<<<,,,,,,,,>>>>>>>>::::::::::::;;;;;;----------==========**********&&&&&&&&%%%%%%%%%$$$$$$$$$#######@#3MZFFFFFFFFFFFFFFFFFFFFZZZZZZZZZZZZZZZZZZZZFFFFFFFFFFFFFFFFFFFFZZZZZZZZZZZZZZZZZZZZFFFFFFFFFFFFFFFFFFFFZZZZZZZZZZZZZZZZZZZZFFFFFFFFFFFFFFFFFFFF",
"FFFFFFFFFFFFFFFFFFFFZZZZZZZZZZZZZZZZZZZZFFFFFFFFFFFFFFFFFFFFZZZZZZZZZZZZZZZZZZZZFFFFFFFFFFFFFFFFFFFFZZZZZZZZZZZZZZZZZZZZFFFFFFFFFFFFFFFFFFFFZnsaaaaaaassssssssssssssddddddddddddddddfffffffffffffgfffgggggggggggggggggggggghhhhhhhhhhhhhhhhhhhhhhhhhhhhhhhhhhjjjjjjjjjjjjjjjjjjjjjjjjjjjjjjjjjjjjjjjjjjjjjjhhhhhhhhhhhhhhhhhhhhhhhhhhhhhhhhhhhggggggggggggggggggggggfgffffffffffffffffddddddddddddddssssssssssssssaaaaaaaaaaaaappppppppppppiiiiiiiiiiiuuuuuuuuuuuuuyyyyyyyyytytttttttttttrrrrrrrrrrreeeeeeeeeeeewwwwwwqqqqqqqqqqqq0000000099999999999988888888887777777777666666656555555544544444444433333333322222222211111111<1<<<<<<<<,,,,,,,,,,>>>>>>>>::::::::;;;;;;;;;---------==========**********&&&&&&&&&%%%%%%%%%$$$$$$$$$########@4NFFFFFFFFFFFFFFFFFFFFZZZZZZZZZZZZZZZZZZZZFFFFFFFFFFFFFFFFFFFFZZZZZZZZZZZZZZZZZZZZFFFFFFFFFFFFFFFFFFFFZZZZZZZZZZZZZZZZZZZZFFFFFFFFFFFFFFFFFFFF",
"FFFFFFFFFFFFFFFFFFFFZZZZZZZZZZZZZZZZZZZZFFFFFFFFFFFFFFFFFFFFZZZZZZZZZZZZZZZZZZZZFFFFFFFFFFFFFFFFFFFFZZZZZZZZZZZZZZZZZZZZFFFFFFFFFFFFFFFFFFFFmsaaaaaaassssssssssssssdddddddddddddddffffffffffffffgggggggggggggggggggggggghhhhhhhhhhhhhhhhhhhhhhhhhhhhhhhjjjjjjjjjjjjjjjjjjjjjjjjjjjjjjjjjjjjjjjjjjjjjjjjjjjjjjjjjjhhhhhhhhhhhhhhhhhhhhhhhhhhhhhhhhgggghggggggggggggggggffffffffffffffffffddddddddddddddsssssssssssssaaaaaaaaaaaaapppppppppppppiiiiiiiiiuuuuuuuuuuuuuuyyyyyyyyttttttttttttttrrrrrrrrrreereeeeeeeewwwwwwwwqwqqqqqqqq00000000009099999999998888888888777777777666666655655555554544444444443333333332222222211111111<1<<<<<<<<,,,,,,,,,,>>>>>>>>::::::::;:;;;;;;;;--------=========***********&&&&&&&&&%%%%%%%%%$$$$$$$$$#########@7AFFFFFFFFFFFFFFFFFFFZZZZZZZZZZZZZZZZZZZZFFFFFFFFFFFFFFFFFFFFZZZZZZZZZZZZZZZZZZZZFFFFFFFFFFFFFFFFFFFFZZZZZZZZZZZZZZZZZZZZFFFFFFFFFFFFFFFFFFFF",
"FFFFFFFFFFFFFFFFFFFFZZZZZZZZZZZZZZZZZZZZFFFFFFFFFFFFFFFFFFFFZZZZZZZZZZZZZZZZZZZZFFFFFFFFFFFFFFFFFFFFZZZZZZZZZZZZZZZZZZZZFFFFFFFFFFFFFFFFFFFVdaaaaaaassssssssssddsdddddddddddddddfffffffffffffgfffggggggggggggggghgggghhhhhghhhhhhhhhhhhhhhhhhhhhhhjjjjjjjjjjjjjjjjjjjjjjjjjjjjjjjjjjjjjjjjjjjjjjjjjjjjjjjjjjjjjjjjjjjjhhhhhhhhhhhhhhhhhhhhhhhhhhhhhggggggggggggggggggggfffggffffffffffffdfdddddddddddddssssssssssssssaaaaaaaaaaaaappppppppppppiiiiiiiiiuiiuuuuuuuuyyyyyyyyyyyyttttttttttrrrrrrrrrrrerrreeeeeeeeewwwwwwwwwwqqqqqqq00000000009009999999888888888888777777766766666665555555554444444444443333333332222222222111111111<<<<<<<,,,,,,,,,>>>>>>>>>>::::::::::;;;;;;;-;-------===========*********&&&&&&&&&%%%%%%%%$$$$$$$#$#########@#wSFFFFFFFFFFFFFFFFFFZZZZZZZZZZZZZZZZZZZZFFFFFFFFFFFFFFFFFFFFZZZZZZZZZZZZZZZZZZZZFFFFFFFFFFFFFFFFFFFFZZZZZZZZZZZZZZZZZZZZFFFFFFFFFFFFFFFFFFFF",
"FFFFFFFFFFFFFFFFFFFFZZZZZZZZZZZZZZZZZZZZFFFFFFFFFFFFFFFFFFFFZZZZZZZZZZZZZZZZZZZZFFFFFFFFFFFFFFFFFFFFZZZZZZZZZZZZZZZZZZZZFFFFFFFFFFFFFFFFFFZfaaaaaassssssssssssddddddddddddddffdffffffffffffgggfgggggggggggggggggggghhhhhhhhhhhhhhhhhhhhhhhhhhhjjjjjjjjjjjjjjjjjjjjjjjjjjjjjjjjjjjjjjjjjjjjjjjjjjjjjjjjjjjjjjjjjjjjjjjjjjjjjhhhhhhhhhhhhhhhhhhhhhghhhhhgggggggggggggggggggfggffffffffffffffddddddddddddddssssssssssssssaaaaaaaaaaaaappppppppppppiiiiiiiiiiiuuuuuuuuuyyyyyyyyyyytttttttttttrtrrrrrrrrerreeeeeeeeeewwwwwwwwqqqqqqqqqq0000000000099999999988888888887877777776766666665555555555444444444444333333333222222222111111111<<<<<<<,,,,,,,,,>>>>>>>>>>::::::::::;;;;;;;;;-------===========*********&&&&&&&%%%%%%%%%%%$$$$$$#$$########@@#yDFFFFFFFFFFFFFFFFFZZZZZZZZZZZZZZZZZZZZFFFFFFFFFFFFFFFFFFFFZZZZZZZZZZZZZZZZZZZZFFFFFFFFFFFFFFFFFFFFZZZZZZZZZZZZZZZZZZZZFFFFFFFFFFFFFFFFFFFF",
"FFFFFFFFFFFFFFFFFFFFZZZZZZZZZZZZZZZZZZZZFFFFFFFFFFFFFFFFFFFFZZZZZZZZZZZZZZZZZZZZFFFFFFFFFFFFFFFFFFFFZZZZZZZZZZZZZZZZZZZZFFFFFFFFFFFFFFFFFAhaaaaaassssssssssssssdddddddddddddfffffffffffffgfgfggggggggggggggggggghhhhhhhhhhhhhhhhhhhhhhhhhhjjjjjjjjjjjjjjjjjjjjjjjjjjjjjjjjjjjjjjjjjjjjjjjjjjjjjjjjjjjjjjjjjjjjjjjjjjjjjjjjjjjjjhhhhhhhhhhhhhhhhhhhhhhhhhgggggggggggggggggggggffffffffffffffdddddddddddddddsssssssssssssaaaaaaaaaaaaapppppppppiiiiiiiiiiiiiiuuuuuuuuuuuyyyyyyyyyttyttttttttrrrrrrrrrrrreereeeeeeeewwwwwwwwwwqqqqqqqq0000000000099999999989888888878777777766666666666655555555554444444443333333332222222221111111<11<<<<<<<,<,,,,,,>>>>>>>>>>:::::::::;;;;;;;;---------=--======*********&*&&&&&&&%%%%%%%%%%%$$$$$$$$$########@@@#aFFFFFFFFFFFFFFFFFZZZZZZZZZZZZZZZZZZZZFFFFFFFFFFFFFFFFFFFFZZZZZZZZZZZZZZZZZZZZFFFFFFFFFFFFFFFFFFFFZZZZZZZZZZZZZZZZZZZZFFFFFFFFFFFFFFFFFFFF",
"FFFFFFFFFFFFFFFFFFFFZZZZZZZZZZZZZZZZZZZZFFFFFFFFFFFFFFFFFFFFZZZZZZZZZZZZZZZZZZZZFFFFFFFFFFFFFFFFFFFFZZZZZZZZZZZZZZZZZZZZFFFFFFFFFFFFFFFFSjaaaaaasssssssssssssdddddddddddddddffffffffffffffggggggggggggggghgggghhhhhhhhhhhhhhhhhhhhhhhhjjjjjjjjjjjjjjjjjjjjjjjjjjjjjjjjjjjjjjjjjjkkjjjjjjjjjjjjjjjjjjjjjjjjjjjjjjjjjjjjjjjjjjjjjjjjhhhhhhhhhhhhhhhhhhhhhhhhggghhgggggggggggggggffgffffffffffffddddddddddddddssdssssssssssaaaaaaaaaaaaapppppppppiiiiiiiiiiiuiiuuuuuuuuuuuuyyyyyyyyttttttttttrrrrrrrrrrrrrereeeeeeeeewwwwwwwwwwqqqqqqq0000000000090999999989888888878877777776666666665665555555454444444444333333333222222221111111111<<<<<<<,<,,,,,,,>>>>>>>>>>::::::::;;;;;;;;;-;---------=======***********&&&&&&%%&%%%%%%%%$$$$$$$$$########@@@@$gFFFFFFFFFFFFFFFFZZZZZZZZZZZZZZZZZZZZFFFFFFFFFFFFFFFFFFFFZZZZZZZZZZZZZZZZZZZZFFFFFFFFFFFFFFFFFFFFZZZZZZZZZZZZZZZZZZZZFFFFFFFFFFFFFFFFFFFF",
"FFFFFFFFFFFFFFFFFFFFZZZZZZZZZZZZZZZZZZZZFFFFFFFFFFFFFFFFFFFFZZZZZZZZZZZZZZZZZZZZFFFFFFFFFFFFFFFFFFFFZZZZZZZZZZZZZZZZZZZZFFFFFFFFFFFFFFFDlaaaaaasssssssssssssdddddddddddfdfffffffffffffffffgggggggggggggghggghhhhhhhhhhhhhhhhhhhhhhhjjjjjjjjjjjjjjjjjjjjjjjjjjjjjjjjjjjjjjjjjjjjjkjjjjjjjjjjjjjjjjjjjjjjjjjjjjjjjjjjjjjjjjjjjjjjjjjjjjhhhhhhhhhhhhhhhhhhhhghhgggghgggggggggggggffggffffffffffffddddddddddddddsssssssssssssaaaaaaaaaaaaappppppppppppiiiiiiiiuuiuuuuuuuuuuuyyyyyyyyytyttttttttrttrrrrrrrreereeeeeeeeewwwwwwwwwwqqqqqqqqqq00000000999999999999888888888777777776766666666655555555544444444443333333332222222221111111<<1<<<<<<<<<,,,,,,,,>>>>>>>::>::::::;;:;;;;;;-;---------=======*********&&&&&&&&&%%%%%%%%%%%$$$$$$##$#######@@@@@%kFFFFFFFFFFFFFFFZZZZZZZZZZZZZZZZZZZZFFFFFFFFFFFFFFFFFFFFZZZZZZZZZZZZZZZZZZZZFFFFFFFFFFFFFFFFFFFFZZZZZZZZZZZZZZZZZZZZFFFFFFFFFFFFFFFFFFFF",
"FFFFFFFFFFFFFFFFFFFFZZZZZZZZZZZZZZZZZZZZFFFFFFFFFFFFFFFFFFFFZZZZZZZZZZZZZZZZZZZZFFFFFFFFFFFFFFFFFFFFZZZZZZZZZZZZZZZZZZZZFFFFFFFFFFFFFFDzaaaaaasssssssssssssdddddddddddddffffffffffffffffgggggggggggggggggghhhhhhhhhhhhhhhhhhhhhhjjjjjjjjjjjjjjjjjjjjjjjjjjjjjjjjjjjjjjkkjjjkkkkkkkkkkkkkkkkkkjkkjjjjjjjjjjjjjjjjjjjjjjjjjjjjjjjjjjjjjjjjhhhhhhhhhhhhhhhhhhghhhhghgggggggggggggggggffffffffffffffddddddddddddddsssssssssssssaaaaaaaaaaaapppppppppppiiiiiiiiiuiuuuuuuuuuyyuyyyyyyyytyttttttttttrrrrrrrrreereeeeeeeeeewwwwwwwwwqqqqqqqqqqq00000009999999999998888888888777777767666666666655555555544444444433333333332222222111111111<1<<<<<<<<<,,,,,,,,,>>>>>>>>>:::::::;;;;;;;;;;;---------=======********&&&&&&&&&%&%%%%%%%%%$$$$$$$#$#######@@@@@@*cFFFFFFFFFFFFFFZZZZZZZZZZZZZZZZZZZZFFFFFFFFFFFFFFFFFFFFZZZZZZZZZZZZZZZZZZZZFFFFFFFFFFFFFFFFFFFFZZZZZZZZZZZZZZZZZZZZFFFFFFFFFFFFFFFFFFFF",
"FFFFFFFFFFFFFFFFFFFFZZZZZZZZZZZZZZZZZZZZFFFFFFFFFFFFFFFFFFFFZZZZZZZZZZZZZZZZZZZZFFFFFFFFFFFFFFFFFFFFZZZZZZZZZZZZZZZZZZZZFFFFFFFFFFFFFFcaaaaasssssssssssssddddddddddddddfffffffffffffffgggggggggggggggggghhhhhhhhhhhhhhhhhhhhhjjjjjjjjjjjjjjjjjjjjjjjjjjjjjkjjjjjkkkkkkkkkkkkkkkkkkkkkkkkkkkkkkkkkkkkkkkkkkjjjjjjjjjjjjjjjjjjjjjjjjjjjjjjjjjhhhhhhhhhhhhhhhhhhhhhhgggggggggggggggggfffgffffffffffffdddddddddddddsssssssssssssaaaaaaaaaaaappppppppppppiiiiiiiiuuuuuuuuuuuyyuyyyyyyyyyyytttttttttrrrrrrrrrerreeeeeeeeeewwwwwwwwwwqqqqqqqq000000000999999999999888888888877777777766666665655555554455544444443333333332222222111111111<<<<<<<<<,,<,,,,,,,>>>>>>>>:::::::::;;;;;;;;;----------==========*******&&&&&&&&%&&%%%%%%%%$$$$$$$#########@@@@@@@-nFFFFFFFFFFFFFZZZZZZZZZZZZZZZZZZZZFFFFFFFFFFFFFFFFFFFFZZZZZZZZZZZZZZZZZZZZFFFFFFFFFFFFFFFFFFFFZZZZZZZZZZZZZZZZZZZZFFFFFFFFFFFFFFFFFFFF",
"FFFFFFFFFFFFFFFFFFFFZZZZZZZZZZZZZZZZZZZZFFFFFFFFFFFFFFFFFFFFZZZZZZZZZZZZZZZZZZZZFFFFFFFFFFFFFFFFFFFFZZZZZZZZZZZZZZZZZZZZFFFFFFFFFFFFFnsaaaasssssssssssssddddddddddddddfffffffffffgggfggggggggggggghggghhhhhhhhhhhhhhhhhhhhjjjjjjjjjjjjjjjjjjjjjkkkjjjjjjjkkkkkkkkkkkkkkkkkkkkkkkkkkkkkkkkkkkkkkkkkkkkkkkkkkkkkkjjjjjkkkkjjjjjjjjjjjjjjjjjjjjjjhhhhhhhhhhhhhhhhhhhhhggggggggggggggggffggfffffffffffddddddddddddddsssssssssssssaaaaaaaaaaaappppppppppppiiiiiiiiuuuuuuuuuuuyyyyyyyyyyyyyyttttttttrrrrrrrrrrrreeeeeeeeeewwwwwwwwwwqqqqqqqq0q00000009999999999999888888888777777777666666665555555554555544444433333333332222222111111111<<<<<<<<<,,,,,,,,,>>>>>>>>>::::::::;;;;;;;;;-;;-------==========*******&&&&&&&&&&&%%%%%%%%$$$$$$$#########@@@@@@@@>BFFFFFFFFFFFFZZZZZZZZZZZZZZZZZZZZFFFFFFFFFFFFFFFFFFFFZZZZZZZZZZZZZZZZZZZZFFFFFFFFFFFFFFFFFFFFZZZZZZZZZZZZZZZZZZZZFFFFFFFFFFFFFFFFFFFF",
"FFFFFFFFFFFFFFFFFFFFZZZZZZZZZZZZZZZZZZZZFFFFFFFFFFFFFFFFFFFFZZZZZZZZZZZZZZZZZZZZFFFFFFFFFFFFFFFFFFFFZZZZZZZZZZZZZZZZZZZZFFFFFFFFFFFFMsaaaasssssssssssdsdddddddddddddffffffffffffgggggggggggggggggggghhghhhhhhhhhhhhhhhhjjjjjjjjjjjjjjjjjjjjjjjjjjjjjkkkkkkkkkkkkkkkkkkkkkkkkkkkkkkkkkkkkkkkkkkkkkkkkkkkkkkkkkkkkkkkkjjjjjjjjjjjjjjjjjjjjjjjjjjjjjhhhhhhhhhhhhhhhhhhhgggggggggggggggggfffgfffffffffffdffddddddddddsssssssssssssaaaaaaaaaappppppppppppppiiiiiiiiuuuuuuuuuuuuyyyyyyyyyyttttttttttrrtrrrrrrrerreeeeeeeeeewwwwwwwwwwqqqqqqq0000000000009999999999888888877777777777766666665555555554554444444443333333332222222221111111<<<<<<<<<<,,,,,,,,,,>>>>>>>:>:::::::::;;;;;;;;;-------=========***********&&&&&&&&%%%%%%%$%$$$$$$$#########@#@@@@@@2ZFFFFFFFFFFFZZZZZZZZZZZZZZZZZZZZFFFFFFFFFFFFFFFFFFFFZZZZZZZZZZZZZZZZZZZZFFFFFFFFFFFFFFFFFFFFZZZZZZZZZZZZZZZZZZZZFFFFFFFFFFFFFFFFFFFF",
"FFFFFFFFFFFFFFFFFFFFZZZZZZZZZZZZZZZZZZZZFFFFFFFFFFFFFFFFFFFFZZZZZZZZZZZZZZZZZZZZFFFFFFFFFFFFFFFFFFFFZZZZZZZZZZZZZZZZZZZZFFFFFFFFFFFVdaaaasssssssssssdddddddddddddddfffffffffffffgggggggggggggggggghhhhhhhhhhhhhhhhhhhjjjjjjjjjjjjjjjjjjjkkjjjjkjkkkkkkkkkkkkkkkkkkkkkkkkkkkkkkkkkkkkkkkkkkkkkkkkkkkkkkkkkkkkkkkkkkkkkkkkjjjjjjjjjjjjjjjjjjjjjjjjjjjhhhhhhhhhhhhhhhhhhhgggghgggggggggggffggfffffffffffdddddddddddddsssssssssssssaaaaaaaaaapppppppppppppiiiiiiiiiuuuuuuuuuuuyyyyyyyyyyyytttttttttrtrrrrrrrrrrrreeeeeeeeewwwwwwwwqwqqqqqqq000000000000999999999988888887777777777676666666555555555554444444443333333333222222222111111<<<<<<<<<<,,,,,,,,,,>>>>>>>>>>::::::::;;;;;;;;;-------=========***********&&&&&&&&%%%%%%%$$%$$$$$$#########@#@@@@@@@8AFFFFFFFFFFZZZZZZZZZZZZZZZZZZZZFFFFFFFFFFFFFFFFFFFFZZZZZZZZZZZZZZZZZZZZFFFFFFFFFFFFFFFFFFFFZZZZZZZZZZZZZZZZZZZZFFFFFFFFFFFFFFFFFFFF",
"FFFFFFFFFFFFFFFFFFFFZZZZZZZZZZZZZZZZZZZZFFFFFFFFFFFFFFFFFFFFZZZZZZZZZZZZZZZZZZZZFFFFFFFFFFFFFFFFFFFFZZZZZZZZZZZZZZZZZZZZFFFFFFFFFFZfaaaassssssssssssddddddddddddddffffffffffffffggggggggggggggghhhhhhhhhhhhhhhhhhhhjjjjjjjjjjjjjjjjjjjjjkjjjkkkkkkkkkkkkkkkkkkkkkkkkkkkkkkkkkkkkkkkkkkkkkkkkkkkkkkkkkkkkkkkkkkkkkkkkkkkkkkkkjjjjkkjjjjjjjjjjjjjjjjjjjhhhhhhhhhhhhhhhhgghghhgggggggggggggffggffffffffffddddddddddddddddssssssssssaaaaaaaaaaaapppppppppipiiiiiiiiiiiuuuuuuuuuyuyyyyyyyytttttttttttttrrrrrrrrrrrreeeeeeeeeewwwwwwqqqqqqqqqqqq00000009009999999998888888778777777766666666656555555554444444444433333333322222222211111111<<<<<<<<<,,,,,,,,,>>>>>>>>>>::::::::;;;;;;;;;;-------=-======***********&&&&&&&&%%%%%%%%%%$$$$$$#########@#@@@@@@@@rDFFFFFFFFFZZZZZZZZZZZZZZZZZZZZFFFFFFFFFFFFFFFFFFFFZZZZZZZZZZZZZZZZZZZZFFFFFFFFFFFFFFFFFFFFZZZZZZZZZZZZZZZZZZZZFFFFFFFFFFFFFFFFFFFF",
"FFFFFFFFFFFFFFFFFFFFZZZZZZZZZZZZZZZZZZZZFFFFFFFFFFFFFFFFFFFFZZZZZZZZZZZZZZZZZZZZFFFFFFFFFFFFFFFFFFFFZZZZZZZZZZZZZZZZZZZZFFFFFFFFFAhaaaassssssssssssdddddddddddddfffffffffffgffgggggggggggggghghhhhhhhhhhhhhhhhhhjjjjjjjjjjjjjjjjjjjjjjjjkkkkkkkkkkkkkkkkkkkkkkkkkkkkkkkkkkkkkkkkkkkkkkkkkkkkkkkkkkkkkkkkkkkkkkkkkkkkkkkkkkkkkkkkkkjjjjjjjjjjjjjjjjjjjjjjhhhhhhhhhhhhhhgghhgggggggggggggggfgggfffffffffffddddddddddddddsssssssssssaaaaaaaaaaaapppppppppppiiiiiiiiiiiuuuuuuuuyuuyyyyyyyyttytttttttttrrrrrrrrrrrreeeeeeeeeewwwwwwqqqqqqqqqqqqq0000000009999999999888888888777777766766666666655555555444444444433333333322222222221111111<<<<<<<<,,<,,,,,,>>>>>>>>>>>::::::::;;;;;;;;-----------=======***********&&&&&&&%%%%%%%%%$$$$$$$$#$######@##@@@@@@+#aFFFFFFFFFZZZZZZZZZZZZZZZZZZZZFFFFFFFFFFFFFFFFFFFFZZZZZZZZZZZZZZZZZZZZFFFFFFFFFFFFFFFFFFFFZZZZZZZZZZZZZZZZZZZZFFFFFFFFFFFFFFFFFFFF",
"ZZZZZZZZZZZZZZZZZZZZFFFFFFFFFFFFFFFFFFFFZZZZZZZZZZZZZZZZZZZZFFFFFFFFFFFFFFFFFFFFZZZZZZZZZZZZZZZZZZZZFFFFFFFFFFFFFFFFFFFFZZZZZZZZCjaaaassssssssssssdddddddddddddffffffffffgggfggggggggggggggghhhhhhhhhhhhhhhhhhjjjjjjjjjjjjjjjjjjjjjjjkkkkkkkkkkkkkkkkkkkkkkkkkkkkkkkkkkkkkkkkkkkkkkkkkkkkkkkkkkkkkkkkkkkkkkkkkkkkkkkkkkkkkkkkkkkkkkjjjjjjjjjjjjjjjjjjjjjjjhhhhhhhhhhhhhhhhhhgggggggggggggggffffffffffffffdddddddddddddssssssssssssaaaaaaaaaaaapppppppppppiiiiiiiiiuuuuuuuuuuuuuyyyyyyyyyyttttttttttrrrrrrrrrrreeeeeeeeeewwwwwwwwwqqqqqqqqq0000000099999999999988888888887777777776666666665555555455444444444333333333222222212111111111<<<<<<<<,,,,,,,,,,>>>>>>>:::::::::;;;;;;;;-----------=========*******&&&&&&&&&&%%%%%%%%%%$$$$$$#$#######@#@@@@@@@@$gZZZZZZZZFFFFFFFFFFFFFFFFFFFFZZZZZZZZZZZZZZZZZZZZFFFFFFFFFFFFFFFFFFFFZZZZZZZZZZZZZZZZZZZZFFFFFFFFFFFFFFFFFFFFZZZZZZZZZZZZZZZZZZZZ",
"ZZZZZZZZZZZZZZZZZZZZFFFFFFFFFFFFFFFFFFFFZZZZZZZZZZZZZZZZZZZZFFFFFFFFFFFFFFFFFFFFZZZZZZZZZZZZZZZZZZZZFFFFFFFFFFFFFFFFFFFFZZZZZZZClaaaassssssssssssdddddddddddffffffffffffggggggggggggggggggghhhhhhhhhhhhhhhhhjjjjjjjjjjjjjjjjjjjjjjkkkkkkkkkkkkkkkkkkkkkkkkkkllkkkkkkkkkkkkkkkkkkkkkkkkklkkkkkkkkkkkkkkkkkkkkkkkkkkkkkkkkkkkkkkkkkkkkkkjjjjjjjjjjjjjjjjjjjjjjhhhhhhhhhhhhhhhhhgggggggggggggggffffffffffffffddfddddddddddssssssssssssaaaaaaaaaaaapppppppppppiiiiiiiiuuuuuuuuuuuuuuyyyyyyyyyyttttttttrrrrrrrrrrrreeeeeeeeeewwwwwwwwwwqqqqqqqq0000000009999999999998888888887777777777666666665555555555444444444333333333222222212111111111<<<<<<<<,,,,,,,,,,>>>>>>>:::::::::;;;;;;;;;-----------=========*******&&&&&&&&&%%%%%%%%%%$$$$$$$$$########@@@@@@@@@&lZZZZZZZFFFFFFFFFFFFFFFFFFFFZZZZZZZZZZZZZZZZZZZZFFFFFFFFFFFFFFFFFFFFZZZZZZZZZZZZZZZZZZZZFFFFFFFFFFFFFFFFFFFFZZZZZZZZZZZZZZZZZZZZ",
"ZZZZZZZZZZZZZZZZZZZZFFFFFFFFFFFFFFFFFFFFZZZZZZZZZZZZZZZZZZZZFFFFFFFFFFFFFFFFFFFFZZZZZZZZZZZZZZZZZZZZFFFFFFFFFFFFFFFFFFFFZZZZZZZcaaaassssssssssssddddddddddddffffffffffffffggggggggggggggghhhhhhhhhhhhhhhhhjjjjjjjjjjjjjjjjjjjjjkkkkkkkkkkkkkkkkkkkkkkkkkkkkkllkkkkkllkllllllklkkllllklllkklllllllllllkkkkkkkkkklkkkkkkkkkkkkkkkkkkkkkkkkkkjjjjjjjjjjjjjjjjjjjjhhhhhhhhhhhhhhhhhgggggggggggggggffgfffffffffffffddddddddddssssssssssssaaaaaaaaapaapppppppppppiiiiiiiiuuuuuuuuuuuuyyyyyyyyyyyytttttttrrrrrrrrrrrrreeeeeeeeewwwwwwwwwwqqqqqqqq000000000999999999998888888888777777776666666666655555555555544444443333332332222222221111111<<<<<<<<<<<,,,,,,,,>>>>>>>:::::::::;;;;;;;;;---------==========*******&&&&&&&&&&&%%%%%%%%%$$$$$$$###########@@@@@@@@+-bZZZZZZFFFFFFFFFFFFFFFFFFFFZZZZZZZZZZZZZZZZZZZZFFFFFFFFFFFFFFFFFFFFZZZZZZZZZZZZZZZZZZZZFFFFFFFFFFFFFFFFFFFFZZZZZZZZZZZZZZZZZZZZ",
"ZZZZZZZZZZZZZZZZZZZZFFFFFFFFFFFFFFFFFFFFZZZZZZZZZZZZZZZZZZZZFFFFFFFFFFFFFFFFFFFFZZZZZZZZZZZZZZZZZZZZFFFFFFFFFFFFFFFFFFFFZZZZZZnsaaassssssssssssddddddddddddffffffffffffffgggggggggggggghhhhhhhhhhhhhhhhhjjjjjjjjjjjjjjjjjjjjkkkkkkkkkkkkkkkkkkkkkkkkkkkkkkkkllllllllllllllllkkkkllllklllllllllllllllllklllllkkkkkkkkkkkkkkkkkkkkkkkkkkkkkkkkjjjjjjjjjjjjjjjjjjjjhhhhhhhhhhhhhhhggggggggggggggggfggffffffffffffdddddddddddssssssssssssaaaaaaaaaaaapppppppppppiiiiiiiiuuiuuuuuuuuyyyyyyyyyyyyttttttttrrrrrrrrrrrreeeeeeeeeewwwwwwwwqqqqqqqqq00q000000099999999998888888888877777776666666666555555555555544444443333333332222222221111111<<<<<<<<<<<,,,,,,,>>>>>>>>>:::::::::;:;;;;;;---------==========********&&&&&&&&&&&%%%%%%%%$$$$$$$#$########@@@@@@@@@@+1NZZZZZFFFFFFFFFFFFFFFFFFFFZZZZZZZZZZZZZZZZZZZZFFFFFFFFFFFFFFFFFFFFZZZZZZZZZZZZZZZZZZZZFFFFFFFFFFFFFFFFFFFFZZZZZZZZZZZZZZZZZZZZ",
"ZZZZZZZZZZZZZZZZZZZZFFFFFFFFFFFFFFFFFFFFZZZZZZZZZZZZZZZZZZZZFFFFFFFFFFFFFFFFFFFFZZZZZZZZZZZZZZZZZZZZFFFFFFFFFFFFFFFFFFFFZZZZZMdaaassssssssdsdddddddddddffffffffffffffffggggggggggggggghhhhhhhhhhhhhhhhjjjjjjjjjjjjjjjkkkjjkkkkkkkkkkkkkkkkkkkkkkkkkkkkllkkkklllllllkllllllllllllllllllllllllllllllllkkllllllkklllkkkkkkkkkkkkkkkkkkkkkkkkkkkkkjjjjjjjjjjjjjjjjjjjjhhhhhhhhhhhhhhhhggggggggggggggggggffffffffffddddddddddddssssssssssssaaaaaaaaaaaappppppppppiiiiiiiiiuuuuuuuuuuuuuyyyyyyyyyyttttttttrrrrrrrrrreeeeeeeeeeeewwwwwwwqqqqqqqqqq0q000000000099999998888888888887777777676666666665555555454444444444333333222222222221111111<<<<<<<<<<<<,,,,,,,,,>>>>>>:::::::::;;;;;;;;;---------=========********&&&&&&&&&&&%%%%%%%%%$$$$$$$$$########@@@@@@@++++8CZZZZFFFFFFFFFFFFFFFFFFFFZZZZZZZZZZZZZZZZZZZZFFFFFFFFFFFFFFFFFFFFZZZZZZZZZZZZZZZZZZZZFFFFFFFFFFFFFFFFFFFFZZZZZZZZZZZZZZZZZZZZ",
"ZZZZZZZZZZZZZZZZZZZZFFFFFFFFFFFFFFFFFFFFZZZZZZZZZZZZZZZZZZZZFFFFFFFFFFFFFFFFFFFFZZZZZZZZZZZZZZZZZZZZFFFFFFFFFFFFFFFFFFFFZZZZBfaaasssssssssssddddddddddddffffffffffffffgggggggggggggghhhhhhhhhhhhhhhhjjjjjjjjjjjjjjjjkkkkkkkkkkkkkkkkkkkkkkkkkkkkkkllllllkkkkllllllllllllllllllllllllllllllllllllllllllllllllkkkllllllkkkkkkkkkkkkkkkkkkkkkkkkkkkkjjjjjjjjjjjjjjjjjjhhhhhhhhhhhhhhhhgggggggggggggggggfffffffffffddddddddddddssssssssssssaaaaaaaaaaappppppppppiiiiiiiiiuuuuuuuuuuuyyuyyyyyyyyyttttttttrrrrrrrrrreereeeeeeeeeewwwwwwwqqqqqqqqqqqq000000099999999998988888887877777776766666666665555555554444444443333333222222222211111111<<<<<<<<<<<,,,,,,,,,>>>>>>>::::::::;;;;;;;;;---------=========********&&&&&&&&&&&%%%%%%%%%$$$$$$$#$#########@@@@@@++++@yCZZZFFFFFFFFFFFFFFFFFFFFZZZZZZZZZZZZZZZZZZZZFFFFFFFFFFFFFFFFFFFFZZZZZZZZZZZZZZZZZZZZFFFFFFFFFFFFFFFFFFFFZZZZZZZZZZZZZZZZZZZZ",
"ZZZZZZZZZZZZZZZZZZZZFFFFFFFFFFFFFFFFFFFFZZZZZZZZZZZZZZZZZZZZFFFFFFFFFFFFFFFFFFFFZZZZZZZZZZZZZZZZZZZZFFFFFFFFFFFFFFFFFFFFZZZCjaaasssssssssssdddddddddddddfffffffffggggggggggggggggggghhhhhhhhhhhhhhjjjjjjjjjjjjjjjjjjjkkkkkkkkkkkkkkkkkkkkkkkklllkkkkllllllllllllllllllllllllllllllllllllllllllllllllllllllllllllllllllllllkkkkllkkkkkkkkkkkkkkkkkkkjjjjjjjjjjjjjjjjjjhhhhhhhhhhhhhhhhggggggggggggggffffffffffffffdddddddddddssssssssssssaaaaaaaaaaapppppppppiiiiiiiiiiuuuuuuuuuuuyyyyyyyyyyytyttttttttrrrrrrrrrerrrreeeeeeewwwwwwwwqqqqqqqqqqq00000000999999999898888888888777777766666666666555555555444444444333333333222222222111111111<<<<<<<,,,,,,,,,,>>>>>>>>:>:::::::;;;;;;;;---------==========********&&&&&&&&&%%%%%%%%%%$$$$$$$###########@@@@@@+++++#fZZZFFFFFFFFFFFFFFFFFFFFZZZZZZZZZZZZZZZZZZZZFFFFFFFFFFFFFFFFFFFFZZZZZZZZZZZZZZZZZZZZFFFFFFFFFFFFFFFFFFFFZZZZZZZZZZZZZZZZZZZZ",
"ZZZZZZZZZZZZZZZZZZZZFFFFFFFFFFFFFFFFFFFFZZZZZZZZZZZZZZZZZZZZFFFFFFFFFFFFFFFFFFFFZZZZZZZZZZZZZZZZZZZZFFFFFFFFFFFFFFFFFFFFZZClaaasssssssssssddddddddddddffffffffffggggggggggggggggghhhhhhhhhhhhhhhhjjjjjjjjjjjjjjjjjjkkkkkkkkkkkkkkkkkklkkkkllllllkkllllllllllllllllllllllllllllllllllllllllllllllllllllllllllllllllllllllkkkklkllkkkkkkkkkkkkkkkkkkkkkjjjjjjjjjjjjjjjjjjhhhhhhhhhhhhhhhggggggggggggggfffffffffffffddddddddddddssssssssssssaaaaaaaaaaapppppppppppiiiiiiiiuuuuuuuuuuyyyyyyyyyyyyyttttttttrrrrrrrrrrrrrrreeeeeeewwwwwwwqqqqqqqqqqq00000000990999999999888888888777777766666666666655555555544444444433333333322222222211111111<<<<<<<<,,,,,,,,>>,>>>>>>>>>::::::;;;;;;;;;;;-------========**=******&&&&&&&&&%%%%%%%%%%%$$$$$$###########@@@@@@@+@+@+&xZZFFFFFFFFFFFFFFFFFFFFZZZZZZZZZZZZZZZZZZZZFFFFFFFFFFFFFFFFFFFFZZZZZZZZZZZZZZZZZZZZFFFFFFFFFFFFFFFFFFFFZZZZZZZZZZZZZZZZZZZZ",
"ZZZZZZZZZZZZZZZZZZZZFFFFFFFFFFFFFFFFFFFFZZZZZZZZZZZZZZZZZZZZFFFFFFFFFFFFFFFFFFFFZZZZZZZZZZZZZZZZZZZZFFFFFFFFFFFFFFFFFFFFZZvsaasssssssssssdddddddddddffffffffffffffgggggggggggggghhhhhhhhhhhhhhhjjjjjjjjjjjjjjjjjkkkkkkkkkkkkkkkkkkkkkkkkkkkklllllllllllllllllllllllllllllllllllllllllllllllllllllllllllllllllllllllllllllkkkllllkkkkkkkkkkkkkkkkkkkkkkkjjkkkjjjjjjjjjjjjjhhhhhhhhhhhhhhhhggggggggggggfffgfffffffffddddddddddddssssssssssssaaaaaaaaaaapppppppppppiiiiiiiiiiuuuuuuuuyyuyyyyyyyyyyttttttttttrrrrrrrrrrereeeeeeewwwwwwwwwwqqqqqqq000000000000999999999888888888877777776666666665555555555444444444433333333322222222211111111<<<<<<<<,,,,,,,,,>>>>>>>>>>>::::::::;;;;;;;;;---------=========******&&&&&&&&&&&%%%%%%%%%$$$$$$$########@@@@@@@@@@@++++;mZFFFFFFFFFFFFFFFFFFFFZZZZZZZZZZZZZZZZZZZZFFFFFFFFFFFFFFFFFFFFZZZZZZZZZZZZZZZZZZZZFFFFFFFFFFFFFFFFFFFFZZZZZZZZZZZZZZZZZZZZ",
"ZZZZZZZZZZZZZZZZZZZZFFFFFFFFFFFFFFFFFFFFZZZZZZZZZZZZZZZZZZZZFFFFFFFFFFFFFFFFFFFFZZZZZZZZZZZZZZZZZZZZFFFFFFFFFFFFFFFFFFFFZmsaasssssssssssddddddddddddfffffffffffffggggggggggggghhhhhhhhhhhhhhhjjjjjjjjjjjjjjjjjkkkkkkkkkkkkkkkkkkkkkkllkkkkklllllllllllllllllllllllllllllllllllllllllllllllllllllllllllllllllllllllllllllllllllllkkklkkkkkkkkkkkkkkkkkkkkkkkjjjjjjjjjjjjjjjhhhhhhhhhhhhhhhggggggggggggggfggfffffffffddddddddddddssssssssssssaaaaaaaapaappppppppppiiiiiiiiiiiuuuuuuuuyuyyyyyyyyyytttttttttttrrrrrrrrrereeeeeeeewwwwwwwwwwqqqqqqq00000000000099999999988888888877777776766666665555555555444444444443333333332222222211111111<<<<<<<<,,,,,,,,,>>>>>>>>>>>:::::::::;;;;;;;;;--------=========********&&&&&&&&&&%%%%%%%%$$$$$$$#########@@@@@@@@@@+++++2BFFFFFFFFFFFFFFFFFFFFZZZZZZZZZZZZZZZZZZZZFFFFFFFFFFFFFFFFFFFFZZZZZZZZZZZZZZZZZZZZFFFFFFFFFFFFFFFFFFFFZZZZZZZZZZZZZZZZZZZZ",
"ZZZZZZZZZZZZZZZZZZZZFFFFFFFFFFFFFFFFFFFFZZZZZZZZZZZZZZZZZZZZFFFFFFFFFFFFFFFFFFFFZZZZZZZZZZZZZZZZZZZZFFFFFFFFFFFFFFFFFFFFBfaasssssssssssddddddddddddfffffffffffffggggggggggggghhhhhhhhhhhhhhhjjjjjjjjjjjjjjjjkkkkkkkkkkkkkkkkkkkkllllllllllllllllllllllllllllllllllllllllzzzzllzzzzllzzzzllzzzzllzlllllllllllllllllllllllllllllllkkllllllkkkkkkkkkkkkkkkkkkkjjjjjjjjjjjjjjjjjhhhhhhhhhhhhhhgggggggggggggggggfffffffffddddddddddddssssssssssssaaaaaaaaaaappppppppppiiiiiiiiuiuuuuuuuuuuuyyyyyyyytyttttttttrtrrrrrrrrrreeeeeeeeeewwwwwwwwqqqqqqqqqq000000009099999998988888888887777777776666666555555555444444444443333333332222222221111111<<<<<<<<<,,,,,,,,,>>>>>>>>::::::::::;;;;;;;;----------========**********&&&&&&&&&%%%%%%%$$$$$$$$$$#######@@@@@@@@@@@+++++qDFFFFFFFFFFFFFFFFFFFZZZZZZZZZZZZZZZZZZZZFFFFFFFFFFFFFFFFFFFFZZZZZZZZZZZZZZZZZZZZFFFFFFFFFFFFFFFFFFFFZZZZZZZZZZZZZZZZZZZZ",
"ZZZZZZZZZZZZZZZZZZZZFFFFFFFFFFFFFFFFFFFFZZZZZZZZZZZZZZZZZZZZFFFFFFFFFFFFFFFFFFFFZZZZZZZZZZZZZZZZZZZZFFFFFFFFFFFFFFFFFFFShaasssssssssssddddddddddddffffffffffffgggggggggggggghhhhhhhhhhhhhhjjjjjjjjjjjjjjjjkkkkkkkkkkkkkkkkkkkkllllllllllllllllllllllllllllllllllzzzzzzllzzzzllzzzzllzzzzllzzzzzlzzzzzzzzlllllllllllllllllllllllllllllllllkkkkkkkkkkkkkkkkkkkkjjjjjjjjjjjjjjjjhhhhhhhhhhhhhhhggggggggggggggggfffffffffddfdddddddddssssssssssssaaaaaaaaaaappppppppppiiiiiiiiiiiuuuuuuuuuyyyyyyyytyttttttttrrrrrrrrrreereeeeeeeeewwwwwwwwqqqqqqqqqqq00000009999999999888888888887777777776666666555555555444444444444333333333222222221111111<<<<<<<<<,<,,,,,,,>>>>>>>>>:::::::::;:;;;;;;----------========*=********&&&&&&&&&%%%%%%%%%$$$$$$$$$######@@@@@@@@@@@+++++@gFFFFFFFFFFFFFFFFFFFZZZZZZZZZZZZZZZZZZZZFFFFFFFFFFFFFFFFFFFFZZZZZZZZZZZZZZZZZZZZFFFFFFFFFFFFFFFFFFFFZZZZZZZZZZZZZZZZZZZZ",
"ZZZZZZZZZZZZZZZZZZZZFFFFFFFFFFFFFFFFFFFFZZZZZZZZZZZZZZZZZZZZFFFFFFFFFFFFFFFFFFFFZZZZZZZZZZZZZZZZZZZZFFFFFFFFFFFFFFFFFFFxaasssssssssdddddddddddfffffffffffffffggggggggggghhhhhhhhhhhhhhhhhjjjjjjjjjjjkkkkjkkkkkkkkkkkkkklllkkklkklllllllllllllllllllllllllzzzzzllzzzzzzzzzzzzzzzzzzzzzzzzzzzzzzzzzzzzzzzzzzzzzzllllllllllllllllllllllllkkkkkkkkkkkkkkkkkkkkkkkkkjjjjjjjjjjjjjjjjhhhhhhhhhhhhhggggggggggggggggffffffffffffddddddddddsssssssssssaaaaaaaaaaapppppppppppiiiiiiiiuuuuuuuuuuuyyyyyyyyyttttttttttrrrrrrrrrrrreeeeeeeeeeewwwwwwqqqqqqqqq00000000009099999999988888888887777777766666666565555555554444444443333333332222222221111111<<<<<<<<<,,,,,,,,>>>>>>>>>>>:::::::::;;;;;;---------===========*********&&&&&&&%%%%%%%%$$$$$$$$$$$######@@@@@@@@@++++++++%bFFFFFFFFFFFFFFFFFFZZZZZZZZZZZZZZZZZZZZFFFFFFFFFFFFFFFFFFFFZZZZZZZZZZZZZZZZZZZZFFFFFFFFFFFFFFFFFFFFZZZZZZZZZZZZZZZZZZZZ",
"ZZZZZZZZZZZZZZZZZZZZFFFFFFFFFFFFFFFFFFFFZZZZZZZZZZZZZZZZZZZZFFFFFFFFFFFFFFFFFFFFZZZZZZZZZZZZZZZZZZZZFFFFFFFFFFFFFFFFFFmsasssssssssssddddddddddfffffffffffggggggggggggggghhhhhhhhhhhhhhhjjjjjjjjjjjjjkkjkkkkkkkkkkkkkkkklklklkkklllllllllllllllllllllzlllzzzzzzlzzzzzzzzzzzzzzzzzzzzzzzzzzzzzzzzzzzzzzzzzzzzzzzllllzlllllllllllllllllllllkklkllkkkkkkkkkkkkkkkkkkkjjjjjjjjjjjjjjjhhhhhhhhhhhhhhgghgggggggggggfffffffffffffddddddddddsssssssssssaaaaaaaaaaapppppppppppiiiiiiiiuuuuuuuuuuyyyyyyyyyyttttttttttrtrrrrrrrrrreeeeeeeeeewwwwwwqqqqqqqqqq0000000009009999999998888888887777777766666666665555555554444444443333333332222222221111111<1<<<<<<<,,,,,,,,,>>>>>>>>>>>::::::;;;;;;;;;---------=========*********&&&&&&&&%%%%%%%%$$%$$$$$$$$#######@@@@@@@@@@+++++++:VFFFFFFFFFFFFFFFFFZZZZZZZZZZZZZZZZZZZZFFFFFFFFFFFFFFFFFFFFZZZZZZZZZZZZZZZZZZZZFFFFFFFFFFFFFFFFFFFFZZZZZZZZZZZZZZZZZZZZ",
"ZZZZZZZZZZZZZZZZZZZZFFFFFFFFFFFFFFFFFFFFZZZZZZZZZZZZZZZZZZZZFFFFFFFFFFFFFFFFFFFFZZZZZZZZZZZZZZZZZZZZFFFFFFFFFFFFFFFFFVdasssssssssssddddddddddddfffffffffgggggggggggggggghhhhhhhhhhhhhhjjjjjjjjjjjjjjjkkkkkkkkkkkkkkkkkkkllllllllllllllllllllllllzzzzzzlzzzzzzzzzzzzzzzzzzzzzzzzzzzzzzzzzzzzzzzzzzzzzzzzzzzzzzzllzzzzzzzlllllllllllllllllllllkkkkkkklkkkkkkkkkkkkkkjjjjjjjjjjjjjjjjhhhhhhhhhhhhhhhhggggggggggfgffffffffffffdddddddddddssssssssssaaaaaaaaaaappppppppppiiiiiiiiiiuuuuuuuuyyuyyyyyyyttttttttttrrrrrrrrrrrreeeeeeeeeewwwwwwwqwqqqqqqq000000000099999999989888888877777777766666666655555555555544444444433333333322222222211111111<<<<<<<,<,,,,,,,>>>>>>>>>:::::::::;:;;;;;;-;-------=========********&&&&&&&&&&%%%%%%%%%%$$$$$$$$#########@@@@@@@+++++++++6SFFFFFFFFFFFFFFFFZZZZZZZZZZZZZZZZZZZZFFFFFFFFFFFFFFFFFFFFZZZZZZZZZZZZZZZZZZZZFFFFFFFFFFFFFFFFFFFFZZZZZZZZZZZZZZZZZZZZ",
"ZZZZZZZZZZZZZZZZZZZZFFFFFFFFFFFFFFFFFFFFZZZZZZZZZZZZZZZZZZZZFFFFFFFFFFFFFFFFFFFFZZZZZZZZZZZZZZZZZZZZFFFFFFFFFFFFFFFFAgasssssssssssddddddddddddffffffffffggggggggggghgghhhhhhhhhhhhhhjjjjjjjjjjjjjjjkkkkkkkkkkkkkkkkkkkkkllllllllllllllllllllzzzzzzzzzzzzzzzzzzzzzzzzzzzzzzzzzzzzzzzzzzzzzzzzzzzzzzzzzzzzzzzzzzzzzzzzzzzzzzzllllllllllllllllllklkllklklkkkkkkkkkkkkkkjjjjjjjjjjjjjjjhhhhhhhhhhhhhhhggggggggggggffffffffffffddddddddddddssssssssssaaaaaaaaaaappppppppppiiiiiiiiiiuuuuuuuuyuuyyyyyyyttttttttttrrrrrrrrrrrreeeeeeeeewwwwwwwwwwqqqqqqq000000000999999999899888888888777777766666666655555555555444444444333333333222222222111111111<<<<<<<<,,,,,,,>>,>>>>>>>::::::::;:;;;;;;;;;------=========*********&&&&&&&&&%%%%%%%%%%$$$$$$$$$########@@@@@@@++++++++++uFFFFFFFFFFFFFFFFZZZZZZZZZZZZZZZZZZZZFFFFFFFFFFFFFFFFFFFFZZZZZZZZZZZZZZZZZZZZFFFFFFFFFFFFFFFFFFFFZZZZZZZZZZZZZZZZZZZZ",
"ZZZZZZZZZZZZZZZZZZZZFFFFFFFFFFFFFFFFFFFFZZZZZZZZZZZZZZZZZZZZFFFFFFFFFFFFFFFFFFFFZZZZZZZZZZZZZZZZZZZZFFFFFFFFFFFFFFFDkasssssssssssdddddddddddfffffffffffffgggggggggggghhhghhhhhhhhhhjjjjjjjjjjjjjjjkkkkkkkkkkkkkkkkklllkklllllllllllllllllzllllzzzzzzzzzzzzzzzzzzzzzzzzzzzzzzzzzzzzzzxxxxzzzzzzzzzzzzzzzzzzzzzzzzzzzzzzzzzlllzzllllllllllllllllllkkllkkkkkkkkkkkkkkkkkkjjkjjjjjjjjjjjhhhhhhhhhhhhhhgggggggggggggfgfffffffffddfdddddddddsssssssssssaaaaaaaaaaappppppppppiiiiiiiiiiuuuuuuuuuuyyyyyyyyyytttttttrttrrrrrrrererreeeeeeewwwwwwwwwqqqqqqq0qq000000099999999988888888888777777766766666656555555555544444444433333333222222211111111111<<<<<<<<<,,,,,,,>,>>>>>>:::::::::::;;;;;;;;;--------========********&&&&&&&&&&&%%%%%%%%$$$$$$$###########@@@@@@++++++++++#kFFFFFFFFFFFFFFFZZZZZZZZZZZZZZZZZZZZFFFFFFFFFFFFFFFFFFFFZZZZZZZZZZZZZZZZZZZZFFFFFFFFFFFFFFFFFFFFZZZZZZZZZZZZZZZZZZZZ",
"ZZZZZZZZZZZZZZZZZZZZFFFFFFFFFFFFFFFFFFFFZZZZZZZZZZZZZZZZZZZZFFFFFFFFFFFFFFFFFFFFZZZZZZZZZZZZZZZZZZZZFFFFFFFFFFFFFFFvaassssssssssddddddddddddfffffffffgfggggggggggggghhhhhhhhhhhhhjjjjjjjjjjjjjjjkkkkkkkkkkkkkkkkklllllllllllllllllllllzzzzzzlzzzzzzzzzzzzzzzzzzzzzzzzzzzzzzzzzzzzzzzzxxxzzzzzzzzzzzzzzzzzzzzzzzzzzzzzzzzzzllzzzzzlllllllllllllllllklllkkkklkkkkkkkkkkkkjkjjjjjjjjjjjjjhhhhhhhhhhhhhgggggggggggggffgffffffffddddddddddddsssssssssssaaaaaaaaaappppppppppiiiiiiiiuiiuuuuuuuuuyyyyyyyyyyyttttttttrrrrrrrrrrerreeeeeeeewwwwwwwwqqqqqqqqqq0000000999999999889888888888777777767666666666555555555444444444333333323222222211111111111<<<<<<<<,,,,,,,,,>>>>>>>:::::::::::;;;;;;;;---------=======********&&&&&&&&&&&%%%%%%%%%$$$$$$###########@@@@@@+++++++++++*MFFFFFFFFFFFFFFZZZZZZZZZZZZZZZZZZZZFFFFFFFFFFFFFFFFFFFFZZZZZZZZZZZZZZZZZZZZFFFFFFFFFFFFFFFFFFFFZZZZZZZZZZZZZZZZZZZZ",
"ZZZZZZZZZZZZZZZZZZZZFFFFFFFFFFFFFFFFFFFFZZZZZZZZZZZZZZZZZZZZFFFFFFFFFFFFFFFFFFFFZZZZZZZZZZZZZZZZZZZZFFFFFFFFFFFFFFNsasssssssssssdddddddddddfffffffffgggggggggggggggghhhhhhhhhhhhjjjjjjjjjjjjjjkkkkkkkkkkkkklkkkkllllllllllllllllllllzzzzzzzzzzzzzzzzzzzzzzzzzzzzzzzzzzzzzzxxxxxxxxxxxxxxxxxxxzzzzzzzzzzzzzzzzzzzzzzzzzzzzzzzzzzzzzzzllllllllllllllllllllkkkklkkkkkkkkkkkkkjjjjjjjjjjjjjhhhhhhhhhhhhhggggggggggggggggffffffffddddddddddddssssssssssaaaaaaaaaappppppppppiiiiiiiiiuuuuuuuuuuuuyyyyyyyyyytttttttttrrrrrrrreerreeeeeewewwwwwwwwwqqqqqqqqqq00000000099999998888888888877777777766666666655555554544444444433333333322222221111111111<<<<<<<<,<,,,,,,>>>>>>>>>:::::::::;;;;;;;;;;;-------==========*******&&&&&&&&&&%%%%%%%%%$$$$$$#########@@@@@@@@@+++@++++++O2AFFFFFFFFFFFFFZZZZZZZZZZZZZZZZZZZZFFFFFFFFFFFFFFFFFFFFZZZZZZZZZZZZZZZZZZZZFFFFFFFFFFFFFFFFFFFFZZZZZZZZZZZZZZZZZZZZ",
"ZZZZZZZZZZZZZZZZZZZZFFFFFFFFFFFFFFFFFFFFZZZZZZZZZZZZZZZZZZZZFFFFFFFFFFFFFFFFFFFFZZZZZZZZZZZZZZZZZZZZFFFFFFFFFFFFFZfasssssssssssdddddddddddffffffffffgggggggggggggggghhhhhhhhhhhjjjjjjjjjjkjjjkkkkkkkkkkkkkklklkklllllllllllllllllzzllzzzzzzzzzzzzzzzzzzzzzzzzzzzzxxxxxxxxxxxxxxxxxxxxxxxxxxxxxxxxxxxxxzzzzzzzzzzzzzzzzzzzzzzzzzzzzzzzzzlllllllllllllllllllkkkkkkkkkkkkkkkkjjjjjjjjjjjjjjhhhhhhhhhhghhgggggggggggggggfffffffffdddddddddddsssssssssssaaaaaaaaaaappppppppiiiiiiiiiiuuuuuuuuuuyyyyyyyyyyyyttttttttrrrrrrrrrerreeeeeewwwwwwwwwwqqqqqqqqqqq0000000009999999888888888787777777777666666666555555544454444444333333333222222111111111<<<<<<<<<,<,,,,,,,>>>>>>>>:>>::::::;;;;;;;;;;--------=-========********&&&&&&&&&&%%%%%%%%$$$$$$$########@@@@@@@@@+@++++++++++rFFFFFFFFFFFFFZZZZZZZZZZZZZZZZZZZZFFFFFFFFFFFFFFFFFFFFZZZZZZZZZZZZZZZZZZZZFFFFFFFFFFFFFFFFFFFFZZZZZZZZZZZZZZZZZZZZ",
"FFFFFFFFFFFFFFFFFFFFZZZZZZZZZZZZZZZZZZZZFFFFFFFFFFFFFFFFFFFFZZZZZZZZZZZZZZZZZZZZFFFFFFFFFFFFFFFFFFFFZZZZZZZZZZZZCjasssssssssssdddddddddddfffffffffffggggggggggggghhhhhhhhhhhhjjjjjjjjjjjjkjkkkkkkkkkkkklkkkllkklllllllllllllllzzzzzzzzzzzzzzzzzzzzzzxxzzzzzxxxxxxxxxxxxxxxxxxxxxxxxxxxxxxxxxxxxxxxxxxxxxxxxxxxxzzzzzzzzzzzzzzzzzzzzzzzllzlllllllllllllllkkkkkkkkkkkkkkkkkkkkjjjjjjjjjjjjjjhhhhhhhhhhhhhggggggggggggfffffffffffdddddddddddsssssssssssaaaaaaaaaappppppppppiiiiiiiiuuuuuuuuuuuuyyyyyyyyyyttttttttrrrrrrrrrrrreeeeeeeeewwwwwwwwwqqqqqqq0qq0000000009999999888888888887777777776666666555555555554444444443333333332222222221111111<<<<<<<<<<,,,,,,,>>>>>>>>>>>:::::::::;;;;;;;;-------=========*=******&&&&&&&&&%%%%%%%%%%$$$$$$$###########@@@@@@@@+++++++++O@fZZZZZZZZZZZZFFFFFFFFFFFFFFFFFFFFZZZZZZZZZZZZZZZZZZZZFFFFFFFFFFFFFFFFFFFFZZZZZZZZZZZZZZZZZZZZFFFFFFFFFFFFFFFFFFFF",
"FFFFFFFFFFFFFFFFFFFFZZZZZZZZZZZZZZZZZZZZFFFFFFFFFFFFFFFFFFFFZZZZZZZZZZZZZZZZZZZZFFFFFFFFFFFFFFFFFFFFZZZZZZZZZZZZxasssssssssssdddddddddddfffffffffffggggggggggghhhhhhhhhhhhhhjjjjjjjjjjjjkkkkkkkkkkkkkkkkklllllllllllllllllllzzzzzzzzzzzzzzzzzzzxzzzzxxxxxxxxxxxxxxxxxxxxxxxxxxxxxxxxxxxxxxxxxxxxxxxxxxxxxxxxxxxxxzzzzzzzzzzzzzzzzzzzzzzzzzzlllllllllllllllkklkkklkkkkkkkkkkkkjjjjjjjjjjjjjjhhhhhhhhhhhhhggggggggggggfffffffffffdddddddddddsssssssssssaaaaaaaaaapppppppppiiiiiiiiiuiuuuuuuuuuyyyyyyyyytytttttttrrrrrrrrrrrreeeeeeeeeewwwwwwwwwqqqqqqqqq0000000009999999889888888888777777777666666655555555554444444443333333332222222221111111<<<<<<<<<<,,,,,,,,,>>>>>>>>>:::::::::;;;;;;;;;------===========********&&&&&&&%%%%%%%%%%$$$$$$$###########@@@@@@@@@++++++++OO&bZZZZZZZZZZZFFFFFFFFFFFFFFFFFFFFZZZZZZZZZZZZZZZZZZZZFFFFFFFFFFFFFFFFFFFFZZZZZZZZZZZZZZZZZZZZFFFFFFFFFFFFFFFFFFFF",
"FFFFFFFFFFFFFFFFFFFFZZZZZZZZZZZZZZZZZZZZFFFFFFFFFFFFFFFFFFFFZZZZZZZZZZZZZZZZZZZZFFFFFFFFFFFFFFFFFFFFZZZZZZZZZZZnssssssssssssdddddddddddfffffffffffgggggggggggghhhhhhhhhhhhhjjjjjjjjjjjjjkkkkkkkkkkkkkkkklllllllllllllllllllzzzzzzzzzzzzzzzzzzzxxzzxxxxxxxxxxxxxxxxxxxxxxxxxxxxxxxxxxxxxxxxxxxxxxxxxxxxxxxxxxxxxxxxxxxzxxzzzzzzzzzzzzzzzzzlzzlzlllllllllllllkkkkkllkkkkkkkkkkkkjjjjjjjjjjjjjjhhhhhhhhhhhhhggggggggggggfffffffffffdddddddddddsssssssssssaaaaaaaaaappppppppipiiiiiiiiuuuuuuuuuuyyyyyyyyyttttttttttttrrrrrrrreeereeeeeeewwwwwwwwwqqqqqqqqq00000000999999999898888888777777777766666666555555555444444444443333333332222222221111111<<<<<<<<,,,,,,,,,,,>>>>>>>>>::::::;;;;;;;;;;;------==-========*********&&&&&&&&%%%%%%%%%$$$$$$$########@@@@@@@@@+@++++++++OOO<BZZZZZZZZZZFFFFFFFFFFFFFFFFFFFFZZZZZZZZZZZZZZZZZZZZFFFFFFFFFFFFFFFFFFFFZZZZZZZZZZZZZZZZZZZZFFFFFFFFFFFFFFFFFFFF",
"FFFFFFFFFFFFFFFFFFFFZZZZZZZZZZZZZZZZZZZZFFFFFFFFFFFFFFFFFFFFZZZZZZZZZZZZZZZZZZZZFFFFFFFFFFFFFFFFFFFFZZZZZZZZZZBdassssssssssdddddddddddfffffffffffgggggggggggghhhhhhhhhhhhhjjjjjjjjjjjjjkkkkkkkkkkkkkkkkkllllllllllllllllllllzzzzzzzzzzzzzzzzzzxxxxxxxxxxxxxxxxxxxxxxxxxxxxxxxxxxxxxxxxxxxxxxxxxxxxxxxxxxxxxxxxxxxxxxxxxxxzzzzzzzzzzzzzzzzzzzzlzzllllllllllllllkkllkkkkkkkkkkkkkkjjjjjjjjjjjjjhhhhhhhhhhhhhggggggggggggfffffffffffdddddddddddssssssssssaaaaaaaaaaapppppppippiiiiiiiuuuuuuuuuuuuuyyyyyyyttttttttttttrrrrrrrreerreeeeeeewwwwwwwwwqqqqqqq000000000999999999898888888777777777776666666555555555444444444443333333332222222221111111<<<<<<<<,,,,,,,,,,,>>>>>>>>>::::::;;;;;;;;;;;-------=-========*********&&&&&&&&&%%%%%%%%$$$$$$$########@@@@@@@@@+@+++++++++OOOwCZZZZZZZZZFFFFFFFFFFFFFFFFFFFFZZZZZZZZZZZZZZZZZZZZFFFFFFFFFFFFFFFFFFFFZZZZZZZZZZZZZZZZZZZZFFFFFFFFFFFFFFFFFFFF",
"FFFFFFFFFFFFFFFFFFFFZZZZZZZZZZZZZZZZZZZZFFFFFFFFFFFFFFFFFFFFZZZZZZZZZZZZZZZZZZZZFFFFFFFFFFFFFFFFFFFFZZZZZZZZZCjassssssssddddddddddddffffffffffffgggggggggggghhhhhhhhhhhhjjjjjjjjjjjjkkkkkkkkkkkkkkkklllklllllllllllllzzzzzzzzzzzzzzzzzzzzzzxxxxxxxxxxxxxxxxxxxxxxxxxxxxxxxxxxxcccxxxxxxxcxxxxxxxxxxxxxxxxxxxxxxxxxxxxxxxxxxxzzzzzzzzzzzzzzzzzzzzlllllllllllllllklllkkkkkkkkkkkkkkjjjjjjjjjjjjjhhhhhhhhhhhggggggggggggggggffffffffffddddddddddssssssssssaaaaaaaaaappppppppppiiiiiiiiuiuuuuuuuuyuyyyyyyyttytttttttttrrrrrrrrrrreeeeeeewwwwwwwwwwqqqqqqqq000000009909999999998888888887777777666666666665555554554444444443333332322222221111111111<<<<<<<<<<,,,,,,,,,>>>>>>>>:::::::;;;;;;;;--;------=========**********&&&&&&&&&%%%%%%%%%$$$$$$#$#######@#@@@@@@+@+++++++++OOO@fZZZZZZZZZFFFFFFFFFFFFFFFFFFFFZZZZZZZZZZZZZZZZZZZZFFFFFFFFFFFFFFFFFFFFZZZZZZZZZZZZZZZZZZZZFFFFFFFFFFFFFFFFFFFF",
"FFFFFFFFFFFFFFFFFFFFZZZZZZZZZZZZZZZZZZZZFFFFFFFFFFFFFFFFFFFFZZZZZZZZZZZZZZZZZZZZFFFFFFFFFFFFFFFFFFFFZZZZZZZZZxasssssssssddddddddddddfffffffffgfgggggggggggghhhhhhhhhhhhjjjjjjjjjjjjjkkkkkkkkkkkkkkkllllllllllllllllllzzzzzzzzzzzzzzzzzzzxxxxxxxxxxxxxxxxxxxxxxxxxxxxccxxxxxxccccccxxxxxxccccxxxxxxccxxxxxxxxxxxxxxxxxxxxxxxxxxxzzzzzzzzzzzzzzzzzzzzzllllllllllllllllkkkkkkkkkkkkkkjjjjjjjjjjjjjjhhhhhhhhhhhhhgggggggggggggfffffffffddddddddddsssssssssssaaaaaaaaaappppppppppiiiiiiiiiuuuuuuuuyuuyyyyyyyttttttttttttrrrrrrrrrreeeeeeeewwwwwwwwqwqqqqqqq000000000909999999998888888877777777666666666665555555554444444443333333332222221111111111<<<<<<<<<<,,,,,,,,>>>>>>>>>:::::::;;;;;;;;;-;------=========***********&&&&&&&&%%%%%%%%%$$$$$$$$#######@@@@@@@@@@@++++++++OOOO&nZZZZZZZZFFFFFFFFFFFFFFFFFFFFZZZZZZZZZZZZZZZZZZZZFFFFFFFFFFFFFFFFFFFFZZZZZZZZZZZZZZZZZZZZFFFFFFFFFFFFFFFFFFFF",
"FFFFFFFFFFFFFFFFFFFFZZZZZZZZZZZZZZZZZZZZFFFFFFFFFFFFFFFFFFFFZZZZZZZZZZZZZZZZZZZZFFFFFFFFFFFFFFFFFFFFZZZZZZZZMsssssssssssdddddddddddfffffffffgggggggggggggghhhhhhhhhhhhjjjjjjjjjjjjjkkkkkkkkkkkkkkllllllllllllllllzllzzzzzzzzzzzzzzzzzxxxxxxxxxxxxxxxxxxxxxxxccccccxxccccxcxxxccccccccccxxccccxccxcccxxxxxxxxxxxxxxxxxxxxxxxxxxxxxzzzzzzzzzzzzzzzzzzzlllllllllllllllkllkkkkkkkkkkkkkkjjjjjjjjjjjjjhhhhhhhhhhhhhgggggggggggggffffffffdddddddddddsssssssssssaaaaaaaaaappppppppppiiiiiiiiiuuuuuuuuyyyyyyyyyytytttttttrtrrrrrrrrrreeeeeeeeewwwwwwwqqqqqqqqq00000000090099999999988888888877777766766666666655555555444444444333333333222222211111111111<<<<<<,<,,,,,,,>>>>>>>>>::::::::::;;;;;;;-;-------========**********&&&&&&&%&%%%%%%%%%$$$$$$$#########@@@@@@@@@@++++++++OOOOO3VZZZZZZZFFFFFFFFFFFFFFFFFFFFZZZZZZZZZZZZZZZZZZZZFFFFFFFFFFFFFFFFFFFFZZZZZZZZZZZZZZZZZZZZFFFFFFFFFFFFFFFFFFFF",
"FFFFFFFFFFFFFFFFFFFFZZZZZZZZZZZZZZZZZZZZFFFFFFFFFFFFFFFFFFFFZZZZZZZZZZZZZZZZZZZZFFFFFFFFFFFFFFFFFFFFZZZZZZZVfassssssssssdddddddddddfffffffffggggggggggggghgghhhhhhhhhjjjjjjjjjjjjjkkkkkkkkkkkkkkllllllllllllllllzzzlzzzzzzzzzzzzzzzxxxxxxxxxxxxxxxxxxxxxxxxxccccccccccccccccccccccccccccccccccccccccxxxxxxcccccxxxxxxxxxxxxxxxxxxxxxzzzzzzzzzzzzzzzzllzllllllllllllklllkkkkkkkkkkkkkkkjjjjjjjjjjjjhhhhhhhhhhhhggggggggggggggffffffffdddddddddddssssssssssaaaaaaaaaappppppppppiiiiiiiiiuuuuuuuuyyyyyyyyyytyttttttttrrrrrrrrrrreeeeeeeeewwwwwwwqqqqqqqqqq0000000009099999999988888888877777776766666666655555555544444444433333333222222211111111111<<<<<<<,,,,,,,,>>>>>>>>>>>:::::::::;;;;;;-;-------========*********&&&&&&&&&%%%%%%%%%%$$$$$$$#$#######@@@@@@@@@@+++++++++OOOOOuZZZZZZZFFFFFFFFFFFFFFFFFFFFZZZZZZZZZZZZZZZZZZZZFFFFFFFFFFFFFFFFFFFFZZZZZZZZZZZZZZZZZZZZFFFFFFFFFFFFFFFFFFFF",
"FFFFFFFFFFFFFFFFFFFFZZZZZZZZZZZZZZZZZZZZFFFFFFFFFFFFFFFFFFFFZZZZZZZZZZZZZZZZZZZZFFFFFFFFFFFFFFFFFFFFZZZZZZZlassssssssssdddddddddfffffffffffffggggggggggghhhhhhhhhhhhjjjjjjjjjjjjkkkkkkkkkkkkkkkkkkllllllllllllzzzzzzzzzzzzzzzzzzxxxxxxxxxxxxxxxxxxxxccccxxxxccccccccccccccccccccccccccccccccccccccccccccccxxxxcccccxxxxxxxxxxxxxxxxxxxzzzzzzzzzzzzzzzzzzzllllllllllllkllkkkkkkkkkkkkkkjjjjjjjjjjjjjhhhhhhhhhhhhgggggggggggffgffffffffdddddddddddssssssssssaaaaaaaaaappppppppppiiiiiiiiiiuuuuuuuyuyyyyyyyyyyttttttttrrrrrrrreeeeeeeeeeeewwwwwwwqqqqqqqqqqq00000009099999999988888888877777776666666666655555555544444444433333333322222222211111111<<<<<<<<,,,,,,,,>>>>>>>>:>:::::::;;;;;;;;;----------=======**********&&&&&&&&&%%%%%%%%%$$$$$$###########@@@@@@@@+++++++++OOOOO#zZZZZZZFFFFFFFFFFFFFFFFFFFFZZZZZZZZZZZZZZZZZZZZFFFFFFFFFFFFFFFFFFFFZZZZZZZZZZZZZZZZZZZZFFFFFFFFFFFFFFFFFFFF",
"FFFFFFFFFFFFFFFFFFFFZZZZZZZZZZZZZZZZZZZZFFFFFFFFFFFFFFFFFFFFZZZZZZZZZZZZZZZZZZZZFFFFFFFFFFFFFFFFFFFFZZZZZZbsssssssssssddddddddddffffffffffffggggggggggghhhhhhhhhhhhjjjjjjjjjjjjkkkkkkkkkkkkkkkkkllllllllllllzzzzzzzzzzzzzzzzzzxxxxxxxxxxxxxxxxxxcxxxxcccccccccccccccccccccccccccccccccccccccccccccccccccccccccccccccxxxxxxxxxxxxxxxxxxxxxzzzzzzzzzzzzzzzzzzlllllllllllkklkkkkkkkkkkkkkkjjjjjjjjjjjjjhhhhhhhhhhhhgggggggggggfgfffffffffddddddddddsssssssssssaaaaaaaapapppppppppiiiiiiiiuiuuuuuuuuuuyyyyyyyyyttttttttrtrrrrrrreeeeeeeeeeeewwwwwwqqqqqqqqqqqq00000000999999999988888888877777776666666666655555554444444444333333333222222222111111111<<<<<<<,,,,,,,,>>>>>>>>>:::::::::;;;;;;;;-----------======***********&&&&&&%%%%%%%%%%%$$$$$$#$#########@@@@@@@@+++++++++OOOOOO:NZZZZZFFFFFFFFFFFFFFFFFFFFZZZZZZZZZZZZZZZZZZZZFFFFFFFFFFFFFFFFFFFFZZZZZZZZZZZZZZZZZZZZFFFFFFFFFFFFFFFFFFFF",
"FFFFFFFFFFFFFFFFFFFFZZZZZZZZZZZZZZZZZZZZFFFFFFFFFFFFFFFFFFFFZZZZZZZZZZZZZZZZZZZZFFFFFFFFFFFFFFFFFFFFZZZZZBdsssssssssssddddddddddfffffffffffggggggggggggghhhhhhhhhhjjjjjjjjjjjjkkkkkkkkkkkkklllklllllllllllllzzzzzzzzzzzzzzzzxxxxxxxxxxxxxxxxxxxxxxxxccccccccccccccccccccccccccccccccccccccccccccccccccccccccccccccccxxcxccxxxxxxxxxxxxxxxxxzzzzzzzzzzzzzllzzlllllllllllllllkkkkkkkkkkkkkkjjjjjjjjjjjjhhhhhhhhhhhhgggggggggggffffffffffffdddddddddssssssssssaaaaaaaapappppppppppiiiiiiiiuuuuuuuuuuuyyyyyyyytttttttttttrrrrrrrrrreeeeeeeeewwwwwwwwqqqqqqqqqq0000000009999999888888888887777777666666666655555555444444444443333333322222222211111111<<<<<<<<,,,,,,,,,>>>>>>>>:::::::::::;;;;;;----------=======*********&&&&&&&&%%&%%%%%%%%$$$$$$$$$########@@@@@@@@@++++++++OOOOOOO0CZZZZFFFFFFFFFFFFFFFFFFFFZZZZZZZZZZZZZZZZZZZZFFFFFFFFFFFFFFFFFFFFZZZZZZZZZZZZZZZZZZZZFFFFFFFFFFFFFFFFFFFF",
"FFFFFFFFFFFFFFFFFFFFZZZZZZZZZZZZZZZZZZZZFFFFFFFFFFFFFFFFFFFFZZZZZZZZZZZZZZZZZZZZFFFFFFFFFFFFFFFFFFFFZZZZCjassssssssssddddddddddffffffffgffggggggggggghhghhhhhhhhhjjjjjjjjjjjjkkkkkkkkkklkklllllllllllllllzlzzzzzzzzzzzzzzzxxxxxxxxxxxxxxxxccxxxxcccccccccccccccccccccccccccccccccccccccccccccccccccccccccccccccccccccccxcccccxxxxxxxxxxxxxxxxzzzzzzzzzzzzzzzzzlllllllllllllklkkkkkkkkkkkkkjjjjjjjjjjjjhhhhhhhhhhhhgggggggggggfffffffffffddddddddddssssssssssaaaaaaaaaappppppppppiiiiiiiuuuuuuuuuuuyyyyyyyyyyytttttttttrrrrrrrrreeeeeeeeewwwwwwwwwwqqqqqqqq000000009999999988888888888777777766666666655555555544444444444333333333222222222111111<<<<<<<<<,,,,,,,,,,,>>>>>>:::::::::::;;;;;;----------========*=*******&&&&&&&&%%%%%%%%%%$$$$$$$$$########@@@@@@@@@+++++++++OOOOOO+fZZZZFFFFFFFFFFFFFFFFFFFFZZZZZZZZZZZZZZZZZZZZFFFFFFFFFFFFFFFFFFFFZZZZZZZZZZZZZZZZZZZZFFFFFFFFFFFFFFFFFFFF",
"FFFFFFFFFFFFFFFFFFFFZZZZZZZZZZZZZZZZZZZZFFFFFFFFFFFFFFFFFFFFZZZZZZZZZZZZZZZZZZZZFFFFFFFFFFFFFFFFFFFFZZZZcassssssssssddddddddfdfffffffffffggggggggggghhhhhhhhhhhhjjjjjjjjjjjjkkkkkkkkkkkkkllllllllllllllzzzzzzzzzzzzzzzzzxxxxxxxxxxxxxxxxccxxxccccccccccccccccccccccccccccccccccccccccccccccccccccccccccccccccccccccccccccxxxccccxxxxxxxxxxxxxxxzzzzzzzzzzzzzzzzzllllllllllkkkkkkkkkkkkkkkkkjjjjjjjjjjjjhhhhhhhhhhhgggggggggggffffffffffffddddddddddsdssssssssaaaaaaaaaapppppppppiiiiiiiiiiuuuuuuuuyyyyyyyyytytttttttrrrrrrrrrrrrrreeeeeeewwwwwwwwwqqqqqqqq000000000099999998988888888877777777666666665555555555544444444333333333222222222111111<<<<<<<<<,,,,,,,,,,,>>>>>>:::::::::::;;;;;;;--------=========*=******&&&&&&&&&&&%%%%%%%%%$$$$$$$$#######@@@@@@@@@@+++++++++OOOOOOO&nZZZFFFFFFFFFFFFFFFFFFFFZZZZZZZZZZZZZZZZZZZZFFFFFFFFFFFFFFFFFFFFZZZZZZZZZZZZZZZZZZZZFFFFFFFFFFFFFFFFFFFF",
"FFFFFFFFFFFFFFFFFFFFZZZZZZZZZZZZZZZZZZZZFFFFFFFFFFFFFFFFFFFFZZZZZZZZZZZZZZZZZZZZFFFFFFFFFFFFFFFFFFFFZZZMsssssssssssdddddddddffffffffffffggggggggggghhhhhhhhhhhhjjjjjjjjjjjjkkkkkkkkkkkkllllllllllllllzzzzzzzzzzzzzzzzzxxxxxxxxxxxxxxxcxxccccccccccccccccccccccccccccccvvccccccccccccccvvccccccccccccccccccccccccccccccccccccccccxcxxxxxxxxxxxxxxxzzzzzzzzzzzzzzzzllllllllllllkkkkkkkkkkkkkkkjjjjjjjjjjjjhhhhhhhhhhhghgggggggggfffffffffffddddddddddsdssssssssaaaaaaaaaapppppppppiiiiiiiiiiiuuuuuuuyyyyyyyyytyytttttttrrrrrrrrrrrrreeeeeeewwwwwwwwwqqqqqqqq0000000000999999989888888888777777766666666655555555555444444444333333332222222221111111<<<<<<<<,,,,,,,,,,,>>>>>>>::::::::::;;;;;;;---------==========*******&&&&&&&&&&%%%%%%%%%$$$$$$$$#######@@@@@@@@@@+++++++++OOOOOOOO4CZZFFFFFFFFFFFFFFFFFFFFZZZZZZZZZZZZZZZZZZZZFFFFFFFFFFFFFFFFFFFFZZZZZZZZZZZZZZZZZZZZFFFFFFFFFFFFFFFFFFFF",
"FFFFFFFFFFFFFFFFFFFFZZZZZZZZZZZZZZZZZZZZFFFFFFFFFFFFFFFFFFFFZZZZZZZZZZZZZZZZZZZZFFFFFFFFFFFFFFFFFFFFZZCgasssssssddsdddddddddfffffffffffgggggggghghhhhhhhhhhhhhjjjjjjjjjjjkkkkkkkkkkkkkkkllllllllllllzzllzzzzzzzzzzzzxxxxxxxxxxxxxxccxxxcccccccccccccccccccccccccvvccccvvccvvcccccccccvvvccvvvvccvvcvccvvcccccccccccccccccccccccccccccxxxxxxxxxxxxxxzzzzzzzzzzzzzzzllllllllllllllllkkkkkkkkkkkjjjjjjjjjjjjhhhhhhhhhhhhggggggggggffgffffffffddddddddddddssssssssaaaaaaaaaappppppppppiiiiiiiiuuuuuuuuyyyyyyyyyyyytttttttrrrrrrrrrrrrrreeeeeeewwwwwwwqwqqqqqqq000000000009999999998888888787777777666666665555555555544444444433333333322222221111111111<<<<<<<,<,,,,,,,>,>>>>>>>>:::::::;;;;;;;;;----------======*********&&&&&&&&&&&%%%%%%%%$$$$$$$########@@@@@@@@@@@@@++++++OOOOOOOOOaZZFFFFFFFFFFFFFFFFFFFFZZZZZZZZZZZZZZZZZZZZFFFFFFFFFFFFFFFFFFFFZZZZZZZZZZZZZZZZZZZZFFFFFFFFFFFFFFFFFFFF",
"FFFFFFFFFFFFFFFFFFFFZZZZZZZZZZZZZZZZZZZZFFFFFFFFFFFFFFFFFFFFZZZZZZZZZZZZZZZZZZZZFFFFFFFFFFFFFFFFFFFFZZxassssssssddddddddddddfffffffffffgggggggghhhhhhhhhhhhhhjjjjjjjjjjjkkkkkkkkkkkkkkkklllllllllllzzzzzzzzzzzzzzzxxxxxxxxxxxxxxccccccccccccccccccccccccccccccccvvccccvvvvvvvvccvvvvvvvvvvvvvvccvvvvvvvvvvccccccccccccccccccccccccccccxxxxxxxxxxxxxxzzzzzzzzzzzzzzzzllllllllllkkllkkkkkkkkkkkkjjjjjjjjjjjjhhhhhhhhhhhgggggggggggffgfffffffdddddddddddssssssssssaaaaaaaaaapppppppppiiiiiiiuuuuuuuuuuyyyyyyyyyyyttttttttrrrrrrrrrereeeeeeeeewwwwwwwqwqqqqqqq0000000000099999999988888888877777776766666665555555555544444444333333333222222212111111111<<<<<<,<,,,,,,,>,>>>>>>>>:::::::;;;;;;;;;-;--------=======********&*&&&&&&&&&%%%%%%%%$$$$$$$########@@@@@@@@@@@@@++++++OOOOOOOOO%bZFFFFFFFFFFFFFFFFFFFFZZZZZZZZZZZZZZZZZZZZFFFFFFFFFFFFFFFFFFFFZZZZZZZZZZZZZZZZZZZZFFFFFFFFFFFFFFFFFFFF",
"FFFFFFFFFFFFFFFFFFFFZZZZZZZZZZZZZZZZZZZZFFFFFFFFFFFFFFFFFFFFZZZZZZZZZZZZZZZZZZZZFFFFFFFFFFFFFFFFFFFFZMsssssssssssddddddddddffffffffggfgggggggggghhhhhhhhhhhhjjjjjjjjkkjkkkkkkkkkkkkklllllllllllllzzllzzzzzzzzzzzxxxxxxxxxxxxxcccccccccccccccccccccccccccccccvvcvvvvvvccccccvvvvcvvvvvvvcccccvvccvvccccvcccccvcccccccccccccccccccccccxxxxcxxxxxxxxxxxxxxxzzzzzzzzzzzzlllllllllllllllkkkkkkkkkkkkjkkjjjjjjjjjhhhhhhhhhhhgggggggggggffffffffffddddddddddssssssssssaaaaaaaaaappppppppppiiiiiiiiiuuuuuuuyyyyyyyyyyyttttttttrrrrrrrrrrrrreeeeeeeewwwwwwqqqqqqqqqq0000000090099999999988888877777777766666666656555555555444444444333333332222222221111111<<<<<<<<<,,,,,,,,,,>>>>>>>>>::::::::;;;;;;;-;--------=======***********&&&&&&&&%%%%%%%%%$$$$$$###########@@@@@@@++++++++++OOOOOOoOo2VFFFFFFFFFFFFFFFFFFFFZZZZZZZZZZZZZZZZZZZZFFFFFFFFFFFFFFFFFFFFZZZZZZZZZZZZZZZZZZZZFFFFFFFFFFFFFFFFFFFF",
"FFFFFFFFFFFFFFFFFFFFZZZZZZZZZZZZZZZZZZZZFFFFFFFFFFFFFFFFFFFFZZZZZZZZZZZZZZZZZZZZFFFFFFFFFFFFFFFFFFFFVgssssssssssdddddddddddfffffffgggggggggggghghhhhhhhhhhhjjjjjjjjjkkkkkkkkkkkkkkllllllllllllllzzzzzzzzzzzzzzxxxxxxxxxxxxxcccccccccccccccccccccccccccccccvvvvcvvvvvvvcvvvvvvvvvvvvvvvvvvvvvvvvcvvccccvvvcvvccccccccccccccccccccccccccxxxccxxxxxxxxxxxxxzzzzzzzzzzzzzzllllllllllllllkkkkkkkkkkkkkkjjjjjjjjjjhhhhhhhhhhgggggggggggfgfffffffffddddddddddssssssssssaaaaaaaaaapppppppppiiiiiiiiiiuuuuuuuyyyyyyyyyytttttttttrrrrrrrrrrreeeeeeeeewwwwwwwqwqqqqqqq0000000000099999999988888887777777766666666655655555554444444444333333333222222111111111<<<<<<<<<,,,,,,,,,,>>>>>>>>>:::::::::;;;;;;-;--------========**********&&&&&&%%%%%%%%%%%$$$$$$###########@@@@@@+++@+++++++OOOOOOoOoOiFFFFFFFFFFFFFFFFFFFFZZZZZZZZZZZZZZZZZZZZFFFFFFFFFFFFFFFFFFFFZZZZZZZZZZZZZZZZZZZZFFFFFFFFFFFFFFFFFFFF",
"FFFFFFFFFFFFFFFFFFFFZZZZZZZZZZZZZZZZZZZZFFFFFFFFFFFFFFFFFFFFZZZZZZZZZZZZZZZZZZZZFFFFFFFFFFFFFFFFFFFFzassssssssssddddddddddffffffffggggggggggggghhhhhhhhhhhjjjjjjjjjjjkkkkkkkkkllkllllllllllllllzzzzzzzzzzzzzzxxxxxxxxxxxxxxcxcccccccccccccccccccvvvcvvvvccccvvvvvvvvvvvvvvvvvvvvvvvvvvvvvvvvvvvvvvvvvvvvccccvvvvccvvvvccccccccccccccccccxxcccxxxxxxxxxxxxzzzzzzzzzzzzzzzlllllllllllllkkkkkkkkkkkkkjjjjjjjjjjjhhhhhhhhhhgggggggggggffgfffffffffdddddddddssssssssssaaaaaaaaappppppppppiiiiiiiiiuuuuuuuuuyyyyyyyytttttttttrrrrrrrrrrreeeeeeeeeewwwwwwqqwqqqqqq0000000000099999999888888888877777776666666666655555544444444444333333333222222212111111<<<<<<<<<<<,,,,,,,,>>>>>>>>::::::::;;;;;;;;-----------=======*=********&&&&&&%%%%%%%%%%$$$$$$$$$$######@@@@@@@@++@@+++++++OOOOOOoOOo$MFFFFFFFFFFFFFFFFFFFZZZZZZZZZZZZZZZZZZZZFFFFFFFFFFFFFFFFFFFFZZZZZZZZZZZZZZZZZZZZFFFFFFFFFFFFFFFFFFFF",
"FFFFFFFFFFFFFFFFFFFFZZZZZZZZZZZZZZZZZZZZFFFFFFFFFFFFFFFFFFFFZZZZZZZZZZZZZZZZZZZZFFFFFFFFFFFFFFFFFFFBsssssssssssddddddddddffffffffgggggggggghgghhhhhhhhhhhjjjjjjjjjjjkkkkkkkkkklkllllllllllllllllzzzzzzzzzzzxxxxxxxxxxxxxxxxcccccccccccccccccvvccvvvvvvvvcccvvvvvvvvvvvvvvvvvvvvvvvvvvvvvvvvvvvvvvvvvvvvvvvvcvvvvvvvvvvccvcccccccccccccccccccccxxxxxxxxxxxxxzzzzzzzzzzzzzzlllllllllllllkkkkkkkkkkkkjjjjjjjjjjjhhhhhhhhhhhggggggggggggggfffffffddddddddddssssssssssaaaaaaaaaapppppppiiiiiiiiiiiiuuuuuuuuyyyyyyyyttyttttttrrtrrrrrrrrreeeeeeeeewwwwwwwqwqqqqqqq0000000000999999999888888888877777767666666666555555544444444444333333332222222221111111<<<<<<<<<<,,,,,,,,>>>>>>>>>:::::::;;;;;;;;;--------=-=========********&&&&&&&%%%%%%%%%$$$$$$$$$$######@@@@@@@@@+@++++++++OOOOOOOOOoo2SFFFFFFFFFFFFFFFFFFZZZZZZZZZZZZZZZZZZZZFFFFFFFFFFFFFFFFFFFFZZZZZZZZZZZZZZZZZZZZFFFFFFFFFFFFFFFFFFFF",
"ZZZZZZZZZZZZZZZZZZZZFFFFFFFFFFFFFFFFFFFFZZZZZZZZZZZZZZZZZZZZFFFFFFFFFFFFFFFFFFFFZZZZZZZZZZZZZZZZZZVfasssssssssddddddddddfffffffffffgggggggggghhhhhhhhhhhjjjjjjjjjjjkkkkkkkkkkkklllllllllllllzzzzzzzzzzzzzxxxxxxxxxxxxxxxcccccccccccccccccvvvccccccccvvvvvvvvvvvvvvvvvvvvvvvvvvvvvvvvvvvvvvvvvvvvvvvvvvvvvvvvvvvvvvvvccccccccvcccccccccccccccxxxxcxxxxxxxxxxxzxxxzzzzzzzzzzllllllllllkklkkkkkkkkkkkkjjjjjjjjjjjhhhhhhhhhhhgggggggggggggffffffffffddddddddssssssssssaaaaaaaapppppppppppiiiiiiiuuuuuuuuuuuuyyyyyyyyytttttttttrrrrrrreeereeeeeeewwwwwwwwwqqqqqqqqq000000099999999988888888888777777777666666665555555554444444443333333332222222211111111<<<<<<<<<<,,,,,,>>>>>>>>>::::::::;;;;;;;;;--------=--========*******&&&&&&&&&&%%%%%%%$$$$$$$$$$######@@#@@@@@@+++++++++++OOOOOOooooOuZZZZZZZZZZZZZZZZZZFFFFFFFFFFFFFFFFFFFFZZZZZZZZZZZZZZZZZZZZFFFFFFFFFFFFFFFFFFFFZZZZZZZZZZZZZZZZZZZZ",
"ZZZZZZZZZZZZZZZZZZZZFFFFFFFFFFFFFFFFFFFFZZZZZZZZZZZZZZZZZZZZFFFFFFFFFFFFFFFFFFFFZZZZZZZZZZZZZZZZZZzassssssssssddddddddddfffffffgffgggggggggghhhhhhhhhhhjjjjjjjjjjjkkkkkkkkkkkkllklllllllllzzzzzzzzzzzzzzxxxxxxxxxxxxxxxxccccccccccccccccvvccvvcccccvvvvvvvvvvvvvvvvvvvvvvvvvvvvvvvvvvvvvvvvvvvvvvvvvvvvvvvvvvvvvvvvvvvccvvccvvvvccccccccccccccxxccxxxxxxxxxxxxxxzzzzzzzzzzlzlllllllllklkkkkkkkkkkkkkjjjjjjjjjjjhhhhhhhhhhhhggggggggggggfffffffffdddddddddsssssssssaaaaaaaapppppppppippiiiiiiiuuuuuuuuuuuyyyyyyyyyytttttttttrrrrrrreereeeeeeewwwwwwwwwwqqqqqqqqq00000009999999988888888888777777777666666666555555555444444443333333232222222221111111<<<<<<<<<<,,,,,,,>>>>>>>>:::::::::;:;;;;;;;----------========*******&&&&&&&&&&%%%%%%%$$$$$$$$$$#######@#@@@@@@+@+++++++++OOOOOOooooo#vZZZZZZZZZZZZZZZZZFFFFFFFFFFFFFFFFFFFFZZZZZZZZZZZZZZZZZZZZFFFFFFFFFFFFFFFFFFFFZZZZZZZZZZZZZZZZZZZZ",
"ZZZZZZZZZZZZZZZZZZZZFFFFFFFFFFFFFFFFFFFFZZZZZZZZZZZZZZZZZZZZFFFFFFFFFFFFFFFFFFFFZZZZZZZZZZZZZZZZZMsssssssssssddddddddddffffffffffggggggggggghhhhhhhhhhjjjjjjjjjjjkkkkkkkkkkkkkkkllllllllllzzzzzzzzzzzzzxxxxxxxxxxxxxxxccccccccccccccccccccvvvvvvvvvvvvvvvvvvvvvvvvvvvvvvvvvvvvvvvvvvvvvvvvvvvvvvvvvvvvvvvvvvvvvvvvvvvvvvvvvvccvvvvcccccccccccccccxccxxxxxxxxxxxxzzzzzzzzzzzzllllllllllkklkkkkkkkkkkkkjjjjjjjjjjjhhhhhhhhhhhhggggggggggfgfffffffddddddddddsddsssssssaaaaaaaapappppppppiiiiiiiiuuuuuuuuuuyyyyyyyyyttttttttttrrrrrrrrrrrreeeeeewwwwwwwwqqqqqqqqqq0000000099999999989888888888777777666666666655555555554444444443333333322222221111111111<<<<<<<<,,,,,,,,>>>>>>>>:::::::::;;;;;;;;;;-------========**=*******&&&&&&&&&%%%%%%%$$$$$$$$$$$########@@@@@@+@+++++++++OOOOOOoooooo1VZZZZZZZZZZZZZZZZFFFFFFFFFFFFFFFFFFFFZZZZZZZZZZZZZZZZZZZZFFFFFFFFFFFFFFFFFFFFZZZZZZZZZZZZZZZZZZZZ",
"ZZZZZZZZZZZZZZZZZZZZFFFFFFFFFFFFFFFFFFFFZZZZZZZZZZZZZZZZZZZZFFFFFFFFFFFFFFFFFFFFZZZZZZZZZZZZZZZZCgasssssssssddddddddfdffffffffffgggggggggggghhhhhhhhhjjjjjjjjjjjkkkkkkkkkkkkkkklllllllllllzzzzzzzzzzzxxxxxxxxxxxccccccccccccccccccvccccvvvvvvvvvvvvvvvvvvvvvvvvvvvvvvvvvvvbbbbbbvvbbbbbbbvvbbvvvvvvvvvvvvvvvvvvvvvvvvvvvvvvcvvvcvvvvcccccccccccccccccxxxxxxxxxxxzzzzzzzzzzzzlllllllllllkllkkkkkkkkkkkkjjjjjjjjjjjhhhhhhhhhhhggggggggggffffffffffddddddddddddssssssssaaaaaaapappppppppppiiiiiiiuuuuuuuuuyyyyyyyyyttttttttttrrrrrrrrrrrreeeeeewwwwwwwwqqwqqqqqqq0000000099999999989888888888777777777666666655555555554444444443333333332222221211111111<<<<<<<,,,,,,,,,>>>>>>>>:::::::::;;;;;;;;;;;------=========*********&&&&&&&&&&%%%%%%%$$$$$$$$$$########@@@@@@@@@++++++++OOOOOOooooooOaZZZZZZZZZZZZZZZZFFFFFFFFFFFFFFFFFFFFZZZZZZZZZZZZZZZZZZZZFFFFFFFFFFFFFFFFFFFFZZZZZZZZZZZZZZZZZZZZ",
"ZZZZZZZZZZZZZZZZZZZZFFFFFFFFFFFFFFFFFFFFZZZZZZZZZZZZZZZZZZZZFFFFFFFFFFFFFFFFFFFFZZZZZZZZZZZZZZZZxassssssssddddddddddddffffffffffgggggggghghhhhhhhhhhjjjjjjjjjjjkkkkkkkkkkkkllllllllllllzzlzzzzzzzzzzxxxxxxxxxxxcccccccccccccccccccvvccccccvvvvvvvvvvvvvvvvvvvvvvvvvvbbbbbbbvbbbbbbbbbbbbvvvvbbbbbbbvvvvvvvvvvvvvvvvvvvvvvvvvccccvccccccccccccccccccxxxxxxxxxxxxxxxzzzzzzzzzzzzzllllllllllllkkkkkkkkkkkkjjjjjjjjjjjhhhhhhhhhhgggggggggggfffffffffffddddddddssssssssssaaaaaaaaaapppppppipiiiiiiiuuuuuuuuuuuuyyyyyyytttttttttrrrrrrrrreeereeeeeeewwwwwwwwwqqqqqqq00000000999999999999888888887777777676666666565555555544444444433333333322222211111111111<<<<<<<,,,,,,,,>>>>>>>>>:::::::::;;;;;;;;;;---------=======********&&&&&&&&&&%%%%%%%%$$$$$$$########@@@@@@@@@@@++++++++OOOOOOOOooooo$nZZZZZZZZZZZZZZZFFFFFFFFFFFFFFFFFFFFZZZZZZZZZZZZZZZZZZZZFFFFFFFFFFFFFFFFFFFFZZZZZZZZZZZZZZZZZZZZ",
"ZZZZZZZZZZZZZZZZZZZZFFFFFFFFFFFFFFFFFFFFZZZZZZZZZZZZZZZZZZZZFFFFFFFFFFFFFFFFFFFFZZZZZZZZZZZZZZZNssssssssssdddddddddddffffffffffgggggggggghhhhhhhhhhhjjjjjjjjjjkkkkkkkkkkkkllllllllllllzzzzzzzzzzzzzxxxxxxxxxxcccccccccccccccccccvvvvcvccvvvvvvvvvvvvvvvvvvvvbbbvbvvvbbbbbbbbbbbbbbbbbbbbbbbbbbbbbbbbvvbbbbvvvvvvvvvvvvvvvvvvvvvcccvccccccccccccccccccxxxcxxxxxxxxxxzzzzzzzzzzzzzllllllllllllkkkkkkkkkkkkjjjjjjjjjjhhhhhhhhhhhggggggggggfffffffffffdddddddddssssssssssaaaaaaaaapppppppiipiiiiiiiiuuuuuuuuuuyyyyyyyyttttttttrrrrrrrrreeeeeeeeeeewwwwwwwwqqqqqqqq0000000009999999999988888888877777767666666666555555555444444443333333332222222111111111<<<<<<<<,,,,,,,,>>>>>>>>>::::::::::;;;;;;;;;-------=-=======********&&&&&&&&&&%%%%%%%%%$$$$$$$########@@@@@@@@@@+++++++++OOOOOOOOooooo5CZZZZZZZZZZZZZZFFFFFFFFFFFFFFFFFFFFZZZZZZZZZZZZZZZZZZZZFFFFFFFFFFFFFFFFFFFFZZZZZZZZZZZZZZZZZZZZ",
"ZZZZZZZZZZZZZZZZZZZZFFFFFFFFFFFFFFFFFFFFZZZZZZZZZZZZZZZZZZZZFFFFFFFFFFFFFFFFFFFFZZZZZZZZZZZZZZChasssssssssddddddddfdffffffffffgggggggggghhhhhhhhhhhjjjjjjjjjjkkkkkkkkkkkkllllllllllllzzzzzzzzzzzzxxxxxxxxxxxccccccccccccccccccccvvvvvvvvvvvvvvvvvvvvvvvvbbbbbbbbbbbbbbbbbbbbbbbbbbbbbbbbbbbbbbbbbbbbbbbbbbbbvbvvvvvvvvvvvvvvvvvvvcccvvvcvvccccccccccccxcxxxxxxxxxxxxzzzzzzzzzzzzzllllllllllllkkkkkkkkkkkjjjjjjjjjjjhhhhhhhhhhhgggggggggggfffffffffddddddddddsssssssssaaaaaaaaaapppppppppiiiiiiiiuuuuuuuuyuyyyyyyyttttttttttrtrrrrrrrrreeeeeeeeewwwwwwqqqqqqqqqq00000000999999999998888888877777777766666665555555554545444444433333333222222212111111<<<<<<<<<<,,,,,,,,>>>>>>>>:::::::::::;;;;;;;;-------========**********&&&&&&&%%%%%%%%%%%$$$$$$$$#######@@@@@@@@@@+++++++++OOOOOOOooooooOfZZZZZZZZZZZZZZFFFFFFFFFFFFFFFFFFFFZZZZZZZZZZZZZZZZZZZZFFFFFFFFFFFFFFFFFFFFZZZZZZZZZZZZZZZZZZZZ",
"ZZZZZZZZZZZZZZZZZZZZFFFFFFFFFFFFFFFFFFFFZZZZZZZZZZZZZZZZZZZZFFFFFFFFFFFFFFFFFFFFZZZZZZZZZZZZZZvassssssssssdddddddffdfffffffffggggggggggghhhhhhhhhhjjjjjjjjjjjkkkkkkkkkkkllllllllllllzzzzzzzzzzzzxxxxxxxxxxxxcccccccccccccccvccvvvvvvvvvvvvvvvvvvvvvvbbbbbbbbbbbbbbbbbbbbbbbbbbbbbbbbbbbbbbbbbbbbbbbbbbbbbbbbvvbbbbvvvvvvvvvvvvvvvvvcvvvvvvvvccccccccccccccxxxxxxxxxxxxzzzzzzzzzzzzllllllllllllkkkkkkkkkkkjjjjjjjjjjjhhhhhhhhhhggggggggggggfffffffffdddddddddssssssssssaaaaaaaaapppppppppiiiiiiiiuiuuuuuuuyyyyyyyyytttttttttttrrrrrrrrreeeeeeeeewwwwwwwqqqqqqqqq0q0000000009999999998888888777777777666666665555555545555444444333333333222222121111111<<<<<<<<<,,,,,,,,>,>>>>>>:>>::::::::;;;;;;;;-------=========*********&&&&&&&%%%%%%%%%%%$$$$$$$$#######@@@@@@@@@@+++++++++OOOOOOOooooooo*MZZZZZZZZZZZZZFFFFFFFFFFFFFFFFFFFFZZZZZZZZZZZZZZZZZZZZFFFFFFFFFFFFFFFFFFFFZZZZZZZZZZZZZZZZZZZZ",
"ZZZZZZZZZZZZZZZZZZZZFFFFFFFFFFFFFFFFFFFFZZZZZZZZZZZZZZZZZZZZFFFFFFFFFFFFFFFFFFFFZZZZZZZZZZZZZBdasssssssssdddddddddffffffffggfgggggggggghhhhhhhhhhjjjjjjjjjjjkkkkkkkkkkklllllllllllzlzzzzzzzzzzzxxxxxxxxxxxxxxcccccccccccvvccccvvvvvvvvvvvvvvvvvvvbbbbbbbbbbbbbbbbbbbbbbbbbbbbbbbbbbbbbbbbbbbbbbbbbbbbbbbbbbbbbbbbbvvvvvvvvvvvvvvvvvvvvvvvvcccccccccccccccxxxxxxxxxxxxxxzzzzzzzzzzzzlllllllllkkkkkkkkkkkkkkjjjjjjjjjjjhhhhhhhhhhgggggggggggfffffffffddddddddddsssssssssaaaaaaaaapppppppppiiiiiiiiiiuuuuuuuyyyyyyyyyttttttttttttrrrrrrrrrereeeeeeewwwwwwwwqqqqqqqqq000000000999999999888888887777777776666666565555555444444444433333332222222222211111111<<<<<<<,<,,,,,,>,>>>>>>>>>::::::::;;;;;;;;--------========**********&&&&&&&%&%%%%%%%%$$$$$$$$$######@@@@@@@@@@@++++++++OOOOOOooooooooo8CZZZZZZZZZZZZFFFFFFFFFFFFFFFFFFFFZZZZZZZZZZZZZZZZZZZZFFFFFFFFFFFFFFFFFFFFZZZZZZZZZZZZZZZZZZZZ",
"ZZZZZZZZZZZZZZZZZZZZFFFFFFFFFFFFFFFFFFFFZZZZZZZZZZZZZZZZZZZZFFFFFFFFFFFFFFFFFFFFZZZZZZZZZZZZZjassssssssssdddddddddffffffffgggggggggggghhhhhhhhhhjjjjjjjjjjjkkkkkkkkklllllllllllllzzzzzzzzzzzzzxxxxxxxxxxxxxcccccccccccccvvcvccvvvvvvvvvvvvvvvvbbvvbbbbbbbbbbbbbbbbbbbbbbbbbbbbbbbbbbbbbbbbbbbbbbbbbbbbbbbbbbbbbbbbbvbbbbvvvvvvvvvvvvvvvvvvccccvvcccccccccccxcxxxxxxxxxxxzzzzzzzzzzzzlllllllllkllkkkkkkkkkkkjkjjjjjjjjjhhhhhhhhhhggggggggggffffffffffdddddddddssssssssssaaaaaaapppppppppppiiiiiiiiiiuuuuuuuyyyyyyyyytytttttttttrrrrrrrrrereeeeeeewwwwwwwwqqqqqqqqqq00000000999999998888888877777777777666666565555555444444444443333332222222222211111111<<<<<<<,<,,,,,,,,,>>>>>>>>::::::::;;;;;;;;;-------========***********&&&&&&%&%%%%%%%%%$$$$$$$$######@@@@@@@@@@@++++++++OOOOOOOooooooooOkZZZZZZZZZZZZFFFFFFFFFFFFFFFFFFFFZZZZZZZZZZZZZZZZZZZZFFFFFFFFFFFFFFFFFFFFZZZZZZZZZZZZZZZZZZZZ",
"ZZZZZZZZZZZZZZZZZZZZFFFFFFFFFFFFFFFFFFFFZZZZZZZZZZZZZZZZZZZZFFFFFFFFFFFFFFFFFFFFZZZZZZZZZZZZnsssssssssssddddddddddfffffffggggggggggghhhhhhhhhhhhjjjjjjjjjkkkkkkkkkkkllllllllllllzzzzzzzzzzzzxxxxxxxxxxccxxccccccccccccccvvvvcvvvvvvvvvvvvvvvbbbbvbbbbbbbbbbbbbbbbbbbbbbbbbbbbbbbbbbbbbbbbbbbbbbbbbbbbbbbbbbbbbbbbbbbbbbbbbvvvvvvvvvvvvvvvvvcvccvvccccccccccccccxxxxxxxxxxzzzzzzzzzzzlllllllllllkllkkkkkkkkkkkkjjjjjjjjhhhhhhhhhhhggggggggggffffffffffffdddddddsssssssssaaaaaaaaaapppppppppiiiiiiiiuuuuuuuuuuyyyyyyytttttttttrrrrrrrrrreeereeeeeewwwwwwwwqqqqqqqq0000000009099999988888888877777777777666666666555555444444444443333332332222222211111111<<<<<<<,<,,,,,,,>>>>>>>>:::::::::;;;;;;;;;----------=======**********&&&&&&&&%%%%%%%%$$$$$$$##########@@@@@@@@@+++++++++OOOOOOOOooooooX;VZZZZZZZZZZZFFFFFFFFFFFFFFFFFFFFZZZZZZZZZZZZZZZZZZZZFFFFFFFFFFFFFFFFFFFFZZZZZZZZZZZZZZZZZZZZ",
"ZZZZZZZZZZZZZZZZZZZZFFFFFFFFFFFFFFFFFFFFZZZZZZZZZZZZZZZZZZZZFFFFFFFFFFFFFFFFFFFFZZZZZZZZZZZVfasssssssssddddddddddfffffffgggggggggggghhhhhhhhhhhjjjjjjjjkjkkkkkkkkkkkllllllllllllzzzzzzzzzzzxxxxxxxxxxccccccccccccccccccvvvvvvvvvvvvvvvvvvvbbbbbbbbbbbbbbbbbbbbbbbbbbbbbbbbbbbbbnnnnnnnnnbbbbbbbbbbbbbbbbbbbbbbbbbbbbbbbbbbbbbvvvvvvvvvvvvvvcvvvvvvvcccccccccccxxcxxxxxxxxxzzzzzzzzzzlllllllllllkllkkkkkkkkkkkjjjjjjjjjjhhhhhhhhhhggggggggggffffffffffffddddddddsssssssssaaaaaaaaappppppppppiiiiiiiuiuuuuuuuuuyyyyyyytttttttttrtrrrrrrreerreeeeeewwwwwwwwqqqqqqqq0q00000009099999998888888877877777777666666666555555444444444443333333332222222211111111<<<<<<<,<<,,,,,,>,>>>>>>::>::::::;;;;;;;;;-;--------========*********&&&&&&&&&%%%%%%%%$$$$$$##########@@@@@@@@@+@+++++++OOOOOOOOooooooXoyZZZZZZZZZZZFFFFFFFFFFFFFFFFFFFFZZZZZZZZZZZZZZZZZZZZFFFFFFFFFFFFFFFFFFFFZZZZZZZZZZZZZZZZZZZZ",
"ZZZZZZZZZZZZZZZZZZZZFFFFFFFFFFFFFFFFFFFFZZZZZZZZZZZZZZZZZZZZFFFFFFFFFFFFFFFFFFFFZZZZZZZZZZZxassssssssssdddddddddffffffffffgggggggggghhhhhhhhhhjjjjjjjjkkkkkkkkkkkkkkklllllllllzzzzzzzzzzzxxxxxxxxxxxxxcccccccccccccccvvvvvvvvvvvvvvvvvvbbbbvbbbbbbbbbbbbbbbbbbbbbbbbbbbbbbbbbbnnnnbbbbbbbbbbbbnnnnbbbbbbbbbbbbbbbbbbbbbbbbvbbbbvvvvvvvvvvvvvvcvvcvvccccccccccccxccxxxxxxxxxxxxzzzzzzzzzllllllllllllkkkkkkkkkkjjjjjjjjjjjhhhhhhhhggggggggggggfffffffffddddddddddsssssssssaaaaaaaaaapppppppiiiiiiiiiuuuuuuuuuyuyyyyyyyyytttttttttrrrrrrreerreeeeeewwwwwwwwqqqqqqqq00q000000909999999888888888887777776776666666655555555544444444433333333222222221111111<<<<<<<<<,<,,,,,,>>>>>>>>>:>::::::::;;;;;;;----------========*******&&&&&&&&&%%%%%%%%%%$$$$$$$$$########@@@@@@@@+++++++++OOOOOOOOoooooooX#nZZZZZZZZZZFFFFFFFFFFFFFFFFFFFFZZZZZZZZZZZZZZZZZZZZFFFFFFFFFFFFFFFFFFFFZZZZZZZZZZZZZZZZZZZZ",
"ZZZZZZZZZZZZZZZZZZZZFFFFFFFFFFFFFFFFFFFFZZZZZZZZZZZZZZZZZZZZFFFFFFFFFFFFFFFFFFFFZZZZZZZZZZNsasssssssssddddddddddfffffffgfggggggggggghhhhhhhhhjjjjjjjjjkkkkkkkkkkkkkkllllllllllzzzzzzzzzzxxxxxxxxxxcxcxccccccccccccccvvvvvvvvvvvvvvvvvbbbbbbbbbbbbbbbbbbbbbbbbbbbnnnnbbbbbnbbnbnnnnnnnnbbnnbbbbnnnnnnbbnnbbbbbbbbbbbbbbbbbbbbbbbbvvvvvvvvvvvvvvvvvvccccccccccccccccxxxxxxxxxxxxzzzzzzzzzzlllllllllllkkkkkkkkkkkjjjjjjjjjjhhhhhhhhghgggggggggggfffffffffddddddddddsssssssssaaaaaaaaapppppppiiiiiiiiiuuiuuuuuuuuuyyyyyyytttttttttrrrrrrrreerrreeeeeewwwwwwwqqqqqqqqqqq000000000999999888888888887777777776666666655555555544444444433333333222222221111111<<<<<<<<<<<,,,,,,>>,>>>>>>>>::::::;::;;;;;;-----------========******&&&&&&&&&%%%%%%%%%$$$$$$$$$$########@@@@@@@++@@++++++OOOOOOOOoooooooXo4CZZZZZZZZZFFFFFFFFFFFFFFFFFFFFZZZZZZZZZZZZZZZZZZZZFFFFFFFFFFFFFFFFFFFFZZZZZZZZZZZZZZZZZZZZ",
"ZZZZZZZZZZZZZZZZZZZZFFFFFFFFFFFFFFFFFFFFZZZZZZZZZZZZZZZZZZZZFFFFFFFFFFFFFFFFFFFFZZZZZZZZZZjassssssssssdddddddddffffffffgfgggggggggghhhhhhhhhhjjjjjjjjjjkkkkkkkklklkkllllllllzzzzzzzzzzzzxxxxxxxxxcxxcccccccccccvccvcvvvvvvvvvvvvvvvvbbbbbbbbbbbbbbbbbbbbbbnnbbnbnnnnnnnnnnnnnnnnnnnnnnnnnnnnnnnnnnnnbbnbnnnnbbbbbbbbbbbbbbbbbbbbbbbvvvvvvvvvvvvvvvvccccccccccccccccxxxxxxxxxxxzzzzzzzzzzzlllllllllllkkkkkkkkkkkjjjjjjjjjjhhhhhhhhhhgggggggggggfffffffffdfdddddddssssssssssaaaaaaaaapppppppppiiiiiiiuiuuuuuuuuuyyyyyyyyttttttttrrrrrrrrrrrereeeeeeewwwwwwwwqqqqqqqqq000000099999999999888888887777777776666666655555555444444444433333333322222222111111111<<<<<<<<,,,,,,,>>>>>>>>>>:::::::;;;;;;;;-----------========*********&&&&&&%%%%%%%%%%$$$$$$$$########@@@@@@@@+++@++++++OOOOOOOOOooooooooOhZZZZZZZZZFFFFFFFFFFFFFFFFFFFFZZZZZZZZZZZZZZZZZZZZFFFFFFFFFFFFFFFFFFFFZZZZZZZZZZZZZZZZZZZZ",
"ZZZZZZZZZZZZZZZZZZZZFFFFFFFFFFFFFFFFFFFFZZZZZZZZZZZZZZZZZZZZFFFFFFFFFFFFFFFFFFFFZZZZZZZZZbsasssssssssddddddddddffffffffggggggggggghhhhhhhhhhjjjjjjjjjjkkkkkkkkllllklllllllllzzzzzzzzzzzxxxxxxxxxccxccccccccccvvvcvvcvvvvvvvvvvvvvbvvbbbbbbbbbbbbbbbbbbbnbbnnnnnnnnnnnnnnnnnnnnnnnnnnnnnnnnnnnnnnnnnnnnnbnnnnbbbbbbbbbbbbbbbbbbbbbbbbbvvvvvvvvvvvvvvvvccccccccccccccccxxxxxxxxxxzzzzzzzzzzzllllllllkllkkkkkkkkkkkjjjjjjjjjjhhhhhhhhhhggggggggggffffffffffdfdddddddsssssssssaaaaaaaaapppppppppiiiiiiiuiiuuuuuuuuuyyyyyyyttttttttrrrrrrrrrrrereeeeeeewwwwwwwwqqqqqqqqqq00000099999999999888888888777777776666666655555555444444444433333333322222222111111111<<<<<<<<,,,,,,,>>>>>>>>>>:::::::;;;;;;;;-----------========*********&&&&&&%%%%%%%%%%%$$$$$$$#########@@@@@@@++++++++++OOOOOOOoOooooooooX=BZZZZZZZZFFFFFFFFFFFFFFFFFFFFZZZZZZZZZZZZZZZZZZZZFFFFFFFFFFFFFFFFFFFFZZZZZZZZZZZZZZZZZZZZ",
"ZZZZZZZZZZZZZZZZZZZZFFFFFFFFFFFFFFFFFFFFZZZZZZZZZZZZZZZZZZZZFFFFFFFFFFFFFFFFFFFFZZZZZZZZVdassssssssssdddddddfffffffffffgggggggggghhhhhhhhhhjjjjjjjjjjkkkkkkkkkkkllllllllllzzzzzzzzzzxxxxxxxxxxxcccccccccccccvccvccvvvvvvvvvvvvvvbbbbbbbbbbbbbbbbbbbbbbbbnnnnnnnnnnnnnnnnnnnnnnnnnnnnnnnnnnnnnnnnnnnnnnnnnnnbbbnnnnnbbbbbbbbbbbbbbbbbvvbvvvvvvvvvvvvccccvvvcccccccccxcccxxxxxxxxxzzzzzzzzzllllllllllkkkkkkkkkkkkkjjjjjjjjjjhhhhhhhhhhggggggggggffgfffffffdddddddddsssssssssaaaaaaaaaapppppppppiiiiiiiuuuuuuuuuyyyyyyyyyyttttttttttrrrrrrrrreeeeeeeewwwwwwwwqqqqqqqqq000000009999999999888888888777777766666666655555555544444444443333333322222222211111111<<<<<<<<,,,,,,,,,>>>>>>>>:::::::;;;;;;;;;--------===========********&&&&&&&&&%%%%%%%%$$$$$$$########@@@@@@@@@@++++++++OOOOOOOooooooooXoXXeZZZZZZZZFFFFFFFFFFFFFFFFFFFFZZZZZZZZZZZZZZZZZZZZFFFFFFFFFFFFFFFFFFFFZZZZZZZZZZZZZZZZZZZZ",
"ZZZZZZZZZZZZZZZZZZZZFFFFFFFFFFFFFFFFFFFFZZZZZZZZZZZZZZZZZZZZFFFFFFFFFFFFFFFFFFFFZZZZZZZZzaasssssssssddddddddfffffffffffgggggggggghhhhhhhhhjjjjjjjjjjkkkkkkkkkkklllllllllllzzzzzzzzzzxxxxxxxxxxccccccccccccccvvvvccvvvvvvvvvvvbvvbbbbbbbbbbbbbbbbbnbbbbbnnnnnnnnnnnnnnnnnnnnnnnnnnnnnnnnnnnnnnnnnnnnnnnnnnnnnnnnbnnnnnbbbbbbbbbbbbbbbvbbbvvvvvvvvvvvvccvvvvccccccccccccccxxxxxxxxxzzzzzzzzzllllllllllkklkkkkkkkkkkjjjjjjjjjjhhhhhhhhhhggggggggggfffffffffddfdddddddsssssssssaaaaaaaaapppppppipiiiiiiiuuuuuuuuuuyyyyyyyyttttttttttrrrrrrrrrreeeeeeeeewwwwwwwqqqqqqqqq000000009099999999988888888777777766666666655555555554444444443333333322222222211111111<<<<<<<<<,,,,,,,,>>>>>>>>:::::::;;;;;;;;;-;------===========********&&&&&&&&&%%%%%%%%$$$$$$$########@@@@@@@@@@++++++++OOOOOOOooooooooXooX@vZZZZZZZFFFFFFFFFFFFFFFFFFFFZZZZZZZZZZZZZZZZZZZZFFFFFFFFFFFFFFFFFFFFZZZZZZZZZZZZZZZZZZZZ",
"ZZZZZZZZZZZZZZZZZZZZFFFFFFFFFFFFFFFFFFFFZZZZZZZZZZZZZZZZZZZZFFFFFFFFFFFFFFFFFFFFZZZZZZZNsasssssssdsddddddddddfffffffffgggggggggghhhhhhhhhhjjjjjjjjjjkkkkkkkkkkkkklllllllllzzzzzzzzzzxxxxxxxxxxxxcccccccccccccvvcvvvvvvvvvvvvbbbbbbbbbbbbbbbbbbnnnnnnnnnnnnnnnnnnnnnnnnnnnnnnnnnnnnnnnnnnnnnnnnnnnnnnnnnnnnnnnnnnnnnnnnnnbbbbbbbbbbbbbbbbbbvvvvvvvvvvvccvvvccccccccccccccxxxxxxxxxzzzzzzzzzzzzllllllllkkkkkkkkkkkkkkkjjjjjjjjhhhhhhhhhhgggggggggffgfffffffdddddddddsssssssssaaaaaaaaaapppppppppiiiiiiiuuuuuuuuyyyyyyyyyyyttttttttrrrrrrrrrreeeeeeeeewwwwwwwwqqqqqqqqqq000000009999999898888888877777776666666665555555555444444444333333333222222221111111<<<<<<<<<,,,,,,,,>>>>>>>>>>:::::::::;;;;;;-;------=========********&&&&&&&&&&&%%%%%%%$$$$$$$$########@@@@@@@@@@@+++++++OOOOOOOoooooooooXXXX3CZZZZZZFFFFFFFFFFFFFFFFFFFFZZZZZZZZZZZZZZZZZZZZFFFFFFFFFFFFFFFFFFFFZZZZZZZZZZZZZZZZZZZZ",
"ZZZZZZZZZZZZZZZZZZZZFFFFFFFFFFFFFFFFFFFFZZZZZZZZZZZZZZZZZZZZFFFFFFFFFFFFFFFFFFFFZZZZZZZjaasssssssssdddddddddffffffffffggggggggghhhhhhhhhhjjjjjjjjjjkkkkkkkkkkkkkllllllllllzzzzzzzzzxxxxxxxxxxxxccccccccccvccvvvvvvvvvvvvvvvvbbbbbbbbbbbbbbbnnnnnnnnnnnnnnnnnnnnnnnnnnnnnnnnnnnnnnnnnnnnnnnnnnnnnnnnnnnnnnnnnnnnnnnnnnnnnnnbbbbbbbbbbbbbbbbbvvvvvvvvvvvvvvvccccccccccccccxxxxxxxxxxzzzzzzzzzzzzllllllllllkkkkkkkkkkkkjjjjjjjjhhhhhhhhhhggggggggggfgfffffffddddddddddsssssssssaaaaaaaaapppppppppiiiiiiiuuuuuuuuuyyyyyyyyyyttttttttrrrrrrrrrrreeeeeeeewwwwwwwqqqqqqqqqqq0000000009999999988888888777777766666666655555555555444444443333333332222222211111111<<<<<<<<,,,,,,,,>>>>>>>>>>:::::::::;;;;;;---------========*********&&&&&&&&&&%%%%%%%%$$$$$$$########@@@@@@@@@@@++++++++OOOOOOooOooooooXXXXojZZZZZZFFFFFFFFFFFFFFFFFFFFZZZZZZZZZZZZZZZZZZZZFFFFFFFFFFFFFFFFFFFFZZZZZZZZZZZZZZZZZZZZ",
"FFFFFFFFFFFFFFFFFFFFZZZZZZZZZZZZZZZZZZZZFFFFFFFFFFFFFFFFFFFFZZZZZZZZZZZZZZZZZZZZFFFFFFMsasssssssddddddddddddfffffffgggggggggggghhhhhhhhhjjjjjjjjjjkkkkkkkkkklllllllllllzzzzzzzzzzzxxxxxxxxxccccccccccccvccvvvvvvvvvvvvvvbbbbbbbbbbbbbbbbbbnbbbnnnnnnnnnnnnnnnnnnnnnnnmmmmmmmmmmmmmmmmmmmmmmmmmmnnnnnnnmmnnnnnnnnnnnnnnnnnbbbbbbbbbbbbbbbbbbbbvvvvvvvvvvvcvvcvcccccccccccccxxxxxxxxxzzzzzzzzzzlllllllllllllkkkkkkkkkjjkjjjjjjjhhhhhhhhhhggggggggggggffffffffddddddddsdsssssssaaaaaaaaaappppppiiiiiiiiiuuuuuuuuuyyuyyyyyytttttttttttrrrrrrrreeeeeeeeeewwwwwwwwqqqqqqq0q00000009999999989888888877777777766666666555555555444544444443333333322222222211111111<<<<<<,,,,,,,,,>>>>>>>>:>:::::::::;;;;;;-;;------=========*********&&&&&&&&%%%%%%%%$$$$$$$$########@@@@@@@@@@@++++++++OOOOOOOooooooooXoXXX;SFFFFFZZZZZZZZZZZZZZZZZZZZFFFFFFFFFFFFFFFFFFFFZZZZZZZZZZZZZZZZZZZZFFFFFFFFFFFFFFFFFFFF",
"FFFFFFFFFFFFFFFFFFFFZZZZZZZZZZZZZZZZZZZZFFFFFFFFFFFFFFFFFFFFZZZZZZZZZZZZZZZZZZZZFFFFFDgaasssssssdddddddddddfffffffgggggggggggghhhhhhhhhhjjjjjjjjjkkkkkkkkkkkllllllllllzzzzzzzzzzzxxxxxxxxxxcccccccccccvvccvvvvvvvvvvvvvbbbbbbbbbbbbbbbbnbbbbnnnnnnnnnnnnnnnnnnnnnnmnmmmmmmmmmmmmmmmmmmmmmmmmmmmmmmmmmnmmnnnnnnnnnnnnnnnnnnbbbbnbbbbbbbbbbbbbbbvvvvvvvvvvvvvvvcccccccccccccxxxxxxxxxxxzzzzzzzzzlllllllllllllkkkkkkkkkjjjjjjjjjjhhhhhhhhhggggggggggggffffffffdddddddddddsssssssaaaaaaaaapppppppiiiiiiiiiuuuuuuuuuyuyyyyyyytttttttttttrrrrrrreeereeeeeewwwwwwwqwqqqqqq0qq0000009999999999888888877777777766666666556555555444444444443333333322222222211111111<<<<<<<,,,,,,,,>>>>>>>>>>:::::::::;;;;;;;;;------==========********&&&&&&&&%%%%%%%%$$$$$$$$#########@@@@@@@@@+++++++++OOOOOOOooooooooooXXXXaFFFFFZZZZZZZZZZZZZZZZZZZZFFFFFFFFFFFFFFFFFFFFZZZZZZZZZZZZZZZZZZZZFFFFFFFFFFFFFFFFFFFF",
"FFFFFFFFFFFFFFFFFFFFZZZZZZZZZZZZZZZZZZZZFFFFFFFFFFFFFFFFFFFFZZZZZZZZZZZZZZZZZZZZFFFFFbaassssssssdddddddddddfffffffggggggggghghhhhhhhhhhjjjjjjjjjjkkkkkkkkkkllllllllllzzzzzzzzzzzxxxxxxxxxxxcccccccccccvvcccvvvvvvvvvvbbbbbbbbbbbbbbbbnnnnbnnnnnnnnnnnnnnnnmmmmmmmmmmmmmmmmmmmmmmmmmmmmmmmmmmmmmmmmmmmmmmmnnnnnnnnnnnnnnnnnnnnnnnnbbbbbbbbbbbbbbbvvvvvvvvvvvvvvccvcccccccccxxcxxxxxxxxzzzzzzzzzzzllllllllllkkkkkkkkkkjjjjjjjjjjhhhhhhhhhhgggggggggfggfffffffdddddddddsssssssssaaaaaaaaapppppppipiiiiiiiuuuuuuuuuyuyyyyyyyttttttttttrrrrrrrreerreeeeeewwwwwwwqwqqqqqqqqq00000000999999988888888888777777666666666565555554444444444433333333322222221111111<11<<<<<<,,,,,,,,,>,>>>>>>::::::::::;;;;;;;;;--------=========******&&&&&&&&&%%%%%%%%%%$$$$$$#########@#@@@@@@+++++++++++OOOOOOOOooooooooXXXX%CFFFFZZZZZZZZZZZZZZZZZZZZFFFFFFFFFFFFFFFFFFFFZZZZZZZZZZZZZZZZZZZZFFFFFFFFFFFFFFFFFFFF",
"FFFFFFFFFFFFFFFFFFFFZZZZZZZZZZZZZZZZZZZZFFFFFFFFFFFFFFFFFFFFZZZZZZZZZZZZZZZZZZZZFFFFAdaasssssssssdddddddddfffffffgggggggggggghhhhhhhhhjjjjjjjjjjkkkkkkkkkkllllllllllzzzzzzzzzzzxxxxxxxxxxxccccccccccccvvccvvvvvvvvvvbbbbbbbbbbbbbbbnnnnnnnnnnnnnnnnnnnnnnmmmmmmmmmmmmmmmmmmmmmmmmmmmmmmmmmmmmmmmmmmmmmmmmmmmmnnnnnnnnnnnnnnnnnnnnnbbbbbbbbbbbbbbbbvvvvvvvvvvvvccvvcccccccccxccxxxxxxxxzzzzzzzzzzlllllllllllkkkkkkkkkkjjjjjjjjjjhhhhhhhhhhgggggggggggfffffffddfdddddddsssssssssaaaaaaaaapppppppppiiiiiiiuiuuuuuuyyuyyyyyytttttttttrrrrrrrrreeeeeeeeeeewwwwwwwwqqqqqqqqq00000000999999988888888888777777667666666565555555444444444433333333322222221111111111<<<<<<,,,,,,,,,,,>>>>>>:::::::::::;;;;;;;;--------========*******&&&&&&&&&%%%%%%%%%%$$$$$$$#$######@#@@@@@@+++++++++++OOOOOOOOoooooooooXXXXqFFFFZZZZZZZZZZZZZZZZZZZZFFFFFFFFFFFFFFFFFFFFZZZZZZZZZZZZZZZZZZZZFFFFFFFFFFFFFFFFFFFF",
"FFFFFFFFFFFFFFFFFFFFZZZZZZZZZZZZZZZZZZZZFFFFFFFFFFFFFFFFFFFFZZZZZZZZZZZZZZZZZZZZFFFFzaasssssssssddddddddfffffffffffggggggggghhhhhhhhhhjjjjjjjjjkkkkkkkkkklllllllllllzlzzzzzzzzxxxxxxxxxccccccccccccccvvcvvvvvvvvvvbbbbbbbbbbbbbbbbbbnnnnnnnnnnnnnnnnnmmmmmmmmmmmmmmmmmmmmmmmmmmmmmmmmmmmmmmmmmmmmmmmmmmmmmmmmmmmnnnnnnnnnnnnnnnnbbbbbbbbbbbbbbbbbbbvvvvvvvvvvcccvvccccccccccccxxxxxxxxxxzzzzzzzzllllllllllllkkkkkkkkkkjjjjjjjjjhhhhhhhhhhggggggggggfgfffffffffdddddddsssssssssaaaaaaapapppppppppiiiiiiiuiuuuuuuuyuyyyyyyyyyttttttrrrrrrrrreeeereeeeewwwwwwwwwwqqqqqq00000000000999999988888888887777777676666665655555555544444444333333332222222211111111<<<<<<<<,,,,,,,,,,,>>>>>>:>:::::::;;;;;;;;;;---------======*=*********&&&&&&%%%%%%%%%%$$$$$$$$$######@#@@@@@@+@@++++++++OOOOOOOOoooooooXXXXXXOnFFFZZZZZZZZZZZZZZZZZZZZFFFFFFFFFFFFFFFFFFFFZZZZZZZZZZZZZZZZZZZZFFFFFFFFFFFFFFFFFFFF",
"FFFFFFFFFFFFFFFFFFFFZZZZZZZZZZZZZZZZZZZZFFFFFFFFFFFFFFFFFFFFZZZZZZZZZZZZZZZZZZZZFFFVsaasssssssssddddddddffffffffffgggggggggghhhhhhhhhjjjjjjjjjjkkkkkkkkkkkllllllllllzzzzzzzzzxxxxxxxxxccccccccccccccvvvvvvvvvvvvvbbbbbbbbbbbbbbbbbbbnnnnnnnnnnnnnnnmmmmmmmmmmmmmmmmmmmmmmmmmmmmmmmmmmmmmmmmmmmmmmmmmmmmmmmmmmmmmnnmnnnnnnnnnnnnnnnbbnnbbbbbbbbbbbbbbvvvvvvvvvvccvvcccccccccccccxxxxxxxxxzzzzzzzzzlllllllllkkklkkkkkkkkjjjjjjjjjjhhhhhhhhhhgggggggggffffffffffdfdddddddsssssssssaaaaaaaaapppppppppiiiiiiiiuuuuuuuuuyyyyyyyyytttttttrrrrrrrreerereeeeewwwwwwwwwwqqqqqqq0000000000999999988888888888777777776666666665555555544444444433333332222222211111111<<<<<<<<<,,,,,,,,,,>>>>>>:>>::::::;;;;;;;;-----------======*=*********&&&&&&%%%%%%%%%%%$$$$$$$$######@#@@@@@@@@@+++++++OOOOOOOOOoooooooXXXXXXX2DFFZZZZZZZZZZZZZZZZZZZZFFFFFFFFFFFFFFFFFFFFZZZZZZZZZZZZZZZZZZZZFFFFFFFFFFFFFFFFFFFF",
"FFFFFFFFFFFFFFFFFFFFZZZZZZZZZZZZZZZZZZZZFFFFFFFFFFFFFFFFFFFFZZZZZZZZZZZZZZZZZZZZFFFjaasssssssssdddddddddfffffffgffgggggggggghhhhhhhhjjjjjjjjjjkkkkkkkkkkkkllllllllzzlzzzzzzzxxxxxxxxxcccccccccccccccvvvvvvvvvvvvbvvbbbbbbbbbbbbbbbnnnnnnnnnnnnnnmmmmmmmmmmmmmmmmmmmmmmmmmmmmMMmmmmMMmmmmmmMmMmmmmmmmmmmmmmmmmmmmnmmmmnnnnnnnnnnnnnnnnnbbbbbbbbbbbbbbvvvvvvvvvvvvvvcccccccccccxccxxxxxxxxzzzzzzzzzzzllllllllkllkkkkkkkkkjjjjjjjjjjhhhhhhhhhggggggggggfffffffffdddddddddsssssssssaaaaaaaaapppppppppiiiiiiiuuuuuuuuuuuyyyyyyyttttttttttrrrrrrrrreeeeeeewwwwwwwwwwqqqqqqq0000000099999999988888888888777777766666666665555555544444444433333333222222211111111<<<<<<<<<,<,,,,,,,>>>>>>>>>>::::::;;;;;;;;;---------=======***********&&&&&&%%%%%%%%%%%$$$$$$$#######@#@@@@@@@@@++++++OOOOOOOOOoooooooooXXXXXXokFFZZZZZZZZZZZZZZZZZZZZFFFFFFFFFFFFFFFFFFFFZZZZZZZZZZZZZZZZZZZZFFFFFFFFFFFFFFFFFFFF",
"FFFFFFFFFFFFFFFFFFFFZZZZZZZZZZZZZZZZZZZZFFFFFFFFFFFFFFFFFFFFZZZZZZZZZZZZZZZZZZZZFFNaaasssssssssdddddddddfffffffgfgggggggggghhhhhhhhhjjjjjjjjjkkkkkkkkkklkklllllllzzlzzzzzzzzxxxxxxxxcccccccccccvcccvvvvvvvvvvvvvvvbbbbbbbbbbnnbbnnnnnnnnnnnnnnmmmmmmmmmmmmmmmmmmmmmmMMMMmmMMMMMMMmMMmmmmmmMMmmmMMmmmmmmmmmmmmmmmmmmmmmmmnnnnnnnnnnnnnnbbnbbbbbbbbbbbvvvvvvvvvvvvvvvcccccccccccxxxxxxxxxxxzzzzzzzzzzzlllllllkllkkkkkkkkkkjjjjjjjjjhhhhhhhhhhgggggggggfffffffffdddddddddsssssssssaaaaaaaaapppppppppiiiiiiiuiuuuuuuuuyyyyyyyyyytttttttttrrrrrrrreeeeeeewwwwwwwwwwwqqqqqq0000000009999999988888888888777777667666666665555555554444444433333333222222221111111<<1<<<<<<,<,,,,,,>>>>>>>>>>>::::::;;;;;;;;;---------========**********&&&&&&%%&%%%%%%%%$$$$$$###########@@@@@@@@++++++OOOOOOOOOOoooooooooXXXXXX;SFZZZZZZZZZZZZZZZZZZZZFFFFFFFFFFFFFFFFFFFFZZZZZZZZZZZZZZZZZZZZFFFFFFFFFFFFFFFFFFFF",
"FFFFFFFFFFFFFFFFFFFFZZZZZZZZZZZZZZZZZZZZFFFFFFFFFFFFFFFFFFFFZZZZZZZZZZZZZZZZZZZZFDgaasssssssssdddddddddffffffffffggggggghghhhhhhhhhjjjjjjjjjjkkkkkkkkkkllllllllllzzzzzzzzzzxxxxxxxxxcccccccccccvvvvvvvvvvvvvvbbbbbbbbbbbbbbnnbbnnnnnnnnnnnnnmmmmmmmmmmmmmmmmmmmmmmMMmmmmmMMMMmmmmmmmmMMMmMMMmmmmMMmmmmmmmmmmmmmmmmmmmmmmmmnnnnnnnnnnnnbbnnbbbbbbbbbbbbbbvvvvvvvvvvvvccccccccccccxcxxxxxxxxzzzzzzzzzzllllllllkkkkkkkkkkkkjjjjjjjjjjhhhhhhhhhggggggggggfffffffffdddddddddsssssssssaaaaaaaaapppppppppiiiiiiiiiuuuuuuuuyyyyyyytttttttttrrrrrrrrrrreeeeeeeeeewwwwwqqqqqqqqq0q000000009999999898888888877777776666666666555555554444444443333333332222222211111111<<<<<<<,<,,,,,,,>>>>>>>>:::::::::;;;;;;;;---------========*=********&&&&&&&%&%%%%%%%%$$$$$$$########@@@@@@@@@@+++++++++OOOOOOOOooooooooXXXXXXXdFZZZZZZZZZZZZZZZZZZZZFFFFFFFFFFFFFFFFFFFFZZZZZZZZZZZZZZZZZZZZFFFFFFFFFFFFFFFFFFFF",
"FFFFFFFFFFFFFFFFFFFFZZZZZZZZZZZZZZZZZZZZFFFFFFFFFFFFFFFFFFFFZZZZZZZZZZZZZZZZZZZZFnaaasssssssssdddddddddffffffffgggggggghhhhhhhhhhhhjjjjjjjjjkkkkkkkkkkllllllllllzzzzzzzzzzxxxxxxxxxxccccccccccccvvvvvvvvvvvvbbbbbbbbbbbbbnnnnnnnnnnnnnnnnmmmmmmmmmmmmmmmmmMMmmmmmmmMmmmMMMMMmmmmmMmmMMMMmMMMMmmmMMMmmmmmmmmmmmmmmmmmmmmmnnmmnnnnnnnnnnnnnnnnbbbbbbbbbbbbbvvvvvvvvvvvvcccccccccccxxcxxxxxxxxzzzzzzzllzllllllllllkkkkkkkkkkjjjjjjjjjhhhhhhhhhhhggggggggfffffffffdddddddddsssssssssaaaaaaaaapppppppppiiiiiiiiiuuuuuuuuuyyyyyytttttttttrrrrrrrrrrreeeeeeeeeewwwwwwqqqqqqqq0000000000999999989888888888777777666666666665555555444444444433333333222222222111111<<<<<<<<,<,,,,,,,>>>>>>>>:::::::::;;;;;;;;---------========**********&&&&&&&%&%%%%%%%%$$$$$$$#########@@@@@@@@@+++++++++OOOOOOOOooooooooXXXXXXX&AZZZZZZZZZZZZZZZZZZZZFFFFFFFFFFFFFFFFFFFFZZZZZZZZZZZZZZZZZZZZFFFFFFFFFFFFFFFFFFFF",
"FFFFFFFFFFFFFFFFFFFFZZZZZZZZZZZZZZZZZZZZFFFFFFFFFFFFFFFFFFFFZZZZZZZZZZZZZZZZZZZZSfaasssssssssdddddddddffffffffffggggggggghhhhhhhhhjjjjjjjjjjkkkkkkkkkkkklllllllllzzzzzzzzxxxxxxxxcccccccccccccccvvvvvvvvvvvvbbbbbbbbbbbbnnnnnnnnnnnnnnnnmmmmmmmmmmmmmmmmMMMMmmmMMmMMmMMMMMMMMMMMMMMMMMMMMMMMMMmMMMMMMMMmmmmmmMmmmmmmmmmmmmmmmmnnnnnnnnnnnbnnnbbbbbbbbbbbbbvvvvvvvvvvvvcccccccccccxxxxxxxxxxzzzzzzzzlzzlllllllkkkkkkkkkkkkjjkjjjjjjjhhhhhhhhhhhgggggggffffffffffdddddddddsssssssssaaaaaaaaappppppppiiiiiiiuuuuuuuuuuuyyyyyyytyttttttrrrrrrrrrrreeeeeeeeeewwwwwqqqqqqqqq0000000009099999999888888888777777666666666655555554444444444433333333222222211111111<<<<<<<<<<<,,,,,,,,>>>>>>::::::::::;;;;;;;;--------========*********&*&&&&&&&&%%%%%%%%$$$$$$$$#########@@@@@@@++++++++++OOOOOOOoooooooXXXXXXXXXXuZZZZZZZZZZZZZZZZZZZZFFFFFFFFFFFFFFFFFFFFZZZZZZZZZZZZZZZZZZZZFFFFFFFFFFFFFFFFFFFF",
"FFFFFFFFFFFFFFFFFFFFZZZZZZZZZZZZZZZZZZZZFFFFFFFFFFFFFFFFFFFFZZZZZZZZZZZZZZZZZZZZvaaasssssssssdddddddddfffffffffggggggggghhhhhhhhhjjjjjjjjjjkkkkkkkkkkkklllllllllzzzzzzzzzxxxxxxxccccccccccccccccvvvvvvvvvvvvbbbbbbbbbbbbnnnnnnnnnnnnnnmmmmmmmmmmmmmmmmmmmMMMmmmMmmMMMMMMMMMMMMMMMMMMMMMMMMMMMMMMMMMMMMMMMMmmMMMMMmmmmmmmmmmmmmmnnnnnnnnnnnnnnnbbbbbbbbbbbbbvvvvvvvvvvvccccccccccccxxxxxxxxxxzzzzzzzzzzllllllllkkkkkkkkkkkkkkjjjjjjjhhhhhhhhhhgggggggggffffffffffddddddddsssssssssaaaaaaaaapppppppppiiiiiiuuuuuuuuuuuyyyyyyytytttttttrrrrrrrrrreeeeeeeeewwwwwwwqqqqqqqq0000000009099999999888888888777777666666666655555555444544444433333333222222222111111<<<<<<<<<<<,,,,,,,>>>>>>>>::::::::::;;;;;;---------========*********&*&&&&&&&&%%%%%%%%%$$$$$$$$########@@@@@@@@+++++++++OOOOOOOooooooooXXXXXXXX.#MZZZZZZZZZZZZZZZZZZZFFFFFFFFFFFFFFFFFFFFZZZZZZZZZZZZZZZZZZZZFFFFFFFFFFFFFFFFFFFF",
"FFFFFFFFFFFFFFFFFFFFZZZZZZZZZZZZZZZZZZZZFFFFFFFFFFFFFFFFFFFFZZZZZZZZZZZZZZZZZZZBdaaassssssssddddddddddffffffggfgggggggggghhhhhhhhjjjjjjjkkkkkkkkkkkkllllllllllzzzzzzzzzzxxxxxxxxcccccccccccccvvvvvvvvvvvvbbbbbbbbbbbbnnbnnnnnnnnnnnnmmmmmmmmmmmmmmmmmmmmMMmmmmMMMMMMMMMMMMMMMMMMMMMMMMMMMMMMMMMMMMMMMMMMMMmmmMmmMMmmmmmmmmmmmmmmmnnnnnnnnnnnbbbbbbbbbbbbbvvvvvvvvvvvvvcccccccccccccxcxxxxxxxxzzzzzzzzzzllllllllllkkkkkkkkkjjjjjjjjjjhhhhhhhhhggggggggggggffffffdddddddddsssssssssaaaaaaaaapppppppppiiiiiiiuuuuuuuuuyuyyyyyyyyttttttttrrrrrrrrreeeeeeeeewwwwwwwwwqqqqqq0000000009099999999988888887777777777666666555555555554444444433333332322222222111111<<<<<<<<<<<,,,,,,,,>>>>>>>>:::::::::;;;;;;;;;--------======*********&&&&&&&&&&%%%%%%%$$$$$$$$$$########@@@@@@@@@++++++++OOOOOOoooooooooXXXXXXXX..9ZZZZZZZZZZZZZZZZZZZFFFFFFFFFFFFFFFFFFFFZZZZZZZZZZZZZZZZZZZZFFFFFFFFFFFFFFFFFFFF",
"FFFFFFFFFFFFFFFFFFFFZZZZZZZZZZZZZZZZZZZZFFFFFFFFFFFFFFFFFFFFZZZZZZZZZZZZZZZZZZZlaaasssssssssdddddddddfffffffggggggggggghhhhhhhhhjjjjjjjjkkkkkkkkkkkllllllllllzlzzzzzzzzxxxxxxxxccccccccccvccvvvvvvvvvvvvbbbbbbbbbbbbnnnnnnnnnnnnnnmmmmmmmmmmmmmmMmmmmMMMMMmMMMMMMMMMMMMMMMMMMMMMMMMMMMMMMMMMMMMMMMMMMMMMMMMmmMMMMMmmmmmmmmmmmmmmmmmnnnnnnnnnnnbbnbbbbbbbbbvvbvvvvvvvvvcccvvccccccccxccxxxxxxxxzzzzzzzzzzlllllllllkkkkkkkkkkjjjjjjjjjhhhhhhhghhggggggggggffffffffdddddddddsssssssssaaaaaaaaappppppppiiiiiiiuuuuuuuuuyuyyyyyyyyytttttttrrrrrrrrreeeeeeeeeewwwwwwwwqqqqqqq0000000099999999999888888877777777776666666555555555544444444333333333222222221111111<<<<<<<<<<,,,,,,,,,>>>>>>>>::::::::;;;;;;;;;--------=======********&&&&&&&&&&%%%%%%%$$$$$$$$$$#########@@@@@@@@++++++++OOOOOOOooooooooXXXXXXXX..OvZZZZZZZZZZZZZZZZZZFFFFFFFFFFFFFFFFFFFFZZZZZZZZZZZZZZZZZZZZFFFFFFFFFFFFFFFFFFFF",
"FFFFFFFFFFFFFFFFFFFFZZZZZZZZZZZZZZZZZZZZFFFFFFFFFFFFFFFFFFFFZZZZZZZZZZZZZZZZZZNsaaasssssssssddddddddffffffffggggggggggghghhhhhhhjjjjjjjjkkkkkkkkkkllllllllllzzzzzzzzzzxxxxxxxxcccccccccccvvvvvvvvvvvvvvvbbbbbbbbbbbnnnnnnnnnnnnnnmmmmmmmmmmmmMMmMMMMmMMMMMMMMMMMMMMMMMMMMMMMMMMMMMMMMMMMMMMMMMMMMMMMMMMMMMMMMmMMMMMmmmMMmmmmmmmmmmmmnnnnnnnnnnnnnnbbbbbbbbbbbbvvvvvvvvvvvcvcccccccccccxxxxxxxxzzzzzzzzzzllllllllllllkkkkkkkkjjjjjjjjjhhhhhhhhhgggggggggfffffffffffddddddddssssssssaaaaaaapappppppppiiiiiiiiiuuuuuuuyyyyyyyyyttttttttttrrrrrrrrrrreeeeeeewwwwwwwwwqqqqqqq00000000999999999988888888777777776666666655555555555544444443333333322222222211111111<<<<<<,<,,,,,,,>,>>>>>>>::::::::;;;;;;;;;;--------========*******&&&&&&&&&&&%%%%%%%%$$$$$$#########@@@@@@@@@@+@++++++OOOOOOOoooooooooXXXXXXX...4ZZZZZZZZZZZZZZZZZZFFFFFFFFFFFFFFFFFFFFZZZZZZZZZZZZZZZZZZZZFFFFFFFFFFFFFFFFFFFF",
"FFFFFFFFFFFFFFFFFFFFZZZZZZZZZZZZZZZZZZZZFFFFFFFFFFFFFFFFFFFFZZZZZZZZZZZZZZZZZZkaaasssssssssdddddddddfffffffggggggggggghhhhhhhhhjjjjjjjjjkkkkkkkkllllllllllllzzzzzzzzzzxxxxxxxxccccccccccvvvvcvvvvvvvvvvvbbbbbbbbbbnnnnnnnnnnnnnnmmmmmmmmmmmmMMMMMMMMMMMMMMMMMMMMMMMMMMMMMMMMMMMMMMMMMMMMMMMMMMMMMMMMMMMMMMMMMMMMmMMMMmmMMMmmmmmmmmmmmmnnnnnnnnnnnnnbbbbbbbbbbbvvvvvvvvvvvvvvvcccccccccxxxxxxxxxzzzzzzzllllllllllllllkkkkkkkkjkjjjjjjjhhhhhhhhhhgggggggggfffffffffffdddddddsssssssssaaaaaapppppppppppiiiiiiiiiuuuuuuyyyyyyyyyttttttttttrrrrrrrrrrrreeeeeewwwwwwwwwqqqqqqqq0000000999999998988888888777777766666666655555555555444444443333333322222221211111111<<<<<<,,,,,,,,,>>>>>>>>>::::::::;;;;;;;;-;---------========******&&&&&&&&&&&%%%%%%%%$$$$$$#########@@@@@@@@@@+@++++O++OOOOOOoooooooooXXXXXXXX..oxZZZZZZZZZZZZZZZZZFFFFFFFFFFFFFFFFFFFFZZZZZZZZZZZZZZZZZZZZFFFFFFFFFFFFFFFFFFFF",
"FFFFFFFFFFFFFFFFFFFFZZZZZZZZZZZZZZZZZZZZFFFFFFFFFFFFFFFFFFFFZZZZZZZZZZZZZZZZZNsaaasssssssssdddddddddfffffffffggggggggghghhhhhhhjjjjjjjjjkkkkkkkkkkkklllllllzzzzzzzzzzxxxxxxxxxxcccccccccccccvvvvvvvvvbbbbbbbbbbbbbbbnnnnnnnnmnmmmmmmmmmmmmmmmmmmmmmMMMMMMMMMMMMMMMMMMMMMMMMMMNNMNNNNNNMMMMMMMMMMMMMMMMMMMMMMMMMMMMMMmmmmmmmmmmmmmmmmmmmnnnnnnnnnnnbbbbbbbbbbbbbbvvvvvvvvvcccccccccccccxxxxxxxxxxzzzzzzzzzllllllllllklkkkkkkkkjjjjjjjjjhhhhhhhgggggggggggggfffffffffdddddddsssssssssaaaaaaaaapppppppppiiiiiiuuuuuuuuuuuyyyyyyttttttttttrrrrrrrrrreeeeeeeewwwwwwwqqqqqqqq0000000009999999999988888888777777777666666665555554444444444433333333222222222111111<<<<<<<<<<<,,,,,,>>>>>>>>>::::::::::;;;;;;;;-------========*********&*&&&&&&%%%%%%%%%%$$$$$$$$$#######@@@@@@@@++++++++++OOOOOOOOooooooooXXXXXXXXX.2CZZZZZZZZZZZZZZZZFFFFFFFFFFFFFFFFFFFFZZZZZZZZZZZZZZZZZZZZFFFFFFFFFFFFFFFFFFFF",
"FFFFFFFFFFFFFFFFFFFFZZZZZZZZZZZZZZZZZZZZFFFFFFFFFFFFFFFFFFFFZZZZZZZZZZZZZZZZZjaaasssssssssdddddddddfffffffffgggggggggghhhhhhhhjjjjjjjjjkkkkkkkkkkkkllllllllzzzzzzzzzxxxxxxxxxxcccccccccccccvvvvvvvvvbbbbbbbbbbbbnbbnnnnnnnnnmmmmmmmmmmmmmmmMMmmmmMMMMMMMMMMMMMMMMMMMMNNMMMNNNNMMNNNNNNMMMMNNNNNMMMMMMMMMMMMMMMMMMMMMmmmmMmmMmmmmmmmmmmmmnnnnnnnnnnbbbbbbbbbbbbbbbvvvvvvvvvccccccccccccxxxxxxxxxxxxzzzzzzzzllllllllkkkkkkkkkkkjjjjjjjjjhhhhhhhhgggggggggggfgfffffffddddddddsssssssssaaaaaaaaapppppppppiiiiiiuuuuuuuuuuuyyyyyyytttttttttrrrrrrrrrreeeeeeeeewwwwwwwqqqqqqqq00000000999999999988888888877777777766666655555555544444444443333333332222222211111111<<<<<<<<<,,,,,,>>>>>>>>>::::::::::;;;;;;-;;------========*********&&&&&&&&%%%%%%%%%%$$$$$$$#$#######@@@@@@@@++++++++++OOOOOOOOooooooooXXXXXXXXX.XlZZZZZZZZZZZZZZZZFFFFFFFFFFFFFFFFFFFFZZZZZZZZZZZZZZZZZZZZFFFFFFFFFFFFFFFFFFFF",
"FFFFFFFFFFFFFFFFFFFFZZZZZZZZZZZZZZZZZZZZFFFFFFFFFFFFFFFFFFFFZZZZZZZZZZZZZZZZMaaaasssssssssddddddddffffffffffggggggggghhhhhhhhhjjjjjjjjjkkkkkkkkkllklllllllzzzzzzzzzzxxxxxxxcxcccccccccccvvcvvvvvvvvvbbbbbbbbbbbbnnnnnnnnnnnmmmmmmmmmmmmmmmMMMMMMMMMMMMMMMMMMMMMMNNNNNNNNMNNNNNNNNNNNNNNMNNNNNNNNNNNNNMMMMMMMMMMMMMMMMMMMMMMMMMmmmmmmmmmmmmnnnnnnnnnbnnbbbbbbbbbbbvvvvvvvvvccvvvccccccccxcxxxxxxxxzzzzzzzzzzlllllllkkkkkkkkkkkkjjjjjjjjjhhhhhhhhhgggggggggfffffffffdddddddddsssssssssaaaaaaaappppppppiiiiiiiiuuuuuuuuuuyyyyyyyyttttttttrrrrrrrreeeeeeeeeeewwwwwwwwwqqqqqq0000000099999999988888888888777777666666665565555555544444444333333333222222221111111<<<<<<<<<,,,,,,,,>>>>>>>>>:::::::;;;;;;;;;-;--------======**********&&&&&&&&&%%%%%%%%%$$$$$$########@@@@@@@@@+++@++++++OOOOOOoooooooooooXXXXXXXX..<CZZZZZZZZZZZZZZZFFFFFFFFFFFFFFFFFFFFZZZZZZZZZZZZZZZZZZZZFFFFFFFFFFFFFFFFFFFF",
"FFFFFFFFFFFFFFFFFFFFZZZZZZZZZZZZZZZZZZZZFFFFFFFFFFFFFFFFFFFFZZZZZZZZZZZZZZZZjaaaassssssdsdddddddddfffffffffggggggggghhhhhhhhhjjjjjjjjjkkkkkkkkllllllllllllzzzzzzzzzxxxxxxxxxxccccccccccvvvvvvvvvvvvbbbbbbbbbbnbbnnnnnnnnnnmmmmmmmmmmMmmmMmMMMMMMMMMMMMMMMMMMMNNNNNNNNNNNNNNNNNNNNNNNNNNNNNNNNNNNNMNNNNNNMMMMMMMMMMMMMMMMMMMMMMmmmmmmmmmmmmmnnnnnnnnnnnnbbbbbbbbbbvvvvvvvvvvcvvvvccccccccccxxxxxxxxzzzzzzzzzlllllllkklkkkkkkkkkjjjjjjjjjhhhhhhhhhgggggggggfffffffffddfddddddsssssssssaaaaaaaaappppppppiiiiiiiuuuuuuuuuuyyyyyyyyttttttttrrrrrrrrreeeeeeeeeewwwwwwwwwqqqqqq0000000009999999988888888888777777666666666565555555544444444433333333222222221111111<<<<<<<<<,,,,,,,,>>>>>>>>>:::::::;;;;;;;;;-;--------=======**********&&&&&&&&%%%%%%%%%$$$$$$########@@@@@@@@@+++@++++++OOOOOOoooooooooooXXXXXXXX..XkZZZZZZZZZZZZZZZFFFFFFFFFFFFFFFFFFFFZZZZZZZZZZZZZZZZZZZZFFFFFFFFFFFFFFFFFFFF",
"ZZZZZZZZZZZZZZZZZZZZFFFFFFFFFFFFFFFFFFFFZZZZZZZZZZZZZZZZZZZZFFFFFFFFFFFFFFFBaaaasssssssssddddddddffffffffggggggggggghhhhhhhhhjjjjjjjjjkkkkkkkkkllllllllllzzzzzzzzzxxxxxxxxccccccccccccvvvvvvvvvvvbbbbbbbbbbbbbbnnnnnnnnnmmmmmmmmmmmMmmmMMMMMMMMMMMMMMMMMMMNNNNNNNNNNNNNNNNNNNNNNNNNNNNNNNNNNNNNNNNNNNNNNMMMMMMMMMMMMMMMMMMmmMMmmmmmmmmmmmmmmnnnnnnnnnnnnbbbbbbbbbbvvvvvvvvvvvvccvcccccccccxxxxxxxxzzzzzzzzlllllllllkkkkkkkkkkkkjjjjjjjjjhhhhhhhhhgggggggggfffffffffdddddddddssssssssaaaaaaaaapppppppppiiiiiiuuuuuuuuuuyyyyyyyyyyttttttrrrrrrrrrerrreeeeeewwwwwwwwwqqqqqqqq00000000099999988888888888777777666666666555555555544444444433333333222222222111111<<<<<<<<<,,,,,,,,,,>>>>>>:::::::::;;;;;;;;--------=-=======**********&&&&&&&&%%%%%%%%$$$$$$$$#######@@@@@@@@@@@++++++++OOOOOOoooooooooXXXXXXXX.X...,DFFFFFFFFFFFFFFZZZZZZZZZZZZZZZZZZZZFFFFFFFFFFFFFFFFFFFFZZZZZZZZZZZZZZZZZZZZ",
"ZZZZZZZZZZZZZZZZZZZZFFFFFFFFFFFFFFFFFFFFZZZZZZZZZZZZZZZZZZZZFFFFFFFFFFFFFFFjaaaasssssssssddddddfddffffffggggggggghghhhhhhhhhjjjjjjjjjkkkkkkkkkklllllllllllzzzzzzzzxxxxxxxccccccccccvccvvvvvvvvvvbbbbbbbbbbbnbnnnnnnnnnnmmmmmmmmmmMMMmMmMMMMMMMMMMMMMMMMNNNNNNNNNNNNNNNNNNNNNNNNNNNNNNNNNNNNNNNNNNNNNNNNNMMMMNNMMMMMMMMMMMMMMMMMMmmmmmmmmmmmmmnnnnnnnnnnnnbbbbbbbbbbbvvvvvvvvvvvcvcccccccccxxxxxxxxxzzzzzzzzllllllllkllkkkkkkkkkjjjjjjjjjhhhhhhhhhgggggggggfffffffffdddddddddsssssssssaaaaaaaapppppppppiiiiiiiuuuuuuuuuyyyyyyyyyyttttttrrtrrrrrrerrreeeeeeewwwwwwwwqqqqqqq000000000099999998988888888777777767666666555555555554444444433333333222222222111111<<<<<<<<<,,,,,,,,,,>>>>>>:::::::::;;;;;;;;--------=--======**********&&&&&&&&%%%%%%%%$$$$$$$$########@#@@@@@@@@++++++++OOOOOOOooooooooXoXXXXXX.X...XlFFFFFFFFFFFFFFZZZZZZZZZZZZZZZZZZZZFFFFFFFFFFFFFFFFFFFFZZZZZZZZZZZZZZZZZZZZ",
"ZZZZZZZZZZZZZZZZZZZZFFFFFFFFFFFFFFFFFFFFZZZZZZZZZZZZZZZZZZZZFFFFFFFFFFFFFFBaaaaassssssssddddddddffffffffffggggggggghhhhhhhhhjjjjjjjjjkkkkkkkkkkklllllllzzzzzzzzzzxxxxxxxccccccccccvccccvvvvvvvvvbbbbbbbbbbnnnnnnnnnnnnmmmmmmmmmmmmmmMmmMMMMMMMMMMMMMMMMMNNNNNNNNNNNNNNNNNNNNNNNNNNNNNNNNNNNNNNNNNNNNNNNNNNNNNNNNMMMMMMMMMMMMMmMMMmmmMmmmmmmmmmnnnnnnnnnbnnbbbbbbbbbbbvvvvvvvvccvvvcccccccccxxxxxxxxzzzzzzzzzzlllllllllkkkkkkkkkjjjjjjjjjjhhhhhhhhhgggggggggggffffffdddddddddddsssssssaaaaaaaapppppppppiiiiiiiuuuuuuuuuyyyyyyyyyttttttttrtrrrrrrrreeeeeeewwwwwwwwwqqqqqqqqq00000000999999999988888888777777777666666555555555554444444433333333322222212111111<<<<<<<<<,,,,,,,,,,>>>>>>::>::::::;;;;;;;;;----------========******&&&&&&&&&&&%%%%%%%$$$$$$$$$#########@@@@@@@@@+++++++OOOOOOOooooooooXXXXXXXX.X....>DFFFFFFFFFFFFFZZZZZZZZZZZZZZZZZZZZFFFFFFFFFFFFFFFFFFFFZZZZZZZZZZZZZZZZZZZZ",
"ZZZZZZZZZZZZZZZZZZZZFFFFFFFFFFFFFFFFFFFFZZZZZZZZZZZZZZZZZZZZFFFFFFFFFFFFFFhaaaasssssssssddddddddfffffffffggggggggghhhhhhhhhjjjjjjjjjkkkkkkkkkkkklllllllzzzzzzzzzxxxxxxxxccccccccccvvvvcvvvvvvvvbvbbbbbbbbnnnnnnnnnnnnmmmmmmmmmmmmmMMMmMMMMMMMMMMMMNNMMMNNNNNNNNNNNNNNNNNNNNNNNNNNNNNNNNNNNNNNNNNNNNNNNNNNNNNNNNNMMMMMMMMMMMMMMMMMMmMMMmmmmmmmmmnnnnnnnnnnnnbbbbbbbbbbvvvvvvvvvcccccccccccccxxxxxxxxxzzzzzzzzzllllllllllkkkkkkkkkjjjjjjjjjhhhhhhhhhgggggggggggfffffffdddddddddddssssssaaaaaaaaapppppppppiiiiiiuiuuuuuuuyyyyyyyyttyttttttrtrrrrrrrrrrreeeewwwwwwwwwqqqqqqqqq00000000999999999988888888877777777666666555555555554444444433333333322222211111111<11<<<<<<,,,,,,,,>>>>>>>>>:>::::::;:;;;;;;---------=-========******&&&&&&&&&&&%%%%%%%$$$$$$$$$$########@@@@@@@@@++++++++OOOOOOooooooooXoXXXXXX.XX...XkFFFFFFFFFFFFFZZZZZZZZZZZZZZZZZZZZFFFFFFFFFFFFFFFFFFFFZZZZZZZZZZZZZZZZZZZZ",
"ZZZZZZZZZZZZZZZZZZZZFFFFFFFFFFFFFFFFFFFFZZZZZZZZZZZZZZZZZZZZFFFFFFFFFFFFFBaaaaasssssssssddddddddfffffffffggggggggghhhhhhhhhjjjjjjjjjkkkkkkkkkllllllllllzzzzzzzzzxxxxxxxxxccccccccvcvvvvvvvvvvvbbbbbbbbbbbnnnnnnnnnnnmmmmmmmmmMmmmMMMMMMMMMMMMMMMNNMMMNNNNNNNNNNNNNNNNNNNNNNNNNNNNNNNNNNNNNNNNNNNNNNNNNNNNNNNNNNNNNNNMMMMMMMMMMMMmmmMmmmmmmmmmmmmnnnnnnnnnnnnbbbbbbbbvbbvvvvvvvvvvvccccccccccxxxxxxxxzzzzzzzzlllllllllkkkkkkkkkkkjjkjjjjjjhhhhhhhhhgggggggggfgfffffffdddddddddsssssssssaaaaaaaapppppppiiiiiiiiiiiuuuuuuyyyyyyyyyytttttttrrrrrrrrrrreeeeeeeeewwwwwwwwqqqqqqq00000000009999999988888887877777777666666655555555444444444443333333322222211111111111<<<<<<,,,,,,,,,,>>>>>>>::::::::;:;;;;;;;---------=========*********&&&&&&&&%%%%%%%%$$$$$$$$$########@@@@@@+++++++++++OOOOOOoOooooooXXXXXXXXX......>DFFFFFFFFFFFFZZZZZZZZZZZZZZZZZZZZFFFFFFFFFFFFFFFFFFFFZZZZZZZZZZZZZZZZZZZZ",
"ZZZZZZZZZZZZZZZZZZZZFFFFFFFFFFFFFFFFFFFFZZZZZZZZZZZZZZZZZZZZFFFFFFFFFFFFFjaaaasssssssssdddddddddfffffffffgggggggghhhhhhhhhjjjjjjjkjkkkkkkkkkllllllllllzzzzzzzzzxxxxxxxccxcccccccccvvvvvvvvvvvbbbbbbbbbbnbbnnnnnnnnnmmmmmmmmmMMmMMMMMMMMMMMMMMMNNNNNNNNNNNNNNNNNNNNNNNNNNBBBBNNNNNNNNBBBBNBBBBNNNNNNNNNNNNNNNNNNNNNNNMNMMMMMMMMMMMMmMMmmmmmmmmmmmnnnnnnnnnnbnnbbbbbbbbvbbvvvvvvvvvvccccccccccxxxxxxxxxzzzzzzzlllllllllkklkkkkkkkkkjkjjjjjjjhhhhhhhhhgggggggggggffffffdddddddddsssssssssaaaaaaaaappppppiiiiiiiiiiiuuuuuuyyyyyyyyyytttttttttrrrrrrrrreeeeeeeeeewwwwwwwqqqqqqq00000000009999999998888887877777777666666665555555444444444443333333322222211111111111<<<<<<,,,,,,,,,,,>>>>>>>:::::::;:;;;;;;;---------=========*********&&&&&&&&%%%%%%%$$$$$$$$$$########@@@@@@+++++++++++OOOOOOoOooooooXXXXXXXXX.......lFFFFFFFFFFFFZZZZZZZZZZZZZZZZZZZZFFFFFFFFFFFFFFFFFFFFZZZZZZZZZZZZZZZZZZZZ",
"ZZZZZZZZZZZZZZZZZZZZFFFFFFFFFFFFFFFFFFFFZZZZZZZZZZZZZZZZZZZZFFFFFFFFFFFFVaaaaasssssssssdddddddddffffffggggggggggghhhhhhhhhjjjjjjjjkkkkkkkkklllllllllllzzzzzzzzzxxxxxxxccccccccccccvvvvvvvvvvbbbbbbbbbbbnbnnnnnnnnnmmmmmmmmmmMMMMMMMMMMMMMMMMMNNNNNNNNNNNNNNNNNNNNNBBBBNNBBBBBBNBNNBBBBBBNNBBBBNNBBNNNNNNNNNNNNNNNNNNMMNNMMMMMMMMMMMmMMmmMmmmmmmmmmnnnnnnnnnbnnbbbbbbbbbbvvvvvvvvvvccccccccccxxxxxxxxxxzzzzzzzlzlllllllllkkkkkkkkkjjjjjjjjjhhhhhhhhhghgggggggggfffffffdddddddddssssssssaaaaaaaaappppppippiiiiiiuuuuuuuuuyyyyyyyyyttttttttttrrrrrrereeeeeeeeeewwwwwwqqqqqqqq000000009999999999988888888777777677666666665555555544444444433333332222222222111111<<<<<<<<,,,,,,,,,,,>>>>>>>:::::::;;:;;;;;;;;--------=========******&&&&&&&&&&%%%%%%%$$$$$$$$$$########@@@@@@@+@@+++++++OOOOOOoOooooooXooXXXXXX.......,FFFFFFFFFFFFZZZZZZZZZZZZZZZZZZZZFFFFFFFFFFFFFFFFFFFFZZZZZZZZZZZZZZZZZZZZ",
"ZZZZZZZZZZZZZZZZZZZZFFFFFFFFFFFFFFFFFFFFZZZZZZZZZZZZZZZZZZZZFFFFFFFFFFFFkaaaaassssssssdddddddddffffffffgggggggggghhhhhhhhjjjjjjjkkkkkkkkkkkllllllllllzzzzzzzzzxxxxxxxxcccccccccccvvvvvvvvvvvbbbbbbbbbbnnnnnnnnnnnmmmmmmmmmmmMMMMMMMMMMMMMMMMNNNNNNNNNNNNNNNNNNNBNNBBBBNNBBBBBBBBBBBBBBBBBBBBBBNNBBBBNNNNNNNNNNNNNNNNNNNNNNMMMMMMMMMMMMMmMMmmmmmmmmmnnnnnnnnnnnbbbbbbbbbbvvvvvvvvvvvccccccccccxcxxxxxxxzzzzzzzzzlllllllkllkkkkkkkkkjjjjjjjjjhhhhhhhhhgggggggggffffffffdddddddddsssssssssaaaaaaappppppppppiiiiiiuuuuuuuuuyuyyyyyyytyttttttttrrrrrrrrrereeeeeeewwwwwwqqqqqqqq000000009999999999988888887777777777666666665555555554444444433333333222222222111111<<<<<<<<,,<,,,,,,>,>>>>>>>>:::::::;:;;;;;;;---------========*******&&&&&&&&&&%%%%%%%$$$$$$$$##########@@@@@@@+@@@++++++OOOOOOOOoooooooooXXXXXX........xFFFFFFFFFFFZZZZZZZZZZZZZZZZZZZZFFFFFFFFFFFFFFFFFFFFZZZZZZZZZZZZZZZZZZZZ",
"ZZZZZZZZZZZZZZZZZZZZFFFFFFFFFFFFFFFFFFFFZZZZZZZZZZZZZZZZZZZZFFFFFFFFFFFVaaaaasssssssssdddddddddffffffggggggggggghhhhhhhhhjjjjjjjjjkkkkkkkkklllllllllzllzzzzzzxxxxxxxxxxccccccccccvcvvvvvvvvvbbbbbbbbbnnnnnnnnnnnmmmmmmmmmmmmmmmMMMMMMMMMMNNNNNNNNNNNNNNNNNNNNNNBBBBBBBBBBBBBBBBBBBBBBBBBBBBBBBBBBBNNNNBBBNNNNNNNNNNNNNNNMMNMMMMMMMMMMMMMMMmmmmmmmmmmnnnnnnnnnbbbbbbbbbbbbbvvvvvvvcccvvcccccccxccxxxxxxxzzzzzzzzzlllllllklkkkkkkkkkjjjjjjjjjhhhhhhhhhgggggggggffffffffddfddddddsssssssssaaaaaapppppppppppiiiiiiiuiuuuuuuyyyyyyyyyyyttttttttrrrrrrrrreeeeeeeewwwwwwwqqqqqqqqqq0000000999999998988888888877777766666666665555555554444444433333333322222222111111<<<<<<<<<,,,,,,,,>,>>>>>>>>:::::::;:;;;;;;;;--------========*******&&&&&&&&&%%%%%%%%%%$$$$$$########@@@@@@@@@@@+++++++OOOOOOOoOoooooooooXXXXXX.X......1FFFFFFFFFFFZZZZZZZZZZZZZZZZZZZZFFFFFFFFFFFFFFFFFFFFZZZZZZZZZZZZZZZZZZZZ",
"ZZZZZZZZZZZZZZZZZZZZFFFFFFFFFFFFFFFFFFFFZZZZZZZZZZZZZZZZZZZZFFFFFFFFFFFkaaaaassssssssdddddddddfffffffgfggggggggghhhhhhhhhjjjjjjkjjkkkkkkkkklllllllllzzzzzzzzxxxxxxxxccccccccccccccvvvvvvvvbbbbbbbbbbnnnnnnnnnnnmmmmmmmmmmmmmMmMMMMMMMMMMNNNNNNNNNNNNNNNNNBNNNNNBBBBBBBBBBBBBBBBBBBBBBBBBBBBBBBBBBBBBBNBBBBBNNNNNNNNNNNNNNNNNMMMMMMMMMMMMMMmmmmmmmmmmmnnnnnnnnbbbbbbbbbbbbbvvvvvvvvccvvccccccccccxxxxxxxxzzzzzzzzlllllllklkkkkkkkkkjjjjjjjjjhhhhhhhhggggggggggfffffffffffddddddsssssssssaaaaaaappppppppppiiiiiiiuiuuuuuuyyyyyyyyyyyttttttttrrrrrrrreeeeeeeeeewwwwwwqqqqqqqqqq0000000999999998988888888877777766666666666555555554444444433333333322222222111111<<<<<<<<<,,,,,,,,>>>>>>>>>>>::::::::;;;;;;;;--------=======*********&&&&&&&&%%%%%%%%$$$$$$$$#########@@@@@@@@@@+++++++OOOOOOOOOOooooooooXXXXXXX........vFFFFFFFFFFZZZZZZZZZZZZZZZZZZZZFFFFFFFFFFFFFFFFFFFFZZZZZZZZZZZZZZZZZZZZ",
"ZZZZZZZZZZZZZZZZZZZZFFFFFFFFFFFFFFFFFFFFZZZZZZZZZZZZZZZZZZZZFFFFFFFFFFCaaaaaassssssssdddddddddfffffffgfgggggggghhhhhhhhhjjjjjjjkjkkkkkkkkkkklllllllzzzzzzzzzxxxxxxxccccccccccvcvccvvvvvvvbbbbbbbbbbbnnnnnnnnnnmmmmmmmmmmmMMMMMMMMMMMMMMMNNNNNNNNNNNNNNNBBBBBBBBBBBBBBBBBBBBBBBBBBBBBBBBBBBBBBBBBBBBBBBBBBBBBNNNNNNNNNNNNNNNNNNMMMMMMMMMMmMMmmmmmmmmmmmnnnnnnnnbbnbbbbbbbbbvvvvvvvvvvvvccccccccxxxxxxxxxxzzzzzzzzzlllllllllkkkkkkkkkjjjjjjjjjhhhhhhhghggggggggfffffffffdddddddddssssssssaaaaaaaaapppppppppiiiiiiiiuuuuuuuuuyyyyyytytttttttrrrrrrrrrreeeeeeeeewwwwwwqqqqqqqqqqq0000000999999989888888888777777666666666655555554544444444333333332222222221111111<1<<<<<<<,,,,,,,>>>>>>>>>::::::::::;;;;;;;;-------=========*********&&&&&&&%%%%%%%%%%$$$$$$#########@@@@@@@@@@++++++++OOOOOOOOOooooooXXXXXXXXXX.......3FFFFFFFFFFZZZZZZZZZZZZZZZZZZZZFFFFFFFFFFFFFFFFFFFFZZZZZZZZZZZZZZZZZZZZ",
"ZZZZZZZZZZZZZZZZZZZZFFFFFFFFFFFFFFFFFFFFZZZZZZZZZZZZZZZZZZZZFFFFFFFFFFlaaaaasssssssssdddddddddfffffffgggggggggghhhhhhhhhjjjjjjjjjkkkkkkkkkkkllllllllzzzzzzzzxxxxxxxxxcccccccvvcccvvvvvvvbbbbbbbbbbbbbnnnnnnnnmmmmmmmmmmmMMMMMMMMMMMMMMMMNNNNNNNNNNNNNBBBBBBBBBBBBBBBBBBBBBBBBBBBBBBBBBBBBBBBBBBBBBBBBBBBBBBBNNBBNNNNNNNNNNNNNNNMMMMMMMMMMmMMmmmmmmmmmmmnnnnnnnnbnnbbbbbbbbvvvvvvvvvvvvcccccccccxxxxxxxxxzzzzzzzzzlllllllllkkkkkkkkkjjjjjjjjjhhhhhhhghgggggggggffffffffdddddddddsssssssssaaaaaaaapppppppppiiiiiiiiuuuuuuuuuyyyyyytttttttttrrrrrrrrrreeeeeeeeewwwwwwqqqqqqqqqqq0000000099999999988888888777777666666666655555554444444444433333332222222221111111<1<<<<<<<<,,,,,,>>>>>>>>>:>::::::::;;;;;;;;-------=========**********&&&&&&%%%%%%%%%%$$$$$$##$######@@@@@@@@@@++++++++OOOOOOOOOooooooXXXXXXXXXX.......XbFFFFFFFFFZZZZZZZZZZZZZZZZZZZZFFFFFFFFFFFFFFFFFFFFZZZZZZZZZZZZZZZZZZZZ",
"ZZZZZZZZZZZZZZZZZZZZFFFFFFFFFFFFFFFFFFFFZZZZZZZZZZZZZZZZZZZZFFFFFFFFFZaaaaaasssssssdddddddddffffffffffggggggggghhhhhhhhjjjjjjjjjkkkkkkkkllllllllllzzzzzzzzzxxxxxxxccccccccccvvvvvvvvvvvvbbbbbbbbbbnnnnnnnnnnmmmmmmmmmmmMMmMMMMMMMMMMNNNNNNNNNNNNNNNBBBNBBBBBBBBBBBBBBBBBBBBBBBBBBBBBBBBBBBBBBBBBBBBBBBBBBBBBBBBBBBNNNNNNNNNNNNNNMMMMMMMMMMMMMmmmmmmmmmmmnnnnnnnnnnbbbbbbbbbbvvvvvvvccvcccccccccxccxxxxxxxzzzzzzzzzllllllkllkkkkkkkkkjjjjjjjjhhhhhhhhhgggggggggfffffffffffddddddsssssssssaaaaaaaaapppppppiiiiiiiiuiuuuuuuyyyyyyyyyyyttttttttrrrrrrrrreeeeeeeewwwwwwqqqqqqqqq000000009999999998888888887777777766666666665555555544444444433333322222222221111111<1<<<<<<<<,,,,,,,>>>>>>>>:>::::::::;;;;;;;;;--------=======**********&&&&&&&&%%%%%%%%$$$$$$$$$######@@@@@@@@@@+++++++++OOOOOOooooooooooXXXXXX......... 5FFFFFFFFFZZZZZZZZZZZZZZZZZZZZFFFFFFFFFFFFFFFFFFFFZZZZZZZZZZZZZZZZZZZZ",
"ZZZZZZZZZZZZZZZZZZZZFFFFFFFFFFFFFFFFFFFFZZZZZZZZZZZZZZZZZZZZFFFFFFFFFxaaaaaassssssssddddddddffffffffffgggggggghhhhhhhhhjjjjjjjjjkkkkkkkkklllllllllzzzzzzzzzxxxxxxxcccccccccvvvvvvvvvvvvbbbbbbbbbbnnnnnnnnnnmmmmmmmmmmMMMMMMMMMMMMMMNNNNNNNNNNNNNNNBBBBBBBBBBBBBBBBBBBBBBBVVVBBVVVVVVVBVVVVBBBBBBBBBBBBBBBBBBBBBBBBBNNNNNNNNNNNNNMMMMMMMMMMMMMMmmmmmmmmmmmnnnnnnnnnbbbbbbbbbbbvvvvvvvcvccccccccccccxxxxxxxzzzzzzzzzllllllllkkkkkkkkkkjjjjjjjjjhhhhhhhhhggggggggfffffffffffdddddddssssssssaaaaaaaaapppppppiiiiiiiiiiuuuuuuyyyyyyyyytytttttttrrrrrrrrrreeeeeeeewwwwwwwqqqqqqqq000000000999999998888888888777777767666666665555555444544444433333322222222221111111<1<<<<<<<<,,,,,,,>>>>>>>>::::::::::;;;;;;;;;------=-=======**********&&&&&&%%%%%%%%%%$$$$$$$$$######@@@@@@@@@++++++++++OOOOOOooooooooooXXXXXX..........XMFFFFFFFFZZZZZZZZZZZZZZZZZZZZFFFFFFFFFFFFFFFFFFFFZZZZZZZZZZZZZZZZZZZZ",
"ZZZZZZZZZZZZZZZZZZZZFFFFFFFFFFFFFFFFFFFFZZZZZZZZZZZZZZZZZZZZFFFFFFFFAsaaaaasssssssssdddddddddffffffffggggggggghhhhhhhhhjjjjjjjkkkkkkkkkklllllllllllzzzzzzzxxxxxxxccccccccccvcvvvvvvvvvvvbbbbbbbbnnnnnnnnnnnnmmmmmmmMMMMMMMMMMMMMMNNMNNNNNNNNNNNBNNNBBBBBBBBBBBBBBBBBVVVVVVVVBVVVVBBBVVVVVVVVVVVVBBBBBBBBBBBBBBBBBBBBNNNNNNNNNNNNNMNMMMMMMMMMMMmmMMmmmmmmmnnnnnnnnnnbbbbbbbbbbvvvvvvvvvvcccccccccccxxxxxxxzzzzzzzllzllllllkkkkkkkkkkkjjjjjjjjjhhhhhhhhhgggggggggfgffffffffdddddddsssssssssaaaaaaaapppppppppiiiiiiuuuuuuuuuyyyyyyyyttttttttrrrrrrrrrrreeeeeeeewwwwwwwqwqqqqqq000000000009999998888888888877777777666666655555555445544444433333333222222221111111<1<<<<<<<<<,,,,,,>>>>>>>>::::::::::;;;;;;;;-------=-======*********&&&&&&&&%%%%%%%%%%$$$$$$$#$######@#@@@@@@+++++++++++OOOOOOooooooooooXXXXXXXX.......  0FFFFFFFFZZZZZZZZZZZZZZZZZZZZFFFFFFFFFFFFFFFFFFFFZZZZZZZZZZZZZZZZZZZZ",
"ZZZZZZZZZZZZZZZZZZZZFFFFFFFFFFFFFFFFFFFFZZZZZZZZZZZZZZZZZZZZFFFFFFFFvaaaaaasssssssssddddddddfffffffgfggggggggghhhhhhhhjjjjjjjjjkkkkkkkkklllllllllllzzzzzzzxxxxxxxccccccccccccvvvvvvvvvvvbbbbbbbbnnnnnnnnnnnnmmmmmmMMMMMMMMMMMMMMNNNNNNNNNNNNNNBBNNBBBBBBBBBBBBBBBBVVVVVVVVVVVVVVVVVVVVVVVVVVBBVVVVVBBBBBBBBBBBBBBBBBNNNNNNNNNNNNNNNNMMMMMMMMMMMmMMmmmmmmmmnnnnnnnnnnbbbbbbbbbbvvvvvvvvvcccccccccccxxxxxxxxzzzzzzzzzlllllllkkkkkkkkkkkjjjjjjjjhhhhhhhhhgggggggggfgfffffffffddddddsssssssssaaaaaaaapppppppppiiiiiiuuuuuuuuuyyyyyyyytttttttttrrrrrrrrrrrreeeeeeewwwwwwqwqqqqqq000000000009999998888888888877777777666666655555555445544444433333333322222222111111<1<<<<<<<<<,,,,,,>>>>>>>>::::::::::;;;;;;;;-------=-=======********&&&&&&&&%%%%%%%%%%%$$$$$$$$######@#@@@@@@+++++++++++OOOOOOooooooooooXXXXXXXX........ OCFFFFFFFZZZZZZZZZZZZZZZZZZZZFFFFFFFFFFFFFFFFFFFFZZZZZZZZZZZZZZZZZZZZ",
"ZZZZZZZZZZZZZZZZZZZZFFFFFFFFFFFFFFFFFFFFZZZZZZZZZZZZZZZZZZZZFFFFFFFDdaaaaaassssssssdddddddddffffffggggggggggghhhhhhhhhjjjjjjjjkkkkkkkkklllllllllzzzzzzzzzxxxxxxxxxccccccccccccvvvvvvvbbbbbbbbbbnnnnnnnnnmmmmmmmmmMmMMMMMMMMMMMMNNNNNNNNNNNNNBBBBBBBBBBBBBBBBBVVVVVVVVVVVVVVVVVVVVVVVVVVVVVVVVVVVVVVVBBBBBBBBBBBBBBBBNNNBNNNNNNNNNNNNMMMMMMMMMMmmMmmmmmmmmmmnnnnnnnnnnbbbbbbbvbbvvvvvvvvvvcccccccccxxxxxxxxzzzzzzzlzlllllllllkkkkkkkkkjjjjjjjjjhhhhhhhhhggggggggfffffffffddddddddsssssssssaaaaaaaaappppppppiiiiiiiuiuuuuuuuuyyyyyyyttttttttrrrrrrrreerrreeeeeewwwwwwwwqqqqqqqqq000000009999999988888888877777777666666655555555554444444433333333322222212111111<<<<<<<<<,<,,,,,,>>>>>>>>>>:::::::;;;;;;;;--------===========******&&&&&&&&%%%%%%%%%$$$$$$$$#$########@@@@@@@@@++++++++OOOOOOooooooooXXoXXXXXXXX........ tFFFFFFFZZZZZZZZZZZZZZZZZZZZFFFFFFFFFFFFFFFFFFFFZZZZZZZZZZZZZZZZZZZZ",
"ZZZZZZZZZZZZZZZZZZZZFFFFFFFFFFFFFFFFFFFFZZZZZZZZZZZZZZZZZZZZFFFFFFFnaaaaaaassssssssdddddddddffffffggggggggggghhhhhhhhhjjjjjjjjkkkkkkkkklllllllllzzzzzzzzzxxxxxxxxxccccccccccccvvvvvvvbbbbbbbbbnnbnnnnnnnmmmmmmmmmmmMmMMMMMMMMMNNNNNNNNNNNNNNBBBBBBBBBBBBBBBVVVVVVVVVVVVVVVVVVVVVVVVVVVVVVVVVVVVVVVVVBVBBBBBBBBBBBBBBBBNNBNNNNNNNNNNNMNMMMMMMMMMmMMmmmmmmmmmmnnnnnnnnnnbbbbbbbbbvvvvvvvvvvvccccccccxxxxxxxxxzzzzzzzzzllllllkllklkkkkkkjjjjjjjjjhhhhhhhhhggggggggfgfffffffdddddddddssssssssaaaaaaaaappppppppiiiiiiiiiuuuuuuuuyyyyyyyttttttttrrrrrrrrrerereeeeeewwwwwwwwqqqqqqqqq000000009999999888888887877777767666666655555555554444444433333333322222212111111<<<<<<<<<,,,,,,,,,>>>>>>>>>>:::::::;;;;;;;--------==-========******&&&&&&&&%%%%%%%%%$%$$$$$$#$########@@@@@@@@@++++++++OOOOOOoooooooooXXXXXXXXXX........ #AFFFFFFZZZZZZZZZZZZZZZZZZZZFFFFFFFFFFFFFFFFFFFFZZZZZZZZZZZZZZZZZZZZ",
"ZZZZZZZZZZZZZZZZZZZZFFFFFFFFFFFFFFFFFFFFZZZZZZZZZZZZZZZZZZZZFFFFFFDfaaaaaasssssssssddddddfffffffffgggggggggghhhhhhhhhjjjjjjjjjkkkkkkkkklklllllllzzzzzzzzxxxxxxxxxxcccccccccvvvvvvvvvbvbbbbbbbbnnnnnnnnnnmmmmmmmmmmmmmMMMMMMMMNNNNNNNNNNNNBNNNBBBBBBBBBBBBVVVVBVVVVVVVVVVVVVVVVVVVVVVVVVVVVVVVVVVVVVVVVVVVVBBBBBBBBBBBBBNBBBNNNNNNNNNMMNMMMMMMMMmMMmmmmmmmmmmnnnnnnnnnnbbbbbbbvbbvvvvvvvvvvvcccccccxxxxxxxxxzzzzzzzzzlllllllllklkkkkkkkjjjjjjjjhhhhhhhhhgggggggggggffffffdddddddddssssssssaaaaaaaaappppppiipiiiiiiiiuuuuuuuyyyyyyyyyytttttttrrrrrrrrereeeeeeeewwwwwwwqqqqqqqqqq000000999999999988888887777777766666666655555555554444444443333333322222222111111111<<<<<<,,,,,,,,,,>>>>>>>>:::::::;;;;;;;;---------==========********&&&&&&&%&%%%%%%%$$$$$$$#$#######@@@@@@@@@@++++++++OOOOOOOOoooooooXXXXXXXX.X.......   aFFFFFFZZZZZZZZZZZZZZZZZZZZFFFFFFFFFFFFFFFFFFFFZZZZZZZZZZZZZZZZZZZZ",
"ZZZZZZZZZZZZZZZZZZZZFFFFFFFFFFFFFFFFFFFFZZZZZZZZZZZZZZZZZZZZFFFFFFMaaaaaaassssssssdddddddffffffffggggggggggghhhhhhhhhjjjjjjjjjkkkkkkkkllllllllllzzzzzzzzxxxxxxxxxcccccccccvvvvvvvvvvvvbbbbbbbnnnnnnnnnnnmmmmmmmmmmmmMMMMMMMMNNNNNNNNNNNNBBNBBBBBBBBBBBBVBBVVVVVVVVVVVVVVVVVVVVVVVVVVVVVVVVVVVVVVVVVVVVVVVVVBVBBBBBBBBBBBBBBBNNNNNNNNNMNNMMMMMMMMMmMmmmmmmmmmmnnnnnnnnnnbbbbbbbbbvvvvvvvcvvcvcccccccxxxxxxxxxzzzzzzzzlllllllllllkkkkkkkjjjjjjjjjhhhhhhhhhggggggggggfffffffddddddddsssssssssaaaaaaaapppppppiiiiiiiiiiuuuuuuuuuyyyyyyyyttttttttrrrrrrrereeeeeeeewwwwwwwqwqqqqqqqq000000999999999988888887777777776666666655555555454444444443333333322222222111111111<<<<<<,,,,,,,,,,>>>>>>>::::::::;;;;;;;;-----------========********&&&&&&&&&%%%%%%%%$$$$$$#$#######@@@@@@@@@@++++++++OOOOOOOOoooooooXXXXXXXX.........   *DFFFFFZZZZZZZZZZZZZZZZZZZZFFFFFFFFFFFFFFFFFFFFZZZZZZZZZZZZZZZZZZZZ",
"FFFFFFFFFFFFFFFFFFFFZZZZZZZZZZZZZZZZZZZZFFFFFFFFFFFFFFFFFFFFZZZZZZgaaaaaaassssssssddddddddfffffffffggggggghhhhhhhhhhjjjjjjjjjkkkkkkkkkllllllllllzzzzzzzzxxxxxxxxxcccccccccvvvvvvvvvbbbbbbbbbbbbnnnnnnnmmmmmmmmMMmMMMMMMMMMMMNNNNNNNNNNNNBBBBBBBBBBBBBBVVVVVVVVVVVVVVVVVVVVVVVVVVVVVVVVVVVVVVVVVVVVVVVVVVVVVVVVBBBBBBBBBBBBNNNNNNNNNNNNNNNMMMMMMMMMmmmmmmmmmmmmnnnnnnnnnbbbbbbbbbvvvvvvvvcvcccccccccxxxxxxxxxzzzzzzzzzllllllkkkkkkkkkkkjjjjjjjjjhhhhhhhhhghggggggggfffffffffddddddsssssssssaaaaaaaapppppppppiiiiiiiiuuuuuuuyyyyyyyytytttttttrtrrrrrrereeeeeeeeewwwwwwwqqqqqqq00000000000999999998888888877777776666666655555555555544444443333333322222222211111111<<<<<<,,,,,,,,,,,>>>>>>>>:::::::;;;;;;;;;;--------======********&*&&&&&&&&&%%%%%%%%$$$$$$###########@@@@@@@@++++++++OOOOOOOOOooooooXXXXXXXXXX......    .fZZZZZFFFFFFFFFFFFFFFFFFFFZZZZZZZZZZZZZZZZZZZZFFFFFFFFFFFFFFFFFFFF",
"FFFFFFFFFFFFFFFFFFFFZZZZZZZZZZZZZZZZZZZZFFFFFFFFFFFFFFFFFFFFZZZZZMaaaaaaasssssssssddddddfdfffffffffggggggggghhhhhhhhjjjjjjjjjkkkkkkkkkllllllllllzzzzzzzxxxxxxxxxcccccccvcvvvvvvvvvbbbbbbbbbbbbnnnnnnnmmmmmmmmMMMmmMMMMMMMMMNNNNNNNNNNNNNBBBBBBBBBBBBVVVVVVVVVVVVVVVVVVVVVVVVVVCCCCCCVVCVVVVVVVVVVVVVVVVVVVVVVVBBBBBBBBBBBBBNNNNNNNNNNNNNNNMMMMMMMMmMmmmmmmmmmmnnnnnnnnnnbbbbbbbbvvvvvvvvccvcvccccccxxxxxxxxxxzzzzzzzzlllllllkkkkkkkkkkkjjjjjjjjhhhhhhhhhggggggggggfffffffffdddddddsdssssssaaaaaaaapppppppppiiiiiiiiiuuuuuuyyyyyyyyyytttttttrtrrrrrreeeeeeeeeeewwwwwwwwqqqqqqqq000000000999999998888888887777776666666655555555555444444443333333322222221211111111<<<<<<,,,,,,,,,,,>>>>>>>::::::::;;;;;;;;;;--------======**********&&&&&&&&&%%%%%%%%$$$$$$###########@@@@@@@@++++++++OOOOOOOOOooooooXXXXXXXXX........    :CZZZZFFFFFFFFFFFFFFFFFFFFZZZZZZZZZZZZZZZZZZZZFFFFFFFFFFFFFFFFFFFF",
"FFFFFFFFFFFFFFFFFFFFZZZZZZZZZZZZZZZZZZZZFFFFFFFFFFFFFFFFFFFFZZZZZjaaaaaaasssssssssddddddddfffffffffgggggggghghhhhhhhjjjjjjjjkkkkkkkkkklllllllllzzzzzzzzxxxxxxcxxccccccvvvvvvvvvvvvvvbbbbbbbnbbnnnnnnnmmmmmmmmmMMmMMMMMMMMNNNNNNNNNNNNBNNBBBBBBBBBBVVVVVVVVVVVVVVVVVVVVVVCCCCVVVVCCCCVVVVCCCCVVVVVVVVVVVVVVVVVVVBVVBBBBBBBBBBBBBNNNNNNNNNNNNMMMMMMMMmMMmmmmmmmmmnnnnnnnbbbbbbbbbbbbvvvvvvvvvcvcccccccccxxxxxxxzzzzzzzzzllllllllkkkkkkkkkjjjjjjjjjhhhhhhhhgggggggggffffffffdffddddddssssssssaaaaaaaaapppppppiiiiiiiiiiuuuuuuyyyyyyyyyttttttttrtrrrrrrereeeeeeeeeewwwwwwwqqqqqqqqq000000099999999988888888877777776666666555555555554444444433333333222222222111111<<<<<<<<<<,,,,,,,>>>>>>>>::::::::::;;;;;;;----------======*********&&&&&&&&&&%%%%%%%$$$$$$$###########@@@@@@@@@@++++++OOOOOOOOoooooooXoXXXXXX.........    .zZZZZFFFFFFFFFFFFFFFFFFFFZZZZZZZZZZZZZZZZZZZZFFFFFFFFFFFFFFFFFFFF",
"FFFFFFFFFFFFFFFFFFFFZZZZZZZZZZZZZZZZZZZZFFFFFFFFFFFFFFFFFFFFZZZZBaaaaaaaassssssssdddddddddffffffffggggggggghhhhhhhhjjjjjjjjjkkkkkkkkkklllllllllzzzzzzzxxxxxxxcxcccccccvvvvvvvvvvvvvvbbbbbbbbbnnnnnnnmmmmmmmmmmMMmMMMMMMMNNNNNNNNNNNNBBNBBBBBBBBBBVVVVVVVVVVVVVVVVVCCVVVCCCCCVCCCCCCCCCCVCCCCVVVVVVVVVVVVVVVVVVVVVVVBBBBBBBBBBBBBNNNNNNNNNNNMMMMMMMMMMMMmmmmmmmmmnnnnnnnbnbbbbbbbbbvvvvvvvvvcccccccccccxxxxxxxzzzzzzzzzlllllllllklkkkkkkjjjjjjjjjhhhhhhhhhggggggggfffffffffddddddddsssssssssaaaaaaaapppppppiiiiiiiiiiuuuuuuyyyyyyyyyttttttttttrrrrrrrrreeeeeeeeeewwwwwwqqqqqqqqq000000009999999988888888877777777666666556555555454444444433333333322222222111111<<<<<<<<<,,,,,,,,>>>>>>>>::::::::::;;;;;;;----------======*********&&&&&&&&&&%%%%%%%$$$$$$$$##########@@@@@@@@@@+++++++OOOOOOOOooooooooXXXXXX..........    5ZZZZFFFFFFFFFFFFFFFFFFFFZZZZZZZZZZZZZZZZZZZZFFFFFFFFFFFFFFFFFFFF",
"FFFFFFFFFFFFFFFFFFFFZZZZZZZZZZZZZZZZZZZZFFFFFFFFFFFFFFFFFFFFZZZZzaaaaaaaassssssssdddddddddffffffffggggggggghhhhhhhhjjjjjjjjjkkkkkkkkkllllllllzzzzzzzxxxxxxxxxxxcccccccvvvvvvvvvvvbbbbbbbbbnnnnnnnnnnmmmmmmmmmMmmMMMMMMMMMNNNNNNNNNNBBBBBBBBBBBBVVVVVVVVVVVVVVVVVCCVVVVCCCCCCCCCCCCCCCCCCCCCCCVVVVVVCVVVVVVVVVVVVVVVVVBBBBBBBBBBBBNNNNNNNNNNNMMMMMMMMMMmmMmmmmmmmnnnnnnnbnnbbbbbbbbvvvvvvvvcccccccccccccxxxxxxzzzzzzzzzlllllllllkkkkkkkkkjjjjjjjjhhhhhhhghggggggggfffffffffddddddddsssssssssaaaaaaaappppppppiiiiiiiuuuuuuuuuuuyyyyyyttttttttrrrrrrrrrrrrreeeeeewwwwwwqqwqqqqqq0q000000099999999888888887777777777666666655555555454444444433333333322222222111111<<<<<<<<<<,,,,,,,>>>>>>>>:::::::::::;;;;;;--------===========******&*&&&&&&%&%%%%%%%%$$$$$$$$$######@@@@@@@@+++++++++++OOOOOOOoooooooooXXXXXX.X.........   oMZZZFFFFFFFFFFFFFFFFFFFFZZZZZZZZZZZZZZZZZZZZFFFFFFFFFFFFFFFFFFFF",
"FFFFFFFFFFFFFFFFFFFFZZZZZZZZZZZZZZZZZZZZFFFFFFFFFFFFFFFFFFFFZZZCsaaaaaaasssssssssddddddddffffffffggggggggghhhhhhhhhjjjjjjkjkkkkkkkkkkklllllllzzzzzzzxxxxxxxxcccccccccccvcvvvvvvvbbbbbbbbbbnnnnnnnnnmmmmmmmmmmmMMMMMMMMMNMNNNNNNNNNBBBBBBBBBBBBVVVVVVVVVVVVVVVCVVCCCCCCCCCCCCCCCCCCCCCCCCCCCCCCCCVVVCCCVVVVVVVVVVVVVVVVBBBBBBBBBBBBNNNNNNNNMNNMMMMMMMMMMmMmmmmmmmnnnnnnnnnnbbbbbbbbvvvvvvvvcccccccccccccxxxxxxxzzzzzzzzzllllllllkkkkkkkkkjjjjjjjjhhhhhhhghgggggggggffffffffdddddddddssssssssaaaaaaaappppppppiiiiiiiuuuuuuuuuuuyyyyyyttttttttrttrrrrrrrreeeeeeeewwwwwwwqwqqqqqq0q00000009999999988888888777777777766666665555555545444444443333333332222222111111111<<<<<<<<,,,,,,,>>>>>>>>::::::::::;;;;;;;--------===========******&&&&&&&&%&%%%%%%%%$$$$$$$$$######@@@@@@@@+++++++++++OOOOOOOoooooooooXXXXXX.XX........    eZZZFFFFFFFFFFFFFFFFFFFFZZZZZZZZZZZZZZZZZZZZFFFFFFFFFFFFFFFFFFFF",
"FFFFFFFFFFFFFFFFFFFFZZZZZZZZZZZZZZZZZZZZFFFFFFFFFFFFFFFFFFFFZZZvaaaaaaaasssssssssdddddddffffffffgggggggggghhhhhhhhhjjjjjjjjkkkkkkkkkkkllllllzzzzzzzzxxxxxxxxcccccccccccccvvvvvvvbbbbbbbbbnnnnnnnnnmmmmmmmmmmMMMMMMMMMMNNNNNNNNNNNBBBBBBBBBBBVVVVVVVVVVVVVVVCCCVVCCCCCCCCCCCCCCCCCCCCCCCCCCCCCCCCCCCCCCCCVVVVVVVVVVVVVVBBBBBBBBBBBBBNNNNNNNNMMMMMMMMMMmMMmMmmmmmmnnnnnnnnnnbbbbbbbbbvvvvvvvvcvccccccccxcxxxxxxxzzzzzzzzlllllllklkkkkkkkkkkkjjjjjjjhhhhhhghggggggggggfffffffdddddddddssssssssaaaaaaaaappppppppiiiiiiuuuuuuuuuuuyyyyyyyytttttttttrrrrrrereeeeeeeewwwwwwwqqqqqqqq00000000999999999888888887777777777766666665555555454444444443333333322222211111111111<<<<<<<<,,,,,,,,>>>>>>>>:::::::::;;;;;;;;------===========*******&&&&&&&%&%%%%%%%%%$$$$$$$$######@@@@@@@@+++++++++++OOOOOOooooooooXXXXXXXXXXX........    $VZZFFFFFFFFFFFFFFFFFFFFZZZZZZZZZZZZZZZZZZZZFFFFFFFFFFFFFFFFFFFF",
"FFFFFFFFFFFFFFFFFFFFZZZZZZZZZZZZZZZZZZZZFFFFFFFFFFFFFFFFFFFFZZZgaaaaaaaassssssssddddddddffffffffgggggggggghhhhhhhhjjjjjjjjjkkkkkkkklklllllllzzzzzzzzzxxxxxxxcccccccccccccvvvvvvvbbbbbbbbbnnnnnnnnnmmmmmmmmmMMMMMMMMMMMNNNNNNNNNNBBBBBBBBBBBVVVVVVVVVVVVVVCCCCVCCCCCCCCCCCCCCCCCCCCCCCCCCCCCCCCCCCCCCCCCCCCVVVVVVVVVVVBBBBBBBBBBBBBBBNNNNNNNNMMMMMMMMMMmMmmmmmmmmnnnnnnnnnnnbbbbbbbbbvvvvvvvcvcvcccccccxxxxxxxxzzzzzzzzllllllllkkkkkkkkkkkkkjjjjjjhhhhhhhhhgggggggggffffffffddddddddssssssssaaaaaaaaappppppppiiiiiiiuuuuuuuuyuyyyyyyyytttttttttrrrrrrrreeeeeeeeewwwwwwqqqqqqqq00000000099999999888888888777777777766666666555555554444444443333333322222211111111111<<<<<<<,,,,,,,,,>>>>>>>>>::::::::;;;;;;;;------=========*=********&&&&&&%&%%%%%%%%%$$$$$$$$######@@@@@@@@+++++++++++OOOOOOooooooooXXXXXXXXXXX........     dZZFFFFFFFFFFFFFFFFFFFFZZZZZZZZZZZZZZZZZZZZFFFFFFFFFFFFFFFFFFFF",
"FFFFFFFFFFFFFFFFFFFFZZZZZZZZZZZZZZZZZZZZFFFFFFFFFFFFFFFFFFFFZZmaaaaaaaaassssssssddddddddfffffffffgggggggghhhhhhhhhjjjjjjjjjkkkkkklklllllllllzzzzzzzzxxxxxxxcccccccccvcvvvvvvvvvbbbbbbbbbbbnnnnnnnmmmmmmmmmmMMMMMMMMMMNNNNNNNNNNBNBBBBBBBBBVVVVVVVVVVVVVVVCCVCCCCCCCCCCCCCCCCCCCCCCCCCCCCCCCCCCCCCCCCCCCCVVVVVVVVVVVVVVVVVBBBBBBBBBNNNNNNNNNNNMMMMMMMMMMMMMMmmmmmmmnnnnnnnnnbbbbbbbbbvvvvvvvvvcccccccccxcxxxxxxxxzzzzzzzlllllllllkkkkkkkkkjjjjjjjjhhhhhhhhhggggggggggfffffffdfddddddsdsssssssaaaaaaaappppppppiiiiiiiiiuuuuuuyyyyyyyyytttttttttrrrrrrreeeeeeeeeeewwwwwwwqqqqqqq00000000099999999888888887777777777766666655555555444444444443333333322222222111111111<<<<<<<<,,,,,,,,>>>>>>>>>::::::;;;;;;;;;;---------======*********&&&&&&&&&%%%%%%%%%$$$$$$########@@@@@@@@@@+++++++++OOOOOOoooooooooXXXXXXXX..........     :ZZFFFFFFFFFFFFFFFFFFFFZZZZZZZZZZZZZZZZZZZZFFFFFFFFFFFFFFFFFFFF",
"FFFFFFFFFFFFFFFFFFFFZZZZZZZZZZZZZZZZZZZZFFFFFFFFFFFFFFFFFFFFZZjapaaaaaasssssssssddddddfdfffffffffgggggggghhhhhhhhhjjjjjjjjkkkkkkklklkllllllzzzzzzzzzxxxxxxxcccccccccvvvvvvvvvvvbbbbbbbbbbbnnnnnnnmmmmmmmmmmMMMMMMMMMNNNNNNNNNNBBBBBBBBBBBVVVVVVVVVVVVVCCVVCCCCCCCCCCCCCCCCCCCCCCCCCCCCCCCCCCCCCCCCCCCCCCCVVVCVVVVVVVVVVVVVBBBBBBBBBNNNNNNNNNNNMMMMMMMMMMMmmmmmmmmmmnnnnnnnnnbbbbbbbbbvvvvvvvvvccccccccccxxxxxxxxzzzzzzzzllllllllkkkkkkkkkjjjjjjjjhhhhhhhhhggggggggfggffffffdfddddddsdsssssssaaaaaaaapppppppppiiiiiiiiuuuuuuuyyyyyyyyttttttttttrrrrrreerereeeeeeewwwwwwqqqqqqq00000000099999999888888887787777777766666665555555444444444443333333322222222111111111<<<<<<<<,,,,,,,,>>>>>>>>>::::::;;;;;;;;;;-------=-=======********&&&&&&&&&%%%%%%%%%$$$$$$########@@@@@@@@@@+++++++++OOOOOOoooooooooXXXXXXXX..........      xZFFFFFFFFFFFFFFFFFFFFZZZZZZZZZZZZZZZZZZZZFFFFFFFFFFFFFFFFFFFF",
"FFFFFFFFFFFFFFFFFFFFZZZZZZZZZZZZZZZZZZZZFFFFFFFFFFFFFFFFFFFFZBaapaaaaaasssssssssddddddffffffffggggggggggghhhhhhhhjjjjjjjjjkkkkkklkkllllllllzzzzzzzzzxxxxxxxccccccccvvvvvvvvvvvvbbbbbbbbnbnnnnnnnmmmmmmmmmmMMMMMMMMMNNNNNNNNNNBBBBBBBBBBBVVVVVVVVVVVVVCCCCCCCCCCCCCCCCCCCCCZZZZZZCZZZZZZZZCZCCCCCCCCCCCCCCCCVCCCVVVVVVVVVVVVBBBBBBBBBNNNNNNNNNNNNMMMMMMMMMMmmmmmmmmmnnnnnnnnnbbbbbbbbbvvvvvvvvvcccccccccxxxxxxxxxzzzzzzzzllllllkklkkkkkkkkjjjjjjjjjhhhhhhhhgggggggggggffffffdddddddddssssssssaaaaaapapppppppppiiiiiiiiuuuuuuuuuyyyyyyttttttttttrrrrrrrrrereeeeeeewwwwwwqqqqqqqq000000009999999988888888888777777776666666655555555544444444333333332222222221111111<<<<<<<<,,,,,,,>,>>>>>>>>>::::::;;;;;;;;---------=-========******&&&&&&&&&&&%%%%%%%%$$$$$$##########@@@@@@@@+++++++++OOOOOOOOooooooXXXXXXXXXX.......        5ZFFFFFFFFFFFFFFFFFFFFZZZZZZZZZZZZZZZZZZZZFFFFFFFFFFFFFFFFFFFF",
"FFFFFFFFFFFFFFFFFFFFZZZZZZZZZZZZZZZZZZZZFFFFFFFFFFFFFFFFFFFFZxpaaaaaaaassssssssddddddddfffffffggggggggggghhhhhhhhjjjjjjjjjkkkkkkllllllllllllzzzzzzzxxxxxxxxxccccccccvvvvvvvvvvvbbbbbbbbnbnnnnnnnmmmmmmmmmMMMMMMMMMMMNNNNNNNNBBBBBBBBBBBBVVVVVVVVVVVCCCCCCCCCCCCCCCCCCCZZCCZZZZZZZZZCCZZZCCZZZZZCCCCCCCCCCCCCCCCCVVVVVVVVVVBBBBBBBBBBNNBNNNNNNNNNNMMMMMMMMMmmmmmmmmmmnnnnnnnnnbbbbbbbbbvvvvvvvvccvccccccxxxxxxxxxzzzzzzzzlllllllklkkkkkkkkjjjjjjjjjhhhhhhhhgggggggggggffffffdddddddddssssssssaaaaaaaaappppppipiiiiiiuiuuuuuuuuyyyyyyyttttttttttrrrrrrrrrereeeeeeewwwwwwqqqqqqqqqq0000009999999989888888888777777776666665655555555544444444333333332222222221111111<<<<<<<<,,,,,,,>,,>>>>>>>>::::::;;;;;;;;---------=-======*=******&&&&&&&&&&&%%%%%%%%$$$$$$##########@@@@@@@@@++++++++OOOOOOOOoooooooXXXXXXXXXX......        oNFFFFFFFFFFFFFFFFFFFFZZZZZZZZZZZZZZZZZZZZFFFFFFFFFFFFFFFFFFFF",
"FFFFFFFFFFFFFFFFFFFFZZZZZZZZZZZZZZZZZZZZFFFFFFFFFFFFFFFFFFFFCdaaaaaaaaassssssssdddddddddffffffgggggggggghhhhhhhhhjjjjjjjjkkkkkkkkkkkllllllzzzzzzzzzxxxxxxxcxccccccvvcvcvvvvvvvbbbbbbbbnnnnnnnnnmmmmmmmMMmMMMMMMMMMNNNNNNNNNNBNBBBBBBBBVVBVVVVVVVVVVVCCCCCCCCCCCCCCZZZZZZCZZZZZZZZZZZZZZZZZZZZZZZCCCCCCCCCCCCCCCCCVVVVVVVVVVVVBBBBBBBBNNNNNNNNNNNNMMMMMMMMmmmMmmmmmmmnnnnnnnbnbbbbbbbbbvvvvvvvvvcvccccccxcxxxxxxxzzzzzzzzzllllllklkkkkkkkkkjjjjjjjjhhhhhhhhgggggggggfgffffffdddddddddssssssssaaaaaaaaappppppipiiiiiiuuuuuuuuuuuyyyyyyyyttttttrrtrrrrrrrreeeeeeeewwwwwwwqqqqqqqqqq000000999999998998888888777777766666666566555555554444444433333333222222212111111<<<<<<<<,,,,,,,,,>>>>>>>>::::::::::;;;;;;--;------==========******&*&&&&&&&%%%%%%%%$%$$$$$$$$#########@@@@@@@@++++++++OOOOOOOOoooooooooXXXXXX........         uFFFFFFFFFFFFFFFFFFFFZZZZZZZZZZZZZZZZZZZZFFFFFFFFFFFFFFFFFFFF",
"FFFFFFFFFFFFFFFFFFFFZZZZZZZZZZZZZZZZZZZZFFFFFFFFFFFFFFFFFFFFnpaaaaaaaasssssssssddddddddfffffffffgggggggghhhhhhhhhjjjjjjjjkkkkkkkkkkkllllllzzzzzzzzzxxxxxxcccccccccvvccvvvvvvvvbbbbbbbbnnnnnnnnnmmmmmmmMMmmMMMMMMMNNNNNNNNNNNBBBBBBBBBVVVVVVVVVVVVVVVCCCCCCCCCCCZZZZZZZZZZZZZZZZZZZZZZZZZZZZZZZZZCCZZCCCCCCCCCCCCCCCVVVVVVVVVVBBBBBBBBBNNNNNNNNNNNMMMMMMMMMmmMmmmmmmmnnnnnnnbnbbbbbbbvvvvvvvvvvvcvccccccccxxxxxxxzzzzzzzzzllllllllkkkkkkkkkjjjjjjjjhhhhhhhhgggggggggfffffffffffddddddssssssssaaaaaaaaappppppipiiiiiiiuuuuuuuuuuyyyyyyyytttttttrtrrrrrrreeeeeeeeewwwwwwwqqqqqqqqqq000000999999999998888888777777766666666666555555554444444433333333322222221111111<<<<<<<<,,,,,,,,,>>>>>>>>::::::::::;;;;;;;-;------==========******&*&&&&&&&%%%%%%%%%%$$$$$$$$#######@#@@@@@@@@++++++++OOOOOOOOoooooooooXXXXXX........         =FFFFFFFFFFFFFFFFFFFFZZZZZZZZZZZZZZZZZZZZFFFFFFFFFFFFFFFFFFFF",
"FFFFFFFFFFFFFFFFFFFFZZZZZZZZZZZZZZZZZZZZFFFFFFFFFFFFFFFFFFFFjpaaaaaaaasssssssssddddddddffffffgffgggggggghhhhhhhhjjjjjjjjjkkkkkkkklklllllllzzzzzzzzxxxxxxxxxcccccccccccvvvvvvbbbbbbbbbnnnnnnnnnmmmmmmmmMMmmMMMMMMMNNNNNNNNNNNNBBBBBBBBBVVVVVVVVVVVVVCCCCCCCCCCZZZZZZZZZZZZZZZZZZZZZZZZZZZZZZZZZZZZCZZZZCCCCCCCCCCCCCCVVVVVVVVVVVBBBBBBBBBBNNNNNNNNNMMMMMMMMMMMMmmmmmmnnnnnnnnnnbbbbbbvvvvvvvvvvccvcccccccccxxxxxxxzzzzzzzzlllllllllkkkkkkkkjjjjjjjjjhhhhhhhhggggggggfffffffffffddddddsssssssssaaaaaaaappppppppiiiiiiiuuuuuuuuyyyyyyyyyytttttttrrrrrrrrrreeeeeeeewwwwwwwwwqqqqqq00000000009999999898888888777777766666666666555555554444444433333333322222221111111<<<<<<<<,,,,,,,,,>>>>>>>>::::::::::;;;;;;;;;------=========**********&&&&&&%%%%%%%%$$$$$$$$$$#######@@@@@@@@@++@+++++OOOOOOOOooooooooooXXXXXX.........         vFFFFFFFFFFFFFFFFFFFZZZZZZZZZZZZZZZZZZZZFFFFFFFFFFFFFFFFFFFF",
"FFFFFFFFFFFFFFFFFFFFZZZZZZZZZZZZZZZZZZZZFFFFFFFFFFFFFFFFFFFAapaaaaaaaassssssssdddddddddffffffggggggggggghhhhhhhhjjjjjjjjjkkkkkklklklllllllzzzzzzzzxxxxxxxxxccccccccvccvvvvvvbbbbbbbbbnnnnnnnnnmmmmmmmmMMMMMMMMMMNNNNNNNNNNNNBBBBBBBBBBVVVVVVVVVCCCCCCCCCCCCCCCZZZZZZZZZZZZZZZZZZZZZZZZZZZZZZZZZZZZZZZZZCCCCCCCCCCCCCVVVVVVVVVVVVBBBBBBBBBBNNNNNNNNMMMMMMMMMMMMmmmmmmmnnnnnnnnnbbbbbbbvvvvvvvvvvcvcccccccccxxxxxxzzzzzzzzzlllllllllkkkkkkkkjjjjjjjjjhhhhhhhhgggggggggfffffffffdddddddsssssssssaaaaaaaapppppppppiiiiiiuuuuuuuuyyyyyyyyyyyttttttrrrrrrrreeeeeeeeeeewwwwwwwwqqqqqq00000000000999999898888888877777766666666656555555554444444433333333322222222111111<<<<<<<<<,,,,,,,,>>>>>>>>::::::::::;;;;;;;;;------========***********&&&&&&%%%%%%%%%$$$$$$$$$#######@@@@@@@@@@+@++++OOOOOOOOoooooooooXoXXXXXX.X......          7FFFFFFFFFFFFFFFFFFFZZZZZZZZZZZZZZZZZZZZFFFFFFFFFFFFFFFFFFFF",
"FFFFFFFFFFFFFFFFFFFFZZZZZZZZZZZZZZZZZZZZFFFFFFFFFFFFFFFFFFFvpppaaaaaaassssssssddddddddfffffffgggggggggghhhhhhhhhjjjjjjjkkkkkkkklkllllllllzlzzzzzxxxxxxxxcccccccccccvvvvvvvvvbbbbbbbbbbbnnnnnnmmmmmmmmmMMMMMMMMMMNNNNNNNNNBBBBBBBBBBVVVVVVVVVVVVVCCCCCCCCCCZZZZZZZZZZZZZZZZZZZZZZZZZZZZZZZZZZZZZZZZZZZZZZZCCCCCCCCCCCCCVVVVVVVVVVBBBBBBBBBBNNNNNNNNNNMMMMMMMMMmmmmmmmmmmmnnnnbbnbbbbbbbbvvvvvvvccvvccccccccxxxxxxxzzzzzzzllllllllllkkkkkkkkjjjjjjjjjhhhhhhhhghgggggggffffffffdddddddddssssssssaaaaaaaapppppppppiiiiiiuuuuuuuuyyyyyyyyytttttttttrrrrrrrrreeeeeeeeewwwwwwwwqqqqqq000000000009999998988888888777777777666666555555555544444444333333333222222221111111<<<<<<<<,,,,,,,,>>>>>>>>>>::::::;;:;;;;;;-;--------======*********&&&&&&&&&&%%%%%%%%$$$$$$##########@@@@@@@++++++++++OOOOOOOooooooooooXXXXXXXX......          oAFFFFFFFFFFFFFFFFFFZZZZZZZZZZZZZZZZZZZZFFFFFFFFFFFFFFFFFFFF",
"FFFFFFFFFFFFFFFFFFFFZZZZZZZZZZZZZZZZZZZZFFFFFFFFFFFFFFFFFFFfpapaaaaaaassssssssdddddddffffffffgggggggggghhhhhhhhhjjjjjjkkkkkkkkllkllllllllzzzzzzzxxxxxxxxxcccccccccccvvvvvvvvbbbbbbbbbbnnnnnnnmmmmmmmmmMMMMMMMMMMNNNNNNNNBBBBBBBBBBVVVVVVVVVVVVVVCCCCCCCCCZZZZZZZZZZZZZZZZZZZZZZZZZZZZZZZZZZZZZZZZZZZZZZZZZCCCCCCCCCCCCVVVVVVVVVVBBBBBBBBBBBNNNNNNNNNMMMMMMMMMmmmmmmmmmmmnnnnnnnbbbbbbbbbvvvvvvccvvccccccccxxxxxxxzzzzzzzzlllllllllkkkkkkkkkjjjjjjjjhhhhhhhhhhhggggggfffffffffddddddddssssssssaaaaaaaapppppppppiiiiiiuuuuuuuuyyyyyyyyyytttttttttrrrrrrrreeeeeeeeewwwwwwwwqqqqqq000000000009999999988888888777777766666666555555555544444444433333333222222221111111<<<<<<<<,,,,,,,,>>>>>>>>>>:::::::;:;;;;;;-;--------======*********&&&&&&&&&&%%%%%%%%$$$$$$$$#######@@@@@@@@@+++++++++OOOOOOOooooooooooXXXXXXXX......           aFFFFFFFFFFFFFFFFFFZZZZZZZZZZZZZZZZZZZZFFFFFFFFFFFFFFFFFFFF",
"FFFFFFFFFFFFFFFFFFFFZZZZZZZZZZZZZZZZZZZZFFFFFFFFFFFFFFFFFFNppaaaaaaaaassssssssddddddddffffffffggggggggghhhhhhhhjjjjjjjjjkkkkkkkklllllllllzzzzzzzzxxxxxxxxxccccccccvvvvvvvvvbbbbbbbbbbbnnnnnnnmmmmmmmmMmmMMMMMMNNNNNNNNNNBBBBBBBBBBBBVVVVVVVVVCVCCCCCCCCCZZZZZZZZZZZZZZZZZZAAAAAAAAAAAAAAZZZZZZZZZZZZZZZZCCZCCCCCCCCCCCVVVVVVVVVVBBBBBBBBBBBNNNNNNNNMMMMMMMMMMMmMmmmmmmnnnnnnnbbbbbbbbbbbvvvvvvvcvvcccccccxxxxxxxxxzzzzzzzzllllllllkkkkkkkkkjkjjjjjjhhhhhhhhhggggggggfffffffffddddddddssssssssaaaaaaaaappppppppiiiiiiiiuuuuuuuuyyyyyyyttttttttttrrrrrrrrrreeeeeeewwwwwwqqqqqqqqq0q0000000099999999888888887777777666666666655555555444444444333333322222222111111111<<<<<<<,<,,,,,,,>>>>>>>:::::::::;:;;;;;;-;--------======*=*******&&&&&&&&&&%%%%%%%%$$$$$$$$$######@@@@@@@@+@++++++++OOOOOOOOoooooooXXXXXXXX........  .        -FFFFFFFFFFFFFFFFFFZZZZZZZZZZZZZZZZZZZZFFFFFFFFFFFFFFFFFFFF",
"FFFFFFFFFFFFFFFFFFFFZZZZZZZZZZZZZZZZZZZZFFFFFFFFFFFFFFFFFFkppaaaaaaaasssssssssddddddddffffffffggggggggghhhhhhhhjjjjjjjjjkkkkkkkklllllllllzzzzzzzzxxxxxxccxcccccccvvvvvvvvvvbbbbbbbbnbbnnnnnnmmmmmmmmmMmMMMMMMMMNNNNNNNNBBBBBBBBBBBBVVVVVVVVCCCCCCCCCCCCCZZZZZZZZZZZZZZZAAAAAAAAAAAAAAAAAAAAAZZZZZZZZZZZZZCCCZCCCCCCCCCVVVVVVVVVVBBBBBBBBBBBBNNNNNNNMNMMMMMMMMMmMmmmmmmmnnnnnnbbbbbbbbbbbvvvvvvvvvvcccccccxxxxxxxxxzzzzzzzzlllllllllkkkkkkkkjjjjjjjjhhhhhhhhhgggggggggffffffffddddddddssssssssaaaaaaaaapppppppiiiiiiiiiuuuuuuuuyyyyyyytttttttttrrrrrrrrrereeeeeeewwwwwwqqqqqqqqqqq00000090999999898888888887777776766666666555555554444444443333333222222221111111111<<<<<<,<,,,,,,,>>>>>>>:::::::::;:;;;;;;;;--------======*==******&&&&&&&&&&%%%%%%$$$$$$$$$$$######@@@@@@@@@@++++++++OOOOOOOOoooooooXXXXXXXXX.......  .         bFFFFFFFFFFFFFFFFFZZZZZZZZZZZZZZZZZZZZFFFFFFFFFFFFFFFFFFFF",
"ZZZZZZZZZZZZZZZZZZZZFFFFFFFFFFFFFFFFFFFFZZZZZZZZZZZZZZZZZVappaaaaaaaasssssssssddddddddffffffffggggggggghhhhhhhhjjjjjjjjkkkkkkkkklkllllllzlzzzzzzzxxxxxxcxcccccccccvvvvvvvvbbbbbbbbbnnnnnnnnnmmmmmmMMmMmMMMMMMMNNNNNNNNNBBBBBBBBBVVVVVVVVVVCCCCCCCCCCCZZCZZZZZZZZZZZZAAAAAAAAAAAAAAAAAAAAAAAAAAAZZZZZZZZZZZZZZZCCCCCCCCVVCVVVVVVVVVVBBBBBBBBNNNNNNNNNNMMMMMMMmmmmmmmmmmmnnnnnnnnnbbbbbbvvvvvvvvvcvcccccccccccxxxxxxzzzzzzzzlllllllllkkkkkkkkjjjjjjjjjhhhhhhhhgggggggggggffffffddddddddssssssssaaaaaaaaappppppppiiiiiiiiiuuuuuuuuyyyyyyytttttttrrrrrrrrrrerreeeeeewwwwwwqqqqqqqqqq000000099999999898888888777777777766666666555555554444444443333333322222221111111111<<<<<<<<,,,,,,,,>>>>>>:::::::::;;;;;;;;--------=-=========******&&&&&&&&&&%%%%%%%%$$$$$$$#$########@@@@@@@@+++++++++OOOOOOooooooooXXXXXXXX.........           7ZZZZZZZZZZZZZZZZZFFFFFFFFFFFFFFFFFFFFZZZZZZZZZZZZZZZZZZZZ",
"ZZZZZZZZZZZZZZZZZZZZFFFFFFFFFFFFFFFFFFFFZZZZZZZZZZZZZZZZZcpppaaaaaaaassssssssdddddddddffffffffgggggggghhhhhhhhhjjjjjjjjkkkkkkkkkkkllllllllzzzzzzzxxxxxxccccccccvccvvvvvvvvbbbbbbbbbnnnnnnnnmmmmmmmMMMMMMMMMMMMNNNNNNNNBBBBBBBBBBVVVVVVVVVCCCCCCCCCCCZZZZZZZZZZZZZZAAAAAAAAAAAAAAAAAAAAAAAAAAAAAAAZZZZZZZZZZZZZCCCCCCCCCVCCVVVVVVVVVBBBBBBBNNBNNNNNNNNNMMMMMMmmMmmmmmmmmnnnnnnnnnbbbbbbbvvvvvvvvcvcccccccccccxxxxxxzzzzzzzzzlllllllkkkkkkkkkjjjjjjjjjhhhhhhgggggggggggggffffffdddddddddssssssssaaaaaaaappppppppiiiiiiiiiuuuuuuuuyyyyyyyyttttttrrrrrrrrreeereeeeeewwwwwwwqqqqqqqqq000000099999999898888888777777777766666666555555554444444443333333322222221111111111<<<<<<<<,,,,,,,,>>>>>>::>::::::;;;;;;;;--------=-=========******&&&&&&&&&&%%%%%%%%$$$$$$$#$########@@@@@@@@+++++++++OOOOOOooooooooXXXXXXXX.........           +VZZZZZZZZZZZZZZZZFFFFFFFFFFFFFFFFFFFFZZZZZZZZZZZZZZZZZZZZ",
"ZZZZZZZZZZZZZZZZZZZZFFFFFFFFFFFFFFFFFFFFZZZZZZZZZZZZZZZZZfpppaaaaaaaassssssssdddddddddffffffgggggggggghhhhhhhhhjjjjjjjjkkkkkkkklkkllllllzlzzzzzzxxxxxxxxcccccccvcccvvvvvvvbbbbbbbbnnnnnnnnnmmmmmmmMMMmMMMMMMMNNNNNNNNNNNBBBBBBBVVVVVVVVVVCCCCCCCCCCCZZZZZZZZZZZZAAAAAAAAAAAAAAAAAAAAAAAAAAAAAAAAAAAZZZZZZZZZZZZCCCCCCCCCCCVVVVVVVVVVBBBBBBBNNNNNNNNNNNMMMMMMMmmmMmmmmmmmnnnnnnnnbbbbbbbvvvvvvvvcvcccccccccccxxxxxxzzzzzzzlzllllllkkkkkkkkkkkjjjjjjjjhhhhhhhhhhgggggggfgffffffddddddddsssssssssaaaaaaaappppppppiiiiiiiiuuuuuuuyuyyyyyyyttttttttrtrrrrrrereeeeeeeewwwwwwwwqqqqqqqq000000099999999898888888887777776766666655555555544444444443333333322222211111111111<<<<<<,,,,,,,,,,>>>>>>>>>::::::;;;;;;;;--------=========**********&&&&&&%&%%%%%%%%$$$$$$$########@#@@@@@@@@+++++++++OOOOOOoooooooooXXXXXXX..........           dZZZZZZZZZZZZZZZZFFFFFFFFFFFFFFFFFFFFZZZZZZZZZZZZZZZZZZZZ",
"ZZZZZZZZZZZZZZZZZZZZFFFFFFFFFFFFFFFFFFFFZZZZZZZZZZZZZZZZNpppaaaaaaaaassssssssddddddddfffffffgggggggggghghhhhhhjjjjjjjjjkkkkkkkklklllllllllzzzzzzxxxxxxxxcccccccvcccvvvvvvbbbbbbbbbnnnnnnnnnmmmmmmMMMMmMMMMMMNNNNNNNNNNNBBBBBBBBBVVVVVVVVCCCCCCCCCCZCZZZZZZZZZZZAAAAAAAAAAAAAAAAAAAAAAAAAAAAAAAAAAAAAZZZZZZZZZZZCZCCCCCCCCCCVVVVVVVVVBBBBBBBNNNNNNNNNNNMMMMMMMmMmMmmmmmmmnnnnnnnnnbbbbbbvbvvvvvvvvvccccccccccxxxxxxxzzzzzzllllllllkkkkkkkkkkkkjjjjjjjhhhhhhhhgggggggggffffffffdddddddddssssssssaaaaaaaappppppppiiiiiiiuuuuuuuuyyyyyyyyyttttttttrtrrrrrreeeeeeeeeewwwwwwwqqqqqqqqqq00000099999999899888888887777776666666655555555544444444443333333322222211111111111<<<<<<,,,,,,,,,,>>>>>>>>>::::::;;;;;;;;--------=========**********&&&&&&%%%%%%%%%%%$$$$$$########@#@@@@@@@@+++++++++OOOOOOOOooooooXXXXXXXX...........          1ZZZZZZZZZZZZZZZZFFFFFFFFFFFFFFFFFFFFZZZZZZZZZZZZZZZZZZZZ",
"ZZZZZZZZZZZZZZZZZZZZFFFFFFFFFFFFFFFFFFFFZZZZZZZZZZZZZZZZzpppppaaaaaaassssssssddddddddffffffggggggggggghhhhhhhhjjjjjjjjjkkkkkkkkllllllllzzzzzzzzzxxxxxxxxcccccccccvcvvvvvvbbbbbbbbbbbnnnnnnmmmmmmmmmMmMMMMMMMNNNNNNNNNNNBBBBBBBVVVVVVVVVCCCCCCCCCCCZZZZZZZZZZZAAAAAAAAAAAAAAAAAAAAAAASSAAAAAAAAAAAAAAAAZZZZZZZZZZZCCCCCCCCCVVVVVVVVVVVBBBBBBBBBNNNNNNNNNMMMMMMmmmMmmmmmmmnnnnnnnnnbbbbbbbbvvvvvvvvvccccccccxcxxxxxxxzzzzzzzzlllllllkkkkkkkkkkjjjjjjjjhhhhhhhghggggggggggfffffffddddddddssssssssaaaaaaaapppppppppiiiiiiiiuuuuuuyyyyyyyyyttttttttttrrrrrrrrrreeeeeewwwwwwwwqqqqqqqqq000000999999999998888888877777766666666555555555544444444433333333222222222111111<<<<<<<<,,,,,,,,,,>>>>>>>>>::::::::;;;;;;;;--------=======********&&&&&&&&&&%%%%%%%$%$$$$$$##########@@@@@@+++++++++++OOOOOOOOooooooXXXXXXXX...........          .MZZZZZZZZZZZZZZZFFFFFFFFFFFFFFFFFFFFZZZZZZZZZZZZZZZZZZZZ",
"ZZZZZZZZZZZZZZZZZZZZFFFFFFFFFFFFFFFFFFFFZZZZZZZZZZZZZZZCspppppaaaaaasssssssssddddddddfffffffgggggggggghhhhhhhhjjjjjjjjkkkkkkkkkllllllllzzzzzzzzzxxxxxxxxccccccvvccvvvvvvvbbbbbbbbbbbnnnnnnmmmmmmmmmMmMMMMMMMNNNNNNNNNNBBBBBBBVVVVVVVVVVCCCCCCCCCCZZZZZZZZZZZAAAAAAAAAAAAAAAAAAAAAAAASSAAAAAAAAAAAAAAAAAZZZZZZZZZZCCCCCCCCCVVVVVVVVVVVBBBBBBBBBNNNNNNNNNMMMMMMMmmMMmmmmmmmmnnnnnnnbbbbbbbbbvvvvvvvvccccccccccxxxxxxxxzzzzzzzlllllllklkkkkkkkkjjjjjjjjhhhhhhhghggggggggggfffffffddddddddssssssssaaaaaaaapppppppppiiiiiiiiuuuuuuyyyyyyyyyttttttttttrrrrrrrrrreeeeeewwwwwwwwqqqqqqqqq000000099999999998888888877777766666666555555555554444444433333333222222222111111<<<<<<<<,,,,,,,,,,>>>>>>>>>::::::::;;;;;;;;------=--======********&&&&&&&&&&%%%%%%%$%$$$$$$##########@@@@@@+++++++++++OOOOOOOOooooooXXXXXXXX..........            tZZZZZZZZZZZZZZZFFFFFFFFFFFFFFFFFFFFZZZZZZZZZZZZZZZZZZZZ",
"ZZZZZZZZZZZZZZZZZZZZFFFFFFFFFFFFFFFFFFFFZZZZZZZZZZZZZZZnppppaaaaaaaasssssssssddddddddffffffffggggggggghhhhhhhhjjjjjjjjkkkkkkkkkllllllllzzzzzzzzxxxxxxxccccccccvvccvvvvvvvbbbbbbbbnbnnnnnnnmmmmmmmmmmMMMMMMMNNNNNNNNNNNBBBBBBBBVVVVVVVVCCCCCCCCCCZZZZZZZZZZZAAAAAAAAAAAAAAAAASSSSAAAASSAAAAAAAAAAAAAAAAAAZZZZZZZZZZZCCCCCCCVVCVVVVVVVVVBBBBBBBBBNNNNNNNNNMMMMMMmmmmmmmmmmmnnnnnnnbbbbbbbbbbvvvvvvvvcccccccccxxxxxxxxxzzzzzzllllllllllklkkkkkkjjjjjjjjjhhhhhhhhgggggggggffffffffddddddddssssssssaaaaaaaappppppppiiiiiiiiuuuuuuuuyyyyyyyyytttttttrrrrrrrrrrereeeeeeewwwwwwqqqqqqqqqq000000009999999998888888877777766666666556555555554444444433333333222222211111111<<<<<<<<<,,,,,,,>>>>>>>>>:>::::::::;;;;;;-;------=--========******&&&&&&&&&&%%%%%%%%%$$$$$$$########@@@@@@@@++@@++++++OOOOOOooooooooXXXXXXXX..X......             =CZZZZZZZZZZZZZZFFFFFFFFFFFFFFFFFFFFZZZZZZZZZZZZZZZZZZZZ",
"ZZZZZZZZZZZZZZZZZZZZFFFFFFFFFFFFFFFFFFFFZZZZZZZZZZZZZZZjppppaaaaaaaassssssssdddddddddffffffffgggggggghhhhhhhhhjjjjjjjjkkkkkkkkllklllllllzzzzzzzxxxxxxxxcccccccvvccvvvvvvbbbbbbbbbnbnnnnnnmmmmmmmmmmmMMMMMMMNNNNNNNNBNNBBBBBBVVVVVVVVVVCCCCCCCCCZZZZZZZZZZZAAAAAAAAAAAAAAASSSSSSSAAAASSSSSSSAAAAAAAAAAAAAAZZZZZZZZZZZCCCCCCCVCVVVVVVVVVBBBBBBBBBNNNNNNNNMMMMMMMMMmmmmmmmmmnnnnnnnbbbbbbbbbbvvvvvvvvccvccccccxxxxxxxxxzzzzzzllllllllllkkkkkkkkjjjjjjjjjhhhhhhhhggggggggfffffffffddddddddssssssssaaaaaaaaapppppppiiiiiiiiiuuuuuuyyyyyyyyyttttttttrrrrrrrreeereeeeeeewwwwwwqqqqqqqq0q000000909999999998888888877777766666666655555555554444444433333333222222221111111<<<<<<<<<<,,,,,,>>>>>>>>>:>::::::::;;;;;;;;---------========******&&&&&&&&&&%%%%%%%%%$$$$$$$$########@@@@@@@@+@@++++++OOOOOOooooooooXXXXXXXX..X......              cZZZZZZZZZZZZZZFFFFFFFFFFFFFFFFFFFFZZZZZZZZZZZZZZZZZZZZ",
"ZZZZZZZZZZZZZZZZZZZZFFFFFFFFFFFFFFFFFFFFZZZZZZZZZZZZZZVpppppaaaaaaaassssssssddddddddfffffffffgggggggghhhhhhhhhjjjjjjjjkkkkkkkkklllllllllzzzzzzzxxxxxxxccccccccccvcvvvvvvbvbbbbbbbnnnnnnnnmmmmmmmMmMMMMMMMMNNNNNNNNNBBBBBBBBBVBVVVVVVVVVCCCCCCCCZCZZZZZZZZAAAAAAAAAAAAASSAAAASSSSSSSSSSSSSSAAAAAAAAAAAAAAAAZZZZZZZZCZCCCCCCCCCCVVVVVVBBBBBBBBBBNNNNNNNNNMMMMMMMMMMmmmmmmmnnnnnnnnnnbbbbbbbbvvvvvvvvvvvccccccxcxxxxxxzzzzzzzzlllllllllkkkkkkkkkjjjjjjjjhhhhhhhhggggggggfffffffffffddddddssssssssaaaaaaaaappppppppiiiiiiiuuuuuuuuuuyyyyyyttttttttrrrrrrrrrereeeeeeeewwwwwwqqqqqqqq00000000900999999998888887877777776666666666555555554444444433333333222222221111111<<<<<<<<<<,,,,,,>>,>>>>>>::::::::;;;;;;;;-;-------==========********&&&&&&%%%%%%%%%%%$$$$$$$$#######@@@@@@@@@+++++++++OOOOOOooooooooXXXXXXXXXXX......              9ZZZZZZZZZZZZZZFFFFFFFFFFFFFFFFFFFFZZZZZZZZZZZZZZZZZZZZ",
"ZZZZZZZZZZZZZZZZZZZZFFFFFFFFFFFFFFFFFFFFZZZZZZZZZZZZZZvpppppaaaaaaaassssssssddddddddfffffffffgggggggghhhhhhhhjjjjjjjjjkkkkkkkkkkllllllllzzzzzzzxxxxxxxccccccccccvvvvvvvvvvbbbbbbnnnnnnnnnmmmmmmmMMMMMMMMMMNNNNNNNNNBBBBBBBBBBBVVVVVVVVVCCCCCCCCZZZZZZZZZAAAAAAAAAAAASSSSASSSSSSSSSSSSSSSSSSSAAAAAAAAAAAAAAAZZZZZZZCCZCCCCCCCCCVVVVVVVBBBBBBBBBNNNNNNNNMMMMMMMMMMMMmmmmmmnnnnnnnnnnbbbbbbbbvvvvvvvvvvvccccccxcxxxxxxxzzzzzzzlllllllllkkkkkkkkkjjjjjjjjhhhhhhhhgggggggggffffffffffddddddssssssssaaaaaaaaapppppppiiiiiiiiuuuuuuuuuuyyyyyyttttttttrrrrrrrrreeeeeeeeeewwwwwwwqqqqqqq00000000000999999998888887777777776666666666555555554444444433333333322222221111111<<<<<<<<<<,,,,,,,>,>>>>>>::::::::;:;;;;;;-;-------==========********&&&&&&%%%%%%%%%%%$$$$$$$$#######@@@@@@@@@@++++++++OOOOOOooooooooXXXXXXXXX.X......              @CZZZZZZZZZZZZZFFFFFFFFFFFFFFFFFFFFZZZZZZZZZZZZZZZZZZZZ",
"ZZZZZZZZZZZZZZZZZZZZFFFFFFFFFFFFFFFFFFFFZZZZZZZZZZZZZZhppppaaaaaaaaassssssssddddddfdfffffffffgggggggghhhhhhhhjjjjjjjjjkkkkkkkkllllllllzzzzzzzzzxxxxxxccccccccvcvvvvvvvvvvvbbbbbbbbnnnnnnnmmmmmmMmMMMMMMMMMNNNNNNNNBBBBBBBBBVVVVVVVVVVVCCCCCCCZZZZZZZZZZAAAAAAAAAAAASSSSSSSSSSSSSSSSSSSSSSSSSASSSAAAAAAAAAAAZZZZZZZZCZCCCCCCCVCVVVVVVVBVBBBBBBBNNNNNNNNNNNMMMMMMmMMMmmmmmmmnnnnnnnnbbbbbbbbbvvvvvvvvvcccccccccxxxxxxxzzzzzzzzlllllllllkkkkkkkkkjjjjjjjhhhhhhhhhggggggggffffffffddddddddsssssssssaaaaaaaappppppipiiiiiiuuuuuuuuuuuyyyyyytttttttttrrrrrrrrrreeeeeeeewwwwwwwqqqqqqq000000000009999999988888877777777776666666655555555545444444333333333222222221111111<<<<<<<<<,,,,,,,,,>>>>>>::::::::;;;;;;;;-;-------========**********&&&&&&%%%%%%%%%$$$$$$$$$#######@@@@@@@@+@@++++++++OOOOOOOoooooooooXXXXXXX.X......               jZZZZZZZZZZZZZFFFFFFFFFFFFFFFFFFFFZZZZZZZZZZZZZZZZZZZZ",
"ZZZZZZZZZZZZZZZZZZZZFFFFFFFFFFFFFFFFFFFFZZZZZZZZZZZZZVpppppaaaaaaaaassssssssddddddfdfffffffffgggggggghhhhhhhhjjjjjjjjkkkkkkkkkllllllllzzzzzzzzxxxxxxxccccccccvcvvvvvvvvvvvbbbbbbnbnnnnnnmmmmmmmMmMMMMMMMMNNNNNNNNNBBBBBBBBBVVVVVVVVVVVCCCCCCCZZZZZZZZZAAAAAAAAAAAASSSSSSSSSSSSSSSSSSSSSSSSSSSASSSAAAAAAAAAAAZZZZZZZCZZCCCCCCCCCVVVVVVBVVBBBBBBNNNNNNNNNNNMMMMMMmMMMMmmmmmmnnnnnnnnbbbbbbbbvvvvvvvvvcccccccccccxxxxxxzzzzzzzzlllllllllkkkkkkkkkjjjjjjjhhhhhhhhhggggggggffffffffddddddddsssssssssaaaaaaaappppppppiiiiiiuuuuuuuuuyyyyyyyyttttttttrrrrrrrrrrreeeeeeeewwwwwwwwqqqqqq000000000909999999988888877777777776666666555555555545444444333333333222222221111111<<<<<<<<<,,,,,,,,,>>>>>>::::::::;:;;;;;;-;-------========**********&&&&&&%%%%%%%%%$$$$$$$$$#######@@@@@@@@+++++++++++OOOOOOooooooooooXXXXXXX.X...... .             6ZZZZZZZZZZZZZFFFFFFFFFFFFFFFFFFFFZZZZZZZZZZZZZZZZZZZZ",
"ZZZZZZZZZZZZZZZZZZZZFFFFFFFFFFFFFFFFFFFFZZZZZZZZZZZZZcpppppaaaaaaaasssssssssddddddddffffffggggggggghhhghhhhhhjjjjjjjjkkkkkkkkkllllllllllzzzzzzxxxxxxxccccccccvvvcvvvvvvbbbbbbbbbbbnnnnnnmmmmmmMMmmMMMMMMMNNNNNNNNNNNBBBBBBVVVVVVVVVVCCCCCCCCZZZZZZZZZZAAAAAAAAAAAAAASSSSSSSSSSSSSSSSSSSSSSSSSSSSSSAAAAAAAAAAAZZZZZZZCZCCCCCCCCCVVVVVVVVVBBBBBBNNBNNNNNNNNMMMMMMMMMMMmmmmmmnnnnnnnnbbbbbbbbbvvvvvvcccvcccccccccxxxxxxzzzzzzzzlllllllklkkkkkkjkjjjjjjjjhhhhhhhhgggggggggffffffffffddddddsssssssssaaaaaaaappppppppiiiiiiiuuuuuuuuuuyyyyyyttttttttrrrrrrrrrrreeeeeeewwwwwwwqwqqqqqqqq00000009999999999888888887777777776666666655555555444444444333333332222222211111111<<<<<<,,,,,,,,,,>>>>>>>>>::::::;;;;;;;;;---------=======********&&&&&&&&&&%%%%%%%%%$$$$$$########@@@@@@@@@@+++++++++OOOOOOooooooooooXXXXXXX........ .             +VZZZZZZZZZZZZFFFFFFFFFFFFFFFFFFFFZZZZZZZZZZZZZZZZZZZZ",
"ZZZZZZZZZZZZZZZZZZZZFFFFFFFFFFFFFFFFFFFFZZZZZZZZZZZZZgpppppaaaaaaaasssssssssddddddddffffffgggggggghhghghhhhhhjjjjjjjjkkkkkklklllllllllllzzzzzzxxxxxxxccccccccvvvcvvvvvvvbbbbbbbbbbnnnnnnmmmmmmMMMMMMMMMMMMNNNNNNNNNBBBBBBBVVVVVVVVVVCCCCCCCCZZZZZZZZZAAAAAAAAASSSASSSSSSSSSSSSSSSSSSSSSSSSSSSSSSSSSAAAAAAAAAAZZZZZZZCZZCCCCCCCVVVVVVVVVVBBBBBBBNBNNNNNNNNMMMMMMMMMMMmmmmmmnnnnnnnbnbbbbbbbbvvvvvvcccvcccccccccxxxxxxzzzzzzzzlllllllkllkkkkkkkkjjjjjjjhhhhhhhhhggggggggffffffffffddddddsssssssssaaaaaaaappppppppiiiiiiuuuuuuuuuuuyyyyyytttttttttrrrrrrrrrrereeeeewwwwwwwqwqqqqqqq000000009999999999888888887777777766666666555555554444444444333333222222222211111111<<<<<<,,,,,,,,,,>>>>>>>>>::::::;;;;;;;;;---------=======********&&&&&&&&&%%%%%%%%%%$$$$$$$#######@@@@@@@@@++++++++++OOOOOOooooooooooXXXXXXX........ .              hZZZZZZZZZZZZFFFFFFFFFFFFFFFFFFFFZZZZZZZZZZZZZZZZZZZZ",
"ZZZZZZZZZZZZZZZZZZZZFFFFFFFFFFFFFFFFFFFFZZZZZZZZZZZZBppppppaaaaaaaasssssssdsddddddddffffffgggggggggghhhhhhhhhjjjjjjjjkkkkkkkkllllllllllzzzzzzzxxxxxxxxccccccccvvcvvvvvvvbbbbbbbnbnnnnnnnmmmmmmmMmMMMMMMMMMMNNNNNNBNBBBBBBBVVVVVVVVCCCCCCCCCCZZZZZZZZAAAAAAAAAAASSSSSSSSSSSSSSDDDDDDDDSSSSSSSSSSSSSSSAAAAAAAAAAZZZZZZZZCCCCCCCCVVVVVVVVVVVBBBBBBNBNNNNNNNMMMMMMMMMMMMmmmmmmnnnnnnnbbbbbbbbbvvvvvvvvccvvccccccccxxxxxxzzzzzzzzlllllllkllkkkkkkkkjjjjjjjhhhhhhhhhggggggggffffffffffddddddsssssssssaaaaaaaappppppppiiiiiiiuuuuuuuuyyyyyyyyytttttttrrrrrrrrrrreeeeeeewwwwwwwqwqqqqqqq000000000099999988888888887777777666666665555555544444444443333333232222222211111111<<<<<<,,,,,,,,,>>>>>>>>>>::::::;:;;;;;;-----------========******&&&&&&&&&&%%%%%%%%%$$$$$$########@#@@@@@@@++@@++++++OOOOOOooooooooXXXXXXXXX........ .              4ZZZZZZZZZZZZFFFFFFFFFFFFFFFFFFFFZZZZZZZZZZZZZZZZZZZZ",
"ZZZZZZZZZZZZZZZZZZZZFFFFFFFFFFFFFFFFFFFFZZZZZZZZZZZZxppppppaaaaaaaasssssssddddddddddffffffgggggggggghhhhhhhhhjjjjjjjjkkkkkkkklllllllllzzzzzzzzxxxxxxxxccccccccvvcvvvvvvbbbbbbbbnbnnnnnnnmmmmmmmMmmMMMMMMMMNNNNNNNBNBBBBBBVVVVVVVVVCCCCCCCCCZZZZZZZZZAAAAAAAAAASSSSSSSSSSSSSDDDDDDDDDDDDSSSSSSSSSSSSSSAAAAAAAAAZZZZZZZZCCCCCCCCVVVVVVVVVVVBBBBBBNBNNNNNNNMMMMMMMMmMMMmmmmmmmnnnnnnbbbbbbbbbvvvvvvvvvvvvccccccccxxxxxxzzzzzzzzzllllllklkkkkkkkkjjjjjjjjhhhhhhhhhggggggggffffffffdddddddddssssssssaaaaaaaappppppppiiiiiiiuuuuuuuuyyyyyyyyyyttttttrrrrrrrrrereeeeeeeewwwwwwqwqqqqqq00q0000000099999988888888787777777666666665555555544444444443333333332222222211111111<<<<<<,,,,,,,,,>>>>>>>>>>::::::;:;;;;;;-----------=======*******&&&&&&&&&&%%%%%%%%%$$$$$$$#########@@@@@@@++@@++++++OOOOOOOOooooooXXXXXXXXXXX...... .              OVZZZZZZZZZZZFFFFFFFFFFFFFFFFFFFFZZZZZZZZZZZZZZZZZZZZ",
"ZZZZZZZZZZZZZZZZZZZZFFFFFFFFFFFFFFFFFFFFZZZZZZZZZZZZfppppppaaaaaaaassssssssdddddddffffffffffgggggggghhhhhhhhjjjjjjjjjkkkkkkkkllllllllzzzzzzzxxxxxxxxxxccccccccccvvvvvvvbbbbbbbbnnnnnnnnmmmmmmmmmMMMMMMMMNNNNNNNNNBBBBBBBBVVVVVVVVVCCCCCCCCZZZZZZZZZAAAAAAAAAAAASSSSSSSSSDDDDDDDDDDDDDDDDSSSSSSSSSSSSSAAAAAAAAAAZZZZZZZZZCCCCCCCCVVVVVVVVVBBBBBBNBBNNNNNNNNMMMMMMmmmmmmmmmmnnnnnnnnnbbbbbbbvvvvvvvvcvccccccccxxxxxxxxzzzzzzzzzllllllkkkkkkkkkkjjjjjjjjhhhhhhhhhggggggggffffffffdddddddddssssssssaaaaaaaappppppppiiiiiiiiuuuuuuuyyyyyyyyyyttttttrrrrrrrrrerrreeeeeewwwwwwqqqqqqqqqqq00000000999999898888887877777776666666655555555544444444433333333322222222111111<<<<<<<<<<,,,,,,,>>>>>>>>::::::::::;;;;;;-----------========******&&&&&&&&&&&%%%%%%%%$$$$$$$#########@@@@@@@@@++++++++OOOOOOOOooooooXXXXXXXXXXX......                 fZZZZZZZZZZZFFFFFFFFFFFFFFFFFFFFZZZZZZZZZZZZZZZZZZZZ",
"ZZZZZZZZZZZZZZZZZZZZFFFFFFFFFFFFFFFFFFFFZZZZZZZZZZZBpppppppaaaaaaaassssssssddddddfffffffffffgggggggghhhhhhhhjjjjjjjjjkkkkkkkkllllllllzzzzzzzxxxxxxxxxxccccccccvvvvvvvvbbbbbbbbbnnnnnnnnmmmmmmmmmMMMMMMMMNNNNNNNNBBBBBBBBBVVVVVVVVVCCCCCCCCZZZZZZZZZAAAAAAAAAAAASSSSSSSSDDDDDDDDDDDDDDDDDSSDSSSSSSSSSSSAAAAAAAAAZZZZZZZZZCCCCCCCCCVVVVVVVVBBBBBBBBBNNNNNNNNMMMMMMmmmmmmmmmmmnnnnnnnnbbbbbbbvvvvvvvvccccccccccxxxxxxxxzzzzzzzzzllllllklkkkkkkkkjjjjjjjjjhhhhhhhhggggggggffffffffdddddddddssssssssaaaaaaaappppppppiiiiiiiuuuuuuuuuyyyyyyyyyttttttrrrrrrrrrerreeeeeeewwwwwwqqqqqqqqqqq00000000999999998888888877777776666666655555555544444444433333333322222222111111<<<<<<<<<<<,,,,,,>>>>>>>>::::::::::;;;;;;-----------========******&&&&&&&&&&&%%%%%%$$$$$$$$$$########@@@@@@@@@++++++++OOOOOOOOoooooooXXXXXXXXXX......                 3ZZZZZZZZZZZFFFFFFFFFFFFFFFFFFFFZZZZZZZZZZZZZZZZZZZZ",
"ZZZZZZZZZZZZZZZZZZZZFFFFFFFFFFFFFFFFFFFFZZZZZZZZZZZxpppppppaaaaaaaassssssssddddddddfffffffffgggggggghhhhhhhhjjjjjjjjjkkkkkkkkklllllllzzzzzzzxxxxxxxxxxccccccvvvvvvvvvvbbbbbbbbbbnnnnnnnmmmmmmmmmmMMMMMMMNNNNNNNNNNBBBBBBBVVVVVVVVVVCCCCCCCZZZZZZZZAAAAAAASAAAASSSSSSSSDDDDDDDDDDDDDDDDDDDDDDSSSSSSSSSSSAAAAAAAAAZZZZZZZZCCCCCCCCCVVVVVVVVBBBBBBBBBNNNNNNNNMMMMMMMMmmmmmmmmnnnnnnnnnbbbbbbbvvvvvvvvvcccccccccxxxxxxxxzzzzzzzzzllllllklkkkkkkkkjjjjjjjjjhhhhhhhhggggggggggffffffdddddddddsdssssssaaaaaapapppppppppiiiiiiiiuuuuuuuuyyyyyyyyttttttttrrrrrrrereeeeeeeewwwwwwwqqqqqqqq0q00000099999999998888888877777777766666666555555554444444433333333222222212111111<<<<<<<<<<<,,,,,,,>>>>>>>:::::::::;;;;;;;;;;------=-======**********&&&&&&&&&%%%%%%%%$$$$$$$########@@@@@@@@@@++++++++OOOOOOooooooooooXXXXXXXX........                oVZZZZZZZZZZFFFFFFFFFFFFFFFFFFFFZZZZZZZZZZZZZZZZZZZZ",
"ZZZZZZZZZZZZZZZZZZZZFFFFFFFFFFFFFFFFFFFFZZZZZZZZZZZfpppppppaaaaaaaassssssssddddddddfffffffffgggggggghhhhhhhhjjjjjjjjkkkkkkkkkklllllllzzzzzzzzxxxxxxxxxcccccccvvvvvvvvvbvbbbbbbbbbnnnnnnmmmmmmMmmmMMMMMMMNNNNNNNNBNBBBBBBVVVVVVVVVVVCCCCCCZZZZZZZZZAAAAAAAAASASSSSSSSSDDDDDDDDDDDDDDDDDDDDDDDSSSSSSSSSSSAAAAAAAAAZZZZZZZCCCCCCCCCCVVVVVVVBVBBBBBBBBNNNNNNNMMMMMMMMMMmmmmmmmnnnnnnnnnbbbbbbbvbvvvvvvccccccccccxxxxxxxxxzzzzzzlzllllllklkkkkkkkkjjjjjjjjjhhhhhhhhggggggggggffffffdddddddddsdssssssaaaaaappppppppippiiiiiiiuuuuuuuyyyyyyyyyytttttttttrrrrrrrreeeeeeeewwwwwwwwqqqqqqq0000000099999999998888888877777777766666666555555554444444433333332222222211111111<<<<<<<<<<<,,,,,,,,>>>>>>::::::::;;;;;;;;;;;------========**********&&&&&&&&&%%%%%%$$$$$$$$$#######@@@@@@@@@+@++++++++OOOOOOooooooooXXXXXXXXX..........                dZZZZZZZZZZFFFFFFFFFFFFFFFFFFFFZZZZZZZZZZZZZZZZZZZZ",
"FFFFFFFFFFFFFFFFFFFFZZZZZZZZZZZZZZZZZZZZFFFFFFFFFFApppppppaaaaaaaaassssssssddddddddfffffffffgggggggghhhhhhhhjjjjjjkjkkkkkkkkkklllllllzzzzzzzzxxxxxxxccccccccccccvvvvvvbbbbbbbbnnnnnnnnnmmmmmmmmMmMMMMMMNNNNNNNNNBBBBBBBBVVVVVVVVCCCCCCCCCZZZZZZZZZAAAAAAAASSSSSSSSSSDDDDDDDDDDDDDDDDDDDDDDDDDDDDSSSSSSAAAAAAAAAAZZZZZZZZZCCCCCCVVVVVVVVVVVBBBBBBNNNNNNNNNNMMMMMMMMMmmmmmmmmmnnnnnnbbbbbbbbbbvvvvvvvvccccccccxxxxxxxxxzzzzzzzzllllllllkkkkkkkkjjjjjjjjjhhhhhhhhggggggggggffffffffdddddddssssssssaaaaaaaapppppppppiiiiiiiiuuuuuuuuyyyyyyttttttttttrrrrrrrrrereeeeeeewwwwwwqqqqqqqq0q00000099999999998888888877777777766666666555555554444444433333333322222222111111<<<<<<<<<<<,,,,,,,,>>>>>>:::::::::;;;;;;;;;;------========*********&&&&&&&&%&%%%%%%%%$$$$$$$$######@@@@@@@@@@@++++++++OOOOOOooooooooooXXXXXXXXX......                  5FFFFFFFFFFZZZZZZZZZZZZZZZZZZZZFFFFFFFFFFFFFFFFFFFF",
"FFFFFFFFFFFFFFFFFFFFZZZZZZZZZZZZZZZZZZZZFFFFFFFFFFbpppppppaaaaaaaaassssssssddddddddffffffgfggggggggghhhhhhhhjjjjjjkkkkkkkkkkkkllllllllzzzzzzzxxxxxxxccccccccccccvvvvvvbbbbbbbbnnnnnnnnnmmmmmmmMMmMMMMMMMNNNNNNNNBBBBBBBBBVVVVVVVCCCCCCCCCZZZZZZZZAAAAAAAAASSSSSSSSSSDDDDDDDDFFDDDDDDFDDDDDDDDDDDSSSSSSAAAAAAAAAAAZZZZZZZZCCCCCCCVVVVVVVVVBBBBBBBNNNNNNNNNNMMMMMMMMMmmmmmmmmmnnnnnnbbbbbbbbbbvvvvvvvvvvccccccxxxxxxxxxzzzzzzzzllllllllkkkkkkkkjjjjjjjjjhhhhhhhhggggggggggfffffffddddddddssssssssaaaaaaaapppppppppiiiiiiiiuuuuuuyyyyyyyyttttttttttrrrrrrrrrereeeeeeewwwwwwqqqqqqqqqq00000099999999998888888877777777766666666555555554444444443333333322222222111111<<<<<<<<<<,,,,,,,,,>>>>>>>::::::::;;;;;;;;;;------========**********&&&&&&&%%%%%%%%%%$$$$$$$########@@@@@@@@@@++++++++OOOOOOooooooooooXXXXXXXXX.......                 ODFFFFFFFFFZZZZZZZZZZZZZZZZZZZZFFFFFFFFFFFFFFFFFFFF",
"FFFFFFFFFFFFFFFFFFFFZZZZZZZZZZZZZZZZZZZZFFFFFFFFFFhpppppppaaaaaaaaassssssssddddddddffffffggggggggggghhhhhhhhjjjjjjjjkkkkkkkkkkkllllllllzzzzzzxxxxxxcccccccccccvvvvvvvvbbbbbbbbnnnnnnnnmmmmmmmmMMmMMMMMMMNNNNNNNBBBBBBBBBVVVVVVVVVCCCCCCCZZZZZZZZZAAAAAAAAASSSSSSSSSDDDDDDDDDFFFFFFDDDFDDDDDDDDDDSSSSSSSAASAAAAAAAZZZZZZZZCCCCCCCVVVVVVVVVVBBBBBBBBNNNNNNNNNMMMMMMMmmmmmmmmmmnnnnnnbbbbbbbbvvvvvvvvvvvvccccccccxxxxxxxzzzzzzzzlllllllllkkkkkkkkjjjjjjjjhhhhhhhhggggggggfffffffffddddddddssssssssaaaaaaaapppppppppiiiiiiuuuuuuuuyyyyyyyyyttttttttrrrrrrrrrreeeeeeeewwwwwwqqqqqqqqqqq000000009999999988888888777777776666666655555555544444444433333333222222221111111<<<<<<<,,,,,,,,,>,>>>>>>>>::::::;;;;;;;;;;;--------======********&&&&&&&&&%%%%%%%%$$$$$$$$########@@@@@@@@@@@++++++++OOOOOOOoooooooXXXXXXXXX.X........                 lFFFFFFFFFZZZZZZZZZZZZZZZZZZZZFFFFFFFFFFFFFFFFFFFF",
"FFFFFFFFFFFFFFFFFFFFZZZZZZZZZZZZZZZZZZZZFFFFFFFFFSppppppppaaaaaaaaassssssssddddddddffffffggggggggggggghhhhhhjjjjjjjkkkkkkkkkkklllllllllzzzzzzxxxxxxccccccccccvvvvvvvvvbbbbbbbbnnnnnnnnmmmmmmmmMMmMMMMMMNMNNNNNNBBBBBBBBBBVVVVVVVVCCCCCCCZZZZZZZZZAAAAAAAASSSSSSSSSDDDDDDDDDDFFFFFFFFFDDDDDDDDDDDSSSSSSSASSSAAAAAAZZZZZZZZZCCCCCCVVVVVVVVVVBBBBBBBBNNNNNNNNNMMMMMMmmmmmmmmmmnnnnnnnbbbbbbbbbvvvvvvvvvvvccccccccxxxxxxxzzzzzzzzllllllllkkkkkkkkkjjjjjjjjhhhhhhhhggggggggfffffffffddddddddsdssssssaaaaaaaapppppppppiiiiiiiuuuuuuuyyyyyyyyyytttttttrrrrrrrreeeeeeeeeewwwwwwqqqqqqqqqqq000000009999999988888888777777776666666655555555544444444433333333222222221111111<<<<<<<,,,,,,,,,>,>>>>>>:>::::::;;;;;;;;;;;--------======********&&&&&&&&&%%%%%%%%%%$$$$$$#########@@@@@@@@@+++++++++OOOOOOOOooooooXXXXXXXXX.X...... .                 8FFFFFFFFFZZZZZZZZZZZZZZZZZZZZFFFFFFFFFFFFFFFFFFFF",
"FFFFFFFFFFFFFFFFFFFFZZZZZZZZZZZZZZZZZZZZFFFFFFFFFnppppppppaaaaaaaaasssssssddddddddfffffffffgggggghgghhhhhhhhjjjjjjjjkkkkkkkklllllllllzlzzzzzzxxxxxxcxccccccvvvvvvvvvvvvvbbbbbbnnnnnnnnmmmmmmmmmmMMMMMMMNMNNNNNNBBBBBBBBVVVVVVVVVVVCCCCCCZZZZZZZZAAAAAAASASSSSSSSDDDDDDDDDDDDDDDDFFDDFFDDFDDDDDDDSSSSSSSASAAAAAAAAZZZZZZZCZCCCCCCCCVVVVVVVVBBBBBBBBNNNNNNNNMMMMMMMmMmMmmmmmmnnnnnnnnnbbbbbbbvvvvvvvccvvcccccccccxxxxxxzzzzzzzzllllllklkkkkkkkkkjjjjjjjjhhhhhhhhggggggggfffffffffddddddddssssssssaaaaaaaapppppppiiiiiiiiuuuuuuuuuuyyyyyytttttttttrrrrrrrrerreeeeeeewwwwwwqqqqqqqqqqq0000000099999999888888887777777666666665555555555444444444333333232222221111111111<<<<<<,,<,,,,,,>>>>>>>>>>::::::;:;;;;;;;----------=======*******&*&&&&&&&%%%%%%%%%%$$$$$$#$########@@@@@@@++++++++++OOOOOOooooooooXXXXXXXXX........ .                 #DFFFFFFFFZZZZZZZZZZZZZZZZZZZZFFFFFFFFFFFFFFFFFFFF",
"FFFFFFFFFFFFFFFFFFFFZZZZZZZZZZZZZZZZZZZZFFFFFFFFFjppppppppaaaaaaaassssssssddddddddfffffffffgggggghghhhhhhhhhjjjjjjjjkkkkkkkklllllllllzzzzzzzzxxxxxxcxccccccvcvvvvvvvvvvvbbbbbbnnnnnnnnmmmmmmmmMMMMMMMMMNNNNNNNNBBBBBBBBVVVVVVVVVVVCCCCCCZZZZZZZZAAAAAAAAASSSSSSSDDDDDDDDDDDDFDFFFFFFFFFDFDDDDDDDSSSSSSSASAAAAAAAAZZZZZZZCCCCCCCCCCVVVVVVVVBBBBBBBBNNNNNNNNNMMMMMMMMmMmmmmmmnnnnnnnnnbbbbbbbvvvvvvvcccccccccccccxxxxxxzzzzzzzzllllllklkkkkkkkkkjjjjjjjjhhhhhhhhggggggggfffffffffddddddddssssssssaaaaaaaapppppppipiiiiiiuuuuuuuuuuyyyyyytttttttttrrrrrrrrerreeeeeeewwwwwwwqqqqqqqq000000000099999999888888887777777666666665555555554444444444333333332222221111111111<<<<<<,,<,,,,,,>>>>>>>>>>::::::;:;;;;;;-----------=======*********&&&&&&&%%%%%%%%%%$$$$$$#$########@@@@@@@++++++++++OOOOOOooooooooXXXXXXXXX........ .                  cFFFFFFFFZZZZZZZZZZZZZZZZZZZZFFFFFFFFFFFFFFFFFFFF",
"FFFFFFFFFFFFFFFFFFFFZZZZZZZZZZZZZZZZZZZZFFFFFFFFSpppppppppaaaaaaaasssssssssdddddddfffffffffgggggghhhhhhhhhhhjjjjjjjjkkkkkklkllllllllzzzzzzzzzxxxxxxxxccccccvcvvvvvvvvvbbbbbbbbnnnnnnnnnnmmmmMMMMMMMMMMMNNNNNNNNBBBBBBBBVVVVVVVVCVVCCCCCCZZZZZZZZAAAAAAAAASSSSSSSDDDDDDDDDDFFFFFFFFFFFDDFFFDDDDDDSSSSSSSASAAAAAAAAAZZZZZZCCCCCCCCCCVVVVVVBBBBBBBBBBBNNNNNNNMMMMMMMMMMMmmmmmmnnnnnnnnnbbbbbbbbvvvvvvcccccccccccccxxxxxzzzzzzzzzllllllklkkkkkkkkkjjjjjjjjhhhhhhhhggggggggfffffffffddddddddssssssssaaaaaapappppppppiiiiiiiuuuuuuuuuuyyyyyyttttttttttrrrrrrrerreeeeeeewwwwwwwwqqqqqqq000000000999999988888888777777777666666665555555544444444443333333332222222211111111<<<<<<<<<,,,,,,>>>>>>>>>:::::::::;;;;;;---------==========********&&&&&&&&%%%%%%%%%$$$$$$#$#######@@@@@@@@++++++++++OOOOOOoooooooooXXXXXXXXX....... .                  qFFFFFFFFZZZZZZZZZZZZZZZZZZZZFFFFFFFFFFFFFFFFFFFF",
"FFFFFFFFFFFFFFFFFFFFZZZZZZZZZZZZZZZZZZZZFFFFFFFFMippppppppaaaaaaaasssssssssdddddddfffffffffgggggghghhhhhhhhhjjjjjjjjkkkkkkllllllllllzzzzzzzzzxxxxxxxxccccccvcvvvvvvvvbbbbbbbbbnbnnnnnnnnmmmmMMMMMMMMMMMNNNNNNNNBNBBBBBBVVVVVVVVCVCCCCCCCZZZZZZZZAAAAAAAAAASSSSSSSDDDDDDDDFFFFFFFFFFFFFDDFFDDDDDDDSSSSSSASAAAAAAAAAZZZZZZCCCCCCCCCCVVVVVVBBBBBBBBBBBNNNNNNNMMMMMMMMMMMmmmmmmmnnnnnnnnbbbbbbbbvvvvvvcccccccccccccxxxxxzzzzzzzzzllllllklkkkkkkkkkjjjjjjjjhhhhhhhhggggggggfffffffffddddddddssssssssaaaaaapppppppppppiiiiiiuuuuuuuuyyyyyyyytttttttttttrrrrrrrrreeeeeeewwwwwwwwqqqqqqq000000000999999988888888777777777666666665555555544444444443333333332222222211111111<<<<<<<<<,,,,,,>>>>>>>>::::::::::;;;;;;---------==========********&&&&&&&&&%%%%%%%%$$$$$$$$########@@@@@@@++++++++++OOOOOOOOooooooXXXXXXXXX........ .                  &FFFFFFFFZZZZZZZZZZZZZZZZZZZZFFFFFFFFFFFFFFFFFFFF",
"FFFFFFFFFFFFFFFFFFFFZZZZZZZZZZZZZZZZZZZZFFFFFFFFlippppppppaaaaaaaasssssssssddddddddffffffffgggggggghhhhhhhhhjjjjjjkjkkkkkkkkllllllllllzzzzzzzxxxxxxxcccccccccvvvvvvvvvvbbbbbbbbbnnnnnnmmmmmmMMMMMMMMMMNNNNNNNNNBNBBBBBBVVVVVVVVCCCCCCCCCZZZZZZZZAAAAAAAASASSSSSSDDDDDDDDDFFFFFFFFFFFFFFFFFDDDDDDDSSSSSSASAAAAAAAAAZZZZZZZZCCCCCCCCVVVVVVVVBBBBBBBBBNNNNNNNNMMMMMMMMmmmmmmmmmnnnnnnbbbbbbbbbbvvvvvvcccccccccccxxxxxxxxxxzzzzzzllllllkkkkkkkkkkkjjjjjjjjhhhhhhhhggggggggffffffffffdddddddssssssssaaaaaaaapppppppipiiiiiiuuuuuuuuuuyyyyyytttttttttrtrrrrrrrreeeeeeewwwwwwwqwqqqqqqq0q00000099999999898888888877777777666666655555555544444444433333333322222222111111<<<<<<<<<<,,,,,,,,,>>>>>>:::::::::;;;;;;;-;;--------========********&&&&&&&&&%%%%%%%$$$$$$$$$######@@@@@@@@@++++++++++OOOOOOOOooooooXXXXXXXXXXX......                     MFFFFFFFZZZZZZZZZZZZZZZZZZZZFFFFFFFFFFFFFFFFFFFF",
"FFFFFFFFFFFFFFFFFFFFZZZZZZZZZZZZZZZZZZZZFFFFFFFFaippppppppaaaaaaaasssssssssddddddddfffffffggggggggghhhhhhhhhjjjjjjjjkkkkkkkkklllllllzlzzzzzzzxxxxxxxcccccccccvvvvvvvvvvbbbbbbbbbnnnnnnmmmmmmMMMMMMMMMMNNNNNNNNNBNBBBBBBVVVVVVVVCCCCCCCCZZZZZZZZZAAAAAAAAAASSSSSSDDDDDDDDDFFFFFFFFFFFFFFDFDDDDDDDDSSSSSSSSAAAAAAAAAZZZZZZZZCCCCCCCCVVVVVVVVBBBBBBBBBNNNNNNNMMMMMMMMMmmmmmmmmmnnnnnnbbbbbbbbbbvvvvvvcccccccccccxxxxxxxxxzzzzzzzllllllkkkkkkkkkkkjjjjjjjjhhhhhhhhggggggggffffffffffdddddddssssssssaaaaaaaapppppppppiiiiiiuuuuuuuuuuyyyyyytttttttttrtrrrrrrrreeeeeeewwwwwwwqwqqqqqqq0000000099999999998888888877777777666666656555555544444444433333333322222222111111<<<<<<<<<<,,,,,,,,,>>>>>>:::::::::;;;;;;;;;;--------========********&&&&&&&&&%%%%%%$$$$$$$$$########@@@@@@@+@@++++++++OOOOOOOOooooooXXXXXXXXXXX.......                    uFFFFFFFZZZZZZZZZZZZZZZZZZZZFFFFFFFFFFFFFFFFFFFF",
"FFFFFFFFFFFFFFFFFFFFZZZZZZZZZZZZZZZZZZZZFFFFFFFViippppppppaaaaaaaasssssssssddddddffffffffgggggggggghhhhhhhhhjjjjjjjkkkkkkkkkkkllllllzzzzzzzzzxxxxxxcccccccccccvvvvvvvvbbbbbbbbnnnnnnnnmmmmmmmmMMMMMMMMMMNNNNNNNBBBBBBBBVBVVVVVVCVCCCCCCZZZZZZZZZAAAAAAAAAASSSSSSDDDDDDFFFFFFFFFFFFFFFFFDFDDDDDDDDSSSSSSSSAAAAAAAAAZZZZZZZZCCCCCCVVVVVVVVVVBBBBBBBBBNNNNNNMMMMMMMMMmmmmmmmmmnnnnnnnbbbbbbbbbbvvvvvvvvvvcccccccxxxxxxxxzzzzzzzzllllllklkkkkkkkkkjjjjjjjjhhhhhhhhggggggggffffffffffdddddddssssssssaaaaaaaapppppppiiiiiiiiuuuuuuuuyyyyyyyyyttttttttrrrrrrrrereeeeeeewwwwwwwqwqqqqqqq0000000000999999998888888877777777766666656555555554444444433333332222222211111111<<<<<<<<<<,,,,,,,,,>>>>>>:>::::::;;;;;;;;;;---------========********&&&&&&&&&%%%%%%%%$$$$$$########@@@@@@@@@@@@@++++++OOOOOOooooooooXXXXXXXX..X.......                    ,FFFFFFFZZZZZZZZZZZZZZZZZZZZFFFFFFFFFFFFFFFFFFFF",
"FFFFFFFFFFFFFFFFFFFFZZZZZZZZZZZZZZZZZZZZFFFFFFFciippppppppaaaaaaaasssssssssddddddffffffffgggggggggghhhhhhhhhjjjjjjjkkkkkkkkkkkllllllzzzzzzzzzxxxxxxcccccccccccvvvvvvvvbbbbbbbbnnnnnnnnmmmmmmmmMMMMMMMMMMNNNNNNNBBBBBBBBVBVVVVVVCVCCCCCCZCZZZZZZZAAAAAAAAAASSSSSSDDDDDDDFFFFFFFFFFFFFFFFDFDDDDDDDDSSSSSSSSAAAAAAAAAZZZZZZCZCCCCCCVVVVVVVVBVBBBBBBBBBNNNNNNMMMMMMMMmmmmmmmmmmnnnnnnnbbbbbbbbbbvvvvvvvvvvcccccccxxxxxxxxzzzzzzlzllllllllkkkkkkkkkjjjjjjjjhhhhhhhhggggggggffffffffffdddddddssssssssaaaaaaaappppppipiiiiiiiuuuuuuuuyyyyyyyyyytttttttrrrrrrrrereeeeeeeewwwwwwqwqqqqqqq0q00000000999999998888888877777777766666655555555554444444433333332222222221111111<<<<<<<<,<,,,,,,,,,>>>>>>:>::::::;;;;;;;;;;---------========********&&&&&&&&%%%%%%%%%$$$$$$#########@@@@@@@@@@@@++++++OOOOOOooooooooXXXXXXXX..X......                     XZFFFFFFZZZZZZZZZZZZZZZZZZZZFFFFFFFFFFFFFFFFFFFF",
"FFFFFFFFFFFFFFFFFFFFZZZZZZZZZZZZZZZZZZZZFFFFFFFfiiiippppppaaaaaaaassssssssddddddddfffffffgggggggggghhhhhhhhhjjjjjjjjkkkkkkllkkllllllzzzzzzzzzxxxxxxcxccccccvcvvvvvvvvvbbbbbbbbnnnnnnnnmmmmmmmmmMMMMMMMNNNNNNNNNBBBBBBBBVBVVVVVVCVCCCCCCZZZZZZZZZAAAAAAAAASSSSSSSDDDDDDFFDFFFFFFFFFFFFFFDFDDDDDDDSSSSSSSSSAAAAAAAAAZZZZZZCZCCCCCCVCVVVVVVBVBBBBBBBBNNNNNNNNMMMMMMMMMmmmmmmmmnnnnnnnbbbbbbbbbbvvvvvvvvvccccccccccxxxxxxzzzzzzlzllllllllkkkkkkkkjjjjjjjjjhhhhhhhhggggggggfffffffffddddddddssssssssaaaaaaaapppppppppiiiiiiiuuuuuuuyyyyyyyyyyttttttrrtrrrrrrereeeeeeeewwwwwwqqqqqqqqqqq00000000999999998888887877777777666666666555555554444444433333333322222221111111<<<<<<<<,,,,,,,,,>>>>>>>>>>::::::;;;;;;;;-;-------========********&&&&&&&&%%%%%%%%%%%$$$$$$#$#######@@@@@@@@@+@@++++++OOOOOOooooooooXXXXXXXX...........                    hFFFFFFZZZZZZZZZZZZZZZZZZZZFFFFFFFFFFFFFFFFFFFF",
"FFFFFFFFFFFFFFFFFFFFZZZZZZZZZZZZZZZZZZZZFFFFFFAiiippppppppaaaaaaaassssssssdddddddddfffffffggggggggghhhhhhhhhjjjjjjjjkkkkkkkkkkllllllzzzzzzzzzxxxxxxccccccccvccvvvvvvvvbbbbbbbbnnnnnnnnmmmmmmmmMMMMMMMMNNNNNNNNNNNBBBBBBBVVVVVVVCVCCCCCCZZZZZZZZZAAAAAAAASSSSSSSSDDDDDDDFDDFFFFFFFFFFFFDDFDDDDDDDSSSSSSSSSSAAAAAAAAZZZZZZZZCCCCCCCCVVVVVVVVBBBBBBBNNNNNNNNNNMMMMMMMMmmmmmmmmnnnnnnnbbbbbbbbbbvvvvvvvvvvccccccccxxxxxxxzzzzzzlzllllllllkkkkkkkkjjjjjjjjjhhhhhhhhggggggggffffffffdddddddddssssssssaaaaaaaapppppppppiiiiiiuuuuuuuuuyyyyyyyyyttttttrrtrrrrrrrrreeeeeeewwwwwwqqqqqqqq0qq00000000999999998888887777777777666666666555555554444444433333333322222221111111<<<<<<<<,,,,,,,,,>>>>>>>>>>::::::;;;;;;;;---------========********&&&&&&&&%%%%%%%%%%%$$$$$$#$######@#@@@@@@@@+++++++++OOOOOOooooooooXXXXXXXXX..........                    7FFFFFFZZZZZZZZZZZZZZZZZZZZFFFFFFFFFFFFFFFFFFFF",
"FFFFFFFFFFFFFFFFFFFFZZZZZZZZZZZZZZZZZZZZFFFFFFniiippppppppaaaaaaaasssssssddddddddddffffffffgggggggghhhhhhhhhjjjjjjjjkkkkkkkkkkllllllzzzzzzzzzxxxxxxxcccccccvcccvvvvvvbbbbbbbbbnnnnnnnnmmmmmmmMMMMMMMMMNNNNNNNNNBNBBBBBBBVVVVVVVCCCCCCCCZZZZZZZZZAAAAAAAASSSSSSSSSDDDDDDDDDDFFFFFFFFFFFFFFFDDDDDDSSSSSSSSSAAAAAAAAZZZZZZZZZCCCCCCCCVVVVVVVVBBBBBBBNNNNNNNNNMMMMMMMMMMmmmmmmmnnnnnnnnbbbbbbbvbvvvvvvvvccccccccccxxxxxxxzzzzzzzzllllllllkkkkkkkkjjjjjjjjjhhhhhhhhggggggggggffffffdddddddddsdssssssaaaaaaaappppppppiiiiiiiiiuuuuuuuuyyyyyyyyttttttrtrrrrrrrrreeeeeeeewwwwwwwqqqqqqq00q000000999999999988888877777777776666666655555555545444444333333333222222221111111<<<<<<<,,,,,,,,,>>>>>>>>>::::::::;;;;;;;---------========********&&&&&&&&%%%%%%%%%%$$$$$$$#$#######@@@@@@@+++++++++++OOOOOOOoooooooooXXXXXXXX.........                    #DFFFFFZZZZZZZZZZZZZZZZZZZZFFFFFFFFFFFFFFFFFFFF",
"FFFFFFFFFFFFFFFFFFFFZZZZZZZZZZZZZZZZZZZZFFFFFFjiiippppppppaaaaaaaasssssssddddddddddffffffffgggggggghhhhhhhhhjjjjjjjjkkkkkkkkkkllllllzzzzzzzzzxxxxxxxxccccccvcccvvvvvvbbbbbbbbbnnnnnnnnmmmmmmmMMMMMMMMMNNNNNNNNNBNBBBBBBBVVVVVVVCCCCCCCCCZZZZZZZZAAAAAAAASSSSSSSSSDDDDDDDDDFFFFFFFFFFFFFFFFDDDDDDSSSSSSSSSAAAAAAAAZZZZZZZZZCCCCCCCCVVVVVVVVBBBBBBBNNNNNNNNNMMMMMMMMMMMmmmmmmnnnnnnnnnbbbbbbvvvvvvvvvvccccccccccxxxxxxxzzzzzzzzllllllllkkkkkkkkjjjjjjjjjhhhhhhhhggggggggggffffffdddddddddsdssssssaaaaaaaappppppppiiiiiiiiuuuuuuuyyyyyyyyyyttttttrtrrrrrrrrreeeeeeeewwwwwwwwqqqqqq000000000999999999988888877777777776666666555555555545444444333333333222222221111111<<<<<<<,,,,,,,,,>>>>>>>>::::::::::;;;;;;---------========********&&&&&&&&%%%%%%%%%$$$$$$$$$$#######@@@@@@@+++++++++++OOOOOOooooooooooXXXXXX......... .                     bFFFFFZZZZZZZZZZZZZZZZZZZZFFFFFFFFFFFFFFFFFFFF",
"FFFFFFFFFFFFFFFFFFFFZZZZZZZZZZZZZZZZZZZZFFFFFDpiiippppppppaaaaaaaassssssssdddddddddffffffffggggggghhhhhhhhhhjjjjjjjjkkkkkkklllllllllzzzzzzzzzxxxxxxccccccccccvvvvvvvvbbbbbbbbbnnnnnnnnmmmmmmmMMMMMMMMMNNNNNNNNNBBBBBBBBVVVVVVVVCCCCCCCCCCCZZZZZZAAAAAAAASSASSSSSSDDDDDDDDDDFFFFFFFFDFFFDDDDDDDDDSSSSSSSAAAAAAAAAAZZZZZZZCCCCCCCCCCVVVVVVBBBBBBBBBBNNNNNNNNMMMMMMMMMmmmmmmmmmnnnnnnnbbbbbbbbbvvvvvvccvvccccccxxxxxxxxxzzzzzzzzllllllklkkkkkkkkjjjjjjjjjhhhhhhhhggggggggffffffffdddddddddssssssssaaaaaaaapppppppiiiiiiiiiiuuuuuuuuyyyyyyttttttttttrrrrrrrrrrreeeeeewwwwwwwwqqqqqq0000000000099999999888888887777777766666665555555555444444443333333332222222211111111<<<<<<<<,,,,,,>,,>>>>>>:::::::::;;;;;;;;;---------======**********&&&&&&&&%%%%%%%%%$$$$$$$#######@@@@@@@@@@+++++++++OOOOOOooooooooooXXXXXX...........                     tFFFFFZZZZZZZZZZZZZZZZZZZZFFFFFFFFFFFFFFFFFFFF",
"FFFFFFFFFFFFFFFFFFFFZZZZZZZZZZZZZZZZZZZZFFFFFBiiiiiippppppaaaaaaaassssssssdddddddddffffffffggggggghhhhhhhhhhjjjjjjjjkkkkkkkkllllllllzzzzzzzzzxxxxxxxccccccccvvvvvvvvvbbbbbbbbbnnnnnnnnmmmmmmmmMMMMMMMMMNNNNNNNNBBBBBBBBVVVVVVVVCVVCCCCCCCCZZZZZZAAAAAAAAASASSSSSSSDDDDDDDDDDFFFFDFDDFFDDDDDDDDDDSSSSSSAAAAAAAAAAAZZZZZZZCCCCCCCCCCVVVVVVVBBBBBBBBBNNNNNNNNMMMMMMMMMmmmmmmmmmnnnnnnnbbbbbbbbbvvvvvvccvvccccccxxxxxxxxzzzzzzzzzllllllklkkkkkkkkjjjjjjjjhhhhhhhhhggggggggffffffffdddddddddssssssssaaaaaaaappppppiiiiiiiiiiiuuuuuuyyyyyyyyttttttttttrrrrrrrrrrreeeeeewwwwwwwwqqqqqqq000000000099999999888888887777777766666665555555554444444443333333322222222211111111<<<<<<<<,,,,,,>>>>>>>>>>::::::::;;;;;;;;;---------=======*********&&&&&&&&%%%%%%%%%$$$$$$$########@@@@@@@@@+++++++++OOOOOOooooooooooXXXXXX...........                     ;FFFFFZZZZZZZZZZZZZZZZZZZZFFFFFFFFFFFFFFFFFFFF",
"FFFFFFFFFFFFFFFFFFFFZZZZZZZZZZZZZZZZZZZZFFFFFxiiiiipppppppaaaaaaaasssssssssdddddddfffffffffgggggggghhhhhhhhhjjjjjjjjkkkkkkkklllllllllzzzzzzzzxxxxxxxxccccccvvvvvvvvvvvbbbbbbbbnnnnnnnnmmmmmmmmMMMMMMMMMMMNNNNNNBBBBBBBBVVVVVVVVVVVCCCCCCCCZZZZZZAAAAAAAAASSSSSSSSSDDDDDDDDDDDDFFFFDDDDFFDDDDDDDDSSSSSSSAAAAAAAAAAZZZZZZCCCCCCCCVCVVVVVVVVVBBBBBBNNNNNNNNNNMMMMMMMMmmmmmmmmmmnnnnnnnbbbbbbbbbvvvvvvccvvccccccccxxxxxxzzzzzzzzzllllllklklkkkkkkjjjjjjjjhhhhhhhhhggggggggffffffffffddddddsssssssssaaaaaaappppppppiiiiiiiiuuuuuuuuyyyyyyyyytttttttrrrrrrrrrereeeeeeeewwwwwwwwqqqqqqq000000000099999988888888887777777766666666555555544444444443333333222222222211111111<<<<<<<<,,,,,,>>>>>>>>>>>::::::;;;;;;;;;;--------=========********&&&&&&&&%%%%%%%%$$$$$$$########@@@@@@@@@@+++++++++OOOOOOooooooooXXXXXXXXX........ .                     .ZFFFFZZZZZZZZZZZZZZZZZZZZFFFFFFFFFFFFFFFFFFFF",
"FFFFFFFFFFFFFFFFFFFFZZZZZZZZZZZZZZZZZZZZFFFFFfiiiippppppppaaaaaaaasssssssssdddddddfffffffffgggggggghhhhhhhhhjjjjjjjjkkkkkkkklllllllllzzzzzzzzxxxxxxxxccccccvvvvvvvvvvvbvbbbbbbnnnnnnnnmmmmmmmmMMMMMMMMMMMNNNNNNBNBBBBBBVVVVVVVVVVVCCCCCCZCZZZZZZZAAAAAAAASSSSSSSSSDDDDDDDDDDDDFFDDDDDFDDDDDDDDDDSSSSSSSASAAAAAAAZZZZZZZCZCCCCCCVCVVVVVVVVVBBBBBBNBNNNNNNNNMMMMMMMmmmmmmmmmmmnnnnnnnbbbbbbvbvvvvvvvccvvccccccccxxxxxxzzzzzzzzzllllllklllkkkkkkjjjjjjjjhhhhhhhhhggggggggffffffffffddddddsssssssssaaaaaaaappppppppiiiiiiiiuuuuuuuyyyyyyyyyyttttttrrrrrrrreerreeeeeeewwwwwwwwqqqqqq0000000000099999988888888887777777766666666555555544444444443333333222222222211111111<<<<<<<<,,,,,,>>>>>>>>>:>::::::;;;;;;;;-;--------=========********&&&&&&&&%%%%%%%$$$$$$$$#########@@@@@@@@@+++++++++OOOOOOoOooooooXXXXXXXXXX......  .                      jFFFFZZZZZZZZZZZZZZZZZZZZFFFFFFFFFFFFFFFFFFFF",
"ZZZZZZZZZZZZZZZZZZZZFFFFFFFFFFFFFFFFFFFFZZZZViiiiippppppppaaaaaaaassssssssddddddddffffffffggggggggghhhhhhhhhjjjjjjjjkkkkkkkklllllllllzzzzzzzzxxxxxxxxccccccvcvvvvvvvvvbvbbbbbbbbnnnnnnmmmmmmmmMMMMMMMMMNMNNNNNNBNBBBBBBBVVVVVVVVVCCCCCCCZZZZZZZZZAAAAAAAAASSSSSSSSSDDDDDDDDDDDDFDDFFDDDDDDDDDDSSSSSSSSSASAAAAAAAZZZZZZZCZCCCCCCCCVVVVVVBVBBBBBBBBBNNNNNNMMMMMMMMMMmmmmmmmmmnnnnnnnbbbbbbbvvvvvvvvvccccccccccccxxxxxxzzzzzzzzlllllllkkkkkkkkkkkjjjjjjjhhhhhhhhhggggggggggffffffddddddddsssssssssaaaaaaaappppppppiiiiiiiuuuuuuuuuuyyyyyyyyttttttrrrrrrrrreeeeeeeeewwwwwwwqqqqqqqq00000000999999999898888887777777767666666665555555544444444433333333222222222111111<<<<<<<<,,,,,,,,>>>>>>>>>>>::::::;:;;;;;;--------===========******&*&&&&&&&&%%%%%%%%$$$$$$$$$########@@@@@@@+++++++++OOOOOOOOOooooooXXXXXXXX........                         7ZZZZFFFFFFFFFFFFFFFFFFFFZZZZZZZZZZZZZZZZZZZZ",
"ZZZZZZZZZZZZZZZZZZZZFFFFFFFFFFFFFFFFFFFFZZZZbiiiiippppppppaaaaaaaassssssssddddddddfffffffgggggggggghhhhhhhhhjjjjjjjjkkkkkkklllllllllllzzzzzzzxxxxxxxxccccccvcvvvvvvvvvbbbbbbbbbbnnnnnnmmmmmmmmmMMMMMMMMNNNNNNNNBNBBBBBBBVVVVVVVVVVCCCCCCCZZZZZZZZAAAAAAAAASSSSSSSSSSDDDDDDDDDDDDDDDDDDDDDDDDDSSSSSSSSSSAAAAAAAAAZZZZZZZZCCCCCCCCCVVVVVVVVBBBBBBBBBNNNNNNNMMMMMMMMMmmmmmmmmmnnnnnnnbbbbbbbvbvvvvvvvccccccccccccxxxxxxzzzzzzzzlllllllkkkkkkkkkkkjjjjjjjhhhhhhhhgggggggggggffffffddddddddsssssssssaaaaaaaappppppppiiiiiiiuuuuuuuuuuyyyyyyyyttttttrrrrrrrrrreeeeeeeewwwwwwwqqqqqqqq00000000999999999998888887777777766666666665555555544444444433333333222222122111111<<<<<<<<,,,,,,,,>>>>>>>>>>>::::::;:;;;;;;--------===========******&&&&&&&&&&%%%%%%%%$$$$$$$$$########@@@@@@@+++++++++OOOOOOOOOoooooooXXXXXXX........                         &ZZZZFFFFFFFFFFFFFFFFFFFFZZZZZZZZZZZZZZZZZZZZ",
"ZZZZZZZZZZZZZZZZZZZZFFFFFFFFFFFFFFFFFFFFZZZZkiiiiippppppppaaaaaaaassssssssdddddddffffffffgggggggggghgghhhhhhjjjjjjjjkkkkkkkkkllllllllzzzzzzzzxxxxxxxccccccccccvvvvvvvvbbbbbbbbnnnnnnnnnnmmmmmMmMMMMMMMMMNNNNNNNBBBBBBBBBBBVVVVVVVVCCCCCCCZZZZZZZZZAAAAAAAAAAASSSSSSSDDDDDDDDDDDDDDDDDDDDDDDDSSSSSSSSSSAAAAAAAAAZZZZZZZZZCCCCCCCCCVVVVVVVBBBBBBBNBNNNNNNNNNMMMMMMMMMMmmmmmmmnnnnnnbbbbbbbbbbvvvvvvvvcccccccccxxxxxxxxzzzzzzzzlllllllkkkkkkkkkkjjjjjjjjhhhhhhhhgggggggggffffffffddddddddssssssssaaaaaaaaapppppppiiiiiiiuuuuuuuuyuuyyyyyytytttttttrrrrrrrrreeeeeeeewwwwwwwqqqqqqqq00000000999999999998888888877777766666666665555555554444444433333333222222111111111<<<<<<<<,,,,,,,,,>>>>>>>>>:::::::::;;;;;;--------===========******&&&&&&&&&&%%%%%%%%$$$$$$$#$########@@@@@@+++@++++++OOOOOOOoOooooooooXXXXXX..........                        mZZZFFFFFFFFFFFFFFFFFFFFZZZZZZZZZZZZZZZZZZZZ",
"ZZZZZZZZZZZZZZZZZZZZFFFFFFFFFFFFFFFFFFFFZZZZsiiiiippppppppaaaaaaaasssssssssddddddffffffffgggggggggghgghhhhhhjjjjjjjjkkkkkkkkkklllllllzzzzzzzzxxxxxxcccccccccccvvvvvvvvbbbbbbbbnnnnnnnnnnmmmmmMmMMMMMMMMMNNNNNNNNBNBBBBBBBBVVVVVVVVCCCCCCCZZZZZZZZZAAAAAAAAAAAASSSSSSDDDDDDDDDDDDDDDDDDDDDDDSSSSSSSSSSSASAAAAAAAZZZZZZZZZCCCCCCCVVVVVVVVVVBBBBBBNBNNNNNNNNNMMMMMMMMMMmmmmmmnnnnnnnbbbbbbbbbbvvvvvvvvcccccccccxxxxxxxxzzzzzzlzllllllllkkkkkkkkkjjjjjjjjhhhhhhhhgggggggggffffffffdfddddddssssssssaaaaaaaaappppppppiiiiiiuuuuuuuuyyyyyyyyyttttttttrrrrrrrrrrreeeeeeeewwwwwwqqqqqqqq0q000000999999999998888888877777766666666665555555554444444433333333222222111111111<<<<<<<<,,,,,,,,,>>>>>>>>::::::::::;;;;;;--------========*==******&&&&&&&&&&%%%%%%%%$$$$$$##$########@@@@@@+++@++++++OOOOOOOooooooooXXXXXXXX.X...... .                        aZZZFFFFFFFFFFFFFFFFFFFFZZZZZZZZZZZZZZZZZZZZ",
"ZZZZZZZZZZZZZZZZZZZZFFFFFFFFFFFFFFFFFFFFZZZBiiiiiippppppppaaaaaaaasssssssssdddddddfffffffgfggggggggghhhhhhhhjjjjjjkkkkkkkkkkkklllllllllzzzzzzxxxxxxcxcccccccccvvvvvvvvvvbbbbbbnnnnnnnnnmmmmmmmmMMMMMMMMMNNNNNNNNBNBBBBBBVVVVVVVVVCCCCCCCCCCCZZZZZZAAAAAAAAAASASSSSSSSSSSDDDDDDDDDDDDDDSSDDSSSSSSSSSSAAAAAAAAAAAZZZZZZZZCCCCCCCVVVVVVVVVVVBBBBBBNBNNNNNNNNMMMMMMMMMmMmmmmnnnnnnnnnnbbbbbbbbbvvvvvvvvcvccccccxxxxxxxxxzzzzzzzzllllllllllkkkkkkkjjjjjjjjhhhhhhhhghgggggggggfffffffddddddddsssssssaaaaaaaaapppppppiiiiiiiuuuuuuuuuuyyyyyyyttttttttrrrrrrrrrreeeeeeeewwwwwwwwwqqqqqqqq000000099999999998888888877777777666666555555555554444444433333333222222221111111<<<<<<<<<<,,,,,,,,>>>>>>::::::::::;;;;;;;;;------=========********&&&&&&&&%%%%%%%%%%$$$$$$#########@@@@@@@@@+++++++++OOOOOOoooooooooooXXXXXXXX........                        4ZZZFFFFFFFFFFFFFFFFFFFFZZZZZZZZZZZZZZZZZZZZ",
"ZZZZZZZZZZZZZZZZZZZZFFFFFFFFFFFFFFFFFFFFZZZviiiiiippppppppaaaaaaaasssssssssddddddddffffffgfggggggghhhhhhhhhhjjjjjjjjkkkkkkkkkkkllllllllzzzzzzxxxxxxcxcccccccccvvvvvvvvvvbbbbbbnnnnnnnnnmmmmmmmMMMMMMMMMMNNNNNNNNNNBBBBBBVVVVVVVVVVCCCCCCCCCCZZZZZZZAAAAAAAAAASSSSSSSSSSSSDDDDDDDDDDDDDDSSSSSSSSSSSSSAAAAAAAAAAZZZZZZZZZCCCCCCCVVVVVVVVVVBBBBBBBNBNNNNNNNNMMMMMMMMMMMmmmmnnnnnnnnnnbbbbbbbbbvvvvvvvvcvccccccxxxxxxxxxzzzzzzzzllllllllklkkkkkkkjjjjjjjjhhhhhhhhggggggggggfffffffffddddddssssssssaaaaaaaapppppppppiiiiiiuuuuuuuuuyyyyyyyyttttttttrrrrrrrrrreeeeeeeewwwwwwwwqqqqqqqqq000000999999999988888888877777766666666655555555554444444433333333222222221111111<<<<<<<<<<,,,,,,,,>>>>>>::::::::::;;;;;;;;;------=========********&&&&&&&&%%%%%%%%%$$$$$$$#########@@@@@@@@@@++++++++OOOOOOOooooooooooXXXXXXXX........                        #CZZFFFFFFFFFFFFFFFFFFFFZZZZZZZZZZZZZZZZZZZZ",
"ZZZZZZZZZZZZZZZZZZZZFFFFFFFFFFFFFFFFFFFFZZZhiiiiiippppppppaaaaaaaaassssssssddddddddffffffggggggggghhhhhhhhhhjjjjjjjjkkkkkkkkkkllllllllzzzzzzzxxxxxxcxcccccccccccvvvvvvvvbbbbbbbnnnnnnnnmmmmmmmMMMMMMMMMMNNNNNNNNNNBBBBBBBVVVVVVVVCCCCCCCCCCCZZZZZZZAAAAAAAAAASSSSSSSSSSSSSSSDDDDDDDDDSSSSSSSSSSSSSSSAAAAAAAAAAZZZZZZZZZCCCCCCVVVVVVVVVVVBBBBBBBBBNNNNNNMNMMMMMMMmmmmmmmmmmnnnnnnnnbbbbbbbbbvvvvvvvvcvccccccxcxxxxxxzzzzzzzzzllllllllkkkkkkkkjjjjjjjjjhhhhhhhhhggggggggffffffffddddddddssssssssaaaaaaaapppppppppiiiiiiuiuuuuuuyyyyyyyytttttttttrrrrrrrreeeeeeeeeewwwwwwwqqqqqqqq000000009099999989888888888777777666666666655555555444444444333333322222222111111111<<<<<<<,,,,,,,,,,>>>>>>:::::::::;;;;;;;;;;------=-======***********&&&&&&%%%%%%%%%%$$$$$$$$#######@@@@@@@@@+++++++++OOOOOOoooooooooXXXXXXXX........                           vZZFFFFFFFFFFFFFFFFFFFFZZZZZZZZZZZZZZZZZZZZ",
"ZZZZZZZZZZZZZZZZZZZZFFFFFFFFFFFFFFFFFFFFZZZaiiiiiippppppppaaaaaaaaassssssssddddddddffffffggggggggggghghhhhhhjjjjjjjjkkkkkkkkkkllllllllzzzzzzzxxxxxxxxxccccccccccvvvvvvbvbbbbbbbnbnnnnnnmmmmmmMMMMMMMMMMMNNNNNNNNNNNBBBBBBVVVVVVVVVCCCCCCCCCCCZZZZZZZAAAAAAAAAASSSSSSSSSSSSSSSSSSSSSSSSSSSSSSSSSSSSSAAAAAAAAAAZZZZZZZZZCCCCCCCVVVVVVVVVVVBBBBBBBNNNNNNNNMNMMMMMMmMmmmmmmmmmnnnnnnnnbbbbbbbbvvvvvvvvvvvccccccxcxxxxxxzzzzzzzzzllllllllkkkkkkkkjjjjjjjjjhhhhhhhhgggggggggffffffffddddddddssssssssaaaaaaaapppppppppiiiiiiiiuuuuuuyyyyyyyyyttttttttrrrrrrrrrerreeeeeewwwwwwqqqqqqqqq000000009099999989888888888777777676666666655555555444444444333333322222222111111111<<<<<<<,,,,,,,,,,>>>>>>::::::::;;;;;;;;;;;------=-======********&*&&&&&&&%%%%%%%%%%$$$$$$$########@@@@@@@@@+++++++++OOOOOOOoooooooooXXXXXXXX.......                           yZZFFFFFFFFFFFFFFFFFFFFZZZZZZZZZZZZZZZZZZZZ",
"ZZZZZZZZZZZZZZZZZZZZFFFFFFFFFFFFFFFFFFFFZZNiiiiiiiipppppppaaaaaaaaassssssssdddddddfffffffffggggggggghhhhhhhhjjjjjjjjkkkkkkkkklllllllllzzzzzzzxxxxxxxccccccccvvvcvvvvvvbbbbbbbbbbbnnnnnnmmmmmmmmmmmMMMMMMNNNNNNNNNNNBBBBBBBBVVVVVVVCCCCCCCCCZZZZZZZZZAAAAAAAAAASSSSSSSSSSSSSSSSSSSSSSSSSSSSSSSSSASSAAAAAAAAAAZZZZZZZZZZCCCCCCCCCVVVVVVBBBBBBBBBBBNNNNNNNMNMMMMMMmMMMmmmmmmnnnnnnnnnbbbbbbbbvvvvvvvvcccccccccccxxxxxxzzzzzzlllllllllkkkkkkkkkkjkjjjjjjhhhhhhhhhggggggggfffffffffddddddddssssssssaaaaaaaappppppiiiiiiiiiiiuuuuuuyuyyyyyytttttttttrrrrrrrrerrreeeeeewwwwwwqqqqqqqqq0000000090999999898888887777777777766666666555555554444444443333333322222221111111<<<<<<<<<,,,,,,,,>>>>>>>>>>::::::;;;;;;;;;----------======*=********&&&&&&&&&%%%%%%%%$$$$$$$$######@@@@@@@@@@@++++++++OOOOOOOooooooooXXXXXXXX........                           2ZZFFFFFFFFFFFFFFFFFFFFZZZZZZZZZZZZZZZZZZZZ",
"ZZZZZZZZZZZZZZZZZZZZFFFFFFFFFFFFFFFFFFFFZZviiiiiiippppppppaaaaaaaaasssssssdddddddddfffffffffgggggggghhhhhhhhjjjjjjjjjkkkkkkkklllllllllzzzzzzzzxxxxxxccccccccvvvvvvvvvvvbbbbbbbbbbnnnnnnmmmmmmmmmmmMMMMMMNNMNNNNNNNNBBBBBBBBBVVVVVVCCCCCCCCCCZZZZZZZZZAAAAAAAAAASSSSSSSSSSSSSSSSSSSSSSSSSSSSSSAAASAAAAAAAAAAAZZZZZZZZCCCCCCCCCCVVVVVVVBBBBBBBBBBBNNNNNNNMMMMMMMMmMMmmmmmmmnnnnnnnnnbbbbbbbvvvvvvvvvcccccccccccxxxxxxzzzzzzlllllllllkkkkkkkkkkjkjjjjjjhhhhhhhhhggggggggfffffffffddddddddssssssssaaaaaaaapppppppiiiiiiiiiiuuuuuuyuyyyyyyyytttttttrrrrrrrrrrreeeeeeewwwwwwqqqqqqqqq0q0000000099999989888888877777777776666666655555555444444444333333332222222111111111<<<<<<<,,,,,,,,>>>>>>>>>>::::::;;;;;;;;;----------======*=********&&&&&&&&&%%%%%%%%$$$$$$$$#######@@@@@@@@@@++++++++OOOOOOOooooooooXXXXXXXX........                           @ZZFFFFFFFFFFFFFFFFFFFFZZZZZZZZZZZZZZZZZZZZ",
"ZZZZZZZZZZZZZZZZZZZZFFFFFFFFFFFFFFFFFFFFZZjuiiiiiipppppppppaaaaaaaasssssssddddddddffffffffffggggggghhhhhhhhhjjjjjjjkjkkkkkkkkllllllllzzzzzzzzzxxxxxxccccccccvvvvvvvvvvvbbbbbbbbbnnnnnnmmmmmmmmmmMMMMMMMMMMMNNNNNNNBBBBBBBBVVVVVVVVVCCCCCCCCCZZZZZZZZZZAAAAAAAAASASASASSSSSSSSSSSSSSSSSSSSSSSSSAAAAAAAAAAAAAZZZZZZZZZCCCCCCCCCCVVVVVVVVBBBBBBBBBNNNNNNNNNMMMMMMmMMMmmmmmmmnnnnnnnnbbbbbbbvvvvvvvvccccccccccccxxxxxxxzzzzzzzzllllllkkkkkkkkkkkjkjjjjjjhhhhhhhhgghggggggffffffffddddddddsssssssssaaaaaaapppppppppiiiiiiiiuuuuuuuyuyyyyyyytttttttttrrrrrrrrreeeeeeeewwwwwwwqqqqqqqq0q000000009999998988888887777777767666666555555554444444444333333333222222111111111<<<<<<<<<<,,,,,,>>>>>>>>>>::::::::;;;;;;;---------=========*******&&&&&&&&&&%%%%%%$%$$$$$$##########@@@@@@@@@++++++++OOOOOOOoooooooXXXXXXXXX.........                           bZFFFFFFFFFFFFFFFFFFFFZZZZZZZZZZZZZZZZZZZZ",
"ZZZZZZZZZZZZZZZZZZZZFFFFFFFFFFFFFFFFFFFFZZauiiiiiipppppppppaaaaaaaassssssssdddddddfdffffffffggggggghhhhhhhhhjjjjjjjkjkkkkkkklllllllllzzzzzzzzzxxxxxxccccccccvvcvcvvvvvvbbbbbbbbnnnnnnnmmmmmmmmmmMMMMMMMMMMMNNNNNNNBNBBBBBBVVVVVVVVVCCCCCCCCCCZZZZZZZZZZAAAAAAAAAAAAAAAASSSSSSSSSSSSSSSSSSSSSSSAAAAAAAAAAAAZZZZZZZZZZCCCCCCCCCVVVVVVVVVBBBBBBBBBNNNNNNNNNMMMMMMmMmmmmmmmmmnnnnnnnnbbbbbbbvvvvvvvvvcccccccccccxxxxxxxzzzzzzzzlzllllkkkkkkkkkkkjkjjjjjjhhhhhhhhgggggggggffffffffddddddddsssssssssaaaaaaapppppppppiiiiiiuuuuuuuuuuuyyyyyyyyttttttttrrrrrrreeeeeeeeeewwwwwwwqqqqqqqq000000000099999989888888887777776666666665555555554444444443333333332222221111111111<<<<<<<<,,,,,,,>>>>>>>>>>::::::::;;;;;;---------==========*******&&&&&&&&&&%%%%%%$$$$$$$$##########@@@@@@@@@++++++++OOOOOOOoooooooXXXXXXXXX........                            pZFFFFFFFFFFFFFFFFFFFFZZZZZZZZZZZZZZZZZZZZ",
"ZZZZZZZZZZZZZZZZZZZZFFFFFFFFFFFFFFFFFFFFZBuuiiiiiiiipppppppaaaaaaaassssssssdddddddddffffffffgggggggghhhhhhhhhjjjjjjjjkkkkkkkklllllllllzzzzzzzzxxxxxxccccccccccvvcvvvvvvbvbbbbbbbnnnnnnnnmmmmmmmmmMmMMMMMMMMNNNNNNNBBBBBBBBBVVVVVVVVVVCCCCCCCCZZCZZZZZZZAAAAAAAAAAAAASSSSSSSSSSSSSSSSSSSSSSSSAAAAAAAAAAAAAZZZZZZZZZZZCCCCCCCVCVVVVVVVBVBBBBBBBNNNNNNNNNMMMMMMMMMmmmmmmmmmnnnnnnnnnbbbbbbbbvvvvvvvvvccccccccxxxxxxxxxxzzzzzzlllllllllkkkkkkkkkjjjjjjjjhhhhhhgggggggggggggffffffffddddddsdssssssaaaaaaaaappppppppiiiiiiiiuuuuuuuyyyyyyyyttttttttrrrrrrrrreerreeeeeewwwwwwqqqqqqqq000000000999999998988888888777777666666666655555555544444444333333332222222221111111<<<<<<<,,,,,,,,,>,>>>>>>>>::::::::;;;;;;-----------========******&*&&&&&&%%%%%%%%%%%$$$$$$$$########@@@@@@+++++++++++OOOOOOooooooooXXXXXXXXX........                            4ZFFFFFFFFFFFFFFFFFFFFZZZZZZZZZZZZZZZZZZZZ",
"ZZZZZZZZZZZZZZZZZZZZFFFFFFFFFFFFFFFFFFFFZvuuiiiiiipipppppppaaaaaaaassssssssdddddddddffffffffggggggggghhhhhhhhjjjjjjjjkkkkkkkklllllllllzzzzzzzzxxxxxxcccccccccccvcvvvvvvvvbbbbbbbnnnnnnnnmmmmmmmmmMmMMMMMMMNNNNNNNNBBBBBBBBBVVVVVVVVVVCCCCCCCCCZCZZZZZZZZAAAAAAAAAAAAAASSSSAASSSSSSSSAASSSSAAAAAAAAAAAAAAAZZZZZZZZZZCCCCCCCVVVVVVVVVVBBBBBBBBNNNNNNNNNNNMMMMMMMMmmmmmmmmmnnnnnnnnnbbbbbbbbvvvvvvvvcccccccccxxxxxxxxxxzzzzzzlllllllllkkkkkkkkjjjjjjjjjhhhhhhhhggggggggggfffffffffddddddsdssssssaaaaaaaaappppppppiiiiiiiiuuuuuuyyyyyyyyytttttttttrrrrrrrreereeeeeeewwwwwwqqqqqqqq000000009999999998988888888777777766666666555555555544444444333333332222222221111111<<<<<<<<,,,,,,,>,,>>>>>>::::::::::;;;;;;----------=========******&*&&&&&&&%%%%%%%%%%$$$$$$$$########@@@@@@+++++++++++OOOOOOOoooooooXoXXXXXX.........                            %ZFFFFFFFFFFFFFFFFFFFFZZZZZZZZZZZZZZZZZZZZ",
"ZZZZZZZZZZZZZZZZZZZZFFFFFFFFFFFFFFFFFFFFZkiiiiiiiiippppppppaaaaaaaassssssssdddddddddffffffgggggggggggghhhhhhhjjjjjjjjkkkkkkkkkllllllllzzzzzzzzxxxxxxxcxcccccccvvcvvvvvvvvvbbbbbbnnnnnnnnnmmmmmmmmMMMMMMMMMNNNNNNNNNBNBBBBBBBVVVVVVVVVVCCCCCCCCCCZZZZZZZZZAAAAAAAAAAAAAAAASSAAASSSSSSAAAAAAAAAAAAAAAAAAAAZZZZZZZZZZCCCCCCCCVVVVVVVVVVVBBBBBBBBBNNNNNNNNNMMMMMMMMMMmmmmmmmnnnnnnnnbbbbbbbbbvvvvvvcvvccccccccccxxxxxxxxzzzzzzlllllllllkkkkkkkkjjjjjjjjjhhhhhhhhggggggggggfffffffdfddddddsdssssssaaaaaaaapppppppppiiiiiiiiuuuuuuuuyyyyyyyttttttttttrrrrrrreereeeeeeewwwwwwqqqqqqqq0q000000999999999898888888877777777666666555555555554444444433333333222222222111111<<<<<<<<,,,,,,,,>,>>>>>>>::::::::::;;;;;;;-------===========******&*&&&&&&&&%%%%%%%%%$$$$$$$$########@@@@@@@@+++++++++OOOOOOOOooooooooXXXXXXX........                             mFFFFFFFFFFFFFFFFFFFFZZZZZZZZZZZZZZZZZZZZ",
"ZZZZZZZZZZZZZZZZZZZZFFFFFFFFFFFFFFFFFFFFZsiiiiiiiiippppppppapaaaaaasssssssssddddddddffffffggggggggggghhhhhhhhjjjjjjjjkkkkkkkkkllllllllzzzzzzzzxxxxxxxxxccccccccvcvvvvvvvvvbbbbbbbnnnnnnnnmmmmmmmMMMMMMMMMMNNNNNNNNNBNBBBBBBBVVVVVVVVVVCCCCCCCCCCZZZZZZZZZZAAAAAAAAAAAAAAAAAAAAAASSSAAAAAAAAAAAAAAAAAAAZZZZZZZZZZZZCCCCCCCCVVVVVVVVVVVBBBBBBBBBNNNNNNNNMMMMMMMMMMMmmmmmmmnnnnnnnnbbbbbbbbvvvvvvvcvvcccccccxxcxxxxxxzzzzzzzzlllllllklkkkkkkkkjjjjjjjjhhhhhhhhhggggggggggffffffdddddddddssssssssaaaaaaaapppppppppiiiiiiiiuuuuuuuyyyyyyytttttttttttrrrrrrreereeeeeewwwwwwwqqqqqqqq00000000999999999998888888877777777666666555555555554444444433333333222222222111111<<<<<<<<<,,,,,,,>>>>>>>>>::::::::;;;;;;;;;;------=========*=******&*&&&&&&%&%%%%%%$%%$$$$$$$$########@@@@@@@@+++++++++OOOOOOOOooooooooXXXXXXX........                             dFFFFFFFFFFFFFFFFFFFFZZZZZZZZZZZZZZZZZZZZ",
"ZZZZZZZZZZZZZZZZZZZZFFFFFFFFFFFFFFFFFFFFViiiiiiiiiippppppppaaaaaaaasssssssssddddddddffffffggggggggghghhhhhhhhjjjjjjjjkkkkkkkkkllllllllllzzzzzzzxxxxxxxxccccccccvvvvvvvvvbbbbbbbbbbnnnnnnmmmmmmmMmmMMMMMMMMNNNNNNNNNNNNBBBBBBVBVVVVVVVVCCCCCCCCCCZZZZZZZZZZZAAAAAAAAAAAAAAAASAAAAAAAAAAAAAAAAAAAAAAAAAZZZZZZZZZZZCCCCCCCCCCVVVVVVVVVVBBBBBBBBBNNNNNNNNNMMMMMMMmMmMmmmmmmnnnnnnnbbbbbbbbbbvvvvvvvcvccccccccccxxxxxxxzzzzzzllllllllllkkkkkkkkkjjjjjjjjhhhhhhhhhggggggggggffffffdddddddddssssssssaaaaaaaappppppippiiiiiiuuuuuuuuuuyyyyyyyytttttttrtrrrrrrrrreeeeeeewwwwwwwwqqqqqqqq0000000999999999988888887777777767666666565555555554444444433333333222222221111111<<<<<<<<<,,,,,,,,,>>>>>>:::::::::;;;;;;;;;;------=========********&&&&&&&&&&%%%%%%$%$$$$$$$########@@@@@@@@@@+++++++++OOOOOOoOooooooooXXXXXXXX........                            7FFFFFFFFFFFFFFFFFFFFZZZZZZZZZZZZZZZZZZZZ",
"ZZZZZZZZZZZZZZZZZZZZFFFFFFFFFFFFFFFFFFFFnuuiuiiiiiippppppppaaaaaaaasssssssdsddddddddfffffffgggggggggghhhhhhhhjjjjjjjjjkkkkkkkkllllllllllzzzzzzzxxxxxxxxccccccccccvvvvvvvbbbbbbbbbbnnnnnnmmmmmmmmmmMMMMMMMMMNNNNNNNNNNNBBBBBBBVVVVVVVVVCCCCCCCCCCCZZZZZZZZZZZZAAAAAAAAAAAAAAAAAAAAAAAAAAAAAAAAAAAAAAAZZZZZZZZZZZZCCCCCCCCCCVVVVVVVVVVBBBBBBBBBNNNNNNMNMMMMMMMmmmmMmmmmmmnnnnnnbbbbbbbbbbvvvvvvvccvvvccccccccxxxxxxzzzzzzzzlllllllllkkkkkkkkkjjjjjjjjhhhhhhhhgggggggggffffffffddddddddsssssssssaaaaaaaappppppipiiiiiiiuuuuuuuuuuyyyyyyyytttttttrtrrrrrrrreeeeeeeewwwwwwwqqqqqqqqq00000009999999999888888887777777676666665555555545544444444333333332222222111111111<<<<<<<<<,,,,,,,,>>>>>>:::::::::;;;;;;;;;;------=========********&&&&&&&&&&%%%%%%%%$$$$$$$########@@@@@@@@@@++++++++OOOOOOOoOooooooXoXXXXXXXX........                            =FFFFFFFFFFFFFFFFFFFFZZZZZZZZZZZZZZZZZZZZ",
"ZZZZZZZZZZZZZZZZZZZZFFFFFFFFFFFFFFFFFFFFzuuuuiiiiiippppppppaaaaaaaaassssssddddddddddfffffffffgggggggghhhhhhhhjjjjjjjjjkkkkkkkkllllllllzzzzzzzzzxxxxxxxcccccccccvccvvvvvvbbbbbbbbbbbnnnnnnnmmmmmmmmmmmMMMMMMNNNNNNNNNBBBBBBBBBBVVVVVVVVVVVVCCCCCCCCZCZZZZZZZZZZAAAAAAAAAAAAAAAAAAAAAAAAAAAAAAAAAAAAZZZZZZZZZZZZZCCCCCCCCCCVVVVVVVVBBBBBBBBBBBNNNNNNNNNMMMMMMMmMmmmmmmmmmnnnnnnbbbbbbbbbvvvvvvvvvcvvccccccccxxxxxxxzzzzzzzzzllllllllkkkkkkkkjjjjjjjjjhhhhhhhhhggggggggffffffffddddddddsssssssssaaaaaaaappppppppiiiiiiuuuuuuuuuyyyyyyyyyyttttttrrrrrrrrrereeeeeeeewwwwwwwwqqqqqqqqq00000000999999888888888877777776766666655555555454444444443333333322222211111111111<<<<<<<,,,,,,,,>>>>>>>>>:::::::;;;;;;;;;;--------======*********&&&&&&&&&&%%%%%%%%$$$$$$$########@@@@@@@@@+++++++++OOOOOOOooooooooXXXXXXXXXX........                            .SFFFFFFFFFFFFFFFFFFFZZZZZZZZZZZZZZZZZZZZ",
"ZZZZZZZZZZZZZZZZZZZZFFFFFFFFFFFFFFFFFFFFfuuuuiiiiiipppppppppaaaaaaaasssssssdddddddddfffffffffgggggggghhhhhhhhjjjjjjjjjkkkkkkkklllllllllzzzzzzzzxxxxxxccxcccccccvccvvvvvvvbbbbbbbbbbnnnnnnnmmmmmmmmmmmMMMMMMMNNNNNNNNNBBBBBBBBBVVVVVVVVVVVVCCCCCCCCCCZZZZZZZZZZZZAAAAAAAAAAAAAAAAAAAAAAAAAAAAAAAAAZZZZZZZZZZCCZCCCCCCCCCCCVVVVVVVBBBBBBBBBNBBNNNNNNNNNMMMMMMmmMmmmmmmmmnnnnnnnbbbbbbbbbvvvvvvvvcvvvcccccccxxxxxxxxzzzzzzzzlllllllllkkkkkkkkjjjjjjjjjhhhhhhhhggggggggfffffffffdfddddddssssssssaaaaaaaaappppppppiiiiiiuuuuuuuuuyyyyyyyyyyttttttrrrrrrrrrereeeeeeeewwwwwwwwqqqqqq00q0000000099999988888888887777777776666665655555545444444444333333332222221111111111<<<<<<<<,,,,,,,>>>>>>>>>>:::::::;;;;;;;;;;--------======*********&&&&&&&&&&%%%%%%%%$$$$$$#########@@@@@@@@@+++++++++OOOOOOoooooooooXXXXXXXXX....... .                             cFFFFFFFFFFFFFFFFFFFZZZZZZZZZZZZZZZZZZZZ",
"FFFFFFFFFFFFFFFFFFFFZZZZZZZZZZZZZZZZZZZZpuuiuiiiiiipippppppaaaaaaaaassssssssddddddffdffffffgfgggggggghhhhhhhhhjjjjjjjjkkkkkkkkllkllllllzzzzzzzzxxxxxxxxxccccccvvcvvvvvvvvvvbbbbbbbbbnnnnnnmmmmmmmmmMMMMMMMMMMNNNNNNNNBBBBBBBBBVVVVVVVVVVCCCCCCCCCCCZZZZZZZZZZZZZZZAAAAAAAAAAAAAAAAAAAAAAAAAAAAAZZZZZZZZZZZCCCCCCCCCCCVCCVVVVVVVVBBBBBBBBBNBNNNNNNNNNMMMMMMMMMMMmmmmmmmnnnnnnbbbbbbbbbbvvvvvvvvvvvcccccccxxxxxxxxxzzzzzzzzlllllllllkkkkkkkkjjjjjjjjhhhhhhhhhggggggggfffffffffddddddddssssssssaaaaaaaaappppppppiiiiiiiiuuuuuuuyyyyyyyyttttttttttrrrrrrrrreeeeeeeewwwwwwwqqqqqqq00000000000999999888888887777777777666666656555555555444444433333333322222222111111<<<<<<<<<<,,,,,,,,,>>>>>>>>::::::::;;;;;;;----------========*********&&&&&&%%%%%%%%%%$$$$$$$$#########@@@@@@++++++++++OOOOOOOooooooooXXXXXXXX.........                              tZZZZZZZZZZZZZZZZZZZFFFFFFFFFFFFFFFFFFFF",
"FFFFFFFFFFFFFFFFFFFFZZZZZZZZZZZZZZZZZZZNuuuiuiiiiiipipppppppaaaaaaaassssssssdddddddfdffffffffgggggggghhhhhhhhhjjjjjjjjkkkkkkkkklkllllllllzzzzzzzxxxxxxcxccccccvvccvvvvvvvvvbbbbbbbbbnnnnnnnmmmmmmmmMMMMMMMMMMNNNNNNNNNBBBBBBBBBVVVVVVVVVVCCCCCCCCCCCZZZZZZZZZZZZZZZZAAAAAAAAAAAAAAAAAAAAAAAAAZZZZZZZZZZZZZCZCCCCCCCCCVCVVVVVVVVVBBBBBBBBNNBNNNNNNNNNMMMMMMMMMMMmmmmmmmnnnnnnbbbbbbbbbbbvvvvvvvvcccccccccxxxxxxxxzzzzzzzlzllllllllkkkkkkkkkjjjjjjjjhhhhhhhhhggggggggffffffffdddddddddssssssssaaaaaaaapppppppppiiiiiiiiuuuuuuyyyyyyyyyttttttttttrrrrrrrreeeeeeeeewwwwwwwqqqqqqq00000000099999999888888887777777777666666656555555554444444433333333322222222111111<<<<<<<<,<,,,,,,,>,>>>>>>>>::::::::;;;;;;;----------========********&&&&&&&%%%%%%%%%%$$$$$$$$#########@@@@@@++++++++++OOOOOOOooooooooXXXXXXXX.........                              3ZZZZZZZZZZZZZZZZZZZFFFFFFFFFFFFFFFFFFFF",
"FFFFFFFFFFFFFFFFFFFFZZZZZZZZZZZZZZZZZZZvuuuiuiiiiiipppppppppaaaaaaaassssssssdddddddddffffffgfggggggggghhhhhhhhjjjjjjjjkkkkkkkkklkllllllllzzzzzzzxxxxxxcccccccccvcvvvvvvvvbvvbbbbbbbbnnnnnnnmmmmmmmMMMMMMMMMMMMNNNNNNNNBBBBBBBBBBVVVVVVVVVVCCCCCCCCCCCCZZZZZZZZZZZZZZZZZAAAAAAAAAAAAAAAAAAAZZZZZZZZZZZZZZZZZCCCCCCCCCVVVVVVVVVVVVBBBBBBBBNNNNNNNNNNNMMMMMMMMMMmMmmmmmmnnnnnnnnnbbbbbbbbbvvvvvvvccccccccccccxxxxxxzzzzzzzlzllllllllklkkkkkkkjjjjjjjjhhhhhhhhgggggggggfgffffffdddddddddssssssssaaaaaaaapppppppppiiiiiiiiuuuuuuyuyyyyyyyttttttttttrrrrrrrrrreeeeeeewwwwwwqqqqqqqq0000000099999999998888888887777776666666665655555555444444443333333332222221111111111<<<<<<,,,,,,,,,>>>>>>>>>::::::::;;;;;;;---------==========********&&&&&&&%&%%%%%%$%$$$$$$$$#########@@@@@@@@++++++++OOOOOOOOooooooooXXXXXXX........                               $ZZZZZZZZZZZZZZZZZZZFFFFFFFFFFFFFFFFFFFF",
"FFFFFFFFFFFFFFFFFFFFZZZZZZZZZZZZZZZZZZZkuuuiuiiiiiiipppppppppaaaaaaasssssssssddddddddffffffffggggggggghhhhhhhhjjjjjjjjjkkkkkkkklklllllllllzzzzzzxxxxxxccxccccccccvvvvvvvvvbbbbbbbbbbbnnnnnnmmmmmmmmMMMMMMMMMMMNNNNNNNNNBNBBBBBBBVVVVVVVVVVVCCCCCCCCCCCCZZZZZZZZZZZZZZZZZZAZZAAAAAAAAAZZZZZZZZZZZZZZZZZZZZZCCCCCCCCCCVVVVVVVVVVVVBBBBBBBNNNNNNNNNNNNMMMMMMMMMmmmmmmmmmnnnnnnnnbbbbbbbbbvvvvvvvvcccccccccxccxxxxxxzzzzzzlllllllllklllkkkkkkjjjjjjjjjhhhhhhhhgggggggggfgfffffffdddddddsssssssssaaaaaaaappppppppiiiiiiiiiuuuuuuyuyyyyyytttttttttttrrrrrrrrrreeeeeewwwwwwwqqqqqqqqqq00000099999999998888888887777776666666665655555545444444443333333322222222211111111<<<<<<,,,,,,,,,>>>>>>>>>::::::::;;;;;;;---------==========********&&&&&&&%&%%%%%%$%$$$$$$$$########@@@@@@@@@++++++++OOOOOOOOoooooooXXXXXXXXX.......                                MZZZZZZZZZZZZZZZZZZFFFFFFFFFFFFFFFFFFFF",
"FFFFFFFFFFFFFFFFFFFFZZZZZZZZZZZZZZZZZZZduuuiiiiiiiiipppppppppaaaaaaasssssssdsddddddddffffffggggggggggghhhhhhhhjjjjjjjjjkkkkkkkklllllllllzzzzzzzzxxxxxxxccccccccccvvvvvvvvvbbbbbbbbbnnnnnnnnnmmmmmmMMmmmMMMMMMMNNNNNNNNNBNNBBBBBBBBVVVVVVVVVVCCVCCCCCCCCCCCZZZZZZZZZZZZZZZZZZZZZZZZZZZZZZZZZZZZZZZZZZZZZZCCCCCCCCCCCCVVVVVVVVBVVBBBBBBBBNBNNNNNNNNMMMMMMMMmmmmMmmmmmmnnnnnnnnnbbbbbbbvvvvvvvvvvcccccccccxcxxxxxxxzzzzzzzllllllllklkkkkkkkkjjjjjjjjjhhhhhhhhggggggggfggfffffffdddddddsdsssssssaaaaaaaappppppppiiiiiiiuuuuuuuuuuyyyyyytttttttttttrrrrrreeereeeeeewwwwwwwwwqqqqqqqq00000090999999988888888887777776666666655555555545444444443333333322222221211111111<<<<<<,,,,,,,,,>>>>>>>>::::::::;;;;;;;;;--------========********&&&&&&&&&&%%%%%%%$$$$$$$$#$######@@@@@@@@@@@++++++OOOOOOOOOOooooooooXXXXXXXXX........                              gZZZZZZZZZZZZZZZZZZFFFFFFFFFFFFFFFFFFFF",
"FFFFFFFFFFFFFFFFFFFFZZZZZZZZZZZZZZZZZZCiuuuiiiiiiiiippppppppaaaaaaaaassssssssddddddddfffffffgggggggggghhhhhhhhjjjjjjjjjkkkkkkkklklllllllzzzzzzzzxxxxxxxxccccccccccvvvvvvvvbbbbbbbbbnnnnnnnnnmmmmmmmMmMMMMMMMMMNNNNNNNNNNNNBBBBBBBBBVVVVVVVVVVCVVCCCCCCCCCCZZZZZZZZZZZZZZZZZZZZZZZZZZZZZZZZZZZZZZZZZZZZZCCCCCCCCCCCCVVVVVVVVVBBBBBBBBBBBBNNNNNNNNNNMMMMMMMmmmmmmmmmmmnnnnnnnnnbbbbbbvvvvvvvvvvvcccccccccccxxxxxxxzzzzzzzlllllllkkkkkkkkkkkkjjjjjjjhhhhhhhhhggggggggfgfffffffddddddddssssssssaaaaaaaaappppppppiiiiiiuuuuuuuuuuuyyyyyyttttttttrrrrrrrrreeeeeeeeeewwwwwwqwqqqqqqqqq00000090999999888888888887777776666666655555555545444444443333333322222222211111111<<<<<<<,,,,,,,,,>>>>>>>::::::::;;;;;;;;;;-------========********&&&&&&&&&&%%%%%%%%$$$$$$$########@@@@@@@@@@@++++++OOOOOOOOOOooooooooXXXXXXXXX........                              qZZZZZZZZZZZZZZZZZZFFFFFFFFFFFFFFFFFFFF",
"FFFFFFFFFFFFFFFFFFFFZZZZZZZZZZZZZZZZZZMuuuuuiiiiiiiippppppppaaaaaaaaassssssssddddddddfffffffgggggggggghhhhhhhhhjjjjjjkjkkkkkkkkkkkllllllzzzzzzzzxxxxxxxxccccccccccvvvvvvvvvbbbbbbbbnnnnnnnnnmmmmmmmmmMmMMMMMMMMMNNNNNNNNBNNBBBBBBBVVVVVVVVVVVVVVVCCCCCCCCCCCZZZCZZZZZZZZZZZZZZZZZZZZZZZZZZZZZZZZZZZZZCCCCCCCCCCCCCVVVVVVVVVVBBBBBBBBBBBBNNNNNNNNNMMMMMMMMMmmmmmmmmmmnnnnnnnnbbbbbbbbvvvvvvvvvvvvcccccccccxxxxxxxzzzzzzzzllllllkkkkkkkkkkkjjjjjjjjhhhhhhhhhggggggggggffffffdddddddddssssssssaaaaaapppppppppipiiiiiiuuuuuuuuuuyyyyyyyytttttttrrrrrrrrrereeeeeeeeewwwwwqqqqqqqqqq0000000909999999888888888877777776666666665555554454444444433333323222222221111111<<<<<<<<<<,,,,,,,,>>>>>>>::::::::;;;;;;;;;---------=======********&&&&&&&&&&%%%%%%%%$$$$$$$#$######@@@@@@@@@@+++++++++OOOOOOOOooooooXXXXXXXXX........ .                              ,ZZZZZZZZZZZZZZZZZZFFFFFFFFFFFFFFFFFFFF",
"FFFFFFFFFFFFFFFFFFFFZZZZZZZZZZZZZZZZZZcuuuuuiiiiiiiippppppppapaaaaaaassssssssddddddddfffffffggggggggggghhhhhhhhjjjjjjkkkkkkkkkkkkkllllllzzzzzzzzzxxxxxxcccccccccccvvvvvvvvvbbbbbbbbbnnnnnnnnnmmmmmmmmmmmMMMMMMMNNNNNNNNNNNBBBBBBBBBVVVVVVVVVVVVVVVCCCCCCCCCCCZZZZZZZZZZZZZZZZZZZZZZZZZZZZZZZZZZZZZZCCCCCCCCCCCCCCVVVVVVVVVVVBBBBBBBBBBBNNNNNNNNNNMMMMMMMMMmmmmmmmmmmnnnnnnnnbbbbbbbbbvvvvvvvvvvcccccccccxxxxxxxxzzzzzzzlllllllklkkkkkkkkjjjjjjjjjhhhhhhhhgggggggggggffffffdddddddddssssssssaaaaaapppppppppipiiiiiiuuuuuuuuuyyyyyyyyyyttttttrtrrrrrreeeeeeeeeeeeewwwwqwqqqqqqqq0000000009999999888888888777777766666666665555554544444444433333323222222221111111<<<<<<<<<<,,,,,,,>>>>>>>>::::::::;;;;;;;;;;--------=======********&&&&&&&&&&%%%%%%%%$$$$$$$#$######@@@@@@@@@@+++++++++OOOOOOOOooooooXXXXXXXXX........ .                              +ZZZZZZZZZZZZZZZZZZFFFFFFFFFFFFFFFFFFFF",
"FFFFFFFFFFFFFFFFFFFFZZZZZZZZZZZZZZZZZZjuuuuuiiiiiiiipipppppppaaaaaaaassssssssddddddddffffffffgggggggghghhhhhhhhjjjjjjjjjkkkkkkllklllllllllzzzzzzzxxxxxxxcccccccccccvvvvvvvvvbbbbbbbbbbnnnnnnnnnmmmmmMMMMMMMMMMMMMNNNNNNNNNBBBBBBBBBBVVVVVVVVVVVVCCCCCCCCCCCCCCCCZZZCZZZZZZZZZZZZZZZZZZZZZZZZZZCCZCCCCCCCCCCCCVCCVVVVVVVVVVVVBBBBBBBBNBNNNNNNNNMMMMMMMMMMMMmmmmmmmmnnnnnnnnnbbbbbbbbbvvvvvvvvvcccccccccccxxxxxxzzzzzzzzzllllllkkkkkkkkkkkjjjjjjjjjhhhhhhhhgggggggggffffffffdddddddddssssssssaaaaaaaapppppppppiiiiiiiiuuuuuuyyyyyyyyyyyttttttttrrrrrrrreeeeeeeeewwwwwwwwqqqqqq00000000090999999998888888877777776666666666555555554444444443333332322222221111111<<<<<<<<<<<,,,,,,>>>>>>>>>>::::::::;;;;;;;;;------=-======**=******&&&&&&&&%&%%%%%%%%$$$$$$$$$######@@@@@@@@@@++++++++OOOOOOOooooooooooXXXXXX........  .                               mZZZZZZZZZZZZZZZZZFFFFFFFFFFFFFFFFFFFF",
"FFFFFFFFFFFFFFFFFFFFZZZZZZZZZZZZZZZZZZduuuuuiiiiiiiiiipppppppaaaaaaaasssssssssddddddddfffffffgggggggghghhhhhhhhjjjjjjjjjkkkkkkllkkllllllllzzzzzzzzxxxxxxcccccccccccvvvvvvvvvvbbbbbbbbbbnnnnnnnmnmmmmmmmMMMMMMMMMMNNNNNNNNNBBNBBBBBBBBVVVVVVVVVVVVCCCCCCCCCCCCCCCCZZZZZZZZZZZZZZZZZZZZZZCZZZZCZCCCCCCCCCCCCCCVVCVVVVVVVVVVVVBBBBBBBBBNNNNNNNNNNMMMMMMMMMMMMmmmmmmmmnnnnnnnnnbbbbbbbbbvvvvvvvvcccccccccxccxxxxxxzzzzzzzzzllllllkkkkkkkkkkkjjjjjjjjhhhhhhhhhggggggggfffffffffdddddddddssssssssaaaaaaaappppppppiiiiiiiiiuuuuuuyyyyyyyyyytttttttttrrrrrrrreeeeeeeeewwwwwwwwqqqqqq00000000999999999998888888877777766666666666555555444544444433333332322222221111111<1<<<<<<<<<,,,,,,>>>>>>>>>>::::::::;;;;;;;;;------=-======*=*******&&&&&&&&%&%%%%%%%%$$$$$$$$#######@@@@@@@@@+++++++++OOOOOOOooooooooooXXXXXX........                                  fZZZZZZZZZZZZZZZZZFFFFFFFFFFFFFFFFFFFF",
"FFFFFFFFFFFFFFFFFFFFZZZZZZZZZZZZZZZZZCuuuuuuuuiiiiiiiipppppppaaaaaaaasssssssssddddddddfffffffffgggggghghhhhhhhhhjjjjjjjjkkkkkkkkklllllllllzzzzzzzzxxxxxxxxcccccccccvvvvvvvvvvbbbbbbbbnnnnnnnnnmmmmmmmMMMmMMMMMMMMMNNNNNNNNNBNNBBBBBBBBBBVVVVVVVVVVCCCVCCCCCCCCCCCCCCCCZZZZZZCCCZZZZCCCZZZZCCCCCCCCCCCCCCCCCCVVVVVVVVVVVVVVBBBBBBBBNNBNNNNNNNNNNMMMMMMMmmMMMmmmmmmnnnnnnnnnnbbbbbbbbbvvvvvvvccccccccccccxxxxxxxzzzzzzzzllllllllkkkkkkkkkkjjjjjjjjhhhhhhhhhggggggggffffffffffdddddddssssssssaaaaaaaaapppppppiiiiiiiuiuuuuuuuuyyyyyyytttttttttrtrrrrrrrrereeeeeewwwwwwwwwqqqqqqqq000000999999999998888888877777776666666655555555445444444433333333322222211111111<1<<<<<<<<<,,,,,,>>>>>>>>>>::::::::;;;;;;;;;------========*=********&&&&&&&%%%%%%%%%%$$$$$$#########@#@@@@@@++++++++++OOOOOOoooooooooooXXXXXXXX......                                  wZZZZZZZZZZZZZZZZZFFFFFFFFFFFFFFFFFFFF",
"FFFFFFFFFFFFFFFFFFFFZZZZZZZZZZZZZZZZZNuuuuuuuuiiiiiiiipppppppaaaaaaaaassssssssddddddddfffffffffgggggggghhhhhhhhhjjjjjjjjkkkkkkkkklllllllllzzzzzzzzxxxxxxxxcccccccvccccvvvvvvbbvbbbbbbnnnnnnnnnnmmmmmmmMmmmMMMMMMMMNNNNNNNNNNNNBBBBBBBBBBVVVVVVVVVVVVCCVCCCCCCCCCCCCCCCCCCZZZCCCZZZZCZCZCCCCCCCCCCCCCCCCCCCCCVVVVVVVVVVVVVBBBBBBBBNNNNNNNNNNNNNMMMMMMMMMmMMmmmmmmmnnnnnnnnnbbbbbbbbbvvvvvvvvccccccccccccxxxxxxzzzzzzzzzlllllllllkkkkkkkkjjjjjjjjjhhhhhhhhgggggggggffffffffffdddddddssssssssaaaaaaaaapppppppiiiiiiiuuuuuuuuuuyyyyyyyttttttttrrrrrrrrrrrereeeeeewwwwwwqwwqqqqqqqq00000099999999999888888887777777666666666555555544554444443333333322222221211111111<<<<<<<<,,,,,,,>>>>>>>>>>::::::::;;;;;;;;;------========**********&&&&&&&%%%%%%%%%%$$$$$$#########@#@@@@@@++++++++++OOOOOOoooooooooooXXXXXXXX......                                  1ZZZZZZZZZZZZZZZZZFFFFFFFFFFFFFFFFFFFF",
"FFFFFFFFFFFFFFFFFFFFZZZZZZZZZZZZZZZZZvuuuuuuuuuiiiiiiippppppppaaaaaaaassssssssdddddddddffffffffggggggggghhhhhhhhjjjjjjjjjkkkkkkkklllllllllzzzzzzzzxxxxxxxxccccccccccccvvvvvvvbbbbbbbbbnnnnnnnnnmmmmmmmMmmmMMMMMMMMNNNNNNNNNNNBBBBBBBBBBBBBVVVVVVVVVVVCCCVCCCCCCCCCCCCCCCCCCCCCCCCCCCCCCCCCCCCCCCCCCCCCCVCCCVVVVVVVVVVVVVBBBBBBBBBBBNNNNNNNNNMMMMMMMMMmMmmmmmmmmmnnnnnnnbnnbbbbbbvvvvvvvvvcvcvvcccccccccxxxxxxzzzzzzzzzllllllllkkkkkkkkkjkjjjjjjjhhhhhhhgggggggggggfffffffddddddddsssssssssaaaaaaaapppppppiiiiiiiiuuuuuuuuyuyyyyyyyttttttttrrrrrrrrrerrreeeeeewwwwwwqqqqqqqqqqq0000000099999988888888888777777776666666555555555544444444333333332222222121111111<<<<<<<,,,,,,,,>>>>>>>>>:>::::::;;;;;;;;;--------==========******&&&&&&&&&&&%%%%%%%%$$$$$$########@##@@@@@@+@++++++++OOOOOOoOoooooooXXXXXXXXXX........                                $ZZZZZZZZZZZZZZZZZFFFFFFFFFFFFFFFFFFFF",
"FFFFFFFFFFFFFFFFFFFFZZZZZZZZZZZZZZZZZluuuuuuuuuiiiiiiippppppppaaaaaaaassssssssdddddddfdffffffffggggggggghhhhhhhhjjjjjjjjjkkkkkkkkkllllllllzzzzzzzzzxxxxxxxccccccccvvcccvvvvvvbbvbbbbbbnnnnnnnnnnmmmmmmmmmmMMMMMMMMMNNNNNNNNNNBBBBBBBBBBBBBVVVVVVVVVVVVVCVVCCCCCCCCCCCCCCCCCCCCCCCCCCCCCCCCCCCCCCCCCCCVVVCVVVVVVVVVVVVVBBBBBBBBBBBBNNNNNNNNNNMMMMMMMMmmmmmmmmmmmmnnnnnnnbnbbbbbbbbvvvvvvvvvvcvccccccccxxxxxxxxzzzzzzzzlllllllllkkkkkkkkkjjjjjjjjhhhhhhhggggggggggggfffffffddddddddsssssssssaaaaaaaappppppppiiiiiiiuuuuuuuuyyyyyyyyyttttttttrrrrrrrreeeereeeeeewwwwwwqqqqqqqqqqq0000000099999988888888778777777776666666555555555544444444333333332222222211111111<<<<<<<,,,,,,,,>>>>>>>>>::::::::;;;;;;;;;--------==========********&&&&&&&&&%%%%%%%%$$$$$$########@#@@@@@@@@@++++++++OOOOOOoOooooooXXXXXXXXXXX........                                 BZZZZZZZZZZZZZZZZFFFFFFFFFFFFFFFFFFFF",
"FFFFFFFFFFFFFFFFFFFFZZZZZZZZZZZZZZZZZfuuuuuuuuiiiiiiipppppppppaaaaaaaasssssssssddddddfffffffffgggggggggghhhhhhhhhjjjjjjjjkkkkkkkkkllllllllzzzzzzzzxxxxxxxxccccccccvvccvvvvvvvvbbbbbbbbbnbnnnnnnnmmmmmmmmmmMMMMMMMMMMNNNNNNNNNNBBBBBBBBBBBBVVVVVVVVVVVVVVVVVVCCCCCCCCCCCCCCCCCCCCCCCCCCCCCCCCCCCCCCCCCCVVVVVVVVVVVVBVBVBBBBBBBBBBBNNNNNNNNNNNMMMMMMMMMMmmmmmmmmmnnnnnnnbbnbbbbbbvbbvvvvvvvvvvvcccccccxxxxxxxxzzzzzzzzzllllllllkkkkkkkkkjjjjjjjjjhhhhhhhhhhhggggggggfffffffddddddddssssssssaaaaaaaappppppppiiiiiiiiuiuuuuuuuuyyyyyyyyyttttttrrrrrrrreeereeeeeeewwwwwwqqqqqqqqq00000000009999998888888877777777777666666555555554544444444433333333222222221111111<<<<<<<<,,,,,,,,>>>>>>>>>::::::::::;;;;;;----------========********&&&&&&&&&%%%%%%%%%$$$$$$$$########@@@@@@@@@++++++++OOOOOOOOooooooXXXXXXXXX..........                                 kZZZZZZZZZZZZZZZZFFFFFFFFFFFFFFFFFFFF",
"FFFFFFFFFFFFFFFFFFFFZZZZZZZZZZZZZZZZZpuuuuuuuiiiiiiiipppppppppaaaaaaaasssssssssddddddfffffffffgggggggggghhhhhhhhjjjjjjjjjkkkkkkkkklllllllllzzzzzzzxxxxxxxxcccccccccvcvvvvvvvvvbbbbbbbbbnbbnnnnnnmmmmmmmmmmMMMMMMMMMMNNNNNNNNNNNBBBBBBBBBBBBVVVVVVVVVVVVVVVVVCCCCCCCCCCCCCCCCCCCCCCCCCCCCCCCCCCCCVVCCCCVVVVVVVVVVVVBBBBBBBBBBBBBBNNNNNNNNNNNMMMMMMMMMMmmmmmmmmmmnnnnnnnnbbbbbbbbvbvvvvvvvvvcvvcccccccxxxxxxxxzzzzzzzzlllllllllkkkkkkkkkjjjjjjjjjhhhhhhhhhhgggggggggffffffdddddddddssssssssaaaaaaaappppppppiiiiiiiuuiuuuuuuuuyyyyyyyyttttttttrrrrrrreeeeeeeeeewwwwwwwqqqqqqqq00000000000999999888888887777777777766666655555555444444444443333333322222222111111<<1<<<<<<,,,,,,,,,,>>>>>>:::::::::::;;;;;;----------=======**********&&&&&&&&%%%%%%%%%$$$$$$$$########@@@@@@@@+++++++++OOOOOOOOooooooXXXXXXXX...........                                 yZZZZZZZZZZZZZZZZFFFFFFFFFFFFFFFFFFFF",
"FFFFFFFFFFFFFFFFFFFFZZZZZZZZZZZZZZZZBuuuuuuuuuiiiiiiiippppppppaaaaaaaasssssssssddddddddfffffffggggggggggghhhhhhhhjjjjjjjjjkkkkkkkklllllllllzzzzzzzzzxxxxxxxccccccccvvvvvvvvvvvvbbbbbbbbbbbnnnnnnnmmmmmmmMMmMmMMMMMMMMMMMNNNNNNNNBBNBBBBBBBBBVVVVVVVVVVVVVVVVCCCCVVVCCCCCCCCCCCCCCCCCCCCCCCCCCCCCVVVVVVVVVVVVVVVVVVVBBBBBBBBBBBBNNNNNNNNNMMMMMMMMMMMMMMmmmmmmmmnnnnnnnnnnbbbbbbbvbvvvvvvvcccccccccccxxxxxxxxxzzzzzzzzlllllllkkkkkkkkkkkjjjjjjjjhhhhhhhhhggggggggfffffffffddddddddsssssssssaaaaaaaapppppppppiiiiiiuuuuuuuuuyyyyyyyyyytttttttttrrrrrreeeeeeeeeewwwwwwwwwqqqqqq00000000099999999998888888877777766666666665555555544444444433333333322222222111111<<<<<<<<<<<,,,,,,,,>>>>>>>::::::::::;;;;;;----------======**********&&&&&&&&&%%%%%%$$$$$$$$$$$######@@@@@@@@@@@@+++++++OOOOOOOOooooooooXXXXXX.........                                   5ZZZZZZZZZZZZZZZZFFFFFFFFFFFFFFFFFFFF",
"FFFFFFFFFFFFFFFFFFFFZZZZZZZZZZZZZZZZnuuuuuuuuuiiiiiiiippppppppaaaaaaaaassssssssdddddddddffffffggggggggggghhhhhhhhjjjjjjjjjkkkkkkkkklkllllllzzzzzzzzzxxxxxxxcxcccccccvcvvvvvvvvvvbbbbbbbbnnnnnnnnnnmmmmmmmmmmmMMMMMMMMMNNNNNNNNNNNBNNBBBBBBBBBBVVVVVVVVVVVVVVVVVCVVVVCCCCCCCCCCCCCCCCCCCCCVVVCCCCVVVVVVVVVVVVVVVVVVBBBBBBBBBBBBNNNNNNNNNMMMMMMMMMMmmMMMmmmmmnmmnnnnnnnnnbbbbbbbbbvvvvvvvcccccccccccxxxxxxxxxzzzzzzzzzlllllllkkkkkkkkkkjjjjjjjjjhhhhhhhhhggggggggfffffffffdfddddddddsssssssaaaaaaaapppppppppiiiiiiiuuuuuuuuuyyyyyyytyttttttttrrrrrrreeeeeeeeeewwwwwwwwqqqqqqq00000000099999999998888888877777766666666665555555544444444433333333322222222111111<<<<<<<<<<,,,,,,,,,>>>>>>:::::::::::;;;;;;----------======**********&&&&&&&%%%%%%%%$$$$$$$$$#$######@@@@@@@@@@@@++++++OOOOOOOOOooooooooXXXXXX.........                                   =ZZZZZZZZZZZZZZZZFFFFFFFFFFFFFFFFFFFF",
"FFFFFFFFFFFFFFFFFFFFZZZZZZZZZZZZZZZZxuuuuuuuuuuiiiiiiippppppppaaaaaaaaassssssssdddddddddfffffffgggggggggggghhhhhhhjjjjjjjjkkkkkkkkklkllllllllzzzzzzzxxxxxxxxxcccccccccvvvvvvvvvvbbbbbbbbbbnnnnnnnnmmmmmmmmmmmmMMMMMMMMMNNNNNNNNNNNNNNBBBBBBBBBBVVVVVVVVVVVVVVVVVVVCCCCCCVVVVCCCCVVCCCCCCVVVVCCVVVVVVVVVVVVVVVVVVBBBBBBBBBBBBBNNNNNNNNNNNNMMMMMMMMmMmMMmmmmmmmnnnnnnnnnbbbbbbbbbbvvvvvvvvvcccccccccxxxxxxxxxzzzzzzlzzllllllkkkklkkkkkkjjjjjjjjjhhhhhhhhgggggggggffffffffdffddddddssssssssaaaaaaaaappppppppiiiiiiiiiuuuuuuuuyyyyyyytytttttttrrrrrrrrrerreeeeeewwwwwwwwqqqqqqq0q0000009999999999888888888777777666666666655555555444444444333333322222222221111111<<<<<<<,,,,,,,,,>>>>>>>>:>::::::;;;;;;;;;;;------==========*******&&&&&&&&%%%%%%%%%%$$$$$$##$######@@@@@@@@@@++++++++OOOOOOOOOooooooooXXXXXX.X......                                    oZZZZZZZZZZZZZZZZFFFFFFFFFFFFFFFFFFFF",
"FFFFFFFFFFFFFFFFFFFFZZZZZZZZZZZZZZZZjuuuuuuuuuuiiiiiiipppppppppapaaaaaasssssssddddddddddfffffffffgggggggghghhhhhhhjjjjjjjjjkkkkkkkkkklllllllllzzzzzzzxxxxxxxxxcccccccccvvvvvvvvvbbbbbbbbbbnnnnnnnnnmmmmmmmmmmmMMMMMMMMMNNNNNNNNNNNNNNNBBBBBBBBBBVVVVVVVVVVVVVVVVVVVVVVCCVVVVCCCCVVVCCCCCVVVVVVVVVVVVVVVVVVVVVVVBBBBBBBBBBNNBNNNNNNNNNNNNMMMMMMMMMmmmMmmmmmmmnnnnnnnnnnbbbbbbbbbvvvvvvvvvvccccccccxxxxxxxxxzzzzzzzlzlllllllkklkkkkkkkkjjjjjjjjhhhhhhhhhgggggggggfgffffffffddddddddsssssssaaaaaaapappppppppiiiiiiiiiuuuuuuuyyyyyyyyyttttttttrrrrrrrrrereeeeeeewwwwwwwwqqqqqq0000000009999999999888888878777777666666666655555554444444444333333332222222221111111<<<<<<<<,,,,,,,,>>>>>>>>:>::::::;;;;;;;;-;-------=========*******&&&&&&&&&%%%%%%%%%%$$$$$$#########@@@@@@@@++++++++++OOOOOOOOOooooooooXXXXXX.X......                                     mZZZZZZZZZZZZZZZFFFFFFFFFFFFFFFFFFFF",
"ZZZZZZZZZZZZZZZZZZZZFFFFFFFFFFFFFFFFfyyyuuuuuuuuiiiiiipppppppppaaaaaaaassssssssdddddddfffffffffffggggggggghhhhhhhhjjjjjjjjjkkkkkkkkkkklllllllzzzzzzzxxxxxxxxxxcccccccccvcvvvvvvvbbbbbbbbbbbbnnnnnnnnmmmmmmmmMMMMMMMMMMMMMMMNNNNNNNNNBBBBBBBBBBBBBBVVBBVVVVVVVVVVVVVVVVVVVVVVVVVVVVVVVVVVVVVVVVVVVVVVVVVVVVVBBBBBBBBBBBBBNNBNNNNNNNNNNNNMMMMMMMMMMMmmmmmmmmmmnnnnnnnbbbbbbbbbbbvvvvvvvvvvvvcccccccccxxxxxxxzzzzzzzllllllllllllkkkkkkkjjjjjjjjjhhhhhhhhhggggggggggfffffffddddddddsssssssssaaaaaaaappppppppiiiiiiiiiuuuuuuuuyyyyyyyyytttttttrrrrrrrrrrrreeeeeewwwwwwwqqqqqqqqqq000000090999999898888888777777777666666655555555554444444443333333322222211111111111<<<<<<,,,,,,,,>>>>>>>>>:>::::::;;;;;;;;-;-------==========******&&&&&&&&&&%%%%%%%%$$$$$$$#########@@@@@@@@++++++++++OOOOOOoooooooooXXXXXXXXXX......                                     lFFFFFFFFFFFFFFFZZZZZZZZZZZZZZZZZZZZ",
"ZZZZZZZZZZZZZZZZZZZZFFFFFFFFFFFFFFFFiyyyuuuuuuuuiiiiiiippppppppaaaaaaaaassssssssdddddddffffffffffggggggggghhhhhhhhhjjjjjjjjkkkkkkklkkklllllllzzzzzzzzxxxxxxxxxxcccccccccccvvvvvvvbvbbbbbbbbbbnnnnnnnmmmmmmmmmmMMmMMMMMMMMNMMNNNNNNNNNBBBBBBBBBBBBBBBBBBVVVVVVVVVVVVVVVVVVVVVVVVVVVVVVVVVVVVVVVVVVVVVVVVVVVVVBBBBBBBBBBBNNNNNNNNNNNNNMMMMMMMMMMMMMmmmmmmmmmmnnnnnnnbbnbbbbbbbbbvvvvvvvvvcvvcccccccccxxxxxxxzzzzzzlllllllllllkkkkkkkkkjjjjjjjjjhhhhhhhhgggggggggggfffffffddddddddsssssssssaaaaaaaappppppppiiiiiiiiiuuuuuuyyyyyyyyyyytttttttrrrrrrrrrrrreeeeeewwwwwwwqqqqqqqqqq000000999999999898888888877777766666666666555555554444444443333333322222211111111111<<<<<<,,,,,,,,>>>>>>>>>:>::::::;:;;;;;;;;------=--========********&&&&&&&&%%%%%%%%$$$$$$$#########@@@@@@@@++++++++++OOOOOOoooooooooXXXXXXXXXX......                                     iFFFFFFFFFFFFFFFZZZZZZZZZZZZZZZZZZZZ",
"ZZZZZZZZZZZZZZZZZZZZFFFFFFFFFFFFFFFAyyyyuuuuuuuuiiiiiiippppppppaaaaaaaaassssssssdddddddfffffffffffgggggggghhhhhhhhhjjjjjjjkkkkkkkklllklllllllzzzzzzzzzxxxxxxxxccccccccccvvvvvvvvvvvvbbbbbbbbbnnnnnnnmmmmmmmmmmmmmmMMMMMMMMNNNNNNNNNNNNNNNNBBBBBBBBBBBBVVVVVVVVVVVVVVVVVVVVVVVVVVVVVVVVVVVVVVVVVVVVVVVVVVVVBBBBBBBBBBBBNNNNNNNNNNNNNNMMMMMMMMMmmMmmmmmmmmmmnnnnnnnnbbbbbbbbbbbvvvvvvvvcccvcccccccccxxxxxxxzzzzzzzzzlllllllllkkkkkkkkkjjjjjjjjhhhhhhhhhgggggggggggffffffdddddddddssssssssaaaaaaaaappppppppiiiiiiiiuuuuuuuuyyyyyyyyttttttttrrrrrrrrrrrreeeeeeewwwwwwqqqqqqqqqqq00000000999999989888888887777777666666666655555554444444443333333332222222111111111<<<<<<<,,,,,,,,>>>>>>>>>>:::::::;:;;;;;;;;------=-=========********&&&&&&&&%%%%%%%%$$$$$$$$$########@@@@@@++++@++++++OOOOOOooooooooXXXXXXXXXX........                                    8FFFFFFFFFFFFFFFZZZZZZZZZZZZZZZZZZZZ",
"ZZZZZZZZZZZZZZZZZZZZFFFFFFFFFFFFFFFByyyyuuuuuuuuuiiiiiipppppppppaaaaaaaasssssssssddddddfffffffffffgggggggghhhhhhhhhjjjjjjjkkkkkkkkkkkllllllllzzzzzzzzzxxxxxxxcccccccccvvcvvvvvvvvvvvbbbbbbbbbbnnnnnnnmmmmmmmmmmmmmMMMMMMMMMNNNNNNNNNNNNNNNBBBBBBBBBBBBBBVVVVVVVVVVVVVVVVVVVVVVVVVVVVVVVVVVVVVVVVVVVVVVVVBBBBBBBBBBBBNNNNNNNNNNNNNNNNMMMMMMMMmmmmmmmmmmmmmmnnnnnnnbbbbbbbbbbbvvvvvvvvccccvcccccccccxxxxxxxzzzzzzzzzlllllllllkkkkkkkkjjjjjjjjjhhhhhhhhhggggggggfggffffffdddddddddssssssssaaaaaaaaappppppppiiiiiiiuuuuuuuuuuyyyyyyttttttttttrrrrrrrrreeeeeeeeewwwwwwqqqqqqqqqqq000000009999998888888888877777777666666556555555554444444433333333322222222111111<1<<<<<<<,,,,,,,,>>>>>>>>>>:::::::;:;;;;;;;;------=-=========********&&&&&&&&%%%%%%%%$$$$$$$$$#######@@@@@@@+@+++++++++OOOOOOooooooooXXXXXXXXX..........                                   :FFFFFFFFFFFFFFFZZZZZZZZZZZZZZZZZZZZ",
"ZZZZZZZZZZZZZZZZZZZZFFFFFFFFFFFFFFFbyyuuuuuuuuuiuiiiiiiiipppppppaaaaaaaasssssssssddddddddfffffffggggggggggghhhhhhhhjjjjjjjjjkkkkkkkkklllllllllzzzzzzzzzxxxxxxxcccccccccvvvcvvvvvvvvbbbbbbbbbnnbnnnnnnnnnmmmmmmMMMMMMMMMMMMMMMMMNNNNNNNNNNBBBBBBBBBBBBBBBBBBVVVVBVVVVVVVVVVVVVVVVVVVVVVVVVVVVVVVVVVVVVBBBBBBBBBBBBBBBBBNNNNNNNNNNNNNMMMMMMMMMMMMMmmmmmmmmnnnnnnnnnnnbbbbbbbbbvvvvvvvvvvvvcccccccxcxxxxxxxzzzzzzzzzlllllllkkkkkkkkkkkjjjjjjjjjhhhhhhhhgggggggggfffffffffddddddddsssssssssaaaaaaaapppppppppiiiiiiuuuuuuuuuuyyyyyyyyytttttttrrrrrrrrreeeeeeeeeewwwwwwwqqqqqqq000000000999999999988888888877777776666666665555555444444444433333333222222222111111<<<<<<<<,<,,,,,,,>>>>>>>>>:::::::;;;;;;;;;--------========*********&&&&&&&&&&%%%%%%$$$$$$$$$$#########@@@@@@@@+++++++++OOOOOOOOooooooXXXXXXXXXXX........                                   +FFFFFFFFFFFFFFFZZZZZZZZZZZZZZZZZZZZ",
"ZZZZZZZZZZZZZZZZZZZZFFFFFFFFFFFFFFFlyyuuuuuuuuuiiiiiiiiiiippppppaaaaaaaaassssssssdddddddddffffffggggggggggghhhhhhhhhjjjjjjjjjkkkkkkkklllllllllzzzzzzzzzxxxxxxxcccccccccvvvvvvvvvvvvbbbbbbbbbbnnnnnnnnnnnmmmmmmmMMMMMMMMMMMMMMMNNNNNNNNNNNNBBBBBBBBBBBBBBBBBBBVVVVVVVVVVVVVVVVVVVVVVVVVVVVVVBVVVVVVVBBBBBBBBBBBBBBBBBBNNNNNNNNNNNNNMMMMMMMMMmMMMMmmmmmmmmnnnnnnnnnnbbbbbbbbbbvvvvvvvcvvvvcccccccxxxxxxxxxzzzzzzzzzllllllkkkkkkkkkkkkjjjjjjjjhhhhhhhhhgggggggggffffffffdddddddddsssssssssaaaaaaaapppppppppiiiiiiuuuuuuuuuuyyyyyyyyytttttttrrrrrrrreeeeeeeeeewwwwwwwwqqqqqqq000000000909999998888888888777777776666666665555555444444444433333333222222222111111<<<<<<<<,<,,,,,,,>>>>>>>>>:::::::;;;;;;;;;--------========*********&&&&&&&&&&%%%%%%%$$$$$$$$$#########@@@@@@@@++++++++OOOOOOOOOooooooXXXXXXXXXX....... .                                    CFFFFFFFFFFFFFFZZZZZZZZZZZZZZZZZZZZ",
"ZZZZZZZZZZZZZZZZZZZZFFFFFFFFFFFFFFFgyyyuyuuuuuuiiiiiiiiiiippppppaaaaaaaaassssssssdddddddddfffffffgggggggggghhhhhhhhhjjjjjjjjjkkkkkkkkklllllllllzzzzzzzzzxxxxxxxcxcccccccvcvvvvvvvvvvbbbbbbbbbnnnnnnnnnnnmmmmmmmmmmMMMMMMMMMMMMNNNNNNNNNNNNNNBBBBBBBBBBBBBBBBBBBBVVBBVVVVVVVVVVVVVVVVVVVVVVBBVVVVBBBBBBBBBBBBBBBBBBBNNNNNNNNNNNNNNMMMMMMMMMmMmmMmmmmmmmmnnnnnnnnbnbbbbbbbbbbvvvvvvvccvcvcccccccxxxxxxxxxxzzzzzzzzlllllllllkkkkkkkkkkkjjjjjjjhhhhhhhhhggggggggfffffffffdfdddddddssssssssaaaaaaaaappppppppiiiiiiiiuuuuuuuuyyyyyyyytyttttttttrrrrrrrereeeeeeeewwwwwwqqqqqqqqq000000009099999998888888888777777766666666665555555544444444433333333222222221111111<<<<<<<<,<,,,,,,,>>>>>>>>::::::::;;;;;;;;---------========********&&&&&&&&&&&%%%%%%%%$$$$$$#$########@@@@@@@@@++++++++OOOOOOOOOoooooooXXXXXXX........  .                                    xFFFFFFFFFFFFFFZZZZZZZZZZZZZZZZZZZZ",
"ZZZZZZZZZZZZZZZZZZZZFFFFFFFFFFFFFFFpyyyuyuuuuuuiiiiiiiiipippppppaaaaaaaaasssssssssddddddfdfffffffgfggggggggghhhhhhhhjjjjjjjjjkkkkkkkkklllllllllzzzzzzzzzxxxxxxxcxccccccccccvcvvvvvvvbbbbbbbbbbnnnnnnnnnnmmmmmmmmmmmMMMMMMMMMMMMNNNNNNNNNNNNNNBBBNNBBBBBBBBBBBBBBBBBBBBVVVVVBBVVVVVBBBBVVVVBBBBBBBBBBBBBBBBBBBBBBBBNNNNNNNNNNMNNNMMMMMMMMMMMMmmmmmmmmmmnnnnnnnnbnnbbbbbbbvvbvvvvvvvcvccvcccccccxcxxxxxxxxzzzzzzzzlllllllllkkkkkkkkkkkjjjjjjjhhhhhhhhgggggggggfffffffffffddddddsssssssssaaaaaaaaappppppppiiiiiiiiuuuuuuuuyyyyyyyttyttttttrtrrrrrrereeeeeeeeewwwwwwqqqqqqqqqq00000000099999998888888888777777666666666565555554544444444433333333222222221111111<<<<<<<<<<,,,,,,,>>>>>>>>::::::::;;;;;;;;-----------======*=******&*&&&&&&&&&%%%%%%%%$$$$$$$$########@@@@@@@@@++++++++OOOOOOoOooooooooXXXXXXX........                                       aFFFFFFFFFFFFFFZZZZZZZZZZZZZZZZZZZZ",
"ZZZZZZZZZZZZZZZZZZZZFFFFFFFFFFFFFFDyyyyuyuuuuuuuuiiiiiiippppppppppaaaaaaasssssssssddddddddfffffffffggggggghghhhhhhhhhjjjjjjjjjkkkkkkllklkllllllzzzzzzzzzzxxxxxxxxxcccccccccccvvvvvvvvbbbbbbbbbbnbnnnnnnnnmmmmmmmmmmmMMMMMMMMMMMMNNNNNNNNNNNNNNNBBBBBBBBBBBBBBBBBBBBBBBBBBBBBVBBVVVVVVBBBBBBBBBBBBBBBBBBBBBBBBBBBNNNNNNNNNNNNMMMMMMMMMMMMmmMmmmmmmmmmnnnnnnnnnnnnbbbbbbbbvvvvvvvvvvvccvcccccccccxxxxxxxzzzzzzzzzlllllllllkkkkkkkkkjjjjjjjjjhhhhhhhhhgggggggggggffffffddfddddddsdsssssssaaaaaaaapppppppiiiiiiiiuuuuuuuuuyyyyyyyytttttttttttrrrrrrereeeeeeewwwwwwwwqwqqqqqq0000000000099999988888888888777777666666666555555555544444444333333333222222221111111<<<<<<<<<<,,,,,,,,>>>>>>>>::::::::;;;;;;;-----------======*=********&&&&&&%&&%%%%%%%%$$$$$$$$#######@@@@@@@@@@++++++++OOOOOOoooooooooooXXXXXX........                                       qFFFFFFFFFFFFFFZZZZZZZZZZZZZZZZZZZZ",
"ZZZZZZZZZZZZZZZZZZZZFFFFFFFFFFFFFFCyyyyuyuuuuuuuuiiiiiiipppppppppaaaaaaaaassssssssddddddddffffffffffgggggghgghhhhhhhhjjjjjjjjjkkkkkkklklklllllllzzzzzzzzxxxxxxxxxxccccccccccccvvvvvvvbbbbbbbbbbnbbnnnnnnnnmmmmmmmmMMmMMMMMMMMMMMMMNNMNNNNNNNNNNNNBBBBBBBBBBBBBBBBBBBBBBBBBBBBBBBBBBBBBBBBBBBBBBBBBBBBBBBBBNNBBNNNNNNNNNNNNNNMMMMMMMMMMMmMMmmmmmmmmmmnnnnnnnnnnnbbbbbbbbvvvvvvvvvvvcccccccccccccxxxxxxxzzzzzzzzzllllllllkkkkkkkkkkjjjjjjjjjhhhhhhhhhggggggggfggffffffdddddddddssssssssaaaaaaaaappppppiiiiiiiiiuuuuuuuuuyyyyyyyytttttttttttrrrrrrerereeeeewwwwwwwwwwqqqqqqq000000000099999998888888888777777666666665555555555554444444333333333222222111111111<<<<<<<<,<,,,,,,,,>>>>>>:>::::::::;;;;;;;----------=======*=********&&&&&&&&%%%%%%%%%$$$$$$$$#######@@@@@@@@@+++++++++OOOOOOooooooooXooXXXXXX........                                       3FFFFFFFFFFFFFFZZZZZZZZZZZZZZZZZZZZ",
"ZZZZZZZZZZZZZZZZZZZZFFFFFFFFFFFFFFMyyyyyyyuuuuuuuuiiiiiiippppppppaaaaaaaaasssssssssddddddddfffffffffgggggggggghhhhhhhhjjjjjjjjkkkkkkkkklkkllllllzzzzzzzzxxxxxxxxxxxcccccccccvvvvvvvvvvvbbbbbbbbbbbnnnnnnnnnmmmmmmmmMmmMMmMMMMMMMMMMNMMNNNNNNNNNNNNNBNNNNBBBBBBBBBBBBBBBBBBBBBBBBBBBBBBBBBBBBBBBBBBBBBBBBNNNNNNNNNNNNNNNNNNNNMMMMMMMMMMMMMmmmmmmmmmmmnnnnnnnnnnnbbbbbbbbbbvvvvvvvvvccccccccccccxxxxxxxzzzzzzzzzlllllllkkkkkkkkkkkjjjjjjjjjhhhhhhhhhgggggggggggfffffffddddddddsssssssssaaaaaaaapppppppppiiiiiiiiuuuuuuuyyyyyyyyyyyttttttttrrrrrrrrrereeeeewwwwwwwwwwqqqqqqqq000000909999999998888888877777777766666655555555555444444443333333322222222111111111<<<<<<,,,,,,,,,,,>>>>>>:>:::::::::;;;;;;;;------==========*******&&&&&&&&&%%%%%%%%$$$$$$$$########@@@@@@@@+++++++++++OOOOOOOoooooooXoXXXXXXXXX.......                                      =FFFFFFFFFFFFFFZZZZZZZZZZZZZZZZZZZZ",
"ZZZZZZZZZZZZZZZZZZZZFFFFFFFFFFFFFFvyyyyyyyuuuuuuuuiiiiiiipppppppppaaaaaaaasssssssssddddddddfffffffffgggggggggghhhhhhhhjjjjjjjjjkkkkkkkkkkklllllllzzzzzzzxxxxxxxxxxxccccccccccvvvvvvvvvvbbbbbbbbbbbnnnnnnnnnnmmmmmmmmmmmMmmMMMMMMMMMMMMNNNNNNNNNNNNNNNNNNNNNBBBBBBBBBBBBBBBBBBBBBBBBBBBBBBBBBBBBBBBBBBBBNNNNNNNNNNNNNNNNMNNNMMMMMMMMMMMMMmmmmmmmmmmmmnnnnnnnnnnbbbbbbbbbbvvvvvvvcvvccccccccccccxxxxxxxzzzzzzzzzlllllllkkkkkkkkkkkjjjjjjjjjhhhhhhhhhghgggggggggfffffffddddddddsssssssssaaaaaaaapppppppppiiiiiiiiuuuuuuuyyyyyyyyttyttttttttrrrrrrerrereeeeewwwwwwwwwqqqqqqqqq000000999999999998888888877777777766666655555555554444444443333333322222222111111111<<<<<<,,,,,,,,,,,>>>>>>>>::::::::;;;;;;;;;------=========********&&&&&&&&&%%%%%%%%$$$$$$$$########@@@@@@@@@++++++++++OOOOOOooooooooXoXXXXXXXXX.......                                      oFFFFFFFFFFFFFFZZZZZZZZZZZZZZZZZZZZ",
"ZZZZZZZZZZZZZZZZZZZZFFFFFFFFFFFFFFlyyyyyyyuuuuuuuuuiiiiiiiipppppppaaaaaaaasssssssdddddddddddffffffggfgggggggghhhhhhhhhjjjjjjjjjkkkkkkkkkkkkllllllzzzzzzzzzxxxxxxxcxccccccccvvvvvvvvvvvvvbbbbbbbbbbnnnnnnnnnnnmmmmmmmmMMMmmMMMMMMMMMMMMNNNNNNNNNNNNNNNNNBBBBBBBBBBBBBBBBBBBBBBBBBBBBBBBBBBBBBBBBBBNBBBBBBNNNNNNNNNNNNNMMMNMMMMMMMMMMMMMmMmmmmmmmmmmnnnnnnnnnnnbbbbbbbbbbvvvvvvvvcvccccccccccxxxxxxxxxzzzzzzzzllllllllllllkkkkkkkkjjjjjjjjjhhhhhhhhgggggggggfffffffffdddddddddssssssssaaaaaaaaapppppppppiiiiiiiiuuuuuuuuuyyyyyytttttttttrrrrrrrrerereeeeeeewwwwwwwqqqqqqqqqq000000009999999998888887777777766666666666555555444444444443333333322222222111111111<<<<<<,,,,,,,,>>>>>>>>>::::::::;;;;;;;;;;-------==========******&&*&&&&&&&&%%%%%%%$$$$$$$$$#########@@@@@@@@++++++++OOOOOOOOOooooooXXXXXXXXXX.........                                      CFFFFFFFFFFFFFZZZZZZZZZZZZZZZZZZZZ",
"ZZZZZZZZZZZZZZZZZZZZFFFFFFFFFFFFFFgyyyyyyyuuuuuuuuiiiiiiiiiippppppaaaaaaaaassssssdddddddddddfffffffgfggggggggghhhhhhhhhjjjjjjjjjkkkkkkkkkkklllllllllzzzzzzzxxxxxxxxcccccccccvvvvcvvvvvvvvbbbbbbbbbnnbnnnnnnnnmmmmmmmmmMMmmMMMMMMMMMMMMMNNMMNNNNNNNNNNNNNNNBBBBBBBBBBBBBBBBBBBBBBBBBBBBBBBBBBBNNNNNBBBNNNNNNNNNNNNNNNMMMMMMMMMMMMMMMMMmmMmmmmmmmmmnnnnnnnnnnnbbbbbbbbbbvvvvvvvvccvccccccccccxxxxxxxxxzzzzzzzzllllllllllklkkkkkkkjjjjjjjjjhhhhhhhghgggggggggfffffffffddddddddsssssssssaaaaaaaaappppppppiiiiiiiiiuuuuuuuuyyyyyyyttttttttrrrrrrrrrereeeeeeeewwwwwwwwqqqqqqq0q0000000009999999988888887777777766666666666555555444444444433333333322222222111111111<<<<<<,,,,,,,,>>>>>>>>>::::::::;;;;;;;;;--------==========******&&&&&&&&&&&%%%%%%%%$$$$$$$$#########@@@@@@@@++++++++OOOOOOOOOooooooXXXXXXXXX..........                                      cFFFFFFFFFFFFFZZZZZZZZZZZZZZZZZZZZ",
"ZZZZZZZZZZZZZZZZZZZZFFFFFFFFFFFFFFayyyyyyyuuuuuuuiiiiiiiiiiippppppaaaaaaaaasssssssssddddddddfffffffgfggggggghhhhhhhhhhhjjjjjjjjjkkkkkkkkklkllllllllllzzzzzzxxxxxxxxcxcccccccccvvvvvvvvvvvvbbbbbbbbbnnnnnnnnnnnmmmmmmmmmmmmmMMmMMMMMMMMMMMMNNMNNNNNNNNNNNNNNNNBBBBNNNNNBBBBBBBBBBBBBBBBBNBBBBNNNNNNNNNNNNNNNNNNNNNNNNNNMMMMMMMMMMMmmmmmmmmmmmmmmmnnnnnnnnnnnbbbbbbbbbbbvvvvvvvvvcccccccccccccxxxxxxxxzzzzzzzzlllllllkllllkkkkkkkjjjjjjjjjhhhhhhhhhggggggggfffffffffdddddddddsssssssssaaaaaaaapppppppppiiiiiiuiiuuuuuuuuyyyyyyyytttttttrrrrrrrrrrrrreeeeeewwwwwwwqqqqqqqq0q0000000009999999988888888777777766666666565555555445544444433333333322222222111111<1<<<<<<<<<,,,,,,>>>>>>>>>::::::::;;;;;;;;--------=-=======*********&&&&&&&&&%%%%%%%%%$$$$$$$$########@@@@@@@@@++++++++OOOOOOOOoooooooooXXXXXX........ .                                       dFFFFFFFFFFFFFZZZZZZZZZZZZZZZZZZZZ",
"ZZZZZZZZZZZZZZZZZZZZFFFFFFFFFFFFFFuyyyyyyyyuuuuuuiiiiiiiiipppppppppaaaaaaaasssssssssdddddddddffffffgffggggggggghhhhhhhhjjjjjjjjjkkkkkkkkkkkklllllllllzzzzzzzxxxxxxxxxxcccccccccvvvvvvvvvvvbbbbbbbbbbnnnnnnnnnnnmmmmmmmmmmmmmMmmMMMMMMMMMMMNNNMNNNNNNNNNNNNNNNNNNNNNNNNNBBBBBNNNNBBBNNNNNBBBBNNNNNNNNNNNNNNNNNNNNNNNNMMMMMMMMMMMMmmmmmmmmmmmmmmmmnnnnnnnnnnbbbbbbbbbbvvvvvvvvvcvcvccccccccxcxxxxxxxxxzzzzzzzzlllllllllkkkkkkkkkjjjjjjjjjhhhhhhhhhgggggggggfffffffffdddddddddssssssssaaaaaaaaapppppppppiiiiiiuiuuuuuuuuuyyyyyyyttttttttrrrrrrrrrreeeeeeeeewwwwwwqqqqqqqqq0q000000909999999998888888877777776666666656555555444554444443333333322222222211111111<<<<<<,<,,,,,,,>>>>>>>>>::::::::;;;;;;;;----------=======**********&&&&&&%&%%%%%%%%%$$$$$$$$########@@@@@@@@@++++++++OOOOOOOOoooooooooXXXXXX........ .                                       rFFFFFFFFFFFFFZZZZZZZZZZZZZZZZZZZZ",
"ZZZZZZZZZZZZZZZZZZZZFFFFFFFFFFFFFZtyyyyyyyuuuuuuuuiiiiiiiipppppppppaaaaaaaaassssssssdddddddfdfffffffggggggggggghhhhhhhhhjjjjjjjjjkkkkkkkkklllllllllzzzzzzzzzzxxxxxxxxxccccccccccvvvvvvvvvvbbvbbbbbbbbnnnnnnnnnnnmmmmmmmmmmmmmMMMMMMMMMMMMMMMNNNNNNNNNNNNNNNNNNNNNNNNNNNBBBBBBBBBBBBBNNBBNNNNNNNNNNNNNNNNNNNNNNNNMMMMMMMMMMMMMMMMMMMMmmmmmmmmnnnnnnnnnnnbnnbbbbbbbbbbvvvvvvvvvvvvcccccccccccxxxxxxxzzzzzzzzzlllllllkklkkkkkkkkkjjjjjjjjjhhhhhhhhhgggggggggffffffffdddddddddsssssssssaaaaaapaappppppppiiiiiiiuuuuuuuuyyyyyyyyyyytttttttrrrrrrrrrrereeeeeeewwwwwwqqqqqqqqq0q0000009999999999988888888777777776666666555555555544444444433333333222222221111111<<<<<<<<<<,,,,,,,,,>>>>>>>>:::::::;;;;;;;;;;--------======*********&&&&&&&&%%%%%%%%%%$$$$$$$########@#@@@@@@+@@++++++OOOOOOOOOOooooooooXXXXXXX........                                         5FFFFFFFFFFFFFZZZZZZZZZZZZZZZZZZZZ",
"ZZZZZZZZZZZZZZZZZZZZFFFFFFFFFFFFFNtyyyyyyyuuuuuuuuiiiiiiiiippppppppaaaaaaaaasssssssssddddddfddffffffggggggggggghhhhhhhhhjjjjjjjkjkkkkkkkkkllllllllllzzzzzzzzzxxxxxxxxxxccccccccccvvvvvvvvvvbvbbbbbbbbbnnbnnnnnnnnmmmmmmmmmmmmmMMMMMMMMMMMMMMMMNNNNNNNNNNNNNNNNNNNNNNNNNNNNNNNNNNNNNNNNNNNNNNNNNNNNNNNNNNNNNNNNNNNMMMMMMMMMMMMMMMMMMMmmmmmmmmnnnnnnnnnnbbnbbbbbbbbbbvvvvvvvvvvvvvccccccccccxxxxxxxzzzzzzzzzzlllllllkkkkkkkkkkkjjjjjjjjjhhhhhhhhhgghggggggggffffffffddddddddsssssssssaaaaaapapppppppppiiiiiiuuuuuuuuuyuyyyyyyyyytttttttrrrrrrrrrreeeeeeeeewwwwwwqqqqqqqq0000000009999999999888888888777777776666666555555555544444444433333333222222221111111<<<<<<<<<<,,,,,,>,,>>>>>>>>:::::::;;;;;;;;-;--------======*=*******&&&&&&&&%%%%%%%%%%$$$$$$$########@@@@@@@@+@+++++++OOOOOOOOooooooooooXXXXXXX........                                         ;FFFFFFFFFFFFFZZZZZZZZZZZZZZZZZZZZ",
"ZZZZZZZZZZZZZZZZZZZZFFFFFFFFFFFFFntyyyyyyyuuuuuuuuuuiiiiiiipppppppppaaaaaaaasssssssssdddddddfffffffffggggggggggggghhhhhhhjjjjjjjjjkkkkkkkkllllllllllzzzzzzzzzzxxxxxxxxcccccccccccvccvvvvvvvvbbbbbbbbbbbnbbnnnnnnnnmmmmmmmmmmmmmmmmmMMMMMMMMMMMMMNNNNMNNNNNNNNNNNNNNNNNNNNNNNNNNNNNNNNNNNNNNNNNNNNNNNNNNNNMMMNNNMMMMMMMMMMMMmMMMMmmmmmmmmmmmmnnnnnnnnnnbbbbbbbbbbbbbvvvvvvvccvcvvcccccccxcxxxxxxxxzzzzzzzllllllllllkkkkkkkkkkkjjjjjjjjjhhhhhhhhhgggggggggggfffffffdddddddddssssssssaaaaaaaaappppppiipiiiiiiuuuuuuuuuyyyyyyyyyttttttttttrrrrrrrrrereeeeeewwwwwwwqqqqqqqqqq0000000999999999888888888877777777666666665555555554444444433333333322222212111111<<<<<<<<<<,,,,,,,,>>>>>>>>::::::::::;;;;;;----------=======*=*******&&&&&&&&%%%%%%%%%%$$$$$$#########@@@@@@@@+@+++++++++OOOOOOoooooooooXXXXXXXXXX.......                                        #FFFFFFFFFFFFFZZZZZZZZZZZZZZZZZZZZ",
"ZZZZZZZZZZZZZZZZZZZZFFFFFFFFFFFFFxyyyyyyyyuuuuuuuuuuiiiiiiipppppppppaaaaaaaaassssssssdddddddddfffffffgggggggggggghhhhhhhhjjjjjjjjjkkkkkkkkkklllllllllzzzzzzzzzxxxxxxxxccccccccccccvccvvvvvvvvbbbbbbbbbbbbbnnnnnnnnnnmmmmmmmmmmmmmMMmmMMMMMMMMMMMMMNNMMMMNNNNNNNNNNNNNNNNNNNNNNNNNNNNNNNNNNNNNNNNNNNNNNNNMMMNMMMMMMMMMMMMMMmmmmMMmmmmmmmmmmmnnnnnnnnnnnbbbbbbbbbbbbvvvvvvvvccccvcccccccccxxxxxxxxzzzzzzzzlllllllllkkkkkkkkkkkjjjjjjjjjhhhhhhhhhgggggggggfggffffffddddddddddssssssssaaaaaaaaappppppiiiiiiiiiiuuuuuuuyyyyyyyyytttttttttttrrrrrreeeeeeeeeeewwwwwwwqqqqqqqqqq0000009999999999888888888777777777666666565555555555444444433333323322222212111111<<<<<<<<<<,,,,,,,,,>>>>>>:::::::::::;;;;;;-;--------=======*********&&&&&&&&&%%%%%%%%%$$$$$$#########@#@@@@@@+@++++++++OOOOOOOooooooooXXXXXXXXXX.........                                       .DFFFFFFFFFFFFZZZZZZZZZZZZZZZZZZZZ",
"FFFFFFFFFFFFFFFFFFFFZZZZZZZZZZZZZhttyyyyyyyyuuuuuuuuiiiiiiiippppppppaaaaaaaaasssssssssddddddddffffffffggggggggggghhhhhhhhhjjjjjjkkjkkkkkkkkkkklllllllzzzzzzzzzzxxxxxxxxxxcccccccccvvvvvvvvvvvvbbbbbbbbbbbnnnnnnnnnnnnmmmmmmmmmmmmmmMMMMMMMMMMMMMMMMMMMMNNNMNNNNNNNNNNNNNNNNNNNNNNNNNNNNNNNNNNNNNNNNNMNNNNNMMMMMMMMMMMMMMMMMMMMMmmmmmmmmmmmnnnnnnnnnbbbbbbbbbbbbbbvvvvvvvvcvvccccccccccxxxxxxxxxzzzzzzzzzlllllllllllkkkkkkkkkjjjjjjjjjhhhhhhhhhgggggggggfffffffffdddddddddssssssssaaaaaaaaappppppppiiiiiiiiiiuuuuuuuuyyyyyyyttttttttttrrrrrrrrreeeeeeeeewwwwwwqqqqqqqqqq0000000999999999998888888777777766666666666555555444454444443333333322222222211111111<<<<<<,,,,,,,,,>>>>>>>>>::::::::::;;;;;;;;------=========**********&&&&&&&&%%%%%%%%%$$$$$$###########@@@@@@@+++++++++OOOOOOoooooooooXXXXXXXX...........                                        mZZZZZZZZZZZZFFFFFFFFFFFFFFFFFFFF",
"FFFFFFFFFFFFFFFFFFFFZZZZZZZZZZZZZdttyyyyyyyyyuuuuuuuuiiiiiiipppppppppaaaaaaaasssssssssdddddddddfffffffgfggggggggghhhhhhhhhjjjjjjjjkkkkkkkkkkklklllllllzzzzzzzzzzxxxxxxxxxcccccccccvvvvvvvvvvvvbbbbbbbbbbbbnnnnnnnnnnnnmmmmmmmmmmMMmmMMMMMMMMMMMMMMMMMMMMNMMMNNNNNNNNNNNNNNNNNNNNNNNNNNNNNNNNNNNMNNNNMMNMMMMMMMMMMMMMMMMMMMmmmmmmmmmmmmmmnnnnnnnnnnnnbbbbbbbbbbbbvvvvvvvvccvccccccccccxxxxxxxxxxzzzzzzzzzllllllllllkkkkkkkkkjjjjjjjjjhhhhhhhhhhgggggggggffffffffdffddddddsssssssssaaaaaaaaapppppppppiiiiiiiiuuuuuuuyuyyyyyyttttttttttrrrrrrrrrreeeeeeeewwwwwwwqqqqqqqqq00000000999999999988888888777777766666666666555555444444444443333333322222222111111111<<<<<<,,,,,,,,,>>>>>>>>>:::::::::;;;;;;;;;------=========**********&&&&&&&%%%%%%%%%%$$$$$$##########@@@@@@@@+++++++++OOOOOOOooooooooXXXXXXXX..........                                         lZZZZZZZZZZZZFFFFFFFFFFFFFFFFFFFF",
"FFFFFFFFFFFFFFFFFFFFZZZZZZZZZZZZZayyyyyyyyyuyuuuuuuuuuiiiiiipppppppppaaaaaaaaassssssssdddddddddfffffffgfggggggggghhhhhhhhhjjjjjjjjjjkkkkkkkkkllllllllllzzzzzzzzzxxxxxxxccxccccccccvvcccvvvvvvvvbbbbbbbbbbbbbbbnnnnnnnnnnmmmmmmmmmmMMmmMMmmMMMMMMMMMMMMMMMMMMNNNNNNNNNNNNNNNNNNNNNNNNNNNNNNMMNNNNMNNNMMMMMMMMMMMMMMMMmmmMmmmmmmmmmmmmmmmnnnnnnnnnnnnnbbbbbbbbbbbvvvvvvvvvvvccccccccccxccxxxxxxxzzzzzzzzzzllllllllkkkkkkkkkkkjjjjjjjjjhhhhhhhhhgggggggggfffffffffdfdddddddsssssssssaaaaaaaaappppppipiiiiiiiiuuuuuuuyyuyyyyyyyttttttttrrrrrrrrrrrrreeeeeewwwwwwwwqqqqqqq000000009999999999888888888777777766666666555555555444444444433333333322222212111111111<<<<<<,,,,,,,,,,,>>>>>>::::::::::;;;;;;;;;--------======***********&&&&&&&&%%%%%%%%$$$$$$$$########@@@@@@@@@+++++++++OOOOOOOOooooooXooXXXXXXXX......                                           dZZZZZZZZZZZZFFFFFFFFFFFFFFFFFFFF",
"FFFFFFFFFFFFFFFFFFFFZZZZZZZZZZZZZuyyyyyyyyyuyuuuuuuuuuiiiiiippippppppaaaaaaaaasssssssssdddddddddffffffggfggggggggghhhhhhhhhjjjjjjjjjkkkkkkkkkklllllllllzzzzzzzzzxxxxxxxxccccccccccvvccccvvvvvvvvbbbbbbbbbbbbbbnnnnnnnnnnmmmmmmmmmmmMmmmMmmmmMMMMMMMMMMMMMMMMMMMNNNNNNNNNMNNNNNNNNNNNNNNNNNNNNNNNMMMMMMMMMMMMMMMMMMMMmmmmmmmmmmmmmmmmmmnnnnnnnnnnnnnbbbbbbbbbbbvvvvvvvvvvvccccccccccxxcxxxxxxxxzzzzzzzzzlllllllkklkkkkkkkkkjjjjjjjjjhhhhhhhhhhgggggggggfffffffffdfddddddsssssssssaaaaaaaaapppppppppiiiiiiiiuuuuuuuyyyyyyyyyytttttttrrrrrrrrrerreeeeeeeewwwwwwwwqqqqqqq000000000099999998888888888777777767666666655555555444444444433333333322222212111111<1<<<<<<<,,,,,,,,,,>>>>>>>::::::::;:;;;;;;-;---------======***********&&&&&&&&%%%%%%%%$$$$$$$$########@@@@@@@@++++++++++OOOOOOOOooooooXoXXXXXXXXX......                                           tZZZZZZZZZZZZFFFFFFFFFFFFFFFFFFFF",
"FFFFFFFFFFFFFFFFFFFFZZZZZZZZZZZZCttytyyyyyyuuuuuuuuuuuiiiiiiiiipppppppaaaaaaaasssssssssdddddddddfffffffffggggggggghhhhhhhhhjjjjjjjkjjkkkkkkkkkllllllllllzzzzzzzzzxxxxxxxxcccccccccccccvvcvvvvvvvvbbbbbbbbbbbbnnnnnnnnnnnnnmmmmmmmmmmmmmmmMMMMMMMMMMMMMMMMMMMMMMMMMMMNNNNNNNNNNNMNNNNNNNNNMNMMMMMMMMMMMMMMMMMMMMMMMMMMmMmmmmmmmmmmmmmnnnnnnnnnnbbnnbbbbbbbbbbvvvvvvvvvvvvvccccccccccxxxxxxxxxxzzzzzzzlzzllllllllkkkkkkkkkkkjjjjjjjjjhhhhhhhhhggggggggggffffffffdddddddddsssssssssaaaaaaaaappppppippiiiiiiiuuuuuuuuyyyyyyyyttytttttttrrrrrrrreeereeeeewwwwwwwwwwqqqqqq0qq0000009999999988888888877777777667666666655555554544444444433333333222222221111111<<<<<<<<<,,,,,,,,,,>>>>>>:::::::::;;;;;;;;-----------========******&&&&&&&&&%&%%%%%%$$$$$$$$$$#######@@@@@@@@+++++++++++OOOOOOoOooooooXoXXXXXX.XX......                                           8ZZZZZZZZZZZZFFFFFFFFFFFFFFFFFFFF",
"FFFFFFFFFFFFFFFFFFFFZZZZZZZZZZZZNttytyyyyyyyuuuuuuuuuuuiiiiiipipppppppaaaaaaaaasssssssssddddddddfffffffgffggggggggghhhhhhhhhjjjjjjjjjkkkkkkkkkllklllllllzzzzzzzzzzxxxxxxxxcccccccccccccvcvvvvvvvvvvvbbbbbbbbbbnnnnnnnnnnnnnmmmmmmmmmmmmmmmMMMMmmMMMMMMMMMMMMMMMMMMMMMMMMMMMMMMMMMMMMMMMMMMMMMMMMMMMMMMMMMMMMMMmmMMMmMmMmmmmmmmmmmmmnnnnnnnnnnbbbbbbbbbbbbbbbvvvvvvvvvcvcvvccccccccxxxxxxxxxxzzzzzzzzlllllllllllkkkkkkkkkkjjjjjjjjjhhhhhhhhhhggggggggggffffffffdddddddddsssssssssaaaaaaaapppppppipiiiiiiiuuuuuuuuyyuyyyyyytttttttttrrrrrrrreerereeeeeewwwwwwwwwqqqqqq0000000009999999989888888877777777666666666665555555544444444433333333222222112111111<<<<<<<<<,,,,,,,,,,>>>>>>:::::::::;;;;;;;;----------=========******&&&&&&&&%%&%%%%%%$$$$$$$$$$#######@@@@@@@@++++++++++OOOOOOOoOooooooXoXXXXXXXX........                                          1ZZZZZZZZZZZZFFFFFFFFFFFFFFFFFFFF",
"FFFFFFFFFFFFFFFFFFFFZZZZZZZZZZZZnttttyyyyyyyuuuuuuuuuuiiiiiiipppppppppaaaaaaaaasssssssssdddddddddfffffffffggggggggghhhhhhhhhjjjjjjjjjjkkkkkkkkklkkllllllllzzzzzzzzxxxxxxxxxxxccccccccvvvccvvvvvvvvvvbbbbbbbbbbbnnnnnnnnnnnnnmmmmmmmmmmmmmmmMmmMmmmMMMMMMMMMMMMMMMMMMMMMMMMMMMMMMMMMMMMMMMMMMMMMMMMMMMMMMMMMMMMmmMmmMMmmmmmmmmmmmmmnnnnnnnnnnnnbbbbbbbbbbbbbvvvvvvvvvccccvcccccccccccxxxxxxxxzzzzzzzzllllllllllllkkkkkkkkkjjjjjjjjjhhhhhhhhhggggggggggggffffffdffddddddsssssssssaaaaaaaaapppppppiiiiiiiiiuuuuuuuuyuyyyyyyyyyttttttttrrrrrrreeeeeeeeeewwwwwwwqwqqqqqqqqq000000000999999898888888777777777766666655655555555444444443333333322222222211111111<<<<<<<<<,,,,,,,,,>>>>>>>>::::::;;;;;;;;;---------==========******&&&&&&&&%%%%%%%%%%%$$$$$$#$######@@@@@@@@@+@++++++++OOOOOOooOooooooXXXXXXXXX....... ..                                         -ZZZZZZZZZZZZFFFFFFFFFFFFFFFFFFFF",
"FFFFFFFFFFFFFFFFFFFFZZZZZZZZZZZZctttttyyyyyyuuuuuuuuuiiiiiiiiipppppppppaaaaaaaasssssssdddddddddddfffffffgfgggggggggghhhhhhhhhjjjjjjjjjkkkkkkkkklkkllllllllllzzzzzzxxxxxxxxxxxxccccccccvvcvvvvvvvvvvvbbbbbbbbbbbbnnbnnnnnnnnnnnmmmmmmmmmmmmmMmmmmmmmmmMMMMMMMMMMMMMMMMMMMMMMMMMMMMMMMMMMMMMMMMMMMMMMMMMMMmmMMMMmmmmmmmmmmmmmmmmmmnnnnnnnnnnnnnnbbbbbbbbbvbbvvvvvvvvvvcccccccccccccccxxxxxxxxxzzzzzzzzllllllllllkllkkkkkkkjkjjjjjjjhhhhhhhhgggggggggggggfffffffffdddddddsssssssssaaaaaaaaappppppppiiiiiiiiiuuuuuuuyuyyyyyyyyyttttttttrrrrrrrereeeeeeeewwwwwwwqwqqqqqqqqq0000000099999998988888888777777777666666655555555554444444433333333322222222111111<<<<<<<<<<<,,,,,,>,>>>>>>>>>::::::;;;;;;;;;--------==========*******&&&&&&&&%%%%%%%%%%$$$$$$$#$######@@@@@@@@@++++++++++OOOOOOoooooooooXXXXXXXX........ .                                          @ZZZZZZZZZZZZFFFFFFFFFFFFFFFFFFFF",
"FFFFFFFFFFFFFFFFFFFFZZZZZZZZZZZZltttyyyyyyyyyyuuuuuuuuuuiiiiiipppppppppaaaaaaaaasssssssssdddddddddfffffffffggggggggghhhhhhhhhjjjjjjjjjjkkkkkkkkkllllllllllzzzzzzzzzzxxxxxxxxccccccccccvvvvvvvvvvvvvvvvvbbbbbbbbbbnbbnnnnnnnnnnnnmmmmmmmmmmmmmmmmmmMMMMMMmMMMMMMMMMMMMMMMMMMMMMMMMMMMMMMMMMMMMMMMMMMMMMMMmmMMMMMMmmmmmmmmmmmmnnnnnnnnnnnnnbnnnbbbbbbbbbvvvvvvvvvvvvccvvvvccccccccccxxxxxxxxzzzzzzzzzllllllllkkkklkkkkkkkkjjjjjjjjjhhhhhhhhhgggggggggfffffffffdddddddddsddssssssaaaaaaaaapppppppppiiiiiiiiiuuuuuuyyyyyyyyytttttttttttrrrrrrerrrreeeeeewwwwwwwqqqqqqqq0q0000000009999999988888888877777776666666655555555444544444443333333322222222211111111<<<<<<<<,,,,,,,>,>>>>>>>>>::::::::;;;;;;;;-------==========*********&&&&&&&&%%%%%%%%$$$$$$$#$########@@@@@@@++++++++++OOOOOOooooooooXXXXXXXXXXX......                                            .CZZZZZZZZZZZFFFFFFFFFFFFFFFFFFFF",
"FFFFFFFFFFFFFFFFFFFFZZZZZZZZZZZZjtttyyyyyyyyyyyuuuuuuuiuiiiiiipppppppppaaaaaaaaasssssssssdddddddddfffffffffgggggggggghhhhhhhhhjjjjjjjjjkkkkkkkkkkklllllllllzzzzzzzzzzxxxxxxxccxccccccccvvvvvvvvvvvvvvvbbbbbbbbbbbbbbnnnnnnnnnnnnnmmmmmmmmmmmmmmmmmMMMMMMMMMMMMMMMMMMMMMMMMMMMMMMMMMMMMMMMMMMMMMMMMmmMMMMmmMmMMmmmmmmmmmmmmmmnnnnnnnnnnnnbbnbbbbbbbbbbbvvvvvvvvvvvvvvvvvccccccccxcxxxxxxxxzzzzzzzzzzlllllllllkkkkkkkkkkkkjjjjjjjjhhhhhhhhhhgggggggggfffffffffdddddddddsdsssssssaaaaaaaaapppppppppiiiiiiuuuuuuuuuuyyyyyyyyyytttttttttrrrrrrrrereeeeeeewwwwwwqqqqqqqqq0q0000009009999999988888888877777776666666655555555444444444443333333322222222211111111<<<<<<<<,,,,,,,>,>>>>>>:>:::::::::;;;;;;;;-------=========*********&&&&&&&&&%%%%%%%%$$$$$$###########@@@@@@@++++++++++OOOOOOooooooooXXXXXXXXXXX.......                                            NZZZZZZZZZZZFFFFFFFFFFFFFFFFFFFF",
"FFFFFFFFFFFFFFFFFFFFZZZZZZZZZZZZgtttyyyyyyyyyyuuuuuuuuiiiiiiiiiipppppppppaaaaaaaasssssssssdddddddddfffffffggggggggggghhhhhhhhhjjjjjjjjjjkkkkkkkkkkllllllllllzzzzzzzzzzxxxxxxxccccccccccccccvccvvvvvvvvvbbbbbbbbbbbbbbbnnnnnnnnnnnnnnmmmmmmmmmmmmmmmMmmmmMMMMMmmmMMMMMMMMMMMMMMMMMMMMMMMMMMMMmmMMMMmMMmMmmmmmmmmmmmmmmmmmmmmnnnnnnnnnnnnnbbbbbbbbbbbbbbbvvvvvvvvvvvvcccccccccccxxcxxxxxxxzzzzzzzzzlllllllllllkkkkkkkkkkkkjjjjjjjjhhhhhhhhhgggggggggffgfffffffddddddddsssssssssaaaaaaaaappppppppiiiiiiiiuuuuuuuuuuyyyyyyytyyttttttttrrrrrrrrrereeeeeeewwwwwwqwqqqqqqq0q0000009099999999988888888777777766666666555555555444444444433333333322222222111111111<<<<<<,<,,,,,,,>>>>>>>>:::::::::::;;;;;;;;------=========**********&&&&&&&&&%%%%%%%%$$$$$$###########@@@@@@@@++++++++OOOOOOOOoooooooXXXXXXXXXXX.......                                            vZZZZZZZZZZZFFFFFFFFFFFFFFFFFFFF",
"FFFFFFFFFFFFFFFFFFFFZZZZZZZZZZZZdttttyyyyyyyyyuuuuuuuuiiuiiiiiiippppppppaaaaaaaaasssssssssdddddddddfffffffgggggggggggghhhhhhhhhjjjjjjjjjkkkkkkkkkkllklllllllzzzzzzzzzzxxxxxxxxccxcccccccccccvvvvvvvvvvvvbbbbbbbbbbbbbbnnnnnnnnnnnnnnnmmmmmmmmmmmmmmmmmmmmmmMMmmMMMmmmmMMmMmMMMMMMMMMmmmmMMmmmmMMMMmmmmMMmmmmmmmmmmmmmmmmmnnnnnnnnnnnnnnnbbbbbbbbbbbbbbvvvvvvvvvcvvccccccccccccxxxxxxxxxxzzzzzzzlzzllllllllllkkkkkkkkkkkjjjjjjjjhhhhhhhhhhgggggggggffffffffffddddddddsssssssssaaaaaaaaapppppppppiiiiiiuiuuuuuuuyyyyyyyyytytttttttttrrrrrrerrrreeeeeewwwwwwwqwqqqqqq0000000000099999999988888888777777766666666655555555454444444433333333322222212111111111<<<<<<<<,,,,,,>>>>>>>>>::::::::;:;;;;;;;;;------========***********&&&&&&&&%%%%%%%%%$$$$$$##########@@@@@@@@@+@++++++OOOOOOOOoooooooXXXXXXXXXX.......                                             jZZZZZZZZZZZFFFFFFFFFFFFFFFFFFFF",
"FFFFFFFFFFFFFFFFFFFFZZZZZZZZZZZZpttttttyyyyyyyuuuuuuuuuuuiiiiiiippppppppaaaaaaaaasssssssssddddddddddffffffggfggggggggghhhhhhhhhjjjjjjjjjjkkkkkkkkkkkkllllllllzzzzzzzzzzxxxxxxxxcxxccccccccvccvvvvvvvvvvvvvvbbbbbbbbbbbnnnnnnnnnnnnnnnnnmmmmmmmmmmmmmmmmmMMMMmmmmmmmmMMMMMMMMmmmmMMMMMMMMMmmmMMMMmmmmMMmmmmmmmmmmmmmmmmmnnnnnnnnnnnnnnnnbbbbbbbbbbbbbvvvvvvvvvvvcvcccccccccccxccxxxxxxxxzzzzzzzzzzllllllllllkkkkkkkkkkjjjjjjjjjjhhhhhhhhhgggggggggfggffffffdfddddddddsssssssssaaaaaaaaappppppppiiiiiiiiiuuuuuuuuuyyyyyyytyttttttrrrrrrrrrereeeeeeewwwwwwwwwwwqqqqqq0000000009999999988888888888777777676666666555555555544444444433333333222222211111111<<<<<<<<<<<,,,,,,>>>>>>>>>>>::::::;;;;;;;;-----------======*********&&&&&&&&%&%%%%%%%$%$$$$$$########@#@@@@@@@@@++++++++OOOOOOooooooooooXXXXXXX...........                                           sZZZZZZZZZZZFFFFFFFFFFFFFFFFFFFF",
"FFFFFFFFFFFFFFFFFFFFZZZZZZZZZZZZutttttttyyyyyyuuuuuuuuuuuiiiiiiipppppppppaaaaaaaaassssssssddddddddddfffffffgfgggggggggghhhhhhhhhjjjjjjjjjjkkkkkkkkkkkklllllllzzlzzzzzzzzxxxxxxxxcxcccccccccvccvvcvvvvvvvvvbbbbbbbbbbbbbbnnnnnnnnnnnnnnnnmmmmmmmmmmmmmmmmmmmmMmmmmmmmmmMMmMMMmmmmMMMMmMMMmmmmMMMMmmmmmmmmmmmmmmmmmmmmmnnnnnnnnnnnnnbbnnbbbbbbbbbbbbbbvvvvvvvvvvvvccccccccccccxxxxxxxxxxzzzzzzzzzzlllllllllllkkkkkkkkkjjjjjjjjjjhhhhhhhhhggggggggggfgfffffffdddddddddsssssssssaaaaaaaaapppppppppiiiiiiiuiuuuuuuuuuyyyyyytttttttttrrrrrrrrrrreeeeeeewwwwwwwwwwqqqqqqq0000000099999999988888888888777777776666666555555555544444444433333333222222221111111<<<<<<<<,<<,,,,,,,>>>>>>>>>:::::::;;;;;;;;-----------======********&&&&&&&&&%&%%%%%%%%$$$$$$$########@@@@@@@@@@+++++++++OOOOOOoooooooooooXXXXXX..........                                            yZZZZZZZZZZZFFFFFFFFFFFFFFFFFFFF",
"FFFFFFFFFFFFFFFFFFFFZZZZZZZZZZZZttttttttyyyyyyyyuuuuuuuuiiiiiiiippippppppaaaaaaaaasssssssssdddddddddffffffffffggggggggghhhhhhhhhhjjjjjjjjjkkkkkkkkkkllklllllllllzzzzzzzzxxxxxxxxxxxccccccccccvvvccvvvvvvvvvbbbbbbbbbbbbbbnbbbnnnnnnnnnnnnnmmmmmmmmmmmmmmmmmmmmmmmmmmmmmmmmMMmmmmmmmmmmMMmmmmMmmmmmmmmmmmmmmmmmmmmmmnnnnnnnnnnnnnbbbbbbbbbbbbbbbbbbvvvvvvvvvvvvvvcccccccccccxcxxxxxxxxzzzzzzzzzzzlllllllkllkkkkkkkkkkjjjjjjjjjhhhhhhhhhhghggggggggggffffffddddddddddsssssssssaaaaaaaapppppppppiiiiiiiuuuuuuuuuyuyyyyyyyyytttttttrtrrrrrrrrreeeeeeeewwwwwwwwqqqqqqq00000000099999999988888888887777777676666666655555555544444444333333333222222221111111<<<<<<<<,,,,,,,,,,,>>>>>>>>:::::::;;;;;;;;----------=========******&&&&&&&&&%&%%%%%%%%$$$$$$$#$######@@@@@@@@@@+++++++++OOOOOOOOooooooooXXXXXXX..........                                            qZZZZZZZZZZZFFFFFFFFFFFFFFFFFFFF",
"FFFFFFFFFFFFFFFFFFFFZZZZZZZZZZZVttttttttyyyyyyyyyuuuuuuuiiiiiiiiipipppppppaaaaaaaaasssssssssdddddddddfffffffffgggggggggghhhhhhhhhjjjjjjjjjjkkkkkkkkkklllllllllllzzzzzzzzxxxxxxxxxxcccccccccccvccccvvvvvvvvvvvbbbbbbbbbbbbbbbbbbnnnnnnnnnnnnmmmmmmmmmmmmmmmmmmmmmmmmmmmmmmmMMMmmmmmmmmmmmmmmmmmmmmmmmmmmmmmmmmmmmnnnnnnnnnnnnnnnnbbbbbbbbbbbbbbbbbvvvvvvvvvvvvvvvcccccccccxccxxxxxxxxzzzzzzzzzzzllllllllklkkkkkkkkkkjjjjjjjjjjhhhhhhhhhhhggggggggfgfffffffdddddddddsssssssssaaaaaaaaapppppppppiiiiiiiuuuuuuuuuyuyyyyyyyyyttttttrrrrrrrrrrreeeeeeeeewwwwwwwqqqqqqqqqq000000099999999888888888887777777676666666655555555544444444333333333222222221111111<<<<<<<<,,,,,,,,,,,>>>>>>>:::::::;;;;;;;;;--------=-=========******&&&&&&&&%%%%%%%%%%%$$$$$$$$#######@@@@@@@@@@++++++++OOOOOOOOOooooooooXXXXXXX..........                                            6ZZZZZZZZZZZFFFFFFFFFFFFFFFFFFFF",
"FFFFFFFFFFFFFFFFFFFFZZZZZZZZZZZMttttttyyyyyyyyyyyyuuuuuuuuiiiiiiiipppppppppaaaaaaaasssssssssdddddddddffffffffggggggggggghhhhhhhhhhjjjjjjjjjkkkkkkkkkkllllllllllllzzzzzzzzzxxxxxxxxcxxccccccccccccvvvvvvvvvvvvvvvbbbbbbbbbbbbbnnnnnnnnnnnnnnnnnnnnnmmmmmmmmmmmmmmmmmmmmmmmmmmmmmmmmmmmmmmmmmmmmmmmmmmmmmmmmmmmmnnnnnnnnnnnnnnnbnnbbbbbbbbbbbbvvbbvvvvvvvvvvvvvvccccccccccxxxxxxxxxxxxzzzzzzzzllllllllllllkkkkkkkkkkjjjjjjjjjjhhhhhhhhhhgggggggggfgfffffffddddddddddsssssssssaaaaaaaaappppppppiiiiiiiuuuuuuuuuyyyyyyyyyyytttttttrrrrrrrrreeeeeeeeeeewwwwwwwwqqqqqqqq000000000999999999888888888777777676666666555555554444444444433333333222222222111111<<<<<<<<<<,,,,,,,,,>>>>>>>::::::::;;;;;;;;;;;------========***********&&&&&&%%%%%%%%%%%$$$$$$$$######@@@@@@@@@@@++++++++OOOOOOOooooooooXXXXXXXXX........                                              1ZZZZZZZZZZZFFFFFFFFFFFFFFFFFFFF",
"FFFFFFFFFFFFFFFFFFFFZZZZZZZZZZZntttttttyyyyyyyyyuuuuuuuuuuiiiiiiiipppppppppaaaaaaaaasssssssssdddddddddffffffffggggggggggghhhhhhhhhjjjjjjjjjjkkkkkkkkkkllklllllllllzzzzzzzzzxxxxxxxxxxcccccccccccccvvvvvvvvvvvvvvbbvbbbbbbbbbbbnnnnnnnnnnnnnnnnnnnnnmmmmmmmmmmmmmmmmmmmmmmmmmmmmmmmmmmmmmmmmmmmmmmmmmmmmmmmmnnnnnnnnnnnnnnnnnbbnbbbbbbbbbbbbvvvvvvvvvvvvvccvvcvccccccccccxxxxxxxxxxxzzzzzzzzlllllllllllllkkkkkkkkkkjjjjjjjjjhhhhhhhhhhggggggggggfgfffffffdddddddddsssssssssaaaaaaaaapppppppppiiiiiiiuuuuuuuuuyyyyyyyyyyytttttttrrrrrrrreeeeeeeeeeewwwwwwwwwqqqqqqqqq00000000999999999888888887777777676666666555555554444444444433333333222222222111111<<<<<<<<<<<,,,,,,,,>>>>>>>::::::::;;;;;;;;;;-------========***********&&&&&&%%%%%%%%%%$$$$$$$$$#######@@@@@@@@++++++++++OOOOOOoooooooooXXXXXXXXX........                                              ;ZZZZZZZZZZZFFFFFFFFFFFFFFFFFFFF",
"FFFFFFFFFFFFFFFFFFFFZZZZZZZZZZZvttttttttyyyyyyyyuuuuuuuuuiiiiiiiiipppppppppaaaaaaaaasssssssssdddddddfffffffffgggggggggggghhhhhhhhhhjjjjjjjjjjkkkkkkkkkklllllllllllzzzzzzzzzzxxxxxxxxxxcccccccccccccvvvvvvvvvvvvvbbbbbbbbbbbbbbbbbbnbnnnnnnnnnnnnnnnnnnmmmmmmmmmmmmmmmmmmmmmmmmmmmmmmmmmmmmmmmmmmmmmmmmmnnnnnnnnnnnnnnnnnnnnnbbbbbbbbbbbbbbbbvvvvvvvvvvvvcvcccccccccccccccxxxxxxxxxxzzzzzzzzzlllllllllllkkkkkkkkkkkjjjjjjjjjhhhhhhhhhhgggggggggfffffffffffddddddddsssssssssaaaaaaaaapppppppppiiiiiiiuiuuuuuuyyyyyyyyyyyyttttttrrrrrrrrrrerreeeeeeewwwwwwwwwqqqqqq000000000099999999988888888877777776766666666555555545444444443333333332222222211111111<<<<<<<<,,,,,,,,,,>>>>>>>>:::::::;;;;;;;;;;--------=======********&*&&&&&&&&%%%%%%%$$$$$$$$$#$########@@@@@@+++++++++++OOOOOOOOoooooooXXXXXXXXXX.......                                              %ZZZZZZZZZZZFFFFFFFFFFFFFFFFFFFF",
"FFFFFFFFFFFFFFFFFFFFZZZZZZZZZZZxrtttttttyyyyyyyyuuuuuuuuuiiiiiiiiipppppppppaaaaaaaaassssssssssdddddddfffffffffgggggggggggghhhhhhhhhjjjjjjjjjjkkkkkkkkkklllllllllllzzzzzzzzzzzxxxxxxxxxcccccccccccvvcvvvvvvvvvvvvvvbbvvbbbbbbbbbbbbbbnnnnnnnnnnnnnnnnnnnnnnmmmmmmmmmmmmmmmmmmmmmmmmmmmmmmmmmmmmmmmmmmnnnnnnnnnnnnnnnnnnnbnnnbbbbbbbbbbbbbbbbbvvvvvvvvvvvvccccccccccccccccxxxxxxxxxxxzzzzzzzzzllllllllllkkkkkkkkkkkjjjjjjjjjhhhhhhhhhhgggggggggffffffffffdfdddddddsssssssssaaaaaaaaapppppppipiiiiiiiiuuuuuuuuyyyyyyyyyyytttttttrrrrrrrrrrerreeeeeewwwwwwwwwqqqqqqqqq000000009999999998888888887777776666666665655555544444444444333333333222222221111111<<<<<<<<<,,,,,,,,,,>>>>>>:>::::::;;;;;;;;;;;-------========********&&&&&&&&&&&%%%%%%$$$$$$$$$########@#@@@@@@+++++++++++OOOOOOOoooooooXXXXXXXXXXX......                                               +ZZZZZZZZZZZFFFFFFFFFFFFFFFFFFFF",
"ZZZZZZZZZZZZZZZZZZZZFFFFFFFFFFFcrtttttttttyyyyyyyyyuuuuuuuiiiiiiiiipppppppppppaaaaaaasssssssdddddddddddffffffffffggggggggghhhhhhhhhhjjjjjjjjjjkkkkkkkkkklllllllllllzzzzzzzzzzxxxxxxxxxccccccccccccvvvvvvvvvvvvvvvvvbbbvbbbbbbbbbbbbbnnnnnnnnnnnnnnnnnnnnnnnnnnnmmmmmmmmmmmmmmmmmmmmmmmmmmmmmmmmnnnnnnnnnnnnnnnnnnnnnbbbbnbbbbbbbbbbbbbbbvvvvvvvvvvvvvcvvvcvccccccccccxxxxxxxxxxxzzzzzzzzzzlllllllllllkkkkkkkkkkkjjjjjjjjjjhhhhhhhhhggggggggggfgfffffffddfdddddddsssssssssaaaaaaaaapppppppiiiiiiiiiiiuuuuuuuyyyyyyyyttttttttttttrrrrrrrrrrreeeeeewwwwwwwqqqqqqqq0q00000000999999998888888877777777766666666556555555554444444443333333322222221111111111<<<<<<<,,,,,,,,>>>>>>>>>:>::::::;;;;;;;;;----------======***********&&&&&&&&%%%%%%%%%$$$$$$###########@@@@@@+@++++++++OOOOOOOOOoooooooXXXXXXXX.X........                                             .FFFFFFFFFFFZZZZZZZZZZZZZZZZZZZZ",
"ZZZZZZZZZZZZZZZZZZZZFFFFFFFFFFFzrrttttttttyyyyyyyyuuuuuuuuiuiiiiiiipppppppppapaaaaaaasssssssddddddddddddfffffffffgggggggggghhhhhhhhhhjjjjjjjjjkkkkkkkkkkkllllllllllzzzzzzzzzzzxxxxxxxxxccccccccccccccccvvcvvvvvvvvvvvvvvbbbbbbbbbbbbbbnnnnnnnnnnnnnnnnnnnnnnnnnnnnnnmmmmmmmmmmmnmmmmmmmmnnnnmnnnnnnnnnnnnnnnnnnnnnnnbbbbbbbbbbbbbbbbbbbbbvvvvvvvvvvvvcvcvccccccccccxcxxxxxxxxxxzzzzzzzzzzzlllllllllllkkkkkkkkkkjjjjjjjjjjhhhhhhhghhghgggggggffgfffffffdfdddddddsssssssssaaaaaaapapppppppiiiiiiiiiuiuuuuuuuyyyyyyyyytttttttttttrrrrrrrrrrreeeeeeewwwwwwqqqqqqqqq0q00000000999999988888888877777777766666666565555555554444444433333333322222211111111111<<<<<<<,,,,,,,,>>>>>>>>::>::::::;;;;;;;;-----------=======*********&&&&&&&&&%%%%%%%$$$$$$$$##########@@@@@@@+@++++++++OOOOOOOOOooooooooXXXXXX...........                                              SFFFFFFFFFFZZZZZZZZZZZZZZZZZZZZ",
"ZZZZZZZZZZZZZZZZZZZZFFFFFFFFFFFktrttttttttyyyyyyyyyyuuuuuuuuiiiiiiiipppppppppaaaaaaaaasssssssdsdddddddddffffffffffgggggggggghhhhhhhhhjjjjjjjjjkkkkkkkkkkkkkkllllllllzzzzzzzzzzzxxxxxxxxxxxxccccccccccvccvvvvvvvvvvvvvvvvbbbbbbbbbbbbbbbbnnbnbbnnnnnnnnnnnnnnnnnnnnnnnnnnnnnnnnnnmmmnnnnnnnnnnnnnnnnnnnnnnnnnnnnbnnnnnbbbbbbbbbbbbbbvbbbvvvvvvvvvvvcvvcccvccccccccccccxxxxxxxxxzzzzzzzzzzzllllllllkkkkkkkkkkkkkjjjjjjjjjjhhhhhhhhggggggggggggfffffffffdfdddddddssdsssssssaaaaaaapapppppppppiiiiiiiiiuuuuuuuuuyyyyyyytttttttttrrrrrrrrrrrreeeeeeewwwwwwwqqqqqqqqq0000000009999999999888888888777777666666666665555555554444444433333333322222222111111111<<<<<<,,,,,,,,,>>>>>>>>::::::::::;;;;;;;--------=--========********&&&&&&&&&%%%%%%%%$$$$$$$##########@@@@@@@@@++++++++OOOOOOOooooooooooXXXXXX......... .                                              VFFFFFFFFFFZZZZZZZZZZZZZZZZZZZZ",
"ZZZZZZZZZZZZZZZZZZZZFFFFFFFFFFFhtrttttttttyyyyyyyyyyuuuuuuuuiiiiiiiipppppppppaaaaaaaaassssssssssddddddddffffffffffggggggggggghhhhhhhhhjjjjjjjjjkkkkkkkkkkklkkllllllllzzzzzzzzzzzxxxxxxxxxxxxcccccccccccccvcccvvvvvvvvvvvbbbbbbbbbbbbbbbbbbbbbbbbnnnnnnnnnnnnnnnnnnnnnnnnnnnnnnnnmmmmnnnnnnnnnnnnnnnnnnnnnnnnbbbbnnbbbbbbbbbbbbbbbbvvbvvvvvvvvvvvvvccccccccccccccccccxxxxxxxxxzzzzzzzzzzzllllllllkkkkkkkkkkkkkjjjjjjjjjjjhhhhhhhhggggggggggggfffffffffdfdddddddsssssssssaaaaaaaaappppppppppiiiiiiuuiuuuuuuuuuyyyyyytttttttttrrrrrrrrrrreeeeeeeeewwwwwwwqqqqqqqq00000000009999999998888888887777777776666666665555555544444444433333333222222222111111111<<<<<<,,,,,,,,>>>>>>>>>::::::::;;:;;;;;;--------=-=========******&&&&&&&&&&&%%%%%%%%$$$$$$###########@@@@@@@@@@+++++++OOOOOOoooooooooooXXXXXX........                                                 mFFFFFFFFFFZZZZZZZZZZZZZZZZZZZZ",
"ZZZZZZZZZZZZZZZZZZZZFFFFFFFFFFFfrrrtttttttyyyyyyyyuuuuuuuuuiuuiiiiiipiipppppppaaaaaaaaasssssssssdddddddddffffffffffgggggggggghhhhhhhhhhjjjjjjjjjjkkkkkkkkkklkkllllllllllzzzzzzzzxxxxxxxxxxccccccccccccccccvvvvvvvvvvvvvvvvvvbbbbbbbbbbbbbbbbbnnnnnnnnnnnnnnnnnnnnnnnnnnnnnnnnnnnnnnnnnnnnnnnnnnnnnnnnnnnnnnbnnnnbbbbbbbbbbbbbbbvbbbbvvvvvvvvvvvvvvvvccccccccccccccxxxxxxxxxxzzzzzzzzzzzlllllllllllkkkkkkkkkkkjjjjjjjjjjhhhhhhhhhhgggggggggffffffffffddddddddddsssssssssaaaaaaaaappppppppiiiiiiiiuuuuuuuuuyyyyyyyyyyytttttttrrrrrrrrrrreeeeeeeeewwwwwwwwqqqqqqqq0000000000999999898888888887777777766666665555555555544444444433333333222222222111111<<<<<<<<<,,,,,,,,,,>>>>>>>::::::::;;;;;;;;;;;------========*==******&&&&&&&&&&%%%%%%%%%$$$$$$$$#######@@@@@@@@@@+++++++++OOOOOOoOooooooXoXXXXXXXXX......                                                 cFFFFFFFFFFZZZZZZZZZZZZZZZZZZZZ",
"ZZZZZZZZZZZZZZZZZZZZFFFFFFFFFFFsrrrtttttttyyyyyyyyyuuuuuuuuuuuiiiiiiipppppppppaaaaaaaaassssssssssdddddddddffffffffffggggggggghhhhhhhhhhjjjjjjjjjjkkkkkkkkkkkklklllllllllzzzzzzzzxxxxxxxxxxxcccccccccccccccccvvvvvvvvvvvvvvvbbbbvbbbbbbbbbbbbbbbbnnnnnnbbnnnnnnnnnnnnnnnnnnnnnnnnnnnnnnnnnnnnnnnnnnnnnbbbnnnnnbbbbbbbbbbbbbbbbbbbbbvvvvvvvvvvvvvvvvvvcccccccccccxccxxxxxxxxxzzzzzzzzzlzzllllllllklkkkkkkkkkkkjjjjjjjjjjhhhhhhhhhhggggggggggfffffffffddddddddddddsssssssaaaaaaaaapppppppppiiiiiiiiuuuuuuuuyyuyyyyyyyyyttttttrrrrrrrrrrreeeeeeeeewwwwwwwwwqqqqqqq00000000009999999998888888887777777766666665555555555544444444333333333222222221111111<<<<<<<<<,,,,,,,,,,>>>>>>>::::::::;;;;;;;;;;-------========*=*******&&&&&&&&%&%%%%%%%%%$$$$$$$$######@@@@@@@@@@@++++++++OOOOOOOoOooooooXoXXXXXXXXX......                                                 lFFFFFFFFFFZZZZZZZZZZZZZZZZZZZZ",
"ZZZZZZZZZZZZZZZZZZZZFFFFFFFFFFFprrrtttttttyyyyyyyyyuuuuuuuuuuuiiiiiiipppppppppaaaaaaaaaasssssssssdddddddfddfffffffffgggggggggghhhhhhhhhhjjjjjjjjjjkkkkkkkkkkklllllllllllzzzzzzzzxzzxxxxxxxxxcccxcccccccccccccvvvvvvvvvvvvvvvvbvvvvbbbbbbbbbbbbbbbbbbnbbbnnbbbnnnnnnnnnnnnnnnnnnnnnnnnnnnnnnnnnnnnnnnbbbbnnbbbbbbbbbbbbbbbbbbbbbbvvvvvvvvvvvvvvvvccvvccccccccccxxcxxxxxxxxxzzzzzzzzzzzzlllllllllllkkkkkkkkkkjjjjjjjjjjhhhhhhhhhhggggggggggfffffffffffddddddddssssssssssaaaaaaaaapppppppppiiiiiiiiiuuuuuuuuyyyyyyyytytttttttrrrrrrrrreeeeeeeeeeewwwwwwwwwqqqqqqqq0000000999999999998888888877777776766666665555555545444444444333333333222222221111111<<<<<<<<<<,,,,,,,,,>>>>>>>>:::::::;;;;;;;;----------=======********&**&&&&&&%%%%%%%%%%$$$$$$$$#######@@@@@@@@@++++++++++OOOOOOooOooooooXoXXXXXXXX.........                                               gFFFFFFFFFFZZZZZZZZZZZZZZZZZZZZ",
"ZZZZZZZZZZZZZZZZZZZZFFFFFFFFFFFurrrrtttttttytyyyyyyyuuuuuuuuuuuiiiiiiipppppppppaaaaaaaaassssssssssdddddddddffffffffffgggggggggghhhhhhhhhhjjjjjjjjjjkkkkkkkkkkllllllllllllzzzzzzzzzzzxxxxxxxxxcxxxccccccccccccccvvvvvvvvvvvvvvvvvvvbbbbbbbbbbbbbbbbbbbbbbnnbbbbnnbnnnnnnnnnnnnnnnnnnnnnnnnnnnbbbbnnnnbbbbbbbbbbbbbbbbbbbbbbbbbbvvvvvvvvvvvvvvvvccccccccccccccxxxxxxxxxxxxxzzzzzzzzzzzzlllllllllllkkkkkkkkkkjjjjjjjjjjjhhhhhhhhhhggggggggggfffffffffffddddddddsssssssssaaaaaaaaappppppppppiiiiiiiiiuuuuuuyuyyyyyyyyttttttttrrrrrrrrreeeeeeeeeeewwwwwwwwwqqqqqqqqq000000099999999888888888887777777776666666555555554544444444433333333222222222111111<<<<<<<<<<<,,,,,,,,>>>>>>>>>::::::::;;;;;;;--------==========*******&*&&&&&&&&%%%%%%%%%$$$$$$$$#######@@@@@@@@++@++++++++OOOOOOoooooooooooXXXXXXXX........                                                aFFFFFFFFFFZZZZZZZZZZZZZZZZZZZZ",
"ZZZZZZZZZZZZZZZZZZZZFFFFFFFFFFFtrrtttttttttttyyyyyyyyyuuuuuuuiiiiiiiiipipppppppaaaaaaaaaasssssssssddddddddddfffffffgfgggggggggghhhhhhhhhhjjjjjjjjjjjkkkkkkkkkkllkllllllllllzzzzzzzzzzxxxxxxxxxxxxcccccccccccccccvvvvvvvvvvvvvvvvvbbbbbbbbbbbbbbbbbbbbbbbbbbbnnnnbbnnnnbbbbnnnnbbbbbbnnnnnnnnbbbbnbbbbbbbbbbbbbbbbbbbbbbbbbvvvvvvvvvvvvvvvcvvvvccccccccccccccxcxxxxxxxxxxzzzzzzzzzzllllllllllkllkkkkkkkkkkkjjjjjjjjjjhhhhhhhhhhgggggggggggfffffffffdfdddddddssssssssssaaaaaaaaapppppppiiiiiiiiiuuuuuuuuuyuyyyyyyytttttttttrrrrrrrrreereeeeeeeewwwwwwwqqqqqqqq00q000000999999999998888888877777776766666665555555555544444444333333333222222222111111<<<<<<<<<<<,,,,,,>>>>>>>>>:>::::::::;;;;;;-----------======*=*******&*&&&&&&%&%%%%%%%%$$$$$$$$########@@@@@@@@@@+++++++++OOOOOOooooooooXXXXXXXXX..........                                                yFFFFFFFFFFZZZZZZZZZZZZZZZZZZZZ",
"ZZZZZZZZZZZZZZZZZZZZFFFFFFFFFFFrrrttrtttttttttyyyyyyyyyuuuuuuuiiiiiiiiiippppppppaaaaaaaaassssssssssddddddddfffffffffffgggggggggghhhhhhhhhhjjjjjjjjkkkkkkkkkkkkllkklllllllllzzzzzzzzzzzxxxxxxxxxxxcxcccccccccccccccvvvcvvvvvvvvvvvvvbbbbbvbbbbbbbbbbbbbbbbbbbbbbbbbnnnnbbbbnnnnbbbbbbnnnnnnnbbbbbbbbbbbbbbbbbbbbbbbbbvvbbbbvvvvvvvvvvvvvvccvcvvccccccccccccccxxxxxxxxxxxzzzzzzzzzzzllllllllllllkkkkkkkkkkkjjjjjjjjjjhhhhhhhhhhggggggggggfgffffffffddddddddddsssssssssaaaaaaaaappppppppiiiiiiiiuuuuuuuuuuyuyyyyyyytttttttttrtrrrrrrreereeeeeeeewwwwwwqqqqqqqqq000000000909999999998888888877777776766666665555555555444444444333333233222222221111111<<<<<<<<,<,,,,,,,>>>>>>>>:::::::::::;;;;;;-;---------========*********&&&&&&%&%%%%%%%%$$$$$$$$########@@@@@@@@@@++++++++OOOOOOOooooooooXXXXXXXXX..........                                                eFFFFFFFFFFZZZZZZZZZZZZZZZZZZZZ",
"ZZZZZZZZZZZZZZZZZZZZFFFFFFFFFFDrrrrtttttttttytyyyyyyyyuuuuuuuuiiiiiiiiiippppppppaaaaaaaaaasssssssssdddddddffdffffffffffgggggggggghhhhhhhhhhjjjjjjjjkjkkkkkkkkkklkklllllllllzzzzzzzzzzzzxxxxxxxxxxcxxcccccccccccccccvvvcvvvvvvvvvvvvvvvvvvvbbbbbbbbbbbbbbbbbbbbbbbbbbbbbbbbbbbbbbbbbbbbbbbbbbbbbbbbbbbbbbbbbbbbbbbbbbvvvvvvvvvvvvvvvvvcccccccvcccccccccccccccxxxxxxxxxxzzzzzzzzzzzlllllllllkklkkkkkkkkkkkjjjjjjjjjjhhhhhhhhhhhggggggggggggfffffffddddddddddsssssssssaaaaaaaaaapppppppppiiiiiiiiuuuuuuuuyyyyyyyyyyytttttttttrrrrrrrrrrrreeeeeewwwwwwwqqqqqqqqq0000000099099999999888888888777777766666666665555555554444444443333333322222222211111111<<<<<<<,<,,,,,,>>>>>>>>>::::::::::;;;;;;;-;------=--======***********&&&&&&%&%%%%%%%%$$$$$$$##########@@@@@@@@@++++++++OOOOOOOOoooooooXXXXXXXX..........                                                 qFFFFFFFFFFZZZZZZZZZZZZZZZZZZZZ",
"ZZZZZZZZZZZZZZZZZZZZFFFFFFFFFFSrrrrtttttttttytyyyyyyyyuyuuuuuuuiuiiiiiiipppppppppaaaaaaaaassssssssssdddddddfdffffffffffgggggggggghhhhhhhhhhjjjjjjjjjjjkkkkkkkkklkkllllllllllzzzzzzzzzzzzxxxxxxxxxxxxcccccccccccccccccvcccvvvvvvvvvvvvvvvvvbbbbbbbbbbbbbbbbbbbbbbbbbbbbbbbbbbbbbbbbbbbbbbbbbbbbbbbbbbbbbbbbbbbbbbbbbbvvvvvvvvvvvvvvvvcccccccccccccccccccxxxcxxxxxxxxxzzzzzzzzzzzzzllllllllkkkkkkkkkkkkkkkjjjjjjjjjjhhhhhhhhhhggggggggggggffffffffdddddddddssssssssssaaaaaaaaappppppppppiiiiiiiiiuuuuuuuyyyyyyyyyyytttttttttrrrrrrrrrrreeeeeeewwwwwwqqqqqqqqq00000000099999999999888888888777777666666666665555555554444444433333333322222212211111111<<<<<<<,<,,,,,,>>>>>>>>>:::::::::;;;;;;;;--------=-=======**********&&&&&&&%&%%%%%%%%$$$$$$$##########@@@@@@@@@++++++++OOOOOOOOoooooooXXXXXXXX.........                                                  8FFFFFFFFFFZZZZZZZZZZZZZZZZZZZZ",
"ZZZZZZZZZZZZZZZZZZZZFFFFFFFFFFArrrrrttttttttttyyyyyyyyyyuuuuuuuuuiiiiiiipipppppppaaaaaaaaaasssssssssddddddddfffffffffggggggggggggghhhhhhhhhhjjjjjjjjkjjkkkkkkkkkkkllklllllllllllzzzzzzzzzzxxxxxxxxxxcccccccccccccccvvvcvvvvvvvvvvvvvvvvvvvvbbbbbbbbbbbbbbbbbbbbbbbbbbbbbbbbbbbbbbbbbbbbbbbbbbbbbbbbbbbbbbbbvvbbbbbvvvvvvvvvvvvvvvvvvvvvvvvcccccccccccccccxxxxxxxxxxzzzzzzzzzzzzzlllllllllllkkkkkkkkkkkjjjjjjjjjjjhhhhhhhhhhggggggggggffffffffffddddddddddsssssssssaaaaaaaapppppppppiiiiiiiiiiiuuuuuuuuuyyyyyyyyytttttttrrrrrrrrrrrreeeeeeeewwwwwwwwwqqqqqqqqq0000000009999998888888888777777777766666666655555544445444444333333333222222221111111<<<<<<<<,,,,,,,,,,,>>>>>>:>>::::::::;;;;;;---------==========*********&&&&&&%%%%%%%%%$$$$$$$$#$########@@@@@@@@@+++++++++OOOOOOOOoooooooooXXXXXX........                                                   6FFFFFFFFFFZZZZZZZZZZZZZZZZZZZZ",
"ZZZZZZZZZZZZZZZZZZZZFFFFFFFFFFCrrrrrtrttttttttyyyyyyyyyyuuuuuuuuuuiiiiiiiippppppppaaaaaaaaassssssssssdddddddffffffffffgggggggggggghhhhhhhhhhhjjjjjjjjjjjkkkkkkkkkkklllllllllllzlzzzzzzzzzzzxxxxxxxxxxcccxcccccccccccvvcccvvvvvvvvvvvvvvvvvvvvvbbbbvvvbbbbbbbbbbbbbbbbbbbbbbbbbbbbbbbbbbbbbbbbbbbbbbbbbbvbbvvvvbvvvvvvvvvvvvvvvvvvvvccvvvccccccccccccccccxxxxxxxxxxzzzzzzzzzzllzllllllllllllkkkkkkkkkkjjjjjjjjjjjhhhhhhhhhhgggggggggggfffffffffddddddddddssssssssssaaaaaaaappppppppppiiiiiiiiiiuuuuuuuuuyyyyyyyyytttttttrrrrrrrrrrreeeeeeeeewwwwwwwwwqqqqqqqq00000000099999998888888888877777776666666666555555554444444444333333232222222221111111<<<<<<<<<,,,,,,,,,,>>>>>>>>:::::::::;;;;;;---------==========*******&*&&&&&&%%%%%%%%%$$$$$$$$#$#######@@@@@@@@@@+++++++++OOOOOOOOooooooooXXXXXXX........                                                   3FFFFFFFFFFZZZZZZZZZZZZZZZZZZZZ",
"ZZZZZZZZZZZZZZZZZZZZFFFFFFFFFFVrrrrrrrttttttttyyyyyyyyyyuuuuuuuuiiiiiiiiipppppppppaaaaaaaaaassssssssssdddddddfdffffffffgggggggggggghhhhhhhhhhhjjjjjjjjjjkkkkkkkkkkkklllllllllllzzzzzzzzzzzzzxxxxxxxxxxccxccccccccccccccccccvvvcvvvvvvvvvvvvvvvvvvbbvvbbbbbbbbbbbbbbbbbbbbbbbbbbbbbbbbbbbbbbbbbbbbbbbvbbbbbvvvvvvvvvvvvvvvvvvvvvvvvccccccccccccccccccccxxxxxxxxxxxzzzzzzzzzzzlllllllllllllkkkkkkkkkkkjjjjjjjjjjjhhhhhhhhhhhggggggggggfffffffffffdddddddddsssssssssaaaaaaaaaapppppppppiiiiiiiiiuuuuuuuuuyyyyyyytyyttttttttrrrrrrrrrrereeeeeeewwwwwwqwqqqqqqqqq0000000009999999998888888887777777766666665555555555444444444333333323222222222111111<<<<<<<<<,<,,,,,,,,>>>>>>>>>::::::;:;;;;;;;;;------===========******&*&&&&&&&%%%%%%%%$$$$$$$$$#$######@@@@@@@@@@@++++++++OOOOOOOOooooooooXXXXXXXXX.......                                                   1FFFFFFFFFFZZZZZZZZZZZZZZZZZZZZ",
"ZZZZZZZZZZZZZZZZZZZZFFFFFFFFFFBrrrrrrtttttttttyyyyyyyyyuuuuuuuuuiuuiiiiiiipppppppppaaaaaaaaassssssssssdddddddfddffffffffffgggggggggghhhhhhhhhhjjjjjjjjjjjkkkkkkkkkklklllllllllllzzzzzzzzzzzzzxxxxxxxxxxxxxcccccccccccccccccvcvvcvvvvvvvvvvvvvvvvvvvvvbbbbbbbvvbbbbbbbbbbbbbbbbbbbbbbbbbbbbbbbbbbbbbbvbbbvvvvvvvvvvvvvvvvvvvccvvvcvcccccccccccccccccccxxxxxxxxxxxzzzzzzzzzzzzllllllllllllkkkkkkkkkkkkjjjjjjjjjjhhhhhhhhhhhhhggggggggffffffffffffddddddddssssssssssaaaaaaaaapppppppppiiiiiiiiiiuuuuuuuuuyyyyyyytytttttttttrrrrrrrrreeeeeeeeeewwwwwwqwqqqqqqqqq0000000909999998998888888877777777766666665555555554444444444333333322222222221111111<<<<<<<<,,<,,,,,,,,>>>>>>>>>::::::;:;;;;;;;;;------===========******&*&&&&&&&%&%%%%%%$$$$$$$$$#$######@@@@@@@@@@@++++++++OOOOOOOOooooooooXXXXXXXXX....... .                                                 ,FFFFFFFFFFZZZZZZZZZZZZZZZZZZZZ",
"ZZZZZZZZZZZZZZZZZZZZFFFFFFFFFFNrrrrrrrrrttttttttyyyyyyyyyyuuuuuuuiuiiiiiiipppppppppppaaaaaaaassssssssssdddddddddfffffffffffggggggghgghhhhhhhhhhjjjjjjjjjjjkkkkkkkkkkklllllllllllllzzlzzzzzzzzzzxxxxxxxxxxcccccccccccccccccvvvvvvvvvvvvvvvvvvvvvvvvvvvvvvvbbbbvvvbbbbbbbbbbbbbbbbbbbvvvbbbbbbbbbbbbbvvvbbvvvvvvvvvvvvvvvvvccvvvccccccccccccccccccxxcxxxxxxxxxxxzzzzzzzzzzzzlllllllllllllkkkkkkkkkkkkjjjjjjjjjjjhhhhhhhhhhgggggggggggggfffffffddddddddddssssssssssaaaaaaaaappppppppppiiiiiiiuuuuuuuuuyyyyyyyyyyyyttttttrttrrrrrreerreeeeeeeewwwwwwqqqqqqqqq0000000009999999999988888888877777766766666655555555544444444444333333332222222111111111<<<<<<<<<<,,,,,,,>>>>>>>>:::::::::;;;;;;;;;;---------======***********&&&&&&&&%%%%%%%%%$$$$$$$########@#@@@@@@+@+++++++++OOOOOOOooooooooXXXXXXXXX..........                                                 ;FFFFFFFFFFZZZZZZZZZZZZZZZZZZZZ",
"ZZZZZZZZZZZZZZZZZZZZFFFFFFFFFFMrrrrrrrrrtttttttttyyyyyyyyyuuuuuuuuuuiiiiiiippppppppppaaaaaaaaasssssssssdddddddddfffffffffffgggggggggghhhhhhhhhhhjjjjjjjjjjjkkkkkkkkkkkllkllllllllllzlzzzzzzzzzzzxxxxxxxxxxxcccccccccccccccccvvvccvvvccvvvvvvvvvvvvvvvvvvvvvvvvvvbbbbbbbbbbbbbbbbbbbbbbbbbbbbbvvvvvvvvvvvvvvvvvvvvvvvvvvvccvvcvccccccccccccccccccxxxxxxxxxxxxxzzzzzzzzzzzzzllllllllllllkkkkkkkkkkkkjjjjjjjjjjjhhhhhhhhhhgggggggggggggffffffffddddddddddsssssssssaaaaaaaaaapppppppppiiiiiiiuuuuuuuuuuyyyyyyyyytttttttttrtrrrrrrreerreeeeeeewwwwwwwqqqqqqqqq0000000009999999999988888878877777766666666656555555544444444443333333232222222111111111<<<<<<<<<,,,,,,,>>>>>>>>>::::::::;;;;;;;;;;;--------=======*********&*&&&&&&&&%%%%%%%%%$$$$$$#########@@@@@@@@+@+++++++++OOOOOOOooooooooXXXXXXXXXX........                                                  =FFFFFFFFFFZZZZZZZZZZZZZZZZZZZZ",
"ZZZZZZZZZZZZZZZZZZZZFFFFFFFFFFnrrrrrrrrrttttttttttyyyyyyyyuuuuuuuuuiiiiiiiipppppppppppaaaaaaaassssssssssddddddddfdffffffffffgggggggggghhhhhhhhhhhjjjjjjjjjjjkkkkkkkkkkklkkllllllllllllzzzzzzzzzzzxxxxxxxxxxxcxxccccccccccccccccccccvvvcccvvvvvvvvvvvvvvvvvvvvvvvvvvvvvvvvvvbvvvvbbvvvvvvvvvvvvvvvvvvvvvvvvvvvvvvvvvcvvvvvcccvvvcccccccccccccxxccxxxxxxxxxxxzzzzzzzzzzzzzlllllllllllklkkkkkkkkkkkkjjjjjjjjjjjhhhhhhhhhhgggggggggggfgfffffffffdddddddddssssssssssaaaaaaaaappppppppipiiiiiiiuuuuuuuuuyyyyyyyyyyttttttttrrrrrrrrrreeereeeeeeewwwwwwwwwqqqqqq000000000999999999998888888887777777666666665565555555444444444433333332322222221111111111<<<<<<<<,,,,,,,>>>>>>>>>::::::::;;;;;;;;;;---------=======********&&&&&&&&&&&%%%%%%%%$$$$$$$$$#######@@@@@@@@+@++++++++OOOOOOOooooooooXXXXXXXXXX........                                                   &FFFFFFFFFFZZZZZZZZZZZZZZZZZZZZ",
"ZZZZZZZZZZZZZZZZZZZZFFFFFFFFFFbrrrrrrrrtttttttttttyyyyyyyyuuuuuuuuuuiiiiiiiippppppppppaaaaaaaaassssssssssdddddddfdfffffffffffgggggggggghhhhhhhhhhhjjjjjjjjjjjkkkkkkkkkkkkkllllllllllllzzzzzzzzzzzzxxxxxxxxxxxxccxxcccccccccccccccccccccccvccvvvvvvvvvvvvvvvvvvvvvvvvvvvvvvvvvvvvvvvvvvvvvvvvvvvvvvvvvvvvvvvvvvvvcvvvvvvccccccccccccccccccccxxccxxxxxxxxxxxzzzzzzzzzzlzzzlllllllllkkkkkkkkkkkkkkkjjkjjjjjjjjhhhhhhhhhhhggggggggggffgffffffffdddddddddssssssssssaaaaaaaaaappppppppiiiiiiiiuuuuuuuuuuyyyyyyyyyyytttttttrrrrrrrrrreeeeeeeeeewwwwwwwwwqqqqqqq000000000999999999998888888887777776666666665555555555444444444433333333222222221111111111<<<<<<<,,,,,,,,>>>>>>>>:::::::::;;;;;;;;;;---------======*********&&&&&&&&&&&%%%%%%%%$$$$$$$$$######@@@@@@@@@+@++++++++OOOOOOOoooooooooXXXXXXXXX........                                                   $FFFFFFFFFFZZZZZZZZZZZZZZZZZZZZ",
"FFFFFFFFFFFFFFFFFFFFZZZZZZZZZZcrrrrrrrrtttttttttttyyyyyyyyyyuuuuuuuiuiiiiiiiiippppppppaaaaaaaaassssssssssddddddddddffffffffggggggggggggggghhhhhhhhhjjjjjjjjjjjkkkkkkkkkkkkllllllllllllzzlzzzzzzzzzzzxxxxxxxxxxxxxxxxccccccccccccccccvvvvvvvvvvvvvvvvvvvvvvvvvvvvvvvvvvvvvvvvvvvvvvvvvvvvvvvvvvvvvvvvvvvvvvvvvvvvccvvvvvvcccccccccccccccccccccxxxxxxxxxxxxzzzzzzzzzzlllllllllllllkklklkkkkkkkkkkjjjjjjjjjjjhhhhhhhhhhhggggggggggfffffffffffdfddddddddsssssssssaaaaaaaaaapppppppppiiiiiiiiuuuuuuuuuyyyyyyyyyyyytttttttttrrrrrrreeeeeeeeeeewwwwwwwqwqqqqqqqqq000000009999999899888888887777777776666666665555555554444444433333333322222222211111111<<<<<<<<,,,,,,,,,>>>>>>>>>:::::::::;;;;;;-----------========*******&&&&&&&&%%%%%%%%%%%$$$$$$#########@@@@@@@@@@++++++++OOOOOOOoOoooooooXoXXXXXXX........                                                    #ZZZZZZZZZZFFFFFFFFFFFFFFFFFFFF",
"FFFFFFFFFFFFFFFFFFFFZZZZZZZZZZxrrrrrrrrrttttttttttyyyyyyyyyyuuuuuuuiuuiiiiiiiippppppppaaaaaaaaaassssssssssddddddddddfffffffggggggggggggggghhhhhhhhhjjjjjjjjjjjkkkkkkkkkkkklllllllllllllzllzzzzzzzzzzzxxxxxxxxxxxxxxxccccccccccccccccccvvccccvvvcvvcvvvvvvvvvvvvvvvvvvvvvvvvvvvvvvvvvvvvvvvvvvvvvvvvvvvvvvcccvvvvccccvvcccccccccccccccccxcccxxxxxxxxxxxxzzzzzzzzzzzzlllllllllllllkkkkkkkkkkkkkkjjjjjjjjjjjhhhhhhhhhhhgggggggggggffffffffffddddddddddssssssssssaaaaaaaaappppppppppiiiiiiiuiuuuuuuuuyyyyyyyyyyytttttttttrrrrrrreeeereeeeeeewwwwwwqqqqqqqqqqq0000000099999999898888888887777777776666666665555555544444444433333333322222222111111111<<<<<<<,,,,,,,,,,>>>>>>>>>::::::::;;;;;;;----------=========******&&&&&&&&&%%%%%%%%%%%$$$$$$#########@@@@@@@@++++++++++OOOOOOOoOoooooooooXXXXXXXX......                                                     @ZZZZZZZZZZFFFFFFFFFFFFFFFFFFFF",
"FFFFFFFFFFFFFFFFFFFFZZZZZZZZZZxrerrrrrrrrrtttttttyyyyyyyyyyyyuuuuuuuuuiiiiiiippppppppppaaaaaaaaaasssssssssddddddddddffffffffffgggggggggggghhhhhhhhhhjjjjjjjjjjjkkkkkkkkkkkklkkllllllllllllzzzzzzzzzzzzzxxxxxxxxxxxxcccccccccccccccccccccccccccvvccccvvvvvvvvvvvvvvvvvvvvvvvvvvvvvvvvvvvvvvvvvvvvvvvvvcccvvccvvvvcccccccccccccccccccccxxxcxxxxxxxxxxxxzzzzzzzzzzzzzzzlllllllllllllkkkkkkkkkkkkjjjjjjjjjjjhhhhhhhhhghgggggggggggggffffffffddddddddddssssssssssaaaaaaaaaapppppppppiiiiiiiiuiuuuuuuuuuyyyyyyyttyttttttttrrrrrrrrrreeeeeeeeeewwwwwwqqqqqqqqq0q00000000099999998888888878877777777666666666555555555554444444333333322222222111111111<<<<<<<<,<,,,,,,,,,>>>>>>>>::::::::;;;;;;;---------==========*******&*&&&&&&&%&%%%%%%%%$$$$$$$#########@@@@@@@@++++++++++OOOOOOOoOooooooooXXXXXXX.........                                                    +ZZZZZZZZZZFFFFFFFFFFFFFFFFFFFF",
"FFFFFFFFFFFFFFFFFFFFZZZZZZZZZZzreerrrrrrrrrtttttttyyyyyyyyyyyuuuuuuuuuiiiiiiiipppppppppaaaaaaaaaassssssssssddddddddddfffffffffffgggggggggghhhhhhhhhhhjjjjjjjjjjjjkkkkkkkkkkkkkkkllllllllllzzzzzzzzzzzzzzzxxxxxxxxxxxxcccxxccccccccccccccccccccvvccccvvvvccccvvvvvvvvvvvvvvvvvvvvvvvvvvvvvvvvvvvcvvvvccccvvccccvvccccccccccccccccccccxxxxxxxxxxxxxxxxzzzzzzzzzzzzzzllllllllllklllkkkkkkkkkkkkjjjjjjjjjjjhhhhhhhhhghggggggggggggggfffffffdddddddddddsssssssssaaaaaaaaaappppppppppiiiiiiiiiuuuuuuuyuuyyyyyyytttttttttttrrrrrrrrreeeeeeeeewewwwwwwqqqqqqqqq0000000090999999988888888878777777777666666666555555455554444443333333332222222111111111<<<<<<<<,<,,,,,,>,,>>>>>>>>::::::::;;;;;;;---------==========*******&*&&&&&&%%&%%%%%%%%$$$$$$##$#######@@@@@@@@@+++++++++OOOOOOooOooooooooXXXXXXX.........                                                    OZZZZZZZZZZFFFFFFFFFFFFFFFFFFFF",
"FFFFFFFFFFFFFFFFFFFFZZZZZZZZZZzeeerrrrrrrrttttttttyyyyyyyyyuuuuuuuuuuiiiiiiiiiiippppppppaaaaaaaaaassssssssssdddddddfddffffffffffggggggggggghhhhhhhhhhhjjjjjjjjjjjjkkkkkkkkkkkklllllllllllllzzzzzzzzzzzzzzzxxxxxxxxxxxxxcxxccccccccccccccccccccvvccvvvvcvccvvvvvvvvvvccvvvvvvvvvvvvvvvvvvvvvvccccvvvvvvvvccccvvccccccccccccccccccccccxxxxxxxxxxxxxxzzzzzzzzzzzzzzzllllllllllkllkkkkkkkkkkkkkkjjjjjjjjjjhhhhhhhhhhggghggggggggffgffffffffddddddddddssssssssssaaaaaaaaaappppppppiiiiiiiiuuiuuuuuuuyyyyyyyyyyttttttttrrrrrrrrrrrrrreeeeewwwwwwwwwwqqqqqqqq0000000009099999999988888888877777766666666655555555544444444444333333332222222221111111<<<<<<<<<,<,,,,,,>>>>>>>>>:::::::::;;;;;;;;---------========***********&&&&&&%&%%%%%%%$%$$$$$$##########@@@@@@@@@+++++++++OOOOOOoooooooooXoXXXXXX...........                                                   oZZZZZZZZZZFFFFFFFFFFFFFFFFFFFF",
"FFFFFFFFFFFFFFFFFFFFZZZZZZZZZZzeeerrrrrrrrtttttttttyyyyyyyyyuuuuuuuuuuiiiiiiiiiipppppppppaaaaaaaaasssssssssddddddddddddffffffffffggggggggggghhhhhhhhhhhjjjjjjjjjjjjkkkkkkkkkkkkllklllllllllllzzzzzzzzzzzzzzzxxxxxxxxxxxxxxccccccccccccccccccccccccvvvvccccccvvvvvvvvccccvvvvvvvvcvcvvvvvvvvvccvvccvvvvvvccccccccccccccccccccccxxcccxxxxxxxxxxxxxxzzzzzzzzzzzzzzzllllllllllkklkkkkkkkkkkkkkjjjjjjjjjjjhhhhhhhhhhhhggggggggggffffffffffffdddddddddssssssssssaaaaaaaaaappppppppiiiiiiiiiuuuuuuuuuyyyyyyyyyyyytttttttrrrrrrrrrrrrreeeeeewwwwwwwwwwqqqqqqq00000000090099999989888888888777777766666666655555555544444444444333333332222222221111111<<<<<<<<,,,,,,,,,,>>>>>>>::::::::::;;;;;;;;---------========**********&&&&&&&%&%%%%%%%$%$$$$$$$#########@@@@@@@@@+++++++++OOOOOOooooooooXXXXXXXXX.X........                                                    oZZZZZZZZZZFFFFFFFFFFFFFFFFFFFF",
"FFFFFFFFFFFFFFFFFFFFZZZZZZZZZZleerrrrrrrrrtttttttttytyyyyyyyyuuuuuuuuuuuiiiiiiiipppppppppappaaaaaaassssssssssdddddddddfffffffffgffgggggggghhghhhhhhhhhhhjjjjjjjjjjjjkkkkkkkkkkkkllkkllllllllllllzzzzzzzzzzzzzzxxxxxxxxxxxxxccxxxcccccccccccccccccccccccccccvvccccccccvcvvvcvvvvvcccvvvccccvvccccccccccccccccccccccccccccccccccxxcxxxxxxxxxxxxxxzzzzzzzzzzzzlzzlllllllllllkllkkkkkkkkkkkkkjjjjjjjjjjjhhhhhhhhhhhhgggggggggggffffffffffddddddddddssssssssssaaaaaaaapappppppppppiiiiiiiiiiuuuuuuuuuyyyyyyytytttttttrrrrrrrrrrrreeeeeeeewwwwwwwwwwqqqqqqq0000000000099999999988888888877777776666666655555555544444444444333333333222222222111111<<<<<<<<<,,,,,,,,,>>>>>>>>:::::::::;;;;;;;;;;---------======***********&&&&&&&&&%%%%%%%%$$$$$$$$$########@@@@@@@+@++++++++OOOOOOOOOooooooXXXXXXXXX.X........                                                    .ZZZZZZZZZZFFFFFFFFFFFFFFFFFFFF",
"FFFFFFFFFFFFFFFFFFFFZZZZZZZZZZleerrrrrrrrrttrttttttttyyyyyyyyuuuuuuuuuuuuiiiiiiippppppppppppaaaaaaaassssssssssdddddddffffffffffffffgggggggghgghhhhhhhhhhhjjjjjjjjjjjjkkkkkkkkkklkllkklllllllllllzzzzzzzzzzzzzzzxxxxxxxxxxxxxxxxxccccccccccccccccccccccccccccccccccvvccccccccccccccccccccccvvvccccccccccccccccccccccccccccxcccccxxxxxxxxxxxxxxzzzzzzzzzzzzzlllllllllllllklkkkkkkkkkkkkkkjjjjjjjjjjjjhhhhhhhhhhhhgggggggggggffffffffffdddddddddddssssssssssaaaaaaapaapppppppppiiiiiiiiiiuuuuuuuuuyyyyyyyytyttttttttrrrrrrrrrreeeeeeeeeewwwwwwwwwqqqqqqq0000000090999999999988888888777777766666666655555555545444444444333333333222222221111111<<<<<<<<<,,,,,,,,>,>>>>>>>:::::::::;;;;;;;;;;---------======***********&&&&&&&&%%%%%%%%%$$$$$$$$#########@@@@@@+++++++++++OOOOOOOOOooooooXXXXXXXX..X........                                                    .ZZZZZZZZZZFFFFFFFFFFFFFFFFFFFF",
"FFFFFFFFFFFFFFFFFFFFZZZZZZZZZZleeerrrrrrrrrrttttttttttyyyyyyyyuyuuuuuuuiiiiiiiiiipppppppppaapaaaaaaassssssssssdddddddddddffffffffgggggggggggghhhhhhhhhhhhhjjjjjjjjjjjkkkkkkkkkkkkllllllllllllllllzllzzzzzzzzzzzzzxxxxxxxxxxxxxxxxxxxccccccccccccccccccccccccccccccccvccvvvcccvvvvcvvvvccccccccccccccccccccccccccccccccccxxccxxxxxxxxxxxxxxxzzzzzzzzzzzzzzllllllllllllllllkkkkkkkkkkkkkjjjjjjjjjjjjhhhhhhhhhhhhggggggggggggggffffffffddddddddddssssssssssaaaaaaapppppppppppiiiiiiiiiuuuuuuuuuuuuyyyyyyytttttttttrrrrrrrrrrerereeeeeeewwwwwwwwqqqqqqqq0000000009099999999988888888877777776666666666655555555544444444333333333222222222111111111<<<<<<<<,,,,,,,>>>>>>>>:::::::::::;;;;;;;--------===========******&&&&&&&&&%%%%%%%%%$$$$$$$$$$#######@@@@@@@@+++++++++++OOOOOOoooooooooXXXXXXXX.........                                                      .ZZZZZZZZZZFFFFFFFFFFFFFFFFFFFF",
"FFFFFFFFFFFFFFFFFFFFZZZZZZZZZZkeeerrrrrrrrrrtrttttttttyyyyyyyyuyuuuuuuuuiiiiiiiiippipppppppaaaaaaaaaassssssssssdddddddddddffffffffgggggggggggghhhhhhhhhhhhhjjjjjjjjjjjkkkkkkkkkkkkklllllllllllllllllzzzzzzzzzzzzzzzxxxxxxxxxxxxxxxxxccccccccccccccccccccccccccccccccccccccccccccccccccccccccccccccccccccccccccccccccccccxxxxxxxxxxxxxxxxxzzzzzzzzzzzzzzzllllllllllllllllkkkkkkkkkkkkkjjjjjjjjjjjjhhhhhhhhhhhhggggggggggggggfffffffffdddddddddssssssssssaaaaaaaaappppppppppiiiiiiiiuuuuuuuuuuuuyyyyyyyttttttttttrrrrrrrrreeeereeeeeeewwwwwwwwqqqqqqqq000000000999999999998888888887777777666666666655555555554444444433333333322222222211111111<<<<<<<<<,,,,,,>>>>>>>>>:::::::::::;;;;;;;--------===========******&&&&&&&&&%%%%%%%%$$$$$$$$$$$#######@@@@@@@@+++++++++++OOOOOOOoooooooXXXXXXXXX.........                                                       ZZZZZZZZZZFFFFFFFFFFFFFFFFFFFF",
"FFFFFFFFFFFFFFFFFFFFZZZZZZZZZZkeeeererrrrrrrttttttttttyyyyyyyyyyyuuuuuuuuiiiiiiiiippppppppppaaaaaaaaaassssssssssddddddddddffffffffffgggggggggggghhhhhhhhhhhhjjjjjjjjjjjjkkkkkkkkkkkkkllkklllllllllllzlzzzzzzzzzzzzzzzxxxxxxxxxxxxxxxxcxxccxxccccccccccccccccccccccccccccccccccccccccccccccccccccccccccccccccccccxxxccccxxxxxxxxxxxxxxxxzzzzzzzzzzzzzzzzzlllllllllllklllkkkkkkkkkkkkkjjjjjjjjjjjjhhhhhhhhhhhhgggggggggggfgfffffffffddddddddddsssssssssssaaaaaaaaaapppppppppiiiiiiiiiiuuuuuuuuuuyyyyyyyytttttttttrtrrrrrrreeeeeeeeeeewwwwwwwwqqqqqqqqqq00000009999999999988888888877777777766666665655555555544444444433333333222222222111111111<<<<<<<<,,,,,,,,>>>>>>>>>>::::::::;;;;;;;;;-------==========********&&&&&&&%%%%%%%%%%%$$$$$$$$$########@@@@@@@++++++++++OOOOOOOOoooooooXXXXXXXXXXX......                                                        ZZZZZZZZZZFFFFFFFFFFFFFFFFFFFF",
"FFFFFFFFFFFFFFFFFFFFZZZZZZZZZZleeeeeerrrrrrrrrrtttttttyyyyyyyyyuyyuuuuuuuiuiiiiiiippppppppppaaaaaaaaaasssssssssssdddddddddfffffffffggfggggggggggghhhhhhhhhhhhjjjjjjjjjjjjkkkkkkkkkkkkkklkkllllllllllllzzzzzzzzzzzzzzzzzxxxxxxxxxxxxxxxxxxcxxxxccccccccccccccccccccccccccccccccccccccccccccccccccccccccccccccxxxxxxxxxxxxxxxxxxxxxxxxxzzzzzzzzzzzzzzzzzzllllllllllllllklkkkkkkkkkkkkkjjjjjjjjjjjhhhhhhhhhhhhhggggggggggggfffffffffddddddddddddsssssssssaaaaaaaaaappppppppppiiiiiiiuiiuuuuuuuuuyyyyyyyyttttttttttrrrrrrrrrreeeeeeeeeewwwwwwqwqqqqqqqqqq00000009999999999988888888877777777766666656655555555444444444333333333222222222111111111<<<<<<<<,,,,,,,,>>>>>>>>>>::::::;:;;;;;;;-;------===========*******&&&&&&&&&&%%%%%%%%%$$$$$$$$#######@#@@@@@@+++++++++++OOOOOOoooooooooXXXXXXXXXX.......                                                       .ZZZZZZZZZZFFFFFFFFFFFFFFFFFFFF",
"FFFFFFFFFFFFFFFFFFFFZZZZZZZZZZleeeereerrrrrrrtrtttttttyyyyyyyyyyyyuuuuuuuiuuiiiiiiipiipppppppaaaaaaaaaassssssssssdddddddddddffffffffgggggggggggggghhhhhhhhhhhhjjjjjjjjjjjjkkkkkkkkkkkkkkkklllllllllllllzzzzzzzzzzzzzzzzzzxxxxxxxxxxxxxxxxxxxxxccxxxxccccccccccccccccccccccccccccccccccccccccccccccccccccccccxxxxxxxxxxxxxxxxxxxxxxxzzzzzzzzzzzzzzzzzllllllllllllkkllllkkkkkkkkkkkkjjjjjjjjjjjjhhhhhhhhhhghggggggggggggggfffffffffddddddddddssssssssssaaaaaaaaaapppppppppiiiiiiiiiiuuuuuuuuyyyyyyyyyyyytttttttttrrrrrrrrrreeeeeeeeewwwwwwwqwqqqqqqqqq000000090999999988888888877777777777666666656555555554444444444333333333222222121111111<<<<<<<<<,,,,,,,,,,>>>>>>>:>:::::::;;;;;;;;;;-------=========**********&&&&&&&&&%%%%%%%%$$$$$$$########@@#@@@@@@+@@@+++++++OOOOOOOOoooooooooXXXXXX.X........                                                      .ZZZZZZZZZZFFFFFFFFFFFFFFFFFFFF",
"FFFFFFFFFFFFFFFFFFFFZZZZZZZZZZleeereeerrrrrrrtrrtttttttyyyyyyyyyyyuuuuuuuuuuiiiiiiiiiippppppppaaaaaaaaaassssssssssddddddddddfffffffffggggggggggghgghhhhhhhhhhhhjjjjjjjjjjjjjkkkkkkkkkkkkkklllllllllllllllzzzzzzzzzzzzzzzxxzzxxxxxxxxxxxxxxxxxxxxxxxxccccccccccccccccccccccccccccccccccccccccccccccccccxxccccxxxxxxxxxxxxxxxxxxxxzzzzzzzzzzzzzzzzzzzlllllllllllllkklkklkkkkkkkkkkjjjjjjjjjjjjjhhhhhhhhhhhhggggggggggggggffffffffdddddddddddssssssssssaaaaaaaaaappppppppppiiiiiiiiiiuuuuuuuuyyyyyyyyyyyttttttttttrrrrrrrrrrereeeeeeewwwwwwqqwqqqqqqq0q000000090999999988888888877777777777666666656555555454444444444333333232222222221111111<<<<<<<<,,,,,,,,,,,>>>>>>>:>::::::;;;;;;;;;;;-------========***********&&&&&&&&&%%%%%%%%$$$$$$$########@#@@@@@@@@@@@++++++OOOOOOOOOooooooooXXXXXXX.X...... .                                                      oZZZZZZZZZZFFFFFFFFFFFFFFFFFFFF",
"FFFFFFFFFFFFFFFFFFFFZZZZZZZZZZzeeerrrerrrrrrrrttttttttttttyyyyyyyyyuuuuuuuuuuiiiiiiiiippppppppaaaaaaaaaasssssssssssdddddddddddfffffffffffggggggggggggghhhhhhhhhhjjjjjjjjjjjjjkkkkkkkkkkkkkkllllllllllllllllzzzzzzzzzzzzzzzzzzzxxxxxxxxxxxxxxxxxxxxxxccxxxxccccccccccccccccccccccccccccccccccxxxxccccxxxxxxxxxxxxxxxxxxxxxxxxxxxxzzzzzzzzzzzzzzzzzlllllllllllllllkkkkkkkkkkkkkkkjjjjjjjjjjjjjhhhhhhhhhhhhgggggggggggffgfffffffffffddddddddsssssssssssaaaaaaaaaappppppppppiiiiiiiuuiuuuuuuuyyyyyyyyyyyttttttttttrrrrrrreerrreeeeeewwwwwwwwqqqqqqqqqqq000000000999999988988888888777777767666666655555555555444444444333333333222222222111111<<<<<<<<<,,,,,,,,,,,>>>>>>:::::::::;;;;;;;;;;;------=-=======***********&&&&&&&&%%%%%%%%$$$$$$$###########@@@@@@@@@+@++++++OOOOOOOooooooooooXXXXXXX........ .                                                      oZZZZZZZZZZFFFFFFFFFFFFFFFFFFFF",
"FFFFFFFFFFFFFFFFFFFFZZZZZZZZZZzeeeererrrrrrrrrttrtttttttttyyyyyyyyuuuuuuuuuuuuiiiiiiiipppppppppaaaaaaaaaasssssssssssddddddddddfffffffffffgggggggggggggghhhhhhhhhhjjjjjjjjjjjjjkkkkkkkkkkkkkklllklllllllllllllzzzzzzzzzzzzzzzzzzzxxxxxxxxxxxxxxxxxxxxxxxxxxxxcccccxxxxccxccxxxcccxxxxxcccccccxxxxxcxxxxxxxxxxxxxxxxxxxxxxxxxzzzxxzzzzzzzzzzzzzzzlllllllllllllklllkkkkkkkkkkkkkkjjjjjjjjjjjjjhhhhhhhhhhhhggggggggggggfffffffffffffddddddddsssssssssssaaaaaaaaaappppppppppiiiiiiiiuuuuuuuuuyyyyyyyyyyytttttttttttrrrrrrreeereeeeeeewwwwwwwqqqqqqqqqq0q000000000999999988888888888777777767666666655555555555444444444333333333222222221111111<<<<<<<<,,,,,,,,,,,>>>>>>>:::::::::;;;;;;;;-;-------=========**********&&&&&&&&&%%%%%%%$$$$$$$$###########@@@@@@@@+++++++++OOOOOOoooooooooooXXXXXX...........                                                      OZZZZZZZZZZFFFFFFFFFFFFFFFFFFFF",
"FFFFFFFFFFFFFFFFFFFFZZZZZZZZZZzeeeerrerrrrrrrrrtrtttttttyttyyyyyyyyyuuuuuuuuiiiiiiiiiippppppppppaaaaaaaaaassssssssssdddddddddddfffffffffffggggggggggghhhhhhhhhhhhhjjjjjjjjjjjjjkkkkkkkkkkkkkkkllllllllllllllllzzzzlzzzzzzzzzzzzzxxzzxxxxxxxxxxxxxxxxxxxxxxxxxxxxccccxxxxxxccccccxxxcccxxccccxxxxxxxxxxxxxxxxxxxxxxxxxxxxzzzzzzzzzzzzzzzzzzzzllllllllllllllkkllkkkkkkkkkkkkkkkjjjjjjjjjjjjjhhhhhhhhhhhgggggggggggggfffffffffffdddddddddddssssssssssaaaaaaaaaappppppppppiiiiiiiiuuuuuuuuuuyyyyyyyyyttttttttttrrrrrrrrrrrrrreeeeeeewwwwwwwqqqqqqqqq0000000009999999999998888888887777776676666666665555555444444444433333333322222221211111111<<<<<<<,,,,,,,,,>,>>>>>>>>>::::::;;;;;;;;;-;-------========**********&&&&&&&&&&%%%%%%%%$$$$$$$$#######@@@@@@@@@@@+++++++++OOOOOOoooooooooXXXXXXXXXX.......                                                        +ZZZZZZZZZZFFFFFFFFFFFFFFFFFFFF",
"FFFFFFFFFFFFFFFFFFFFZZZZZZZZZZzeeeeererrrrrrrrrrrrtttttttytyyyyyyyyyyuuuuuuuiiiiiiiiiippppppppppaaaaaaaaaaassssssssssdddddddddddfffffffffffggggggggggghhhhhhhhhhhhhjjjjjjjjjjjjjjkkkkkkkkkkkkkklllklllllllllllllzzzzzzzzzzzzzzzzxxzzzzzxxxxxxxxxxxxxxxxxxxxxxxxxxxxxxxxxxxxxxxxxxxxxxxxxxxxxxxxxxxxxxxxxxxxxxxxxxxxxxzzzzzzzzzzzzzzzzzzzzzzlllllllllllllkklkkkkkkkkkkkkkkkkjjjjjjjjjjjjjhhhhhhhhhhhhgggggggggggggfffffffffffdddddddddddssssssssssaaaaaaaaaaappppppppppiiiiiiiuuuuuuuuuuyuyyyyyyyytttttttttrrrrrrrrrrrrereeeeeeewwwwwwwqqqqqqqqqq0000000009999999999988888888877777776666666666655555554444444444433333333322222211211111111<<<<<<<,,,,,,,,,,>>>>>>>>>:::::::;;;;;;;;;--------=========**********&&&&&&&%&%%%%%%%%%$$$$$$$$#######@@@@@@@@@++++++++++OOOOOOOoooooooooXXXXXXXXXX......                                                         +ZZZZZZZZZZFFFFFFFFFFFFFFFFFFFF",
"FFFFFFFFFFFFFFFFFFFFZZZZZZZZZZxeeeeeeerrrrrrrrrrrrttttttttyyyyyyyyyyyyuuuuuuuuiiiiiiiiipppppppppppapaaaaaaasssssssssssddddddddddffffffffffffgggggggggggghhhhhhhhhhhhhjjjjjjjjjjjjjkkkkkkkkkkkkkkkkkkklllllllllllllzzzzlzzzzzzzzzzzzzzzzzzzxxxxxxxxxxxxxxxxxxxxxxxxxxxxxxxxxxxxxxxxxxxxxxxxxxxxxxxxxxxxxxxxxxxxxxxxzzzzzzzzzzzzzzzzzzzzzzzllllllllllllllllllkkkkkkkkkkkkkkkjjjjjjjjjjjjjhhhhhhhhhhhhhggggggggggggffffffffffffddddddddddssssssssssaaaaaaaaaaapppppppppiiiiiiiiiiuuuuuuuuuyuyyyyyyyttttttttttrtrrrrrrrererreeeeeeewwwwwwwwqqqqqqqqqq000000009999999999988888888777777766666666666655555554444444444333333333222222211111111111<<<<<<,,,,,,,,,>>>>>>>>>>>:::::::::;;;;;;----------==========******&&&&&&&&&%%%%%%%%%%%$$$$$$#$#######@@@@@@@@+++++++++++OOOOOOooOooooooXXXXXXXXXXX........                                                       @ZZZZZZZZZZFFFFFFFFFFFFFFFFFFFF",
"FFFFFFFFFFFFFFFFFFFFZZZZZZZZZZxeeeeeeeerrrrrrrrrrrrtttttttyyyyyyyyyyyyuuuuuuuuiiiiiiiiiippppppppppppaaaaaaaasssssssssssdddddddddfffffffffffffgggggggggggggghhhhhhhhhhhjjjjjjjjjjjjjkkkkkkkkkkkkkkkkkkkllllllllllllllllllzzzzzzzzzzzzzzzzzzzzzzxxxxxxxxxxxxxxxxxxxxxxxxxxxxxxxxxxxxxxxxxxxxxxxxxxxxxxxxxxxxxxxxzzzzzzzzzzzzzzzzzzzzzzzzzllllllllllllllllllkkkkkkkkkkkkkkkjjjjjjjjjjjjjjhhhhhhhhhhhhhggggggggggggffffffffffffddddddddddsssssssssssaaaaaaaaaappppppppppiiiiiiiiiuuuuuuuuuuyyyyyyyytyttttttttrrrrrrrrrrerereeeeeeewwwwwwwwqqqqqqqqqqq00000000999999999988888888877777776666666666655555555544444444433333333322222221111111111<<<<<<<<<,,,,,,,>>>>>>>>>>>::::::::;;;;;;;-----------========********&&&&&&&&%%%%%%%%%%$$$$$$$$$#######@@@@@@@@+++++++++++OOOOOOoooooooooXXXXXXXXXX........                                                        @ZZZZZZZZZZFFFFFFFFFFFFFFFFFFFF",
"ZZZZZZZZZZZZZZZZZZZZFFFFFFFFFFbeeeeeeeeeeerrrrrrrrrrtttttttytyyyyyyyyyuuuuuuuuuuuiiiiiiipppppppppppaaaaaaaaaasssssssssssdddddddddddffffffffggfgggggggggggghhhhhhhhhhhhhjjjjjjjjjjkkjjkkkkkkkkkkkllkkkllllllllllllllllllzzzzzzzzzzzzzzzzzzzzzzzzzzzxxxxxxxxxxxxxxxxxxxxxxxxxxxxxxxxxxxxxxxxxxxxxxxxxxxxxxxxzzzzzzzzzzzzzzzzzzzzzzzzzzllllllllllllllllllkkkkkkkkkkkkkkkkkjjjjjjjjjjjjjjhhhhhhhhhhhhhggggggggggggggfffffffffdddddddddddsssssssssssaaaaaaaaaappppppppiipiiiiiiiiiiuuuuuuuyyyyyyyyyytytttttttrrrrrrrrrreerereeeeeeewwwwwwwqqqqqqqqqqq0000000900999999888888888888777777767666666656555555555444444444333333333222222111111111<<<<<<<<<,,,,,,,,,,,>>>>>>:::::::::::;;;;;;;----------=======*=*******&&&&&&&&&%%%%%%%%%$$$$$$$$$$########@@@@@@@@+++++++++OOOOOOOOOooooooXXXXXXXXX...........                                                       $FFFFFFFFFFZZZZZZZZZZZZZZZZZZZZ",
"ZZZZZZZZZZZZZZZZZZZZFFFFFFFFFFmeeeeeeeeeeeerrrrrrrrrtttttttyttyyyyyyyyuuuuuuuuuuuiiiiiiiipippppppppaaaaaaaaaaasssssssssdddddddddddffffffffffggfgggggggggggghhhhhhhhhhhhhjjjjjjjjjjjjjjkkkkkkkkkkkkkkkkllllllllllllllllllllzzzzzzzzzzzzzzzzzzzzzzzzzzxxzxxxxxxxxxxxxxxxxxxxxxxxxxxxxxxxxxxxxxxxxxxxxxxzzzzzzzzzzzzzzzzzzzzzzzzzzzzzlllllllllllllllkllllkkkkkkkkkkkkkkkkjjjjjjjjjjjjjhhhhhhhhhhhhhgggggggggggggggfffffffffdddddddddddsssssssssssaaaaaaaaaaapppppppiipiiiiiiiiiiuuuuuuuuyyyyyyyyyttytttttttttrrrrrrreeereeeeeeeewwwwwwwwqqqqqqqqqqq000000090999999988888888888777777766666666655555555555444444444333333333222222211111111<<<<<<<<<<,,,,,,,,,>>>>>>>>:::::::::::;;;;;;-----------=======*=*******&&&&&&&&&&%%%%%%%%$$$$$$$$$#########@@@@@@@@+++++++++OOOOOOOoOooooooXXXXXXXXX..........                                                        *FFFFFFFFFFZZZZZZZZZZZZZZZZZZZZ",
"ZZZZZZZZZZZZZZZZZZZZFFFFFFFFFFMeeeeeeeeeeerrrrrrrrrrrtttttttttyyyyyyyyyyuuuuuuuuiiiiiiiiiiiippppppppaaaaaaaaaasssssssssssdddddddddddfffffffffggggggggggggggghhhhhhhhhhhhhjjjjjjjjjjjjjjjkkkkkkkkkkkkkkkkklkkllllllllllllllllzzllzzzzzzzzzzzzzzzzzzzzzzzzzzzzzzxxxxxxxxxxxxxxxxxxxxxxxxxxxxxxxxzzxxzzzzzzzzzzzzzzzzzzzzzzzzllzzzzllllllllllllllllkkklkkkkkkkkkkkkkkkkjkjjjjjjjjjjjjhhhhhhhhhhhhhggggggggggggfgfffffffffffddddddddddddsssssssssaaaaaaaaaaappppppppppiiiiiiiiiiuuuuuuuuuuyyyyyyyyyyttttttttttrrrrrrrreeeeeeeeeeewwwwwwwwwqqqqqqq000000000900999999999888888888777777777666666655555555544444444444333333333222222111111111<<<<<<<<<<<,,,,,,,,>>>>>>>:::::::::::;;;;;;;;----------======*********&&&&&&&&&&&%%%%%%%%$$$$$$$$#######@##@@@@@@@@+++++++++OOOOOOoOoooooooooXXXXXX..........                                                         -FFFFFFFFFFZZZZZZZZZZZZZZZZZZZZ",
"ZZZZZZZZZZZZZZZZZZZZFFFFFFFFFFNweeeeeeererrrrrrrrrrrrtttttttttyyyyyyyyuyyuuuuuuuiiiiiiiiiiiiippppppppaaaaaaaaaasssssssssssdddddddddddffffffffffgfgggggggggggghhhhhhhhhhhhhhjjjjjjjjjjjjjjkkkkkkkkkkkkkkkkkkkkklllllllllllllllllllzzzzzzzzzzzzzzzzzzzzzzzzzzzzzzzzxxxzzzzzzzzzxxxzzzzzzzzzxxxzzzzxzzzzzzzzzzzzzzzzzzzzzzzzzlzzlllllllllllllllllllkkkkkkkkkkkkkkkkkkjjjjjjjjjjjjjjjhhhhhhhhhhhhhggggggggggggffffffffffffffdddddddddsddssssssssaaaaaaaaaaappppppppppiiiiiiiiuiuuuuuuuuuuyyyyyyyyyyttttttttttrrrrrrrrrreeeeeeeeewwwwwwwwwqqqqqqq0000000000999999999998888888887777777776666666555555555544444444443333333332222222121111111<<<<<<<<<<<,,,,,,,,>>>>>>>::::::::::;;;;;;;;;;------=-=======*********&&&&&&&&&&%%%%%%%%%$$$$$$$##########@@@@@@@@@++++++++OOOOOOOoOoooooooooXXXXXX.........                                                          >FFFFFFFFFFZZZZZZZZZZZZZZZZZZZZ",
"ZZZZZZZZZZZZZZZZZZZZFFFFFFFFFFBweeeeeeerrrrrrrrrrrrttttttttttyyyyyyyyyyyyyuuuuuuuuiiiiiiiiippppppppppaaaaaaaaaaassssssssssddddddddddddfffffffffgffggggggggggggghhhhhhhhhhhhhjjjjjjjjjjjjjjjkkkkkkkkkkkkkkklllllllllllllllllllllllzzzlzzzzzzzzzzzzzzzzzzzzzzzzzzzzzzzzzzzzzzzzzzzzzzzzzzzzzzzzzzzzzzzzzzzzzzzzzzzzzzzlzzzzzllllllllllllllllllllllkkkkkkkkkkkkkkkkkjjjjjjjjjjjjjjhhhhhhhhhhhhhhggggggggggggffgfffffffffddddddddddddsssssssssssaaaaaaaapppppppppppppiiiiiiiiuuuuuuuuuyyyyyyyyyyytytttttttttrrrrrrrrrrreeeeeeeewwwwwwwwqqqqqqqqqqq0000000000999999889888888888777777767666666665555555555444444444333333332222222222111111<<<<<<<<<<<,,,,,,,>>>>>>>>>>:::::::::;;;;;;;---------===========********&&&&&&&&&%%%%%%%%%$$$$$$###########@@@@@@+@@++++++++OOOOOOOOOooooooXoXXXXXXXXX......                                                           <FFFFFFFFFFZZZZZZZZZZZZZZZZZZZZ",
"ZZZZZZZZZZZZZZZZZZZZFFFFFFFFFFCweeeeeeeeeerrrrrrrrrrrtttttttttyyyyyyyyyyyyuuuuuuuuiiiiiiiiiiipppppppppaaaaaaaaaaasssssssssssddddddddddfffffffffffffggggggggggggghhhhhhhhhhhhhjjjjjjjjjjjjjjkkkkkkkkkkkkkkkllkkllllllllllllllllllllllllzzzzllzzzzzzzzzzzzzzzzzzzzzzzzzzzzzzzzzzzzzzzzzzzzzzzzzzzzzzzzzzzzzzzzzzzzzzzzllzlllllllllllllllllllllllkkkkkkkkkkkkkkkkkjjjjjjjjjjjjjjjhhhhhhhhhhhhhhggggggggggggffffffffffffddddddddddddsssssssssssaaaaaaaaappppppppppppiiiiiiiiiiuuuuuuuuyyyyyyyyyyttttttttttttrrrrrrrerreeeeeeeeewwwwwwwqqqqqqqqqqqq0000000009999999888888888887777777666666666665555555555444444444333333332222222221111111<<<<<<<<<<<,,,,,,,>>>>>>>>>>:::::::::;;;;;;;---------==========*********&&&&&&&&&%%%%%%%%$$$$$$$##########@@@@@@@+@+++++++++OOOOOOOOoooooooXoXXXXXX.XX......                                                           2FFFFFFFFFFZZZZZZZZZZZZZZZZZZZZ",
"ZZZZZZZZZZZZZZZZZZZZFFFFFFFFFFZwweeeeeeeeeererrrrrrrrttttttttttyyyyyyyyyuuuuuuuuuuiiuiiiiiiiippppppppppaaaaaaaaaaasssssssssssddddddddddfffffffffffffggggggggggggghhhhhhhhhhhhhhjjjjjjjjjjjjjjkkkkkkkkkkkkkkkkkkkllllllllllllllllllllllllzzzllzzzzzzzzzzzzzzzzzzzzzzzzzzzzzzzzzzzzzzzzzzzzzzzzzzzzzzzzzzzzzzlzzzzzzzzlllllllllllllllllllkkkllkkkkkkkkkkkkkkkkkjjjjjjjjjjjjjjjjhhhhhhhhhhhhhggggggggggggggffffffffffffddddddddddddssssssssssaaaaaaaaaaappppppppppiiiiiiiiuiuuuuuuuuyyyyyyyyyyttttttttttttrrrrrrreeeeeeeeeeeeeewwwwwqwwqqqqqqqqq0000000009999999998888888888777777766666666666555555554444444444333333333222222222111111111<<<<<<,<,,,,,,,,,>>>>>>>>>:::::::::;;;;;;---------===========*********&&&&&&&&%%%%%%%%%$$$$$$$$#######@@@@@@@@@+@+++++++++OOOOOOOOoooooooXXXXXXXX.X.......                                                           5FFFFFFFFFFZZZZZZZZZZZZZZZZZZZZ",
"ZZZZZZZZZZZZZZZZZZZZFFFFFFFFFFAwwweeeeeeeeeeeerrrrrrrrtttttttttyyyyyyyyyyuuuuuuuuuuiuuiiiiiiiippppppppppaaaaaaaaaaasssssssssssdddddddddddffffffffffffggggggggggggghhhhhhhhhhhhhhjjjjjjjjjjjjjkjjkkkkkkkkkkkkkkkkkkllkkkllllllllllllllllllllllzzzzzzzzzzzzzzzzzzzzzzzzzzzzzzzzzzzzzzzzzzzzzzzzzzzzzzzzzzzzzlllzzzllllllllllllllllllllkkkkkkkkkkkkkkkkkkkkkkkkjjjjjjjjjjjjjjjhhhhhhhhhhhhhhhhgggggggggggggffffffffffffdddddddddddssssssssssaaaaaaaaaaappppppppppiiiiiiiiuuiuuuuuuuyyyyyyyyyyttttttttttrtrrrrrrrreeeeeeeeeeeeeewwwwwwwqqqqqqqqqq000000000999999999888888888777777766666666666655555544444444444433333323322222222111111111<<<<<<<,<,,,,,,,>,>>>>>>:>>::::::::;;;;;;;---------=-=========********&&&&&&&&&%%%%%%%%%$$$$$$$#########@@@@@@@++@++++++++OOOOOOOOOooooooXXXXXXXXX........                                                            7FFFFFFFFFFZZZZZZZZZZZZZZZZZZZZ",
"ZZZZZZZZZZZZZZZZZZZZFFFFFFFFFFSwwweeeeeeeeeerrrrrrrrrrrrttttttttttyyyyyyyyuuuuuuuuuuuuiiiiiiiiiipppppppppaaaaaaaaaassssssssssssdddddddddddfffffffffgfggggggggggghhgghhhhhhhhhhhhhhjjjjjjjjjjjjjjjkkkkkkkkkkkkkkkkllkllllkkllllllllllllllllllllllzzzzllllzzlzzzzzzzzzzzzzzzzzzzzzzzzzzzzzzzzzzzzzzzzzzzzzzzzzlllllllllllllllllllllllllllkkkkkkkkkkkkkkkkkkkjjjjjjjjjjjjjjjjhhhhhhhhhhhhhhgggggggggggggffgfffffffffddddddddddddsssssssssssaaaaaaaaaaapppppppppiiiiiiiiiuuuuuuuuuuyyyyyyyyyyytttttttttrrrrrrrrrrrreeeeeeeeewwwwwwwwwqwqqqqqqq0000000009999999999998888888877777777676666666665555555454444444443333333332222222221111111<1<<<<<<,,,,,,,,,,,>>>>>>>:::::::::;;;;;;;;;-----------======*********&&&&&&&&&%%%%%%%%$$$$$$$$$$$#######@@@@@@@@@++++++++++OOOOOOoooooooooXXXXXXXXXX........                                                           9FFFFFFFFFFZZZZZZZZZZZZZZZZZZZZ",
"ZZZZZZZZZZZZZZZZZZZZFFFFFFFFFFDwwwweeeeeeeeeerrrrrrrrrtrrttttttttttyyyyyyyuuyuuuuuuuuuuiiiiiiiiipppppppppapaaaaaaaaassssssssssssddddddddddffffffffffffggggggggggghhgghghhhhhhhhhhhhjjjjjjjjjjjjjjjjkkkkkkkkkkkkkkkkkkkkllkllllllllllllllllllllllllllllllzzzzzzzlllllzzzzzzzzzzzzzzzzzzzzzzzzzzzzzzzzzzzllllllllllllllllllllllllklllllkkkkkkkkkkkkkkkkkkkjjjjjjjjjjjjjjjjhhhhhhhhhhhhhhggggggggggggggffffffffffffddddddddddddsssssssssssaaaaaaaaaaappppppppppiiiiiiiiuuiuuuuuuuuyyyyyyyyyyytttttttttrrrrrrrrrrrreeeeeeeeewwwwwwwwwwqqqqqqq0000000000999999999998888888887777777666666666555555555445444444444333333333222222221111111<<<<<<<<<,,,,,,,,,,,>>>>>>>:::::::::;;;;;;;;;---------========*********&&&&&&&&%%%%%%%%%$$$$$$$$$$$#######@@@@@@@@@@++++++++OOOOOOOoooooooooXXXXXXXXXX........                                                           wFFFFFFFFFFZZZZZZZZZZZZZZZZZZZZ",
"ZZZZZZZZZZZZZZZZZZZZFFFFFFFFFFFwwwwweeeeeeeeerrrrrrrrrrrrrttttttttyyyyyyyyyyyyuuuuuuuiuuiiiiiiiiipppppppppppaaaaaaaaassssssssssssdddddddddddfffffffffffffggggggggggggggghhhhhhhhhhhhhjjjjjjjjjjjjjjjjkkkkkkkkkkkkkkkkkkkkkkllllllllllllllllllllllllllllllllzzzzlzzlzzzzzllzzzzlzllllzzzzllllzlzzllllllllllllllllllllllllllllllkkllkkkkkkkkkkkkkkkkkkkkjkjjjjjjjjjjjjjjjhhhhhhhhhhhhhhgggggggggggggffffffffffffffdddddddddddsssssssssssaaaaaaaaaaapppppppppppiiiiiiiiiuuuuuuuuuyyuyyyyyyyyyttttttttrrrrrrrrrrrrrrreeeeeeewwwwwwwqqqqqqqqqq0000000009999999999998888888877777777666666666555555555454444444443333333332222222221111111<<<<<<<<<,,,,,,,,>,,>>>>>>:::::::::;;;;;;;;;;;--------=======*********&&&&&&&&&%%%%%%%%%%%$$$$$$$$#######@@@@@@@@@@@+@++++++OOOOOOOooooooooXooXXXXXXXX.........                                                          rFFFFFFFFFFZZZZZZZZZZZZZZZZZZZZ",
"ZZZZZZZZZZZZZZZZZZZZFFFFFFFFFFFrwwwweeeeeeeeeerrrrrrrrrrrrttttttttttyyyyyyyyyyuuuuuuuuiuiiiiiiiiipppppppppppaaaaaaaaaasssssssssssdddddddddddffffffffffffffgggggggggggggghhhhhhhhhhhhhhjjjjjjjjjjjjjjjjjkkkkkkkkkkkkkkkkkkkkklllklllllllllllllllllllllllllllllllllllllzzzlllzzzllzzlzzzzllllllllllllllllllllllllllllllllllllkklkkkkkkkkkkkkkkkkkkkkkkkkjjjjjjjjjjjjjjjhhhhhhhhhhhhhhhgggggggggggggfffffffffffffffddddddddddsssssssssssaaaaaaaaaaapppppppppppiiiiiiiiiiuuuuuuuuuuuyyyyyyyyyytttttttrrrrrrrrrrrrrrreeeeeeeewwwwwwwqqqqqqqqq00000000099999999999988888888877777777676666665555555555454444444443333333332222222211111111<<<<<<<<<,,,,,,,,>,>>>>>>>:>:::::::;;;;;;;;;;;--------=======*********&&&&&&&&&%%%%%%%%%%$$$$$$$$$#######@@@@@@@@@@@++++++++OOOOOOoooooooooXoXXXXXXX..........                                                           iFFFFFFFFFFZZZZZZZZZZZZZZZZZZZZ",
"ZZZZZZZZZZZZZZZZZZZZFFFFFFFFFFFywwwwweeeeeeerrrrrrrrrrrrrrrtttttttyytyyyyyyyuuuuuuuuuuuiiiiiiiiiiippppppppppaaaaaaaaaaasssssssssddddddddddddddffffffffffggggggggggggggggghhhhhhhhhhhhhhhjjjjjjjjjjjjjjjjjkkkkkkkkkkkkkkkkllkkkklllllllllllllllllllllllllllllllllllllllllllllllllllllllllllllllllllllllllllllllllllllllllkklllkkkkkkkkkkkkkkkkkkkkkjjjkkjjjjjjjjjjjjhhhhhhhhhhhhhghgggggggggggggggggffffffffffddddddddddddsssssssssssaaaaaaaaaaappppppppppiiiiiiiiiuuuuuuuuuuyuuyyyyyyyyttttttttttrrrrrrrrrrrreeeeeeeeeewwwwwwwqqqqqqqqq0000000000999999999999888888878777777777666666665555555545444444444333333333222222222111111111<<<<<<<,,,,,,,,,>,>>>>>>>::::::::;;;;;;;;;;;--------=========*********&&&&&&&&&%%%%%%%%%$$$$$$$##########@@@@@@@+++++++++++OOOOOOoooooooooooXXXXXX.........                                                             dFFFFFFFFFFZZZZZZZZZZZZZZZZZZZZ",
"ZZZZZZZZZZZZZZZZZZZZFFFFFFFFFFFiwwwwweeeeeeeerrrrrrrrrrrrrrttttttttyttyyyyyyyuuuuuuuuuuuiiiiiiiiiipppppppppppaaaaaaaaaaassssssssssddddddddddfdddfffffffffggggggggggggggggghhhhhhhhhhhhhhhjjjjjjjjjjjjjjjjjjkkkkkkkkkkkkkkkkkkkkkkklkllllllllllllllllllllllllllllllllllllllllllllllllllllllllllllllllllllllllllllllkkllllkkkklkkkkkkkkkkkkkkkkkkkjjjjjjjjjjjjjjjjjjhhhhhhhhhhhhhhgggggggggggggggfggffffffffffddddddddddddsssssssssssaaaaaaaaaaappppppppppiiiiiiiiiuuuuuuuuuuuyuyyyyyyyyyttttttttttrrrrrrrrrrreeeeeeeeeewwwwwwwqqqqqqqqqq000000000099999999999888888887777777777766666666655555554544444444433333333322222222211111111<<<<<<<,,,,,,,,,>>>>>>>>>:::::::::;;;;;;;;;;;-------==========*******&*&&&&&&&&&%%%%%%%%$$$$$$$$##########@@@@@@@++++++++++OOOOOOOoooooooooooXXXXXXX........                                                             jFFFFFFFFFFZZZZZZZZZZZZZZZZZZZZ",
"ZZZZZZZZZZZZZZZZZZZZFFFFFFFFFFFawwwwwweeeeeeeererrrrrrrrrrrrttttttttttyyyyyyyyyuuuuuuuuuuuiiiiiiiiipiippppppppaaaaaaaaaaasssssssssssddddddddddddffffffffffggffgggggggggggggghhhhhhhhhhhhhhhjjjjjjjjjjjjjjjjjjkkkkkkkkkkkkkkkkkkkkkkkklllllkkkklllllllllllllllllllllllllllllllllllllllllllllllllllllllllllllllkkkllllllkkkkkkkkkkkkkkkkkkkkkkkkjjjjjjjjjjjjjjjjjjhhhhhhhhhhhhhhhhgggggggggggggggffffffffffffddddddddddddsssssssssssaaaaaaaaaaaappppppppppiiiiiiiiiuuuuuuuuuuuuuyyyyyyyyyyttttttttttrrrrrrrreeeeeeeeeeewwwwwwwwwqqqqqqqqq000000000009999999998888888888777777777666666666555555555444444444333333333222222212111111111<<<<<<<,<,,,,,,,>>>>>>>>>>::::::::::;;;;;;;--------=-=========*********&&&&&&&&&%%%%%%%%$$$$$$$###########@@@@@@@@+++++++++OOOOOOOOOoooooooXXXXXXXXXX......                                                              xFFFFFFFFFFZZZZZZZZZZZZZZZZZZZZ",
"ZZZZZZZZZZZZZZZZZZZZFFFFFFFFFFFdwwwwwwweeeeeeeeerrrrrrrrrrrrrttttttttttyyyyyyyyyyuuuuuuuuuuiiiiiiiiipiippppppppaaaaaaaaaaasssssssssssdddddddddddfffffffffffffffggggggggggghgghhhhhhhhhhhhhhhhjjjjjjjjjjjjjjjjjjkkkkkkkkkkkkkkkkkkkkkkkkkkllkkkklllllllllllllllllllllllllllllllllllllllllllllllllllllllllllllkkkkllkkkkkkkkkkkkkkkkkkkkkkkkkkjjjjjjjjjjjjjjjjjjhhhhhhhhhhhhhhhhhgggggggggggggggggffffffffffffddddddddddsssssssssssaaaaaaaaaaaapppppppppppiiiiiiiiuuuuuuuuuuuuuyyyyyyyyytttttttttttrrrrrrrreeeeeeeeeeeewwwwwwwwqqqqqqqqqq000000009009999999898888888887777777776666666666555555555444444444333333333222222212111111111<<<<<<<<<,,,,,,>>>>>>>>>>>:::::::::;;;;;;;;--------=-=========*********&&&&&&&&%%%%%%%%%$$$$$$$##########@@@@@@@@@+++++++++OOOOOOOOooooooooXXXXXXXX.X...... .                                                            bFFFFFFFFFFZZZZZZZZZZZZZZZZZZZZ",
"ZZZZZZZZZZZZZZZZZZZZFFFFFFFFFFFgwwwwwwweeeeeeeeeerrrrrrrrrrtrtttttttttyyyyyyyyyyyyuuuuuuuuiiiiiiiiiiipppppppppppaaaaaaaaaaassssssssssssdddddddddffdffffffffffgffgggggggggggggghhhhhhhhhhhhhhhhhjjjjjjjjjjjjjjjjjjjkkkkkkkkkkkkkkkkkkkkkkkklkklllllllllllllllllllllllllllllllllllllllllllllllllllllllkkkkllllllkkkkkkkkkkkkkkkkkkkkkkkkkkkjjjjjjjjjjjjjjjjjjjhhhhhhhhhhhhhhhhhggggggggggggggffgffffffffffdddddddddddddsssssssssssaaaaaaaaaaaapppppppppiiiiiiiiiiuiiuuuuuuuyuuyyyyyyyyttttttttttttrrrrrrrrrreeeeeeeeeewwwwwwwwwwqqqqqqq0q000000009099999999988888888887777777666666666555555555454444444443333333332222222111111111<<<<<<<<<<<,,,,,,,>>>>>>>>>>>:::::::;:;;;;;;;--------==-======*********&&&&&&&&&%%%%%%%%$%$$$$$$$#########@@@@@@@@@@@++++++++OOOOOOOoOoooooooXXXXXXXX......... .                                                            NFFFFFFFFFFZZZZZZZZZZZZZZZZZZZZ",
"ZZZZZZZZZZZZZZZZZZZZFFFFFFFFFFFjwwwwwwwweeeeeeeeeerrrrrrrrrrrrttttttttyyyyyyyyyyyyuuuuuuuuuiiiiiiiiiippppppppppppaaaaaaaaaaassssssssssssddddddddddddffffffffffffffgggggggggggghhhhhhhhhhhhhhhhhhhjjjjjjjjjjjjjjjjjkkkkkkkkkkkkkkkkkkkkkkkllkkkkkkkllllllklkklllkllllllllllllllllllllllllllllllkkllllkkkklkkkkkkkkkkkkkkkkkkkkkkkkkkkkkkkjjjjjjjjjjjjjjjjjjjhhhhhhhhhhhhhhhhggggggggggggggfffgffffffffffddddddddddddssssssssssssaaaaaaaaaaaappppppppppiiiiiiiiiuuiuuuuuuuuyyyyyyyyyytyttttttttrtrrrrrrrrerreeeeeeeeewwwwwwwwwwqqqqqqqqqq000000099999999989988888887877777776666666665555555555454444444443333333332222222111111111<<<<<<<<<,<,,,,,,,>>>>>>>>:>>::::::;;:;;;;;;;--------=========***********&&&&&&%%%%%%%%%$$$$$$$$$#########@@@@@@@@@@+++++++++OOOOOOOoOoooooooXXXXXXXX........  .                                                            ZFFFFFFFFFFZZZZZZZZZZZZZZZZZZZZ",
"ZZZZZZZZZZZZZZZZZZZZFFFFFFFFFFFlqwwwwwwweeeeeeeeeereerrrrrrrrrttttttttyyyyyyyyyyyyyuuuuuuuuiuiiiiiiiiippppppppppppaaaaaaaaaaassssssssssssddddddddddddffffffffffffffgggggggggggghgghhhhhhhhhhhhhhhhhjjjjjjjjjjjjjjjjjjjjkkkkkkkkkkkkkkkkkkkkkkkkkkkkkkkkkllkklllllkkklllkllkkkllkllkkkllklkkklllkllllkkkkkkllkkkkkkkkkkkkkkkkkkkkkkkkjjkkjjjjjjjjjjjjjjjjjhhhhhhhhhhhhhhhhgggggggggggggggffffffffffffffffddddddddddddssssssssssaaaaaaaaaaaapppppppppppiiiiiiiiiiiuuuuuuuuyyyyyyyyyyttytttttttrrrrrrrrrreerrreeeeeeeeewwwwwwwwqqqqqqqqqq000000000099999998988888887777777777666666666555555555444454444444333333332222222221111111<<<<<<<<<<<,,,,,,,,,>>>>>>>:>:::::::;;;;;;;;;---------========*********&&&&&&&&&&&%%%%%%%%%$$$$$$$$$######@@@@@@@@@@@+++++++++OOOOOOoooooooooXXXXXXXX.........                                                               FFFFFFFFFFFZZZZZZZZZZZZZZZZZZZZ",
"ZZZZZZZZZZZZZZZZZZZZFFFFFFFFFFFxqqwwwwwwweeeeeeeeeeeerrrrrrrrrtttttttttyyyyyyyyyyyyyuuuuuuuuuuuiiiiiiiipppppppppppppaaaaaaaaaassssssssssssdddddddddddddfffffffffffffggggggggggggggghhhhghhhhhhhhhhhhhjjjjjjjjjjjjjjjjjjjjkkkkkkkkkkkkkkkkkkkkkkkkkkkkkkkkkkkkkkkllkkllllllkkllllllkkllllkkkkkkkkkkllkkkkkkkkkkkkkkkkkkkkkkkkkkkkkjjjjjkjjjjjjjjjjjjjjjjhhhhhhhhhhhhhhhhhgggggggggggggggffffffffffffffffddddddddddddssssssssssaaaaaaaaaaaapppppppppppiiiiiiiiiiiuuuuuuuuuyyyyyyyyytttttttttttrrrrrrrrrrrerrreeeeeeewwwwwwwwwqqqqqqqqqqq000000000999999988988888887777777776666666665555555555444444444443333333332222222221111111<<<<<<<<<,<,,,,,,,,,>>>>>>>:>:::::::;;;;;;;;---------=========*********&&&&&&&&&&%%%%%%%%%%$$$$$$$$#######@@@@@@@@@@@++++++++OOOOOOOooooooooXXXXXXXXX.........                                                              OFFFFFFFFFFFZZZZZZZZZZZZZZZZZZZZ",
"FFFFFFFFFFFFFFFFFFFFZZZZZZZZZZZxqqwwwwwwwwwweeeeeerrrrrrrrrrrrtttttttttttttyyyyyyyuuyuuuuuuuuiuuiiiiiiiippppppppppppaaaaaaaaaaassssssssssssdddddddddddddffffffffffffggggggggggggggggghhhghhhhhhhhhhhhhhjjjjjjjjjjjjjjjjjjjkkkkkkkkkkkkkkkkkkkkkkkkkkkkkkkkkkkkllkkllkkkkkkllkkkkkkllkkkkkkkkkkkkkkkkkkkkkkkkkkkkkkkkkkkkkkkkkkkkjjjjjjjjjjjjjjjjjjjjjhhhhhhhhhhhhhhhhhggggggggggggggggggfffffffffffddfddddddddddssssssssssssaaaaaaaaapaappppppppppiiiiiiiiiuuuuuuuuuuuuuyyyyyyyyyyytttttttttttrrrrrrreeereeeeeeeeewwwwwwwqwqqqqqqqq0000000000009999999888888888877777777776666666666555555555554444444433333332222222222111111111<<<<<<<,,,,,,,,,>>>>>>>>>:::::::::::;;;;;;;;;---------=======**********&&&&&&&%%%%%%%%%$$$$$$$$$$$######@@@@@@@@@+++++++++++OOOOOOOOOooooooooXXXXXXXXX......                                                               #ZZZZZZZZZZZFFFFFFFFFFFFFFFFFFFF",
"FFFFFFFFFFFFFFFFFFFFZZZZZZZZZZZvwwqwwwwwwwwweeeeeerrrrrrrrrrrrttrttttttttttyyyyyyyyyyyuuuuuuuuiuiiiiiiiiipppppppppppaaaaaaaaaaaassssssssssssddddddddddddfffffffffffffgggggggggggggggggghggghhhhhhhhhhhhhhjjjjjjjjjjjjjjjjjkkjjjkkkkkkkkkkkkkkkkkkkkkkkkkkkkkkkklkkllkkkkklllkkkkklllkkkkkkkkkkkkkkkkkkkkkkkkkkkkkkkkkkkkkkkjjjjjjjjjjjjjjjjjjjjjjjhhhhhhhhhhhhhhhhhhgggggggggggggggggggfffffffffffdddddddddddddssssssssssssaaaaaaaaappapppppppppppiiiiiiiiiuuuuuuuuuuuuuyyyyyyyyyyttttttttrttrrrrrrreeeereeeeeeeewwwwwwwqqwqqqqqqqq0000000000099999998888888888877777777776666666666555555555544444444333333332222222222111111111<<<<<<<,,,,,,,,,>>>>>>>>>:::::::::::;;;;;;;;;---------======*********&*&&&&&&&%%%%%%%%%%%$$$$$$$$$######@@@@@@@@@+++++++++++OOOOOOOOoooooooooXXXXXXXXX......                                                               *ZZZZZZZZZZZFFFFFFFFFFFFFFFFFFFF",
"FFFFFFFFFFFFFFFFFFFFZZZZZZZZZZZnqwwwwwwwwwwweeeeeeereerrrrrrrrrtrrtttttttyttyyyyyyyyyyuuuuuuuuuuiiiiiiiiiiippppppppppaaaaaaaaaaaasssssssssssddddddddddddffffffffffffffggfggggggggggggggggghhhhhhhhhhhhhhhhhjjjjjjjjjjjjjjjjjjjjjjjjkkkkkkkkkkkkkkkkkkkkkkkkkkkkkkkkkkkkkkkkkkkkkkkkkkkkkkkkkkkkkkkkkkkkkkkkkkkkkkkkkkkkkjjjjjjjjjjjjjjjjjjjjjjjjhhhhhhhhhhhhhhhhhhhgggggggggggggggfffffffffffffffdddddddddddddssssssssssssaaaaaaaaaaaapppppppppipiiiiiiiiiiiuuuuuuuuuuuyyyyyyyyttytttttttrttrrrrrrrrrreeeeeeeeeewwwwwwwwqqqqqqqqq0qq000000000999999999888888888877777776676666666565555555554444444443333333332222222211111111<<1<<<<<<<<<,,,,,,>,,>>>>>>:>>::::::::;;;;;;;;;---------========********&&&&&&&&&%&%%%%%%%%$$$$$$$$$########@@@@@@@+++@@++++++OOOOOOOOOoooooooooXXXXXXXX........                                                              >ZZZZZZZZZZZFFFFFFFFFFFFFFFFFFFF",
"FFFFFFFFFFFFFFFFFFFFZZZZZZZZZZZNqqwwwwwwwwwweeeeeeereeeerrrrrrrrrrtttttttttttyyyyyyyyyuuuuuuuuuuiuiiiiiiiiipppppppppppaaaaaaaaaaaasssssssssssssdddddddddddddffffffffffggffgggggggggggggggghhhhhhhhhhhhhhhhhhhjjjjjjjjjjjjjjjjjjjjjjjjjjkkkkkkkkkkkkkkkkkkkkkkkkkkkkkkkkkkkkkkkkkkkkkkkkkkkkkkkkkkkkkkkkkkkkkkkkkkkkkjjjjjjjjjjjjjjjjjjjjjjjjjjhhhhhhhhhhhhhhhhhhhghhggggggggggggggffffffffffffffddddddddddddsssssssssssssaaaaaaaaaaaappppppppppiiiiiiiiiiiiiuuuuuuuuyyyyyyyyyyttyttttttttrtrrrrrrrrrreeeeeeeeeewwwwwwwwqqqqqqqqqq0q0000000000999999999888888888877777776766666665565555555554444444443333333332222222211111111<<<<<<<<<<<,,,,,,,,,>>>>>>>>>:::::::::;;;;;;;;;---------=========******&&&&&&&&&&&%%%%%%%%%$$$$$$$$$#######@@@@@@@@@@+@+++++++OOOOOOOOOooooooooXXXXXXXXX.........                                                             3ZZZZZZZZZZZFFFFFFFFFFFFFFFFFFFF",
"FFFFFFFFFFFFFFFFFFFFZZZZZZZZZZZCqqwwqwwwwwwweeeeeeeeeerrerrrrrrrrrrttttttttyttyyyyyyyyuuuuuuuuuuiiuiiiiiiiiipppppppppppaaaaaaaaaaaasssssssssssssdddddddddddddfffffffffffffffgggggggggggggggghhhhghhhhhhhhhhhhhhhjjjjjjjjjjjjjjjjjjjjjjjjjjjkkkkkkkkkkkkkkkkkkkkkkkkkkkkkkkkkkkkkkkkkkkkkkkkkkkkkkkkkkkkkkkkkkkkkjjjjkkjjjjjjjjjjjjjjjjjjjjjhhhhhhhhhhhhhhhhhhhhggggggggggggggggfgfffffffffffffdfdddddddddddsssssssssssssaaaaaaaaaaaappppppppppiiiiiiiiiiiuuuuuuuuuuyyyyyyyyyyyyyttttttttrrrrrrrrrrrrrrreeeeeeeewwwwwwwqqwqqqqqqqq00000000099999999999988888888877777776676666666555555555444444444443333333332222222221111111<<<<<<<<<<<<,,,,,,>,>>>>>>>>:>::::::;;;;;;;;;---------===========*******&&&&&&&&&%%%%%%%%%%%$$$$$$###########@@@@@@@@@+++++++++OOOOOOoooooooooXXXXXXXX...........                                                              8ZZZZZZZZZZZFFFFFFFFFFFFFFFFFFFF",
"FFFFFFFFFFFFFFFFFFFFZZZZZZZZZZZZwqqwqwwwwwwwweeeeeeeeeereerrrrrrrrtrttttttttttyyyyyyyyuuuuuuuuuuuuuuiiiiiiiiippppppppppppaaaaaaaaaaasssssssssssssddddddddddddddffffffffffffffggggggggggggghggghhgghhhhhhhhhhhhhhhhjjjjjjjjjjjjjjjjjjjjjjjjjjjjjjkkkkkkkkkkkkkkkkkkkkkkkkkkkkkkkkkkkkkkkkkkkkkkkkkkkkkkkkkkkkjjjjjjjjjjjjjjjjjjjjjjjjjjjjjhhhhhhhhhhhhhhhhhhhhgggggggggggggggggggffffffffffffdddfddddddddddsssssssssssssaaaaaaaaaaaapppppppppppiiiiiiiiiuiuuuuuuuuuyyyyyyyyyyyyyttttttttrrrrrrrrrrrrrrreeeeeeeewwwwwwwwwqqqqqqqq0qq0000000999999999999888888888877777776666666665555555554444444444443333333332222222221111111<1<<<<<<<<<,,,,,,,>>>>>>>>>>>:::::::;;;;;;;;;---------=-=========******&&*&&&&&&&%%%%%%%%%%$$$$$$$#$#########@@@@@@@@@++++++++OOOOOOOooooooooXXXXXXXXX.X.........                                                              rZZZZZZZZZZZFFFFFFFFFFFFFFFFFFFF",
"FFFFFFFFFFFFFFFFFFFFZZZZZZZZZZZZtqqqqqwwwwwwwweeeeeeereeeerrrrrrrrttttttttttyyyyyyyyyyyyyyuuuuuuuuuuuiiiiiiiiiiippppppppppaaaaaaaaaaasssssssssssssdddddddddddfddffffffffffffgfgggggggggggggggggggghhhhhhhhhhhhhhhhhhhjjjjjjjjjjjjjjjjjjjjjjjjjjkjjjjjkkkkkkkkkkkkkkkkkkkkkkkkkkkkkkkkkkkkkkkkkkkkkkkkkjjjkjjjjjjjjjjjjjjjjjjjjjjjjjjjjhhhhhhhhhhhhhhhhhhhhhhggggggggggggggggffggffffffffffffddddddddddddddssssssssssssaaaaaaaaaaaapppppppppppiiiiiiiiiuuuuuuuuuuuyyyyyyyyyyyyytttttttttttrrrrrrrrrreeeeeeeeeewwwwwwwwqqqqqqqqqq0q0000000999999999999888888888877777776776666666665555555554444444443333333332222222222111111<<1<<<<<<<<<,,,,,,,>>>>>>>>>:::::::::;;;;;;;;---------=========*=********&&&&&&&&&&%%%%%%%%%$$$$$$#########@#@@@@@@@@@++++++++OOOOOOOoooooooooXXXXXXXXX........ ..                                                              pZZZZZZZZZZZFFFFFFFFFFFFFFFFFFFF",
"FFFFFFFFFFFFFFFFFFFFZZZZZZZZZZZZuqqqqqwwwwwwwweeeeeeeerreerrrrrrrrrtttttttttttyyyyyyyyyyyyyuuuuuuuuuuuiiiiiiiippppppppppppaaaaaaaaaaaaasssssssssssssdddddddddddddfffffffffffgggggggggggggggggggggghhhhhhhhhhhhhhhhhhhhhhjjjjjjjjjjjjjjjjjjjjjjjjjjjjjjjjjjjjjkkkkkkkkkkkkkkkkkkkkkkkkkkkkkkkkkkkjjjjjjjjjjjjjjjjjjjjjjjjjjjjjjjjjjjhhhhhhhhhhhhhhhhhhhhhhgggggggggggggggggffffffffffffffffffdddddddddddsssssssssssssaaaaaaaaaaaaappppppppppppiiiiiiiiuuuuuuuuuuuyyyyyyyyyyyyyyttttttttttrrrrrrrrrrreeeeeeeeeewwwwwwwqqqqqqqqqq00000000009999999999998888888887777777777666666666555555555544444444433333333322222222211111111<<<<<<<<,<,,,,,,,>>>>>>>>>:::::::::;;;;;;;;;---------=========*=*********&&&&&&&&&%%%%%%%%%$$$$$$#########@#@@@@@@@@@+@++++++OOOOOOOoooooooooXXXXXXXX......... .                                                               gZZZZZZZZZZZFFFFFFFFFFFFFFFFFFFF",
"FFFFFFFFFFFFFFFFFFFFZZZZZZZZZZZZaqqqqqwwwwwwwwwweeeeeeerrrrrrrrrrrrtttttttttttyytyyyyyyyyuuyuuuuuuuuiiiiiiiiiiipippppppppppaaaaaaaaaaaaasssssssssssssdddddddddddddffffffffffffggffgggggggggggggggggghhhhhhhhhhhhhhhhhhhhhhjjjjjjjjjjjjjjjjjjjjjjjjjjjjjjjjjjjjjjjjjjkjjjjjjjjjkkjjjjkjjjjjjjjjkkjjjjjjjjjjjjjjjjjjjjjjjjjjjjjjjjjhhhhhhhhhhhhhhhhhhhhhhggggggggggggggggggggggfffffffffffddddddddddddddsddssssssssssaaaaaaaaaaapppppppppppppiiiiiiiiiiiiuuuuuuuuyyyyyyyyyyyyttttttttttrrrrrrrrrrerreeeeeeeeeewwwwwwwwwwqqqqqqq0000000000999999999988888888888777777776666666665665555555454444444443333333332222222221111111<<<<<<<<<<,<,,,,,,,>>>>>>>>>:::::::::::;;;;;;;;;-------=========********&&&&&&&&&&&%%%%%%%%%$$$$$$$#########@@@@@@@@+@+++++++++OOOOOOOOoooooooooXXXXXXX.........                                                                 zZZZZZZZZZZZFFFFFFFFFFFFFFFFFFFF",
"FFFFFFFFFFFFFFFFFFFFZZZZZZZZZZZZfqqqqqwwwwwwwwwweeeeeeerrrrrrrrrrrrrtttttttttttyyyyyyyyyyyuuuuuuuuuuuiiiiiiiiiiiiippppppppppaaaaaaaaaaaaasssssssssssssddddddddddddfdffffffffffffffffgggggggggggggggggghhhhhhhhhhhhhhhhhhhhhhhhjjjjjjjjjjjjjjjjjjjjjjjjjjjjjjjjjjjjjjkjjjjjjjkjkkjjjjjjjjjjjjjjkjjjjjjjjjjjjjjjjjjjjjjjjjjjjjjhhhhhhhhhhhhhhhhhhhhhhhhggggggggggggggggggfgggffffffffffffddddddddddddddssdssssssssssaaaaaaaaaaaapppppppppppppiiiiiiiiiuuuuuuuuuuuyuyyyyyyyyyttttttttttrrtrrrrrrreeeeeeeeeeeeeewwwwwwwwqqqqqqqqq0000000000999999999888888888888777777766666666665655555554454444444443333333332222222221111111<<<<<<<<<,,,,,,,,,>>>>>>>>>:::::::::::;;;;;;;;;-------==========********&*&&&&&&&&&%%%%%%%%%$$$$$$$########@@@@@@@@@+@+++++++++OOOOOOOOoooooooooXXXXXXX........                                                                  nZZZZZZZZZZZFFFFFFFFFFFFFFFFFFFF",
"FFFFFFFFFFFFFFFFFFFFZZZZZZZZZZZZhqqqqqwwqwwwwwwweeeeeeeeeeerrrrrrrrrrrttttttttttttyyyyyyyyyuuuuuuuuuuuuuuiiiiiiiiipppppppppppaaaaaaaaaaaaasssssssssssssdddddddddddddddffffffffffffffffgggggggggggggggggghhhhhhhhhhhhhhhhhhhhhhhhhjjjjjjjjjjjjjjjjjjjjjjjjjjjjjjjjjjjjjjjjjjjjjjjjjjjjjjjjjjjjjjjjjjjjjjjjjjjjjjjjjjjjjjjjjhhhhhhhhhhhhhhhhhhhhhhhhgggggggggggggggggggfffgffffffffffffdddddddddddddddsssssssssssssaaaaaaaaaaaapppppppppppiiiiiiiiiiiiuuuuuuuuuuuuyyyyyyyyyyyttttttttrtrrrrrrrrrreeeeeeeeeeeeewwwwwwwwqqqqqqqqqq00000000099999999999888888888877777776766666665555555555444444444443333333332222222122111111<<1<<<<<<<,,,,,,,,,,,>>>>>>>>>:::::::;:;;;;;;;;;---------=========******&&&&&&&&&&&&%%%%%%%%$$$$$$$$#########@@@@@@@@@@++++++++OOOOOOOOOoooooooooXXXXXX......... .                                                                VZZZZZZZZZZZFFFFFFFFFFFFFFFFFFFF",
"FFFFFFFFFFFFFFFFFFFFZZZZZZZZZZZZlqqqqqqwqwwwwwwwweeeeeeeeeerrrrrrrrrrrrttttttttttttyyyyyyyyuuuuuuuuuuuuuuuiiiiiiiippppppppppppaaaaaaaaaaaaassssssssssssssddddddddddddddffffffffffffffffggggggggggggggggggggghhhhhhhhhhhhhhhhhhhhhhhhhjjjjjjjjjjjjjjjjjjjjjjjjjjjjjjjjjjjjjjjjjjjjjjjjjjjjjjjjjjjjjjjjjjjjjjjjjjjjjjjjjhhhhhhhhhhhhhhhhhhhhhhhhhhgggggggggggggggggggfffffffffffffffffddddddddddddddssssssssssssssaaaaaaaaaaaappppppppppppiiiiiiiiiuuuuuuuuuuuuuyyyyyyyyyyyyttttttttrrtrrrrrrrrereeeeeeeeeeeeewwwwwqwwqqqqqqq0q000000000999999999898888888888777777766766666665555555555544444444443333333332222222121111111<<<<<<<<<,,,,,,,,,,,>>>>>>>>>>:::::::;:;;;;;;;;;--------=======*********&&&&&&&&&&&%%%%%%%%%$$$$$$$#########@@@@@@@@@@+++++++++OOOOOOOOOoooooooooXXXXXXXX....... .                                                               oZZZZZZZZZZZZFFFFFFFFFFFFFFFFFFFF",
"FFFFFFFFFFFFFFFFFFFFZZZZZZZZZZZZcqqqqqqqqqwwwwwwwweeeeeeeererrrrrrrrrrrrrttttttttyttyyyyyyyyuuuuuuuuuuuuuuiiiiiiiiippippppppppppaapaaaaaaaaassssssssssssssdddddddddddddddffffffffffffffffgggggggggggggggggggghhhhhhhhhhhhhhhhhhhhhhhhhhhhjjjjjjjjjjjjjjjjjjjjjjjjjjjjjjjjjjjjjjjjjjjjjjjjjjjjjjjjjjjjjjjjjjjjjjjjjhhhhhhhhhhhhhhhhhhhhhhhhhhhhggggggggggggggggggggggffffffffffffffdddddddddddddddsssssssssssssaaaaaaaaaaaaappppppppppiiiiiiiiiiiuuiuuuuuuuuuyyyyyyyyyyytttttttttttttrrrrrrrrrrrreeeeeeeeewwwwwwwwqqqqqqqqqqqq00000000999999999989888888877777777777766666665565555555554444444443333333332222222111111111<11<<<<<<<,<,,,,,,,,>>>>>>>>:>:::::::;;;;;;;;;---------==========********&&&&&&&&&%%%%%%%%%$$$$$$$$#$#######@@@@@@@@@@@+++++++++OOOOOOoooooooooXXXXXXXXX...........                                                               %ZZZZZZZZZZZZFFFFFFFFFFFFFFFFFFFF",
"FFFFFFFFFFFFFFFFFFFFZZZZZZZZZZZZnqqqqqqqqqqwwwwwwweeeeeeeerrerrrrrrrrrrrrrttttttttttyyyyyyyyyuuyuuuuuuuuuuiiiiiiiiiippippppppppppaaaaaaaaaaaaasssssssssssssdddddddddddddddffffffffffffffffgggggggggggggggggggghhhhhhgghhhhhhhhhhhhhhhhhhhhhhhjjjjjjjjjjjjjjjjjjjjjjjjjjjjjjjjjjjjjjjjjjjjjjjjjjjjjjjjjjjjjjjjhhhhhhhhhhhhhhhhhhhhhhhhhhhhhhggggggggggggggggggggfggggffffffffffffdddddddddddddddssssssssssssssaaaaaaaaaaaaapppppppppppiiiiiiiiiiuuuuuuuuuuuuyuyyyyyyyyytttttttttttttrrrrrrrrrrrrreeeeeeeewwwwwwwwqqqqqqqqqqqq000000000999999999998888888877777777777666666665555555555544444444443333333332222222111111111<1<<<<<<<,,,,,,,,,>,,>>>>>>::>:::::::;;;;;;;;----------==========*******&&&&&&&&&%%%%%%%%%%$$$$$$$$$$#######@#@@@@@@@@@++++++++OOOOOOOOooooooooXXXXXXXXX..........                                                                >ZZZZZZZZZZZZFFFFFFFFFFFFFFFFFFFF",
"FFFFFFFFFFFFFFFFFFFFZZZZZZZZZZZZBqqqqqqqqwqwwwwwwwweeeeeeeererrerrrrrrrrrrttttttttttttyyyyyyyyyyuuuuuuuuuuuiiiiiiiiiipppppppppppppaaaaaaaaaaaaassssssssssssssdddddddddddddddfffffffffffffffffggggggggggggggggghhgghhhghhhhhhhhhhhhhhhhhhhhhhhhhhhhhjjjjjjjjjjjjjjjjjjjjjjjjjjjjjjjjjjjjjjjjjjjjjjjjjjjjjhhhhhhhhhhhhhhhhhhhhhhhhhhghhhhhgggggggggggggggggggggfffggffffffffffffffdffdddddddddddssssssssssssssaaaaaaaaaaaaappppppppppppiiiiiiiiiiiuuuuuuuuuuyyuyyyyyyyytttttttttttttrrrrrrrreererreeeeeeeewwwwwwwwwwqqqqqqq0qq00000000009999999999888888887777777777766666666655555555444444444443333333332222222222111111111<<<<<<<<<,,,,,,,>,>>>>>>>:::::::::;;;;;;;;;-----------=========*********&&&&&&&%%%%%%%%%%$$$$$$$$##########@@@@@@@@++++++++++OOOOOOOOoooooooXXXXXXXXXXX........                                                                 5ZZZZZZZZZZZZFFFFFFFFFFFFFFFFFFFF",
"FFFFFFFFFFFFFFFFFFFFZZZZZZZZZZZZCqqqqqqqqqwwwwwwwwwweeeeeeeeeerrerrrrrrrrttttttttttttttyyyyyyyyyuuuuuuuuuuuiiuiiiiiiiiippppppppppppaaaaaaaaaaaaassssssssssssssddddddddddddddddffffffffffffffffggggggggggggggggghggggghhhhhhhhhhhhhhhhhhhhhhhhhhhhhhhhhhhhhjjjjjjjjjjjjjjjjjjjjjjjjjjjjjjjjjjjjjjjhhhhhhhhhhhhhhhhhhhhhhhhhhhhhhhhhghhhgggggggggggggggggggggffffffffffffffffffddffdddddddddddsssssssssssssssaaaaaaaaaaaaappppppppppppiiiiiiiiiiiiuuuuuuuuuyyyyyyyyyyyttttttttttttttrrrrrrrreeeereeeeeeeeewwwwwwwwwqqqqqqqq0q00000000009999999999888888888777777776766666666665555555554444444443333333333222222222111111111<<<<<<<<<,,,,,,,>>,>>>>>>>::::::::;;;;;;;;;------------=======***********&&&&&&%%%%%%%%%%%$$$$$$$$##########@@@@@@@+++++++++++OOOOOOOOoooooooXXXXXXXXXXX.......                                                                  qZZZZZZZZZZZZFFFFFFFFFFFFFFFFFFFF",
"FFFFFFFFFFFFFFFFFFFFZZZZZZZZZZZZZr0qqqqqqqqqqwwwwwwwweeeeeeerrrrerrrrrrrrrttttttttttttyyyyyyyyyyuyyuuuuuuuuuiiiiiiiiiiiiiippppppppppaaaaaaaaaaaaasssssssssssssssdddddddddddddddffffffffffffffggggggggggggggggggggggggggghhhhhhhhhhhhhhhhhhhhhhhhhhhhhhhhhhhhhhhhhhhhhjjjjjjjjjjjjjjjjhhhhhhhhhhhhhhhhhhhhhhhhhhhhhhhhhhhhhhhhhhhhhhggghhhgggggggggggggggggggfffffffffffffffddffddddddddddddssssssssssssssaaaaaaaaaaaaapppppppppppppiiiiiiiiiuiiuuuuuuuuuuuyyyyyyyyyyttttttttttrrrrrrrrrrreeeeeeeeeeeeewwwwwwwwwwqqqqqqqq00000000000999999999998888888888777777766666666665655555555544444444443333333332222222222111111<<<<<<<<<<<<,,,,,,,>>>>>>>>>>>:::::::::;;;;;;;;;-------=========*********&&&&&&&&&&&%%%%%%%$$$$$$$$$########@@@@@@@@@@@+++++++++OOOOOOOoooooooooXXXXXXXXXX.......                                                                   iZZZZZZZZZZZZFFFFFFFFFFFFFFFFFFFF",
"FFFFFFFFFFFFFFFFFFFFZZZZZZZZZZZZZu0qqqqqqqqqqqwwwwwwweeeeeeeerreeerrrrrrrrrtttttttttttyyyyyyyyyyyyyyuuuuuuuuuiiuiiiiiiiiiipppppppppppaaaaaaaaaaaaaassssssssssssssdddddddddddddddfffffffffffffffggfffggggggggggggggggggggggghhhghhhhhhhhhhhhhhhhhhhhhhhhhhhhhhhhhhhhhhhhhhhhhhhhhhhhhhhhhhhhhhhhhhhhhhhhhhhhhhhhhhhhhhhhhhhhhhhhgggggggggggggggggggggggggggggfffffffffffffdddffdddddddddddsssssssssssssssaaaaaaaaaaaaapppppppppppppiiiiiiiiiuuuuuuuuuuuuuyuyyyyyyyyyytttttttttrrrrrrrrrrreeeeeeeeeeeeewwwwwwwwwwqqqqqqqq000000000009999999998998888888887777777766666666655655555555544444444433333333332222222121111111<<<<<<<<<<<,,,,,,,>>>>>>>>>>>>:::::::::;;;;;;;;;-------=========**********&&&&&&&&&&%%%%%%$$$$$$$$$#########@@@@@@@@@@@+++++++++OOOOOOoooooooooXXXXXXXXXXX.......                                                                   hZZZZZZZZZZZZFFFFFFFFFFFFFFFFFFFF",
"FFFFFFFFFFFFFFFFFFFFZZZZZZZZZZZZZsqqqqqqqqqqqqwwwwwwwweeeeeeeeeeerrrrrrrrrrrrrttttttttyytyyyyyyyyyyyyuuuuuuuuuuuuiiiiiiiiipppppppppppppaaaaaaaaaaaaasssssssssssssssddddddddddddddfdffffffffffffffgffffggggggggggggggggggghhhggghhhhhhhhhhhhhhhhhhhhhhhhhhhhhhhhhhhhhhhhhhhhhhhhhhhhhhhhhhhhhhhhhhhhhhhhhhhhhhhhhhhhhhhhhhhhhgggggggggggggggggggggggggfggggffffffffffffffddddddddddddddddssssssssssssssaaaaaaaaaaaaaappppppppppppiiiiiiiiiiuuuuuuuuuuuuuuyyyyyyyyyttttttttttttrrrrrrrrrrrrreeeeeeeeeewwwwwwwwwwwqqqqqqqqq000000000009999999889888888888877777776666666666555555555554444444444333333333222222222111111111<<<<<<<<<<,,,,,,,,>>>>>>>>>>:::::::::;;;;;;;;;--------=========**********&&&&&&&&&%%%%%%%%$$$$$$$$$########@@@@@@@@@@@@@++++++OOOOOOOOooooooooooXXXXXXXXX........                                                                  vZZZZZZZZZZZZFFFFFFFFFFFFFFFFFFFF",
"FFFFFFFFFFFFFFFFFFFFZZZZZZZZZZZZZgqqqqqqqqqqqwwwwwwwwwweeeeeeeererrrrrrrrrrrrrrttttttttyttyyyyyyyyyyyyuuuuuuuuuuuuiiiiiiiiippippppppppppappaaaaaaaaaasssssssssssssssdddddddddddddddddfffffffffffffffffggggggggggggggggggggghgggggghhhhhhhhhhhhhhhhhhhhhhhhhhhhhhhhhhhhhhhhhhhhhhhhhhhhhhhhhhhhhhhhhhhhhhhhhhhhhhhhhhhhhhggggggggggggggggggggggggggffffggffffffffffffffddddddddddddddddsssssssssssssssaaaaaaaaaaaaaapppppppppppppiiiiiiiiiuuuuuuuuuuuuyuuyyyyyyyytttttttttttttrrrrrrrrrrrreeeeeeeeeeewwwwwwwqqqqqqqqqqqqq000000000099999999988888888888777777777766666665655555555554444444443333333333222222222111111111<<<<<<<<<,,,,,,,,>>>>>>>>:>>:::::::::;;;;;;;;;-------==========********&*&&&&&&&&&%%%%%%%%%$$$$$$$########@#@@@@@@@@@@@+++++++OOOOOOOOOoooooooooXXXXXXXX....... .                                                                  BZZZZZZZZZZZZFFFFFFFFFFFFFFFFFFFF",
"ZZZZZZZZZZZZZZZZZZZZFFFFFFFFFFFFFx0q0qqqqqqqqqwwwwwwwwwweeeeeeeeeerrrrrrrrrrrrrrttttttttttyyyyyyyyyyuuuuuuuuuuuuuuiiiiiiiiiipppppppppppppaaaaaaaaaaaaaasssssssssssssssdddddddddddddddddffffffffffffffgggfffggggggggggggggggggggghggggghhhhhhhhhhhhhhhhhhhhhhhhhhhhhhhhhhhhhhhhhhhhhhhhhhhhhhhhhhhhhhhhhhhhhhhhhhhhhhggggggggggggggggggggggggggggffffffffffffffffffffdddddddddddddddddsssssssssssssssaaaaaaaaaaaaappppppppppppiiiiiiiiiiiuuiuuuuuuuuuyuuyyyyyyyyttttttttttttttrrrrrrrrrrrrreeeeeeeeewwwwwwwwqqqqqqqqqq0q0000000099999999998898888888877777777777666666655655555555544444444443333333332222222221111111<11<<<<<<<,,,,,,,,,,,>>>>>>>:::::::::;;;;;;;;;---------=-=========*******&&&&&&&&&%&%%%%%%%%%$$$$$$$###########@@@@@@@+++++++++OOOOOOOOOOoooooooXoXXXXXXX...........                                                                 OFFFFFFFFFFFFFZZZZZZZZZZZZZZZZZZZZ",
"ZZZZZZZZZZZZZZZZZZZZFFFFFFFFFFFFFn0000qqqqqqqqwwwwwwwwwweeeeeeeeeerrrrrrrrrrrrtrrtttttttttyyyyyyyyyyyyuuuuuuuuuuuuiiiiiiiiiiipipppppppppppaaaaaaaaaaaaaasssssssssssdssddddddddddddddddddfffffffffffffffffffffgggggggggggggggggggggggggggggghhhhhhhhhgghhhhhhhhhhhhhhhhhhhhhhhhhhhhhhhhhhhhhhhhhhhhhhhhhhhhhhhhhhgggggggggggggggggggggggggggggfffffffffffffffffffffddffdddddddddddddsssssssssssssssaaaaaaaaaaaaaapppppppppppppiiiiiiiiiiiiuuuuuuuuuuyyyyyyyyyyyytttttttttttttrrrrrrrrrrrrrreeeeeeeewwwwwwwwqqqqqqqqqq00q0000000990999999998888888888877777777666666666665555555545544444444433333333322222222221111111<1<<<<<<<,,,,,,,,,,,,>>>>>>::::::::::;;;;;;;;;-----------=========*******&&&&&&&&&%&%%%%%%%%%$$$$$$$#$#########@@@@@@++++++++++OOOOOOOOOooooooooXoXXXXXX...........                                                                  *FFFFFFFFFFFFFZZZZZZZZZZZZZZZZZZZZ",
"ZZZZZZZZZZZZZZZZZZZZFFFFFFFFFFFFFB0000qqqqqqqqqwqwwwwwwwweeeeeeeeeeerrrrrrrrrrrtrrtttttttttyyyyyyyyyyyyyyuuuuuuuuuuiiiiiiiiiiiiipppppppppppaaaaaaaaaaaaaaasssssssssssssssdddddddddddddddfddfffffffffffffffffgfgggggggggggggggggggggggggggggggggghhhhgghhhhhhhhhhhhhhhhhhhhhhhhhhhhhhhhhhhhhhggghhhhhhhhhhhgggggggggggggggggggggggggggggggggfffffffffffffffffffffdddddddddddddddddsdssssssssssssssaaaaaaaaaaaaaapppppppppppppiiiiiiiiiiiiiuuuuuuuuuyuyyyyyyyyyyyytttttttttrtrrrrrrrrrrrrrreeeeeeeewwwwwwwwqqqqqqqqqqq000000000099999999999988888888887777777777666666655555555554544444444433333333332222222211111111<<<<<<<<<<,,,,,,,,,,,>>>>>>>>>:::::::;;;;;;;;;----------===========******&&&&&&&&&&&%%%%%%%%%$$$$$$$$$########@@@@@@@@++++++++++OOOOOOOOOOooooooXXXXXXXXX...........                                                                  1FFFFFFFFFFFFFZZZZZZZZZZZZZZZZZZZZ",
"ZZZZZZZZZZZZZZZZZZZZFFFFFFFFFFFFFS0000qqqqqqqqqwqqwwwwwwwweeeeeeeeeeerrrrrrrrrrrtttttttttttyytyyyyyyyyyyyyuuuuuuuuuiiuiiiiiiiiiipppppppppppppaapaaaaaaaaaaassssssssssssdsssdddddddddddddffdddffffffffffffffffgggfffgggggggggggggggggggggggggggggggggggghhhhhhhhhhhhhghhhgghhhhhhhhhhhhhhhhhhgghhhhhhggggggggggggggggggggggggggggggggggggffffgfffffffffffffffffdddddddddddddddddddddssssssssssssaaaaaaaaaaaaaaappppppppppippiiiiiiiiiuuiiuuuuuuuuuyyyyyyyyyyyyyytttttttttrrtrrrrrrrrerrreeeeeeeeewwwwwwwwqqqqqqqqqqq0000000000999999999999888888888877777777776666666555555555544444444444433333333322222222221111111<<<<<<<<<,,,,,,,,,,,,>>>>>>>>::::::::;;;;;;;;;----------==========*******&&&&&&&&&&&%%%%%%%%%$$$$$$$$$########@@@@@@@+++++++++++OOOOOOOOOoooooooXXXXXXXXX........ ..                                                                  9FFFFFFFFFFFFFZZZZZZZZZZZZZZZZZZZZ",
"ZZZZZZZZZZZZZZZZZZZZFFFFFFFFFFFFFFw000qqqqqqqqqqqqwwwwwwwwweeeeeeeeeeerrrrrrrrrrrtttttttttttyyyyyyyyyyyyuuuuuuuuuuuuiiiiiiiiiiiiipppppppppppppaaaaaaaaaaaaaaasssssssssssssdssdddddddddddddffdddffffffffffffffffgffffgggggggggggggggggggggggggggggggggggggggggghhhhhhhhhhhhhhhhhhhhhhhhhhhhhhgggggggggggggggggggggggggggggggggggggggggfgfgggfffffffffffffffffffddddddddddddddddssssssssssssssssaaaaaaaaaaaaaappppppppppppiiiiiiiiiiiuuuuuuuuuuuuuyyuyyyyyyyytttttttttttttrrrrrrrrrrrrreeeeeeeeeewwwwwwwwwwqqqqqqqqqqq00000000999999999989988888887787777777766666666666555555544444444444433333332232222222221111111111<<<<<<,,,,,,,,,,>>>>>>>>>:>:::::::::;;;;;;;;;;------============*********&&&&&&%%%%%%%%%%%$$$$$$$#$#########@@@@@@@@@+++++++++OOOOOOOOOoooooooooXXXXXX......... .                                                                   iFFFFFFFFFFFFFZZZZZZZZZZZZZZZZZZZZ",
"ZZZZZZZZZZZZZZZZZZZZFFFFFFFFFFFFFFu000qq0qqqqqqqqqwwwwwwwwweeeeeeeeeeerrrrrrrrrrrttrtttttttttyyyyyyyyyyyyuuyuuuuuuuuuiiiiiiiiiiiiipppppppppppppaaaaaaaaaaaaaaassssssssssssssssddddddddddddddddddffffffffffffffffffffggggfggggggggggggggggggggggggggggggggggggghhhggggggggggggggggggggggggghhggggggggggggggggggggggggggggggggggggggffffggfffffffffffffffffdddffddddddddddddddssssssssssssssssaaaaaaaaaaaaaaapppppppppppppiiiiiiiiiiuuuuuuuuuuuuuuyyyyyyyyyyttttttttttttttrrrrrrrrrrrreeeeeeeeeeewwwwwwwwwwqqqqqqqqqqq000000099999999999888888888877777777777666666666655555555444444444444333333322222222222211111111<<<<<<<<,,,,,,,,,>>>>>>>>>::>:::::::::;;;;;;;;;-------==========**********&&&&&&&%%%%%%%%%%%$$$$$$$#$#########@@@@@@@@@+++++++++OOOOOOOOoooooooooXXXXXXX......... .                                                                   kFFFFFFFFFFFFFZZZZZZZZZZZZZZZZZZZZ",
"ZZZZZZZZZZZZZZZZZZZZFFFFFFFFFFFFFFd0000q00qqqqqqqqqwwwwwwwwweeeeeeeeeeerrerrrrrrrrttttttttttttyyyyyyyyyyyyuuuuuuuuuuuuiiiiiiiiiiiiiipppppppppppppaaaaaaaaaaaaaaassssssssssssssssddddddddddddddddfddfffffffffffffffffffggffffggggggggggggggggggggggggggggggggggghhggggggggggggggggggggggggghgggggggggggggggggggggggggggggggggggffggggfffffffffffffffffffdddddddddddddddddddsssssssssssssssssaaaaaaaaaaaaaappppppppppppppiiiiiiiiiiiiiuuuuuuuuuyuuyyyyyyyyyyyytttttttttrttrrrrrrrrrrreeeeeeeeeeewwwwwwwwqqqqqqqqqqq000000000090999999998888888888777777777777666666666555555555544444444443333333223222222222111111111<<<<<<<<<<,,,,,,,>>>>>>>>>:::::::::::;;;;;;;---------=========*********&**&&&&&&&&%%%%%%%%%%$$$$$$##$######@##@@@@@@@@+++++++++OOOOOOOooooooooooXXXXXXXXXX......                                                                      MFFFFFFFFFFFFFZZZZZZZZZZZZZZZZZZZZ",
"ZZZZZZZZZZZZZZZZZZZZFFFFFFFFFFFFFFk0000000qqqqqqqqwwqwwwwwwwweeeeeeeeerrrrerrrrrrrrttrtttttttttyyyyyyyyyyyyuyyuuuuuuuuuiiiiiiiiiiiiippiippppppppppaaapaaaaaaaaaaasssssssssssssssssddddddddddddddffddddffffffffffffffffffffffffffggggggggggggggggggggggggggggggggggggggggggggggggggggggggggggggggggggggggggggggggggggggggggffffffggfffffffffffffffffffdddddddddddddddddddsssssssssssssssssaaaaaaaaaaaaaaappppppppppiippiiiiiiiiiiiiiuuuuuuuuuyyuyyyyyyyyyyyytttttttttrrtrrrrrrrrrereeeeeeeeeeewwwwwwwwqqqqqqqqqqqq000000000009999999988888888887877777777777666666666555555555544444444433333333322222222221111111111<<<<<<<<<,,,,,,,>>>>>>>>>>:::::::::;:;;;;;;;;--------=========***********&&&&&&&&&%%%%%%%%%$$$$$$$#########@#@@@@@@@@@+++++++++OOOOOOOoooooooooooXXXXXXXX.......                                                                      SFFFFFFFFFFFFFZZZZZZZZZZZZZZZZZZZZ",
"ZZZZZZZZZZZZZZZZZZZZFFFFFFFFFFFFFFv00000000qqqqqqqqwqqwwwwwwwweeeeeeeeererrrrrrrrrrrttrtttttttttyytyyyyyyyyyuuyuuuuuuuuuiiuuiiiiiiiiiiiippppppppppppaaaaaaaaaaaaaaassssssssssssssddsdddddddddddddddfddddfffffffffffffffffffffffffffgggggggggggggggggggggggggggggggggggggggggggggggggggggggggggggggggggggggggggggggggggggggggffffffffffffffffffffffddddddddddddddddddddsssssssssssssssssaaaaaaaaaaaaaapppppppppppppppiiiiiiiiiiuuiuuuuuuuuuuyuyyyyyyyyyytyttttttttttrtrrrrrrrrreereeeeeeeeeeewwwwwwwwqqqqqqqqqqqq0000000009009999999899888888888777777776666666666555555555555444444444433333333322222222111111111<<<<<<<<<,,<,,,,,,,>>>>>>>>>>::::::::;;;;;;;;;;;--------=========*********&&&&&&&&&&&%%%%%%%$$$$$$$$$########@@@@@@@@@@@@++++++OOOOOOOOOOooooooooXXXXXXXXXXX.......                                                                     $FFFFFFFFFFFFFFZZZZZZZZZZZZZZZZZZZZ",
"ZZZZZZZZZZZZZZZZZZZZFFFFFFFFFFFFFFN0000000q0qqqqqqqqqqqwwwwwwwweeeeeeeeeeerrerrrrrrrrrrrttttttttttttyyyyyyyyyyyyuuuuuuuuuuuuuiiiiiiiiiippppppppppppppapaaaaaaaaaaaaassssssssssssssddssddddddddddddddddddddffffffffffffffffffffffffgggggfggggggggggggggggggggggggggggggggggggggggggggggggggggggggggggggggggggggggggffffgggggffffffffffffffffffffddddfddddddddddddddddddssssssssssssssssaaaaaaaaaaaaaaappppppppppppppiiiiiiiiiiuuuuuuuuuuuuuyyuyyyyyyyyyttytttttttttrrtrrrrrrrreeerreeeeeeeeewwwwwwwwwqqqqqqqqqqqq000000000909999999989888888888777777777666666666555555555555554444444433333333332222222211111111<<<<<<<<<<,<,,,,,,,>>>>>>>>>>>::::::::;;;;;;;;;;---------=========********&&&&&&&&&&&%%%%%%%%$$$$$$$$$########@@@@@@@@@@@++++++++OOOOOOOOOooooooooXXXXXXXXXXX......                                                                      >FFFFFFFFFFFFFFZZZZZZZZZZZZZZZZZZZZ",
"ZZZZZZZZZZZZZZZZZZZZFFFFFFFFFFFFFFZ0000000qqqqqqqqqqqwqwwwwwwweeeeeeeeeerreeeerrrrrrrrrrrttttttttttttyyyyyyyyyyyyuuuuuuuuuuuuuiiiiiiiiiiippppppppppppppaaaaaaaaaaaaaaassssssssssssssssssdddddddddddddddddddddfffffffffffffffffffffffggfffffffgggggggggggggggggggggggggggggggggggggggggggggggggggggggggggggggggffffffffffffffffffffffffffffffffddddfdddddddddddddddssdsssssssssssssssaaaaaaaaaaaaaaaappppppppppiiiiiiiiiiiiiiiiuuuuuuuuuuuyyyyyyyyyyyyttttttttttttrrrrrrrrrrrrreerreeeeeeeewwwwwwwwwwwqqqqqqqq0qq000000000099999999998888888888877777776666666666655555555555444444444433333333322222222211111111<<<<<<<<<<<<,,,,,,,,>>>>>>>>>>:::::::;;;;;;;;;;;;---------=========*******&&&&&&&&&&%%%%%%%%%%$$$$$$$$$#######@#@@@@@@@@@+++++++++OOOOOOOOOooooooXXXXXXXXXXX........                                                                     7FFFFFFFFFFFFFFZZZZZZZZZZZZZZZZZZZZ",
"ZZZZZZZZZZZZZZZZZZZZFFFFFFFFFFFFFFFq0000000qqqqqqqqqqqqqwwwwwwwweeeeeeeeereeeerrrrrrrrrrrrttttttttttttyyyyyyyyyyyyuuuuuuuuuuuuuiiiiiiiiiipppppppppppppppaaaaaaaaaaaaaaaassssssssssssssssssddddddddddddddddddddffffffffffffffffffffffffffffffffffffffggggggggggggggggggggggggggggggggggggggggggggggggggfffffgggfffffffffffffffffffffffffffffdfffdddddddddddddddddssssdsssssssssssssaaaaaaaaaaaapaaappppppppppppiiiiiiiiiiiiiiiuuuuuuuuuuuyyyyyyyyyyyyttttttttttttrrrrrrrrrrrrrreereeeeeeeewwwwwwwwwwwqqqqqqqq00q00000000009999999999988888888887777777766666666666555555555544444444443333333333222222222111111111<<<<<<<<,<,,,,,,,,,>>>>>>>>>>:::::::;;;;;;;;;;;---------=========*******&&&&&&&&&&&%%%%%%%%%$$$$$$$$$#######@@@@@@@@@@@+++++++++OOOOOOOOOoooooooXXXXXXXXXX..........                                                                    yFFFFFFFFFFFFFFZZZZZZZZZZZZZZZZZZZZ",
"ZZZZZZZZZZZZZZZZZZZZFFFFFFFFFFFFFFFy0000000000qqqqqqqqwwwwwwwwwwweeeeeeeeeeeeeerrrrrrrrrttttttttttttyyyyyyyyyyyyuuuuuuuuuuuuuiiiiiiiiiiiiiipppppppppppppppaaaaaaaaaaaaaaaassssssssssssssssssdddddddddddddddddddddddffffffffffffffffffffffffffgggggggfgggggffggggggggggggggggggggggggggggggggggffggggfgggggffffffffffffffffffffffffffffffddddddddddddddddddddddsdssssssssssssssssaaaaaaaaaaaaapaappppppppppppiiiiiiiiiiiiiuuuuuuuuuuuuuyyyyyyyyyyyyyttttttttttttrrrrrrrrrrrrerrreeeeeeeeewwwwwwwwwqqqqqqqqqq0000000000090099999998888888888887777777776766666666555555555555444444444333333333322222222111111111<<<<<<<<<<<,,,,,,,>>>>>>>>>>::::::::::;;;;;;;;;;-------==========*********&*&&&&&&&&&%%%%%%%%$$$$$$$$#########@#@@@@@@@@@++++++++OOOOOOOoooooooooXXoXXXXXXXX.......                                                                       hFFFFFFFFFFFFFFZZZZZZZZZZZZZZZZZZZZ",
"ZZZZZZZZZZZZZZZZZZZZFFFFFFFFFFFFFFFd0000000000qqqqqqqqqwwwwwwwwwwweeeeeeeeeeerrrrrrrrrrrrttttttttttttyyyyyyyyyyyyuuuuuuuuuuuuuiiiiiiiiiiiiiiiipppppppppppppaaaaaaaaaaaaaaaasssssssssssssssssssddddddddddddddddddddddddfffffffffffffffffffffffffffffgffggggffffggggggffffggggggffffggggfgggggffffggggffgfffffffffffffffffffffffffffffdfffdddddddddddddddddddssssdssssssssssssssaaaaaaaaaaaaaappapppppppppppipiiiiiiiiiiiiuuuuuuuuuuuuuyyyyyyyyyyyyyttttttttttttrrrrrrrrrrrreerreeeeeeeeeewwwwwwwwqqqqqqqqqqq000000000099999999999888888888888777777776666666666555555555555444444444433333333322222222211111111<<<<<<<<<<<<,,,,,,,>>>>>>>>>::::::::::;;;;;;;;;;;-------=========*********&&&&&&&&&%&&%%%%%%%%$$$$$$$$########@@#@@@@@@@@+++++++++OOOOOOOoooooooooXXXXXXXXXXX.......                                                                       mFFFFFFFFFFFFFFZZZZZZZZZZZZZZZZZZZZ",
"ZZZZZZZZZZZZZZZZZZZZFFFFFFFFFFFFFFFk900000000qqqqqqqqqqqqwqwwwwwwwweeeeeeeeeeerrrrrrrrrrrrrtrttttttttttttyyyyyyyyyyuyyuuuuuuuuuuuuuiiiiiiiiiiipppppppppppppppaaaaaaaaaaaaaaaassssssssssssssssdddsdddddddddddddddddddffffddfffffffffffffffffffffffffffffffffffgggggffffffffgfggggffffffffggffffffffffffffffffffffffffffffffffffffddddddfddddddddddddddddddssssssssssssssssssssaaaaaaaaaaaaaaaapppppppppppppppiiiiiiiiiiiuiuuuuuuuuuuuuyyyyyyyyyyyyttttttttttttrrrrrrrrrrrrreerreeeeeeeeewwwwwwwwqwqqqqqqqqqq00000000099999999999998888888888877777776666666666666555555555544444444433333333332222222221111111111<<<<<<<<<,,,,,,,,,>>>>>>>>:::::::::;;;;;;;;;;;;-------===========*******&&&&&&&&&&&%%%%%%%%%$$$$$$$$$#######@@@@@@@@@@@+++++++++OOOOOOOOOoooooooXoXXXXXXXXX.......                                                                      .DFFFFFFFFFFFFFFZZZZZZZZZZZZZZZZZZZZ",
"ZZZZZZZZZZZZZZZZZZZZFFFFFFFFFFFFFFFb9000000000qq0qqqqqqqqwqqwwwwwwwweeeeeeeeeerrrrrrrrrrrrrtrrttttttttttttyyyyyyyyyyyyyuuuuuuuuuuuuuiiiiiiiiiiippiipppppppppppaaaaaaaaaaaaaaaaasssssssssssssssddsssdddddddddddddddddddffdddddfffffffffffffffffffffffffffffffffffffffffffffffffffffffffffffffffffffffffffffffffffffffffffffffddddddddddddddddddddddddddddsssssssssssssssssssaaaaaaaaaaaaaaaaapppppppppppppppiiiiiiiiiiuiiiuuuuuuuuuuuuyyyyyyyyyyyttttttttttttrrrrrrrrrrrrrreereeeeeeeeewwwwwwwwwwwqqqqqqqqqq0000000009999999999999888888888877777777666666666666555555555555444444443333333332222222122111111111<<<<<<<<<<,,,,,,,,>>>>>>>>>::::::::;;;;;;;;;;;;--------==========*******&*&&&&&&&%%&%%%%%%%%%$$$$$$$$$######@@@@@@@@@@@@+++++++++OOOOOOOOoooooooXoXXXXXXXXX.......                                                                       &FFFFFFFFFFFFFFFZZZZZZZZZZZZZZZZZZZZ",
"ZZZZZZZZZZZZZZZZZZZZFFFFFFFFFFFFFFFV99900000000000qqqqqqqqqqwwwwwwwwwewweeeeerrerrrrrrrrrrrrttttttttttttyytyyyyyyyyyyyyyuuuuuuuuuuiiuuiiiiiiiiiippipppppppppppppaaaaaaaaaaaaaaaaasssssssssssssssssssssddddddddddddddddddddfdddffffffffffffffffffffffffffffffffffffffffffffffffffffffffffffffffffffffffffffffffffffffffffddffffddddddddddddddddddddddsssssssssssssssssssssaaaaaaaaaaaaaaaaappppppppppppppiiiiiiiiiiiiiuuuuuuuuuuuuuuuuyyyyyyyyyyytyttttttttttrtrrrrrrrrrrreeeeeeeeeeeewwwwwwwwwwwqqqqqqqqq000000000099999999998998888888877777777777766666666555555555544444444444433333333332222222211111111<<1<<<<<<<,,,,,,,,,>,,>>>>>>>:::::::::;;;;;;;;;---------=--=======*********&*&&&&&&&&&%%%%%%%$%$$$$$$$#########@#@@@@@@@+++++++++++OOOOOOOOOoooooooXoXXXXXXX........ .                                                                      3FFFFFFFFFFFFFFFZZZZZZZZZZZZZZZZZZZZ",
"ZZZZZZZZZZZZZZZZZZZZFFFFFFFFFFFFFFFD09990000000000qqqqqqqqqqqwwwwwwwwweweeeeeerrerrrrrrrrrrrrttrtttttttttyytyyyyyyyyyyyyuuuuuuuuuuuuuuuiiiiiiiiiiiipppppppppppppppaaaaaaaaaaaaaaaaasssssssssssssssssssddddddddddddddddddddddddfffffdffffffffffffffffffffffffffffffffffffffffffffffffffffffffffffffffffffffffffffffffddddddddfdddddddddddddddddddddsssssssssssssssssssssaaaaaaaaaaaaaaaaappppppppppppppppiiiiiiiiiiiuiuuuuuuuuuuuuuuuyyyyyyyyyyyytttttttttttttrrrrrrrrrrreeeeeeeeeeeewwwwwwwwwwwqqqqqqqqqq000000000999999999988988888888877777777776666666665555555555444444444444333333333322222222211111111<<<<<<<<<,,,,,,,,,,>,>>>>>>>>:::::::::;;;;;;;;;-----------=======*=*******&&*&&&&&&%&&%%%%%%$$%$$$$$$#$$#######@@@@@@@@++++++++++++OOOOOOOOOooooooXXXXXXXXX...........                                                                      eFFFFFFFFFFFFFFFZZZZZZZZZZZZZZZZZZZZ",
"ZZZZZZZZZZZZZZZZZZZZFFFFFFFFFFFFFFFFt99900000000000qqqqqqqqqqqwwwwwwwwwweeeeeeereeeeerrrrrrrrrrrttttttttttttttyyyyyyyyyyuyyuuuuuuuuuuiuuiiiiiiiiiiipppppppppppppppppaaaaaaaaaaaaaaaaassssssssssssssssdddsssddddddddddddddddddddddfdddddddddfffffffffffffffffffffffffffffffffffffffffffffffffffffffffffffffffffffdfffdddddddddddddddddddddddddddsssssdsssssssssssssssaaaaaaaaaaaaaaaaaapppppppppppppppiiiiiiiiiiiiiiiiuuuuuuuuuuuuuyyyyyyyyyyytytttttttttttttrrrrrrrrrrrreeeeeeeeeeewwwwwwwwqwqqqqqqqqq00q000000000009999999988888888888887777777776666666655555555555544444444444333333333222222222211111111<<<<<<<<<,,,,,,,,,>>>>>>>>>>>>:::::::::;;;;;;;----------===========*******&&&&&&&&&%&%%%%%%%$$$$$$$$$$$#########@@@@@@@+@+++++++++OOOOOOOOOoooooooXXXXXXXXX...........                                                                      fFFFFFFFFFFFFFFFZZZZZZZZZZZZZZZZZZZZ",
"ZZZZZZZZZZZZZZZZZZZZFFFFFFFFFFFFFFFFa999000000000000qqqqqqqqqqqwwwwwwwwweeeeeeeeereeeerrrrrrrrrrtrtttttttttttttyyyyyyyyyyyyyuuuuuuuuuuuuiiiiiiiiiiiiippppppppppppppppaaaaaaaaaaaaaaaaaasssssssssssssssssssssssdddddddddddddddddddddddddddddddddddffffffffffffffffffffffffffffffffffffffffffffffffffffffffddddfffdddfddddddddddddddddddddddddssssssssssssssssssssssaaaaaaaaaaaaaaaappapppppppppppppppiiiiiiiiiiiiiiiuuuuuuuuuuuyyyyyyyyyyyyytttttttttttttrrrrrrrrrrrrrrrereeeeeeeeewwwwwwwwqwqqqqqqqqqq00000000000009999999998888888888887777777777666666665555555555544444444444333333333322222222211111111<<<<<<<<<,,,,,,,,,,>>>>>>>>>>>::::::::::;;;;;;;---------===========*******&&&&&&&&&%%&%%%%%%%$$$$$$$$$$$#########@@@@@@@+@+++++++++OOOOOOOoOooooooXXXXXXXXX......... .                                                                       bFFFFFFFFFFFFFFFZZZZZZZZZZZZZZZZZZZZ",
"FFFFFFFFFFFFFFFFFFFFZZZZZZZZZZZZZZZZg9900000000000qq0qqqqqqqqqqwwwwwwwwwweeeeeeeeeeereerrrrrrrrrtrrtttttttttttttyyyyyyyyyyyyyuuuuuuuuuuuuuuiiiiiiiiiiiiipppppppppppppppapaaaaaaaaaaaaaaaaasssssssssssssssssssssssdddddddddddddddddddddddddddddddffffddddffffffffffffffffffffffffffffffffffffffffffffddddddfffddddddddddddddddddddddddddddsssssssssssssssssssssssaaaaaaaaaaaaaaaaapappppppppppppppppiiiiiiiiiiiuuuuuuuuuuuuuuuuuuyyyyyyyyyyttttttttttttttrrrrrrrrrrrrreeeeeeeeeeeewwwwwwwwwqqqqqqqqqqqqq00000000999999999999998888888888777777776666666666665555555545445444444433333333332222222222111111111<<<<<<<<,<,,,,,,,,,>>>>>>>::>:::::::::;;;;;;;;;-------============*********&&&&&&&%%%%%%%%%%$$$$$$$$#$#######@@@@@@@@@@@+++++++++OOOOOOOoooooooooooXXXXXXXX........                                                                         VZZZZZZZZZZZZZZZFFFFFFFFFFFFFFFFFFFF",
"FFFFFFFFFFFFFFFFFFFFZZZZZZZZZZZZZZZZz99900000000000000qqqqqqqqwwqwwwwwwwweeeeeeeeeeeererrrrrrrrrrrrrttttttttttyytyyyyyyyyyyyyuuuuuuuuuuuuuiiuiiiiiiiiiiippiipppppppppppppaaaaaaaaaaaaaaaaaaasssssssssssssssssssssssddddddddddddddddddddddddddddddfffddddffddddffdddfdfffffffffffffffddffffdddddddfffddddddddddddddddddddddddddddddddddddssssssssssssssssssssssaaaaaaaaaaaaaaaaaaapppppppppppppppppiiiiiiiiiiiuuuuuuuuuuuuuuyuuyyyyyyyyyyttttttttttttttttrrrrrrrrrrrreeeeeeeeeeeewwwwwwwwwqqqqqqqqqqqqq000000000909999999999988888888887777777766666666666665555555455444444444433333333322222222221111111111<<<<<<<<,,,,,,,,,,,>>>>>>>::::::::::::;;;;;;;;;-------===========**********&&&&&&&%%%%%%%%%%$$$$$$$$#########@@@@@@@@@@@+++++++++OOOOOOOoooooooooooXXXXXXXXX......                                                                         $ZZZZZZZZZZZZZZZZFFFFFFFFFFFFFFFFFFFF",
"FFFFFFFFFFFFFFFFFFFFZZZZZZZZZZZZZZZZn99999000000000000qqqqqqqqqwwqwwwwwwwweeeeeeeeeeeerrerrrrrrrrrrrrttttttttttyyyyyyyyyyyyyyyuyuuuuuuuuuuiiiiiiiiiiiiiiiipppppppppppppppppaaaaaaaaaaaaaaaaaaasssssssssssssssssssssssssdddddddddddddddddddddddddddddddddfdddddfdddddfdddffddddddddffddddddddddddddddddddddddddddddddddddddddddddddsssssssssssssssssssssssssaaaaaaaaaaaaaaapaaaapppppppppppppppppiiiiiiiiiiiiuuuuuuuuuuuuuuyyyyyyyyyyyyyytttttttttttttrtrrrrrrrrrrrreeeeeeeeeeeewwwwwwwwwqqqqqqqqqqq0q0000000009999999999999888888888887777777766666666665655555554544444444444333333333322222222211111111<1<<<<<<<<<,,,,,,,,,,>>>>>>>>:::::::::;:;;;;;;;;--------============*********&&&&&&&&%%%%%%%%%%$$$$$$$#$#######@@@@@@@@@@@@++++++++OOOOOOOoooooooooooXXXXXXXXX.........                                                                       <ZZZZZZZZZZZZZZZZFFFFFFFFFFFFFFFFFFFF",
"FFFFFFFFFFFFFFFFFFFFZZZZZZZZZZZZZZZZC09999900000000000qqqqqqqqqqwwwwwwwwwwweeeeeeeeeeeererrrrrrrrrrrrrttttttttttyyyyyyyyyyyyyyuuyuuuuuuuuuuuiiiiiiiiiiiiiiippppppppppppppppppaaaaaaaaaaaaaaaaaaaassssssssssssssssssssdsssssdddddddddddddddddddddddddddddddddddddddddffdddfdfddddddddddddddddddddddddddddddddddddddddddddddddddsssssssssssssssssssssssssssaaaaaaaaaaaaaaapaaaapppppppppppppppppiiiiiiiiiiiiiiuuuuuuuuuuuuuuuyyyyyyyyyyyyyyttttttttttrrrrrrrrrrrrrereeeeeeeeeeeewwwwwwwwwwqqqqqqqqqqqqq000000000999999999999888888888887777777676666666666655555555444444444444333333333322222222221111111<<<<<<<<<<,,,,,,,,,,,,>>>>>>>>>:::::::;;;;;;;;;-;--------=========*=**********&&&&&&&&%%%%%%%%%%$$$$$$$#$########@@@@@@@@@@+++++++++OOOOOOOoooooooooooXXXXXXXXX.........                                                                       qZZZZZZZZZZZZZZZZFFFFFFFFFFFFFFFFFFFF",
"FFFFFFFFFFFFFFFFFFFFZZZZZZZZZZZZZZZZZt9999900000000000qqqqqqqqqqqwwwwwwwwwwweeeeeeeeerrrrrrrrrrrrrrrrttttttttttttyyytyyyyyyyyyyuyyuuuuuuuuuuuuiiuiiiiiiiiiiiipppipppppppppppppaaaaaaaaaaaaaaaaaaaaassssssssssssssssssssdsssssssdddddddddddddddddddddddddddddddddddddddddddddddddddddddddddddddddddddddddddddddddddddddddddssssssssssssssssssssssssssssaaaaaaaaaaaaaaaaaappapppppppppppppppiiiiiiiiiiiiiiiiiiuuuuuuuuuuuuuyyyyyyyyyyyytyyttttttttttrrrrrrrrrrrreereeeeeeeeeeewwwwwwwwwwwwwqqqqqqqq0000000000090099999999998888888878877777777676666666655555555554554444444444333333333222222222211111111<<<<<<<<<,<,,,,,,,,>>>>>>>>>>:::::::::;;;;;;;;;;;-------=-========*********&&&&&&&&&&&%%%%%%%$$$$$$$$$$$#######@##@@@@@@++++++++++++OOOOOOooOooooooXXoXXXXXX......... .                                                                        dZZZZZZZZZZZZZZZZFFFFFFFFFFFFFFFFFFFF",
"FFFFFFFFFFFFFFFFFFFFZZZZZZZZZZZZZZZZZs9999909900000000qq0qqqqqqqqqwwqwwwwwwwweeeeeeeeerrerrrrrrrrrrrrrttrttttttttttyttyyyyyyyyyyyyuuuuuuuuuuuuuiuiuiiiiiiiiiiiiiipipppppppppppppaaaaaaaaaaaaaaaaaaaaaasssssssssssssssssssssssssssssdddddddddddddddddddddddddddddddddddddddddddddddddddddddddddddddddddddddddddddddddddsdssssssssssssssssssssssssssssaaaaaaaaaaaaaaaaaaaaapppppppppppppppppiiiiiiiiiiiiiiiiuuuuuuuuuuuuuuyyyyyyyyyyytttttttttttttrrrrrrrrrrrrreeerreeeeeeeeeewwwwwwwwwqqqqqqqqqqq00000000000090999999999988888888878777777777776666666655555555545544444444443333333333222222221211111111<<<<<<<<,,,,,,,,,,>>>>>>>>>:>>:::::::;;;;;;;;;-;;---------=======*********&&*&&&&&&&&&%%%%%%%%%$$$$$$$$$#######@#@@@@@@@+++++++++++OOOOOOOoooooooooXXXXXXXXX......... .                                                                        bZZZZZZZZZZZZZZZZFFFFFFFFFFFFFFFFFFFF",
"FFFFFFFFFFFFFFFFFFFFZZZZZZZZZZZZZZZZZk99999900000000000000qqqqqqqqqqqqwwwwwwwwweeeeeeeereerrrrrrrrrrrrrrrrttttttttttttyyyyyyyyyyyyyuuuuuuuuuuuuuuuuuiiiiiiiiiiiipppppppppppppppppppaaaapaaaaaaaaaaaaaaaassssssssssssssssssssssssssssssssdddddddddddddddddddddddddddddddddddddddddddddddddddddddddddddddddddddddddssssssssssssssssssssssssssssssssaaaaaaaaaaaaaaaaaaaaaappppppppppppppppppiiiiiiiiiiiiuuiiuuuuuuuuuuuuyuuyyyyyyyyyyttyttttttttttttrrrrrrrrrrrrreerreeeeeeeeeewwwwwwwwqqqqqqqqqqqqq00000000099999999999999888888888877777777677666666666655555555554444444444333333333322222222211111111111<<<<<<<,,,,,,,,,>>>>>>>>>>>>:::::::;;:;;;;;;;;;---------=======**********&&&&&&&&&&%%%%%%%%%%$$$$$$$##$######@##@@@@@@@@@+++++++++OOOOOOOOOooooooXXXXXXXXX.........                                                                          oCZZZZZZZZZZZZZZZZFFFFFFFFFFFFFFFFFFFF",
"FFFFFFFFFFFFFFFFFFFFZZZZZZZZZZZZZZZZZb99999990000000000000qqqqqqqqqqqqwwwwwwwwweeeeeeeeeeeerrrerrrrrrrrrrrtttttttttttttyyyyyyyyyyyyyuuyuuuuuuuuuuuuuiiiiiiiiiiiiiipppppppppppppppppppaapaaaaaaaaaaaaaaaaaaasssssssssssssssssssssssssssssssssssdddddddddddddddddddddddddddddddddddddddddddddddddddddddddddddsssssssssssdsssssssssssssssssssssssaaaaaaaaaaaaaaaaaappaaappppppppppppppppppiiiiiiiiiiiiiuuuuuuuuuuuuuuyyyyyyyyyyyyyyytttttttttttttrrtrrrrrrrrrrrrreereeeeeeeeewewwwwwwwwqqqqqqqqqqq0q0000000000099999999899888888887887777777666666666666655555555554444444444333333333322222222121111111<11<<<<<<<,,,,,,,,,,>>>>>>>>>::>:::::::;;;;;;;;;-;----------=======*********&&&&&&&&&&%%%%%%%%%%%$$$$$$$#########@@@@@@@@@@@+++++++++OOOOOOOOOoooooooXXXXXXXXX.........                                                                          ;ZZZZZZZZZZZZZZZZZFFFFFFFFFFFFFFFFFFFF",
"FFFFFFFFFFFFFFFFFFFFZZZZZZZZZZZZZZZZZB99999999999000000000qqqqqqqqqqqqwwwwwwwwwweeeeeeeeeeeerrrrrrrrrrrrrtttttttttttttttyyyyyyyyyyyyuuyyuuuuuuuuuuuiiiiiiiiiiiiiiiiippppppppppppppppppppaaaaaaaaaaaaaaaaaaaaaassssssssssssssssssssssssssssddsssssssssdddddddddddddddddddddddddddddddddddddddddddddddsdssssssssdddssssssssssssssssssssssssssaaaaaaaaaaaaaaaaaapppaappppppppppppppppppiiiiiiiiiiiiiuiiiuuuuuuuuuuuuyyyuyyyyyyyyyytyyytttttttttttttrrrrrrrrrrrrrrrreeeeeeeeewwwwwwwwwwwqqqqqqqqqqqq00000000009999999998898888888877877777777776666666655655555554554444444444333333332222222222211111111<1<<<<<<<<,,,,,,,,,,,>>>>>>>>:::::::::;;;;;;;;;;---------=-=======************&&&&&&&&&%%%%%%%$$$$$$$$$$$$#########@@@@@@++@@++++++++OOOOOOOoOooooooooXXXXXXXXXX...... ..                                                                        7ZZZZZZZZZZZZZZZZZFFFFFFFFFFFFFFFFFFFF",
"FFFFFFFFFFFFFFFFFFFFZZZZZZZZZZZZZZZZZZw9999999999000000000qqqqqqqqqqqqwwwwwwwwwwweeeeeeeeeeeeerrrrrrrrrrrrttttttttttttttyyyyyyyyyyyyyyuyyuuuuuuuuuuuuuiiiiiiiiiiiiiiiipppppppppppppppppppaaaaaaaaaaaaaaaaaaaaaaaaassssssssssssssssssssssssssssssssssssssssssddddddddddddddddddddddddddddddsssssssssssddsssssssssssssssssssssssssssssssssaaaaaaaaaaaaaaaaaaaapppppppppppppppppppppppiiiiiiiiiiiiiuuiiuuuuuuuuuuuyuyyyyyyyyyyyyyttyttttttttttrtttrrrrrrrrreerrrreeeeeeeeeewwwwwwwwwwwwqqqqqqqqqqq00000000000999999999888888888888877777777776666666655555555554454444444444333333333322222222221111111<<1<<<<<<<<,,,,,,,,,>>>>>>>>>::::::::::;:;;;;;;;---------==========*********&&&&&&&&&%%%%%%%%%%$$$$$$$$$$$#########@@@@@@@+@+@+++++++OOOOOOOoooooooooooXXXXXXXXX.........                                                                         iZZZZZZZZZZZZZZZZZFFFFFFFFFFFFFFFFFFFF",
"FFFFFFFFFFFFFFFFFFFFZZZZZZZZZZZZZZZZZZi99999999999900000000q00qqqqqqqqqwqwwwwwwwwweeeeeeeeeeeeerrerrrrrrrrrrtrrttttttttttyyyyyyyyyyyyyyyyyyuuuuuuuuuuuuuiuuiiiiiiiiiiiiiiippppppppppppppppppaaaaaaaaaaaaaaaaaaaaaaaaasssssssssssssssssssssssssssssssssssssssssssssssssssssssssssddssssssddssssssssssssssssssssssssssssssssssssssssssaaaaaaaaaaaaaaaaaaaaaaaaaapppppppppppppppppppiiiiiiiiiiiiiiiuuuuuuuuuuuuuuyyuuyyyyyyyyyyytttttttttttttrrrtrrrrrrrrrreeeeeeeeeeeeeeewwwwwwwwwqqwqqqqqqqq0q000000000090999999999888888888888877777777677666666655555555555444444444444333333333322222222221111111<<<<<<<<<<<<<,,,,,,,,,>>>>>>>>:::::::::;:;;;;;;;;;;-------=========**********&&&&&&&&&%%%%%%%%%%%$$$$$$$$$$#########@@@@@@@@@+++++++++OOOOOOOoooooooooooXXXXXXXXX.........                                                                         zZZZZZZZZZZZZZZZZZFFFFFFFFFFFFFFFFFFFF",
"FFFFFFFFFFFFFFFFFFFFZZZZZZZZZZZZZZZZZZg999999999999000000000000qqqqqqqqqqqwwwwwwwwweeeeeeeeeeerrrrerrrrrrrrrrrrrtttttttttttyttyyyyyyyyyyyyyyuuuuuuuuuuuuuuuuiiiiiiiiiiiiiiiippppppppppppppppppaaaaaaaaaaaaaaaaaaaaaaaaaaassssssssssssssssssssssssssssssssssssssssssssssssssssssssssssssssssssssssssssssssssssssssssssssssssssssssaaaaaaaaaaaaaaaaaaaaaaaaaappppppppppppppppppppiiiiiiiiiiiiiuuiiuuuuuuuuuuuuyyyyyyyyyyyyyyyyttttttttttttttrtrrrrrrrrrrrreeeeeeeeeeeeeeeewwwwwwwwqqqqqqqqqq0q0000000000099999999998888888888888777777777776666666655555555555444444444444333333333322222222211111111<<<<<<<<<<<<,,,,,,,>,,>>>>>>>:::::::::;;:;;;;;;;;;-------==========*********&*&&&&&&&%%%%%%%%%%%%$$$$$$$$$#########@@@@@@@@@+++++++++OOOOOOOOooooooooooXXXXXXX.X.........                                                                         .VZZZZZZZZZZZZZZZZZFFFFFFFFFFFFFFFFFFFF",
"FFFFFFFFFFFFFFFFFFFFZZZZZZZZZZZZZZZZZZc9999999999900000000000000qqqqqqqqqqwwwwwwwwwwweeeeeeeeerrrrrrrrrrrrrrrrrrrtttttttttttyytyyyyyyyyyyyyyuuuuuuuuuuuuuuiiuuiiiiiiiiiiiiiipppppppppppppppppppppaaaaaaaaaaaaaaaaaaaaaaaaaaaassssssssssssssssssssssssssssssssssssssssssssssssssssssssssssssssssssssssssssssssssssssssssssssssaaaaaaaaaaaaaaaaaaaaaaaaaaappppppppppppppppppiiiiiiiiiiiiiiiiuuuuuuuuuuuuuuuuuyyyyyyyyyyyyyyyyytttttttttttttrrrrrrrrrrrrerreeeeeeeeeeeewwwwwwwwwwwwqqqqqqqqq000000000000999999999999998888888878777777776666666666655555555555554444444444333333333322222221111111111<<<<<<<<<<,,,,,,,,,,,,>>>>>>>:::::::::::;;;;;;;;;;;---------=========********&*&&&&&&&&&%%%%%%%%%$$$$$$$#########@@@@@@@@@@@@+++++++++OOOOOOOoOoooooooXoXXXXXXX.........                                                                           &ZZZZZZZZZZZZZZZZZZFFFFFFFFFFFFFFFFFFFF",
"FFFFFFFFFFFFFFFFFFFFZZZZZZZZZZZZZZZZZZB98999999999000000000000000qqqqqqqqqwwwwwwwwwwwweeeeeeeeerrerrerrrrrrrrrrrrrrttttttttttyytyyyyyyyyyyyyuuuuuuuuuuuuuuuuuuuuiiiiiiiiiiiiiipppppppppppppppppppppaaaaaaaaaaaaaaaaaaaaaaaaaaaaaasssssssssssssssssssssssssssssssssssssssssssssssssssssssssssssssssssssssssssssssssssssssaaaaaaaaaaaaaaaaaaaaaaaaaaaaappppppppppppppppppppppiiiiiiiiiiiiiiuuuuuuuuuuuuuuuuuuuyyyyyyyyyyyyyyyyttttttttttrrttrrrrrrrrrrrerereeeeeeeeeewwwwwwwwwqqqqqqqqqqqq0000000000009999999999999988888888877777777776666666666565555555555544444444443333333333222222222111111111<<<<<<<<<,,,,,,,,,,,,>>>>>>>>:::::::::::;;;;;;;;;;-------=--=========*******&&&&&&&&&&&&%%%%%%%%%$$$$$$$#########@@@@@@@@@@@+++++++++OOOOOOOoooooooooXXXXXXXXX.........                                                                            5ZZZZZZZZZZZZZZZZZZFFFFFFFFFFFFFFFFFFFF",
"FFFFFFFFFFFFFFFFFFFFZZZZZZZZZZZZZZZZZZZw88899999999009000000000q00qqqqqqqqqwwqwwwwwwwweeeeeeeeeeeeereerrrrrrrrrrttrrttttttttttttttyyyyyyyyyyyuyyuuuuuuuuuuuuuuuuuuiiiiiiiiiiiiiiipppppppppppppppppppppaaaaaaaaaaaaaaaaaaaaaaaaaaaaaaaasssssssssssssssssssssssssssssssssssssssssssssssssssssssssssssssssssssssssssssaaaaaaaaaaaaaaaaaaaaaaaaaaaaaaapppppppppppppppppipppppiiiiiiiiiiiiiiiuuuuuuuuuuuuuuuyuuuyyyyyyyyyyyyyyytttttttttttttrrrrrrrrrrrerrreereeeeeeeeewwwwwwwwwwqqqqqqqqqqqqqq000000000000999999999998888888888877777777666666666655655555555554444444444333333333322222222221111111111<<<<<<<<,,,,,,,,,>>,>>>>>>>>>::::::::::;;;;;;;-;;--------==========**********&&&&&&&&&%%%%%%%%%$$$$$$$#########@@@@@@@@@@@@+++++++++OOOOOOOoooooooooXXXXXXXXXXX.......                                                                            iZZZZZZZZZZZZZZZZZZFFFFFFFFFFFFFFFFFFFF",
"FFFFFFFFFFFFFFFFFFFFZZZZZZZZZZZZZZZZZZZp888899999999009000000000000qqqqqqqqqqqqwwwwwweeeeeeeeeeeeeeereeerrrrrrrrrrrrrttttttttttttttyyyyyyyyyyyyuuuuuuuuuuuuuuuuuuiuuiiiiiiiiiiiiiipppppppppppppppppppppppaaaapaaaaaaaaaaaaaaaaaaaaaaaaaaaaasssssssssssssssssssssssssssssssssssssssssssssssssssssssssssssssssssaaaaaaaaaaaaaaaaaaaaaaaaaaaaaaaaaapppppppppppppppppiipppiiiiiiiiiiiiiiiiiiiuuuuuuuuuuuuuuyuuyyyyyyyyyyyyyyyttttttttttttttrrrrrrrrrrreeeeeeeeeeeeeeewwwwwwwwwwwqqqqqqqqqqqqq0000000000009999999989988888888888777777777766666666566555555555554444444444333333333322222222221111111111<<<<<<<,,,,,,,,,,>,>>>>>>>>>>::::::::;;;;;;;;;-;---------==========*********&&&&&&&&&&%%%%%%%$$$$$$$$$#########@@@@@@@@@@@+++++++++OOOOOOOOooooooooXXXXXXXXX.X.......                                                                             xZZZZZZZZZZZZZZZZZZFFFFFFFFFFFFFFFFFFFF",
"FFFFFFFFFFFFFFFFFFFFZZZZZZZZZZZZZZZZZZZj8899999999999000000000000qqqqqqqqqqqqwwwwwwwwwwwweeeeeeeeeeeeerrrrrrrrrrrrrtttttttttttttttyyyyyyyyyyyyyyuuyyuuuuuuuuuuuuuuiiiiiiiiiiiiiiiiiipiiippppppppppppppppppppaaaaaaaaaaaaaaaaaaaaaaaaaaaaaaaaaaaaaasssssssssssssssssssssssssssssssssssssssssssssssssssssaaaaaaaaaaaaaaaaaaaaaaaaaaaaaapppaaaapppppppppppppppppppiiiipiiiiiiiiiiiiiiiiiiiuuuuuuuuuuuuuyuuuyyyyyyyyyyyytyytttttttttttttttrrrrrrrrrrrrrreeeeeeeeeeeewwwwwwwwwwwwqqqqqqqqq0000000000009999999999999988888888877777777776666666666666555555555444444444444333333332222222222221111111111<<<<<<<<<<,,,,,,,>>,>>>>>>>:>::::::::;;;;;;;;;----------=-=======*********&&*&&&&&&&&&%%%%%%%%$$$$$$$$$$#######@@@@@@@@@@@++++++++++OOOOOOOOOooooooooXXXXXXXX.X........                                                                           oCZZZZZZZZZZZZZZZZZZFFFFFFFFFFFFFFFFFFFF",
"FFFFFFFFFFFFFFFFFFFFZZZZZZZZZZZZZZZZZZZv88899999999999090000000000qqqqqqqqqqqqwqwwwwwwwwwweeeeeeeeeeeeerrrrrrrrrrrrrtttttttttttttttyyyyyyyyyyyyyyyyyuuuuuuuuuuuuuuuiiiuuiiiiiiiiiiiiiiippppppppppppppppppppppppaaaaaaaaaaaaaaaaaaaaaaaaaaaaaaaaaaaaaaaaaaaasssssssssssssssssssssssssssssssssssaaaaaaaaaaaaaaaaaaaaaaaaaaaaaaaaaaaaaaapaaapppppppppppppppppppppiiiiiiiiiiiiiiiiiiiuiuiuuuuuuuuuuuuuyuyyyyyyyyyyyyyytttttttttttttttrrrrrrrrrrrrrrrrrrreeeeeeeeeeewwwwwwwwwwwwqqqqqqqqq0000000000009999999999999988888888887777777776666666666656555555555544444444444333333333222222222221111111111<<<<<<<<<<,,,,,,,>>>>>>>>>>::>::::::::;;;;;;;;----------=-=======**********&&&&&&&&&&&%%%%%%%%%$$$$$$$$#$#######@@@@@@@@@@@++++++++++OOOOOOOOOoooooooooXXXXXX..X.........                                                                          ;ZZZZZZZZZZZZZZZZZZZFFFFFFFFFFFFFFFFFFFF",
"FFFFFFFFFFFFFFFFFFFFZZZZZZZZZZZZZZZZZZZV988899999999999909000000000qq0qqqqqqqqqqwwwwwwwwwwweeeeeeeeeeerreerrrrrrrrrrrrrrrtttttttttttttytyyyyyyyyyyyyyyuyuuuuuuuuuuuuuiiuuuiiiiiiiiiiiiiiippppiippppppppppppppppppppaaaaaappaaaaaaaaaaaaaaaaaaaaaaaaaaaaaaaaaaaaaaaaaaaaaaaaaaaaaaaaaaaaaaaaaaaaaaaaaaaaaaaaaaaaaaaaaaaaaaaaaaaaaaaaaaappppppppppppppppppppppppiiiiiiiiiiiiiiiiiiuuuuuuuuuuuuuuuuuyyuyyyyyyyyyyyyytttttttttttttttrrrrrrrrrrrrreeererreeeeeeeeeewwwwwwwwwqqqqqqqqqqqqqqq00000000090999999999999888888888887777777766666666666666555555555544444444443333333333222222222221111111<<<<<<<<<<,,,,,,,,,,>>>>>>>>>>::::::::::::;;;;;;;;;-------==========*********&&&&&&&&&&&&%%%%%%%%%$$$$$$$$###########@@@@@@@@@+++++++++OOOOOOOOOoooooooooXXXXXXXXX....... .                                                                           9ZZZZZZZZZZZZZZZZZZZFFFFFFFFFFFFFFFFFFFF",
"FFFFFFFFFFFFFFFFFFFFZZZZZZZZZZZZZZZZZZZZr888899999999999009000000000qq0qqqqqqqqqwwqwwwwwwwwweeeeeeeeeeereerrrrrrrrrrrrrrrrrttttttttttttttyyyyyyyyyyyyyuuuuuuuuuuuuuuuuuuuuuuiiiiiiiiiiiiiiiiiiiippppppppppppppppppppppaaaaaaaaaaaaaaaaaaaaaaaaaaaaaaaaaaaaaaaaaaaaaaaaaaaaaaaaaaaaaaaaaaaaaaaaaaaaaaaaaaaaaaaaaaaaaaaaaaaaaaaaaaaapppppppppppppppppppppppppppiiiiiiiiiiiiiiiuuiiuuuuuuuuuuuuuuuuyyyyyyyyyyyyyyyytttttttttttttttrrrrrrrrrrrrreeeeeereeeeeeeeewwwwwwwwwwwqwqqqqqqqqq00q00000000009099999999888888888888887777777767666666666666555555555544444444443333333333322222222221111111<<<<<<<<<<,,,,,,,,,,>>>>>>>>>>::::::::::::;;;;;;;;;;-------=========**********&&&&&&&&&&&%%%%%%%%%%$$$$$$$$$#########@@@@@@@@@++++++++++OOOOOOOOOoooooooooXXXXXXXXX....... .                                                                           dZZZZZZZZZZZZZZZZZZZFFFFFFFFFFFFFFFFFFFF",
"ZZZZZZZZZZZZZZZZZZZZFFFFFFFFFFFFFFFFFFFFs8888999999999999099000000000q00qqqqqqqqqwqqwwwwwwwwwwwweeeeeeereerrrrrrrrrrrrrrrrttttttttttttttyyyyyyyyyyyyyyyuuuuuuuuuuuuuuuuuuuuuuiiiiiiiiiiiiiiiiiiipppippppppppppppppppppppppaaaaaaaaaaaaaaaaaaaaaaaaaaaaaaaaaaaaaaaaaaaaaaaaaaaaaaaaaaaaaaaaaaaaaaaaaaaaaaaaaaaaaaaaaaaaaaaaaaaappppppppppppppppppppppppppiiiiiiiiiiiiiiiiiiuuiiuuuuuuuuuuuuuuuuuuyyyyyyyyyyyyytyytttttttttttttrrrrrrrrrrrrrrrrreeeeeeeeeeeeewwwwwwwwwwwqqqqqqqqqqqqqq000000000999999999998898888888888877777777767666666665665555555544545444444443333333333222222222111111111<<<<<<<<<<<<,,,,,,,,>>>>>>>>>>:::::::::;;;;;;;;;;;;-------==-=======**********&&&&&&&&%&&%%%%%%%$$$$$$$$$#########@##@@@@@@@@@+++++++++OOOOOOOoooooooooXXXXXXXXX.X.......                                                                              BFFFFFFFFFFFFFFFFFFFZZZZZZZZZZZZZZZZZZZZ",
"ZZZZZZZZZZZZZZZZZZZZFFFFFFFFFFFFFFFFFFFFk8888898999999999999900000000000qqqqqqqqqqqqqwwwwwwwwwwweeeeeeeeeerrrrerrrrrrrrrrrtttttttttttttttyyytyyyyyyyyyyyyuuyyuuuuuuuuuuuuuuuuuiuiiiiiiiiiiiiiiiiipppppipppppppppppppppppppppppaaaaaaaaaaaaaaaaaaaaaaaaaaaaaaaaaaaaaaaaaaaaaaaaaaaaaaaaaaaaaaaaaaaaaaaaaaaaaaaaaaaaaaaappaapppppppppppppppppppppppppppppiiiiiiiiiiiiiiiiiuuuuiuuuuuuuuuuuuuuuuuuyyyyyyyyyyyyyttttttttttttttttttrrrrrrrrrrrerrrrreeeeeeeeeeewwwwwwwwwwwwqqqqqqqqqqq0q000000000099999999999888888888888777777777766666666666555555555545544444444443333333333222222222211111111<<<<<<<<<<<<,,,,,,,,,>>>>>>>>>:::::::::;;;;;;;;;;-;--------=-========*********&&&&&&&&&%&%%%%%%%$$$$$$$$$$$$#######@@@@@@@@@@@++++++++++OOOOOOoooooooooXXXXXXXXXX.X.......                                                                             @FFFFFFFFFFFFFFFFFFFFZZZZZZZZZZZZZZZZZZZZ",
"ZZZZZZZZZZZZZZZZZZZZFFFFFFFFFFFFFFFFFFFFm888888888999999999999000000000000qqqqqqqqqqqqwwwwwwwwwweeeeeeeeeeererrerrrrrrrrrrrttrrtttttttttttttttyyyyyyyyyyyyyyyyyuuuuuuuuuuuuuuuuuuuiiiiiiiiiiiiiiiiiipppipppppppppppppppppppppppppppaaaaaaaapppaaaaaaaaaaaaaaaaaaaaaaaaaaaaaaaaaaaaaaaaaaaaaaaaaaaaaaaaaaaaaapppaaaaaapppppppppppppppppppppppppippppppiiiiiiiiiiiiiiiiiiiiiuuuuuuuuuuuuuuuyyyyyyyyyyyyyyyyytytyttttttttttttrrtrrrrrrrrrrrrererreeeeeeeeeeewwwwwwwwwwwwwqqqqqqqqq0qq000000000000999999998988888888888877777777766666666666555555555544544444444443333333333222222222221111111111<<<<<<<,<<,,,,,,,,,,>>>>>>>>>::::::::;;;;;;;;;----------============*********&&&&&&&%%&%%%%%%%%%$$$$$$$$$#########@@@@@@@@@@+++++++++OOOOOOOoooooooooXXXXXXXXX.........                                                                              1FFFFFFFFFFFFFFFFFFFFZZZZZZZZZZZZZZZZZZZZ",
"ZZZZZZZZZZZZZZZZZZZZFFFFFFFFFFFFFFFFFFFFC0888888888999999999999000000000000qqqqqqqqqqqqwwwwwwwwweeeeeeeeeeeeeerrrrrrrrrrrrrrrtrrttttttttttttttttyyyyyyyyyyyyyyyyuuuuuuuuuuuuuuuiiiuuuiiiiiiiiiiiiiiiiippppppippppppppppppppppppppppppppppaapppaaaaaaaaaaaaaaaaaaaaaaaaaaaaaaaaaaaaaaaaaaaaaaaaaaaaaaaaaaaaaapppappppppppppppppppppppppppppppppiippiiiiiiiiiiiiiiiiiuuuiiiuuuuuuuuuuuuuuuyyyuyyyyyyyyyyyyytttttttttttttttrrrrrrrrrrrrrrrrrrerreeeeeeeeeeewwwwwwwwwwwwqqqqqqqqqq0qq000000000000999999999888888888888887777777766666666666655555555554444444444443333333333322222221221111111111<<<<<<<<,<,,,,,,,,,,>>>>>>>>>>:::::::;;;;;;;;;;---------============**********&&&&&&&%%%%%%%%%%%%$$$$$$$$$#########@@@@@@@+@++++++++++OOOOOOooooooooooXXXXXXXXX.........                                                                              tFFFFFFFFFFFFFFFFFFFFZZZZZZZZZZZZZZZZZZZZ",
"ZZZZZZZZZZZZZZZZZZZZFFFFFFFFFFFFFFFFFFFFZi8888888999999999999999000000000000qqqqqqqqqqqqwwwwwwwwwweeeeeeeeeerreerrrrrrrrrrrrrrrrrtttttttttttttttyyyyyyyyyyyyyyyyuyuuuuuuuuuuuuuuuuuiiiuiiiiiiiiiiiiiiiiiiippppiipppppppppppppppppppppppppppppppaaaaaaaaaaaaaaaaaaaaaaaaaaaaaaaaaaappaaaaaaaaaaaaaaaaaaaaapppppppppppppppppppppppppppppppppiipppiiiiiiiiiiiiiiiiiiuuuuuuuuuuuuuuuuuuuuyuuuuyyyyyyyyyyyyyyyyytttttttttttttttrrrrrrrrrrreeerrereeeeeeeewwwwwwwwwwwwwwqqqqqqqqqqqqqq0000000000909999999999988888888888777777777777666666666655555555555444444444443333333333222222222211111111<<<<<<<<<<,,,,,,,,,,,>>>>>>>>>>:::::::::::;;;;;;;;-;---------==========*******&&&&&&&&&&&&%%%%%%%%$$$$$$$$$$#######@@@@@@@@@@++++++++++OOOOOOOOOOoooooooooXXXXXXXXX.......                                                                               zFFFFFFFFFFFFFFFFFFFFZZZZZZZZZZZZZZZZZZZZ",
"ZZZZZZZZZZZZZZZZZZZZFFFFFFFFFFFFFFFFFFFFZh88888888998999999999099000000000q00qqqqqqqqqwqqwwwwwwwwwweeeeeeeeeeeeerrrrerrrrrrrrrrrrrrtttttttttttttyytyyyyyyyyyyyyyuuuuyuuuuuuuuuuuuuuuuiuiuiiiiiiiiiiiiiiiiiiiipiiippppppppppppppppppppppppppppppppppppppaaaaaaaaaaaaaaaapaaaaaaaaaappaaaaaaaaaaapapppppppppppppppppppppppppppppppppppiippppiiiiiiiiiiiiiiiiiiiiuuuuuuuuuuuuuuuuuuuuuyyyuyyyyyyyyyyyyyyyyyyttttttttttttttttrrrrrrrrrrreererreeeeeeeeeewwwwwwwwwwwqwwqqqqqqqqq000q0000000000009999999999988888888888877777777776666666666665555555555544444444443333333333222222222211111111<<<<<<<<<<,,,,,,,,,,,,,>>>>>>>:>::::::::::;;;;;;;;;-----------=========*******&&&&&&&&&&&&%%%%%%%%%$$$$$$$$$$#######@@@@@@@@@+++++++++++OOOOOOOOOOoooooooooXXXXXXXXX.......                                                                              oCFFFFFFFFFFFFFFFFFFFFZZZZZZZZZZZZZZZZZZZZ",
"ZZZZZZZZZZZZZZZZZZZZFFFFFFFFFFFFFFFFFFFFZb888888888999999999999009000000000qq0qqqqqqqqqqwwwwwwwwwwwwweeeeeeeeeeeeerreerrrrrrrrrrrrrrtttttttttttttyyytyyyyyyyyyyyyyuuuuuuuuuuuuuuuuuuuuuiuiiuiiiiiiiiiiiiiiiiiiiiipiippppppppppppppppppppppppppppppppppppppppppppppppppppppaaaaaaapppppppppppppppppppppppppppppppppppppppppppppppppppiippiiiiiiiiiiiiiiiiiiiiiiiiiuuuuuuuuuuuuuuuuuuuyyyyyyyyyyyyyyytyttttttttttttttrrrtrrrrrrrrrrrrerreeeeeeeeeeeeeewwwwwwwwwwqqqqqqqqqqqq00000000000009009999999999988888888888777777777677666666666565555555555444444444443333333333222222222221111111<11<<<<<<<,<,,,,,,,,,,,>>>>>>>::>::::::::;;;;;;;;;;;----------=======*==********&&&&&&&&&&%%%%%%%%%%$$$$$$$$$#########@@@@@@@++++++++++++OOOOOOOoooooooooXoXXXXXXXXX..........                                                                            >ZFFFFFFFFFFFFFFFFFFFFZZZZZZZZZZZZZZZZZZZZ",
"ZZZZZZZZZZZZZZZZZZZZFFFFFFFFFFFFFFFFFFFFZC9888888888999999999999000000000000qqqqqqqqqqqqqqwwwwwwwwwwwweeeeeeeeeeeeeeeerrrrrrrrrrrrrrtttttttttttttttytttyyyyyyyyyyyyyyyuuyuuuuuuuuuuuuuuuuuuuiiiiiiiiiiiiiiiiiiiiiiiiipppiipppppppppppppppppppppppppppppppppppppppppppppppppppppppppppppppppppppppppppppppppppppppppppppppppiiippppppiiiiiiiiiiiiiiiiiiiiiuuuiiiuuuuuuuuuuuuuuuuyuuuuyyyyyyyyyyyyytttytttttttttttttrrrrrrrrrrrrrrrrreeeeeeeeeeeeeeeewwwwwwwwwqqqqqqqqqqqqq00000000000099999999999989988888888888877777777667666666665555555555555444444444443333333333322222222221111111111<<<<<<<<,<,,,,,,,,,,>>>>>>>>:::::::::::;;;;;;;;-;;---------========*=*********&&&&&&&&&&%%%%%%%%%$$$$$$$$$$########@@@@@@@@@@+@@+++++++OOOOOOoOOoooooooXoXXXXXXXXX.........                                                                             wZFFFFFFFFFFFFFFFFFFFFZZZZZZZZZZZZZZZZZZZZ",
"ZZZZZZZZZZZZZZZZZZZZFFFFFFFFFFFFFFFFFFFFZZy78888888889999999999990000000000000qqqqqqqqqqqqwwwwwwwwwwwwweeeeeeeeeeeeerrrrrrrrrrrrrrrrtttttttttttttttttttttyyyyyyyyyyyyyuuuuuuuuuuuuuuuuuuuuuuiiiiuiiiiiiiiiiiiiiiiiiiiiiiipppipppipppppppppppppppppppppppppppppppppppppppppppppppppppppppppppppppppppppppppppppppppppppppppppiiipiiiiiiiiiiiiiiiiiiiiiiuuuuiiuuuuuuuuuuuuuuuuuyyyuyyyyyyyyyyyyyytyttttttttttttttttrrrrrrrrrrrrrrerrrrrrreeeeeeeeeewwwwwwwwwwwqwqqqqqqqqqq00q000000000999999999999888888888888788777777776666666666655555555555555444444444433333333333222222222211111111<<<<<<<<<<<<<,,,,,,,>>>>>>>>>>:>::::::::;:;;;;;;;;---------==-=======*=*******&**&&&&&&&%&%%%%%%%$$%$$$$$$$###########@@@@@@@@@@+@+++++++OOOOOOOoOoooooooXXXXXXXXX.........  .                                                                             jZFFFFFFFFFFFFFFFFFFFFZZZZZZZZZZZZZZZZZZZZ",
"ZZZZZZZZZZZZZZZZZZZZFFFFFFFFFFFFFFFFFFFFZZg87888888888998999999999009000000000qq0qqqqqqqqqqwwwwwwwwwwwwweeeeeeeeeeeerrrrrrrrrrrrrrrrrrttrrttttttttttttttyyyyyyyyyyyyyyyyuuuuyuuuuuuuuuuuuuuuuuiiuiuuuiiiiiiiiiiiiiiiiiiiiiiiiipppiiippppppppppppppppppppppppppppppppppppppppppppppppppppppppppppppppppppppppppppppppppppppppiiiiiiiiiiiiiiiiiiiiiiiuiiiuuuuuuuuuuuuuuuuuuuuuyyyyyyyyyyyyyyyyytttttttttttttttttrrrrrrrrrrrrrrrreerrrereeeeeeeeeeewwwwwwwwwwwwqqqqqqqqqqqqq0000000000099999999999988888888888877777777777666666666665555555555555444444444433333333333222222222211111111<<<<<<<<<<<<,,,,,,,,>>,>>>>>>>::>::::::::;;;;;;;;;----------=========**********&*&&&&&&&%%&%%%%%%%$$$$$$$$$############@@@@@@@@@+++++++++OOOOOOOooooooooooXXXXXXXXX......... .                                                                             .BZFFFFFFFFFFFFFFFFFFFFZZZZZZZZZZZZZZZZZZZZ",
"ZZZZZZZZZZZZZZZZZZZZFFFFFFFFFFFFFFFFFFFFZZv877888888888988999999999999000000000q00qqqqqqqqqqqqqqwwwwwwwwwweeeeeeeeeeereeeeeerrrrrrrrrrrtrtrtttttttttttttytttyyyyyyyyyyyyyyyyyyyyuuuuuuuuuuuuuuuuuuuuuuuuiiiiiiiiiiiiiiiiiiiiiiiiipipppppppppppppppppppppppppppppppppppppppppppppppppppppppppppppppppppppppppppppppppppiiiiiiiiiiiiiiiiiiiiiiiiiiuuiiiiuuuuuuuuuuuuuuuuuuyyuuuyyyyyyyyyyyyyyttyyttttttttttttttttttrrrrrrrrrrrrrrreeeeeeeeeeeeeewwwwwwwwwwwqwwqqqqqqqqqqqqq000000000000999999999999888888888887777777777776666666665555555555555445444444443333333333222222222221111111<<<<<<<<<<<<<,,,,,,,,>>>>>>>>>>>::::::::::;;;;;;;;;;;-------===========********&&&&&&&&&&%%%%%%%%%$$$$$$$$$$###########@@@@@@@@@@+++++++++OOOOOOOOOoooooooXoXXXXXXX............                                                                             -ZZFFFFFFFFFFFFFFFFFFFFZZZZZZZZZZZZZZZZZZZZ",
"ZZZZZZZZZZZZZZZZZZZZFFFFFFFFFFFFFFFFFFFFZZV887888888888888999999999999000000000000qqqqqqqqqqqqwwwwwwwwwwwwweeeeeeeeeeeeeeeeerrrrrrrrrrrrrtrrrtttttttttttttttyyyyyyyyyyyyyyyyyyyyuuuuuuuuuuuuuuuuuuuuuuuuuiiiiiiiiiiiiiiiiiiiiiiiiiiiiipppppiipppppppppppppppppppppppppppppppppppppppppppppppppppppppppppppppppppppiiiiiiiiiiiiiiiiiiiiiiiiiiiiiiuiiiuuuuuuuuuuuuuuuuuuyyyyuyyyyyyyyyyyyyyytttttttttttttttttrrttrrrrrrrrrrrrerrrreeeeeeeeeeeeewwwwwwwwwwwqqwqqqqqqqqq00qq0000000009009999999998998888888888887777777777766666666655555555555554444444444433333333332222222222211111111<<<<<<<<<<<,,,,,,,,,>>>>>>>>>>>>::::::::::;;;;;;;;;;-------==========**********&&&&&&&&&&%%%%%%%%%$$$$$$$$$#########@##@@@@@@@@@+++++++++OOOOOOOoOOoooooooXoXXXXXXX......... .                                                                              9ZZFFFFFFFFFFFFFFFFFFFFZZZZZZZZZZZZZZZZZZZZ",
"ZZZZZZZZZZZZZZZZZZZZFFFFFFFFFFFFFFFFFFFFZZZr78888888888888999999999999000000000000000qqqqqqqqqqwqqwwwwwwwwwwwweeeeeeeeeerrrrrrrrrrrrrrrrrrrtttttttttttttttttyyttyyyyyyyyyyyyyyyyuuuuuuuuuuuuuuuuuuuuuuuiuuiiiiiiiiiiiiiiiiiiiiiiiiiiiiiiiiiiiiipppppiiiipppiipppppppppppppppppppppppppppppppiipppppiipppiiipiiiiiiiiiiiiiiiiiiiiiiiiiiiiiuiiiiiiuuuuuuuuuuuuuuuuuuuuyyyyyyyyyyyyyyyyyyytyyyyttttttttttttttrttrrrrrrrrrrrrrreeerreeeeeeeeeeeewwwwwwwwwwwwqqqqqqqqqqq0000000000000999999999999999888888888888777777777676666666656555555555555444444444443333333333322222222221111111111<<<<<<<<,,,,,,,,,,,,>>>>>>>>::::::::::;::;;;;;;;----------=-=========*********&&&&&&&&&%%%%%%%%%%%$$$$$$$$#########@#@@@@@@@@@++++++++++OOOOOOOoooooooooXXXXXXXXXXX.......  .                                                                              gZZFFFFFFFFFFFFFFFFFFFFZZZZZZZZZZZZZZZZZZZZ",
"ZZZZZZZZZZZZZZZZZZZZFFFFFFFFFFFFFFFFFFFFZZZf77888888888888999999999999009000000000000qqqqqqqqqqqwqwwwwwwwwwwwweeeeeeeeeeereerrrrrrrrrrrrrrrrttttttttttttttttttttttyyyyyyyyyyyyyyyyuuuuyuuuuuuuuuuuuuuuuuuuiiiiuuiiiiiiiiiiiiiiiiiiiiiiiiiiiiiiiiiiiipiiippppppppppppipppiiippppippppppppppipiippppppiiiiiiiiiiiiiiiiiiiiiiiiiiiiiiiiiiiiuuuuiuuuuuuuuuuuuuuuuuuuuuuuyyyyyyyyyyyyyyyyytttyytttttttttttttrttrtrrrrrrrrrrrrrrreeereeeeeeeeeeewwwwwwwwwwwwwwqqqqqqqqqq00000000000000999999999999998888888888887777777776666666666555555555555554444444444433333333333222222222211111111111<<<<<<<,,,,,,,,,,,,>>>>>>>>>::::::::::;:;;;;;;;----------=--========**********&&&&&&&&%%%%%%%%%%%%$$$$$$$#########@@#@@@@@@@@@+++++++++OOOOOOOooooooooooXXXXXXXXXXX.......                                                                                .BZZFFFFFFFFFFFFFFFFFFFFZZZZZZZZZZZZZZZZZZZZ",
"ZZZZZZZZZZZZZZZZZZZZFFFFFFFFFFFFFFFFFFFFZZZv7778888888888889889999999990990000000000qqqqqqqqqqqqqqqqqwwwwwwwwwweeeeeeeeeeerreerreerrrrrrrrrrrrtrrrttttttttttttttyyttyyyyyyyyyyyyyyyyyyyyyyuuuuuuuuuuuuuuuuuuuuuuiuuuuuiiiiiiiiiiiiiiiiiiiiiiiiiiiiiiiiiiiiiiiiiippiiiiipppppppiippppiiiiiiiiiiiiiiiiiiiiiiiiiiiiiiiiiiiiiiiiiiiiiiuuuuiiuuuuuuuuuuuuuuuuuuuuuuuuuuuuyyyyyyyyyyyyyyyyttttttttttttttttttrrttrrrrrrrrrrrreerrrreeeeeeeeeeeeewwwwwwwwwwqqqwqqqqqqqqqqqqq000000000000099999999999988888888888877777777766666666666555555555555544444444444333333333332222222211211111111<<<<<<<<<<<,,,,,,,,,>>>>>>>>>>::::::::::::;;;;;;;;;---------=-==========*********&&&&&&&&&&%%%%%%%%%$$$$$$$##########@@@@@@@@@@@@+++++++++OOOOOOOOOoooooooXXXXXXXXX..X.........                                                                              ;ZZZFFFFFFFFFFFFFFFFFFFFZZZZZZZZZZZZZZZZZZZZ",
"ZZZZZZZZZZZZZZZZZZZZFFFFFFFFFFFFFFFFFFFFZZZC87778888888888888889999999999999000000000qqqqqqqqqqqqqqqqqwwwwwwwwwweeeeeeeeeeeeeeereerrrrrrrrrrrrrrrrrtttttttttttttttttttyyyyyyyyyyyyyyyyyyyyyyuuuuuuuuuuuuuuuuuuuuuuuuuuuuuuiiiiiiiiiiiiiiiiiiiiiiiiiiiiiiiiiiiiiiiiiiiiiiiiiiiiiiiiiiiiiiiiiiiiiiiiiiiiiiiiiiiiiiiiiiiiiiiiiiiuuuiiuuuuuuuuuuuuuuuuuuuuuuuuuyyyuuyyyyyyyyyyyyyyyyyttyttttttttttttttttrrrrrrrrrrrrrrrreeeeerrreeeeeeeeeeewwwwwwwwwwwqqqqqqqqqqqqqqqqq00000000099009999999998888888888888887777777776666666666655555555555555544444444433333333333222222221111111111111<<<<<<<<<<,,,,,,,,,,,>>>>>>>:::::::::::::;;;;;;;;;----------==========*******&**&&&&&&&&&%%%%%%%%%%$$$$$$$#########@@@@@@@@@@@@+++++++++OOOOOOOOOooooooooXXXXXXXXX...........                                                                               wZZZFFFFFFFFFFFFFFFFFFFFZZZZZZZZZZZZZZZZZZZZ",
"ZZZZZZZZZZZZZZZZZZZZFFFFFFFFFFFFFFFFFFFFZZZZy77778888888888888999999999999999000000000qq00qqqqqqqqqqqqqwwwwwwwwwwweeeeeeeeeeeeeeeeerrrrrrrrrrrrrrtttttttttttttttttttttyyyyyyyyyyyyyyyyyyyyyyuuuuuuuuuuuuuuuuuuuuuuuuuuiiiiiiiiuiiiiiiiiiiiiiiiiiiiiiiiiiiiiiiiiiiiiiiiiiiiiiiiiiiiiiiiiiiiiiiiiiiiiiiiiiiiiiiiiiiiiiiiiiiiiiiiuuiuuuuuuuuuuuuuuuuuuuuuuuyyyyyyyyyyyyyyyyyyyyyyytyyyyttttttttttttttttrrrrrrrrrrrrrrrrerrereeeeeeeeeeeeewwwwwwwwwwwqqqqqqqqqqqqq00q0000000000909999999999988988888888887777777777766666666666555555555554454444444444433333333332222222222111111111<<<<<<<<<<<<<,,,,,,,>>>>>>>>>>>:>:::::::;::;;;;;;;;;;----------=======**********&&&&&&&&&&&&%%%%%%%$$$$$$$$$$$$#######@#@@@@@@@@@++++++++++OOOOOOOOOoooooooooXXXXXXX.........  .                                                                               lZZZFFFFFFFFFFFFFFFFFFFFZZZZZZZZZZZZZZZZZZZZ",
"ZZZZZZZZZZZZZZZZZZZZFFFFFFFFFFFFFFFFFFFFZZZZh777777788888888889989999999999999000000000000qqqqqqqqqqqqqqqwwwwwwwwwweeeeeeeeeeeeeeeerrrrrrrrrrrrrrrrtttttttttttttttttttyyyyyyyyyyyyyyyyyyyyyyyyuuuuuuuuuuuuuuuuuuuuuuuuuuuuiiiiiuiiuuiiiiiiiiiiiiiiiiiiiiiiiiiiiiiiiiiiiiiiiiiiiiiiiiiiiiiiiiiiiiiiiiiiiiiiiiiiiiiiiiiiuuuuiiiiuuuuuuuuuuuuuuuuuuuuuuuuuuyyyyyyyyyyyyyyyyyyyyytttyyttttttttttttttttttrrrrrrrrrrrrrrrreeeereeeeeeeeeeewwwwwwwwwwwwqqqqqqqqqqqqq0000000000000990999999999998888888888888877777777776666666666555555555554444444444444433333333332222222222211111111<<<<<<<<<<<<<,,,,,,,,>>>>>>>>>>>>::::::::;;;;;;;;;;;;----------=======**********&&&&&&&&&&&&%%%%%%%%$$$$$$$$$$$#######@@@@@@@@@@@@+++++++++OOOOOOOOOOooooooXXoXXXXXXX.X.......                                                                                 oCZZZFFFFFFFFFFFFFFFFFFFFZZZZZZZZZZZZZZZZZZZZ",
"ZZZZZZZZZZZZZZZZZZZZFFFFFFFFFFFFFFFFFFFFZZZZn77777778888888888899899999999990000000000000000qqqqqqqqqqqwwqwwwwwwwwwwweeeeeeeeeeerreerreerrrrrrrrrrrrrtrrrrttttttttttttttyytttyyyyyyyyyyyyyyyyyyyuuyyyuuuuuuuuuuuuuuuuuuuuuuuuuuuiuuuiiiiiiiiiiiiiiiiiiiiiiiiiiiiiiiiiiiiiiiiiiiiiiiiiiiiiiiiiiiiiiiiiiiiiiiiiiuuiiuiuuuuuuuuuuuuuuuuuuuuuuuuuuuuuuyyuyuuuyyyyyyyyyyyyyyyyyyytyttttttttttttttttttttrrrrrrrrrrrrrrrrreeereeeeeeeeeeeeewwwwwwwwwwqqwqqqqqqqqqqqq00000000000099999999999998888888888888887777777777766666666666655555555554444444444443333333333322222222221111111111<<<<<<<<<<<,,,,,,,,,,>>>>>>>>::>:::::::;;;;;;;;;;;;---------=========*********&**&&&&&&&&&%%%%%%%%%%$$$$$$$$$##########@@@@@@@+@++++++++++OOOOOOOOOooooooooXXXXXXXX..........                                                                                 <ZZZZFFFFFFFFFFFFFFFFFFFFZZZZZZZZZZZZZZZZZZZZ",
"ZZZZZZZZZZZZZZZZZZZZFFFFFFFFFFFFFFFFFFFFZZZZC97777778888888888889999999999999900000000000000qqqqqqqqqqqqwwwwwwwwwwwwwweeeeeeeeeeeereeeeeeerrrrrrrrrrrrrrrrrtttttttttttttttttttttyyyyyyyyyyyyyyyyyyyyyyyyuuuuuuuuuuuuuuuuuuuuuuuuuuuuiiiiiiuuuuuuuiiiiiiiiiiiiiiiiiiiiiiiiiiiiiiiiiiiiiiiiiiiiiiiiiiiiiiiuuuuuuuiiiuuuuuuuuuuuuuuuuuuuuuuuuuuuuuuyyyyyyyyyyyyyyyyyyyyyyyyttyyttttttttttttttttttttrrrrrrrrrrrrrerrererreeeeeeeeeeeeweewwwwwwwwqqqqqqqqqqqqqqqqq00000000000999999999999888888888888878877777777667666666666666555555555554444444444433333333333222222222211111111111<<<<<<<<,,,,,,,,,,,,,>>>>>>>:::::::::::;;;;;;;;;-;----------========**********&*&&&&&&&&&&%%%%%%%%%$$$$$$$$$$#########@@@@@@@++@+++++++++OOOOOOOoOooooooooooXXXXXXXX..........                                                                                tZZZZFFFFFFFFFFFFFFFFFFFFZZZZZZZZZZZZZZZZZZZZ",
"FFFFFFFFFFFFFFFFFFFFZZZZZZZZZZZZZZZZZZZZFFFFFp7777777888888888888999999999999900900000000000qqqqqqqqqqqqqqwwwwwwwwwwwwwwwwwweeeeeeeereeerrrrrrrrrrrrrrrrrrrttttttttttttttttttyyyyyyyyyyyyyyyyyyyyyyyyyyuuuyyuuuuuuuuuuuuuuuuuuuuuuuuuuuuuiiiuuuuuuuuuuiiiiuuiiiiiiiiiiiiiiiiiiiiiiiiiiiiiiiiiiiiuuuuuuiiiiuuuiuuuuuuuuuuuuuuuuuuuuuuuuuuuuuuuuyyuuuyyyyyyyyyyyyyyyyyyyyytttttttttttttttttttttrrrrrrrrrrrrrrreerrrerreeeeeeeeeeeewwwwwwwwwwwwqqqqqqqqqqqqq0qq00000000009900999999999999888888888877877777777666666666666556555555554454444444444433333333333222222222221111111111<<<<<<<<,,<,,,,,,,,>>>>>>>>>>>>:::::::::;;;;;;;;;----------==========*=********&*&&&&&&&&&%%%%%%%%%$$$$$$$$#########@@@@@@@@@@@@+++++++++OOOOOOOOoooooooooXXXXXXXXX............                                                                                nFFFFZZZZZZZZZZZZZZZZZZZZFFFFFFFFFFFFFFFFFFFF",
"FFFFFFFFFFFFFFFFFFFFZZZZZZZZZZZZZZZZZZZZFFFFFz77777777888888888888899999999999909990000000000qqqqqqqqqqqqqqwwwwwwwwwwwwwwweeeeeeeeeeerrrerrrrrrrrrrrrrrrrrrtttrrtttttttttttttttyyytttyyyyyyyyyyyyyyyyyyyuuyuyyuuuuuuuuuuuuuuuuuuuuuuuuuuuuuuuuuuuuuuuuiiiiuuuuiiiiiiuuuuiiiiiiiiuuuuiiiuiuuuiiiuuuuuuuiuuuuuuuuuuuuuuuuuuuuuuuuuuuuuuuuuuuuuyyyyyyyyyyyyyyyyyyyyyyyyyyyyttttttttttttttttttrtrrrrrrrrrrrrrreeeeeeeeeeeeeeeeeewwwwwwwwwwwwwwwwqqqqqqqqqqqq00000000000009999999999999999888888888887777777777666666666666555555555554444444444444433333333333222222222211111111111<<<<<<<<,,,,,,,,,,,,>>>>>>>>>>>::::::::::;;;;;;;;----------==========***********&&&&&&&&&&&%%%%%%%%%$$$$$$$##########@@@@@@@@@++++++++++++OOOOOOOoooooooooXXXXXXXXXX...........                                                                                @DFFFFZZZZZZZZZZZZZZZZZZZZFFFFFFFFFFFFFFFFFFFF",
"FFFFFFFFFFFFFFFFFFFFZZZZZZZZZZZZZZZZZZZZFFFFFC777777777788888888888899999999999900990000000000000qqqqqqqqqqqqqwqwwwwwwwwwwweeeeeeeeeeeeeeeerrrerrrrrrrrrrrrrrttrtttttttttttttttttyyttttyyyyyyyyyyyyyyyyyyyyuuuuuuuuuuuuuuuuuuuuuuuuuuuuuuuuuuuuuuuuuuuuuuuiuiiiiiiuuuuuuuuiiuuuuuiiuiiuuiiuuuuuuuuuuuuuuuuuuuuuuuuuuuuuuuuuuuuuuuuuuyyyyuuyyyyyyyyyyyyyyyyyyyyyyttttttttttttttttttttttrrttrrrrrrrrrrrrrrrrreeeereeeeeeeeeeeewwwwwwwwwwwwwwwwqqqqqqqqqqq000000000000099999999999999998888888888887777777777766666666665555555555555444444444444333333333332222222222211111111111<<<<<<<<<,,,,,,,,,>,>>>>>>>>:>>:::::::;::;;;;;;;-;;---------========************&&&&&&&&%&%%%%%%%%%%$$$$$$$$$##########@@@@@@@+++++++++++OOOOOOOOOOoooooooooXXXXXXXXX..........                                                                                5FFFFFZZZZZZZZZZZZZZZZZZZZFFFFFFFFFFFFFFFFFFFF",
"FFFFFFFFFFFFFFFFFFFFZZZZZZZZZZZZZZZZZZZZFFFFFFe7777777778878888888888998999999999999900000000000000qqqqqqqqqqqqqwwwwwwwwwwwweeeeeeeeeeeeeeererrerrrrrrrrrrrrrrrtttrrttttttttttttttttttyyyyyyyyyyyyyyyyyyyyyyyyyyuuuuyyyyuuuuuuuuuuuuuuuuuuuuuuuuuuuuuuuuuuuuuuuuuuuuuuuuuuuuuuuuuuuuuuuuuuuuuuuuuuuuuuuuuuuuuuuuuuuuuuuuuuuuuuuuuuyyyyyyyyyyyyyyyyyyyyyyyyyyytttttttttttttttttttttttrrrrrrrrrrrrrrrrrrrrrreeeereeeeeeeeeeeewwwwwwwwwwwwwqqqqqqqqqqqqqqqq0000000000009999999999998998888888887887777777777776666666665555555555555544444444444333333333332222222212211111111<<<<<<<<<<<<<,,,,,,,,,,,>>>>>>>>>>:::::::;;:;;;;;;;;-;----------=======*************&&&&&&&%%%%%%%%%%%%$$$$$$$$$$#######@#@@@@@@@++@+++++++++OOOOOOOOOoooooooXooXXXXXXXXX.........                                                                                 gFFFFFZZZZZZZZZZZZZZZZZZZZFFFFFFFFFFFFFFFFFFFF",
"FFFFFFFFFFFFFFFFFFFFZZZZZZZZZZZZZZZZZZZZFFFFFFg777777777777788888888889989999999999000000000000000qqqqqqqqqqqqqqwwwwwwwwwwwwwweeeeeeeeeeeerrrrerrrrrrrrrrrrrrrrrrtttrrttttttttttttttttttttyyyyyyyyyyyyyyyyyyyyyyyyyuyyyyyyuuuuuuuuuuuuuuuuuuuuuuuuuuuuuuuuuuuuuuuuuuuuuuuuuuuuuuuuuuuuuuuuuuuuuuuuuuuuuuuuuuuuuuuuuuuuuuuuuuuuyyuuuuyyyyyyyyyyyyyyyyyyyyyyyyttttttttttttttttttttttttrrrrrrrrrrrrrrrrrreerrrrreeeeeeeeeweewwwwwwwwwwwwwwwqqqqqqqqqqq00qq0000000000009099999999999888888888888777777777776666666666665555555555555544444444444333333333332222222221111111111<<<<<<<<<<<,<,,,,,,,,>,,>>>>>>>>:>::::::::;;;;;;;;;;;---------==========**********&&&&&&&&&%%%%%%%%%%$$$$$$$$$$$$#######@@@@@@@@@@@@@@+++++++OOOOOOOooOoooooooXXXXXXXXXXX.......                                                                                   .ZFFFFFZZZZZZZZZZZZZZZZZZZZFFFFFFFFFFFFFFFFFFFF",
"FFFFFFFFFFFFFFFFFFFFZZZZZZZZZZZZZZZZZZZZFFFFFFm777777777777888888888888988999999999909000000000000qqqqqqqqqqqqqqqqwwwwwwwwwwwwwweeeeeeeeeeeerrrerrrrrrrrrrrrrrrrrrrtrrrrttttttttttttttttttyyyyytyyyyyyyyyyyyyyyyyyyyyyyyyyuyuuyyuuuuuuuuuuuuuuuuuuuuuuuuuuuuuuuuuuuuuuuuuuuuuuuuuuuuuuuuuuuuuuuuuuuuuuuuuuuuuuuuuuuuuuuuyyuuuuyyyyyyyyyyyyyyyyyyyyyyyyytyyyyttttttttttttttttttttttttrrrrrrrrrrrrrrrrrreerrreeeeeeeeeeeeewwwwwwwwwwwwwwwqqqqqqqqqqqq0qq0000000000009999999999989888888888888877777777776666666666665555555555545544444444444333333333333222222222111111111<<<<<<<<<<<,,<,,,,,,,,>,>>>>>>>>::::::::::;;;;;;;;;;;;;-------===========*********&&&&&&&&&&%&%%%%%%%$$$$$$$$$$$$#######@##@@@@@@@@@@+@+++++++OOOOOOOoooooooooXXXXXXXXXXXX.......                                                                                   >FFFFFFZZZZZZZZZZZZZZZZZZZZFFFFFFFFFFFFFFFFFFFF",
"FFFFFFFFFFFFFFFFFFFFZZZZZZZZZZZZZZZZZZZZFFFFFFD9767777777777788888888888888999999999999990000000000qq00qqqqqqqqqqqqqqwwwwwwwwwwwweeeeeeeeeeeeeeeeerreeerrrrrrrrrrrrrrtrrrrrtttttttttttttttttyyttyttyyyyyyyyyyyyyyyyyyyyyyyyyuuuyyyyyyyyuuuuuuuuuuuuuuuuuuuuuuuuuuuuuuuuuuuuuuuuuuuuuuuuuuuuuuuuuuuuuuuuuuuuuuuuuyyyyuuuuyyyyyyyyyyyyyyyyyyyyyyyyyyyyttttyyyttttttttttttttttttrttttrrrrrrrrrrrrrreeerreeereeeeeeeeeeeeewwwwwwwwwwwwwqwwqqqqqqqqqqq000000000000009009999999999888888888888888777777777766666666666666655555555444454444444444333333333332222222222211111111<<<<<<<<<<<,,,,,,,,,,>>>>>>>>>>::::::::::::;;;;;;;;;;;-------==-==========*******&&&&&&&&&&&&%%%%%%%%%$$$$$$$$############@@@@@@@@@@+++++++++OOOOOOOOoooooooooXoXXXXXXX.X.......                                                                                    yFFFFFFZZZZZZZZZZZZZZZZZZZZFFFFFFFFFFFFFFFFFFFF",
"FFFFFFFFFFFFFFFFFFFFZZZZZZZZZZZZZZZZZZZZFFFFFFFp77677777777778888888888888889999999999999900000000000q00qqqqqqqqqqqqqqwwwwwwwwwwwweeeeeeeeeeeeeeeeeeeeeerrrrrrrrrrrrrrrrrrrrrtttttttttttttttttttytttyyyyyyyyyyyyyyyyyyyyyyyyyyyyyyyyyyyyyuuuuuuuuuuuuuuuuuuuuuuuuuuuuuuuuuuuuuuuuuuuuuuuuuuuuuuuuuuuuuuuuyyyyuuuyyyyyyyyyyyyyyyyyyyyyyyyyyyyyyyyyyttttttttttttttttttttttttrrrrtrrrrrrrrrrrrrrreeeeeereeeeeeeeeeeeeeewwwwwwwwwwwwqqqqqqqqqqqqqqqq000000000000000909999999999988888888888888777777777766666666666666655555555544444444444444333333333332222222222211111111<<<<<<<<<<,,,,,,,,,,,>>>>>>>>>>:::::::::::;:;;;;;;;;;;--------============********&&&&&&&&&&&%%%%%%%%%%$$$$$$$$#########@##@@@@@@@+@++++++++++OOOOOOOOOoooooooXXXXXXXXXX.........                                                                                    nFFFFFFZZZZZZZZZZZZZZZZZZZZFFFFFFFFFFFFFFFFFFFF",
"FFFFFFFFFFFFFFFFFFFFZZZZZZZZZZZZZZZZZZZZFFFFFFFx676677777777777788888888888899999999999900000000000000000qqqqqqqqqqqqqwwqwwwwwwwwwwwwweeeeeeeeeeeeeerrrrrrrrrrrrrrrrrrrrrrrrttttttttttttttttttttttyyyyttttyyyyyyyyyyyyyyyyyyyyyyyyyyyyuuyyyuuuyyuyyyuuuuuuuuuuuuuuuuuuuuuuuuuuuuuuuuuuuuuuuuuuuuuuuuyyyyyyuuuuuuyyyyyyyyyyyyyyyyyyyyyyyyyyyyyyyyytttyttttttttttttttttttttttttrrrrrrrrrrrrrrrrrrrrrrreeeeeeeeeeeewwwwwwwwwwwwwwwwqqqqqqqqqqqqqq0q00000000000090099999999999999888888888887777777777776666666666655555555555555444444444444333333333332222222222111111111<<<<<<<<<<<<<,,,,,,,,>>>>>>>>>>>::::::::::;:;;;;;;;;-------------=======************&&&&&&&&%&%%%%%%%%%%$$$$$$$$#########@#@@@@@@@@@@++++++++OOOOOOOOOOOoooooooooXXXXXXXX........                                                                                    $DFFFFFFZZZZZZZZZZZZZZZZZZZZFFFFFFFFFFFFFFFFFFFF",
"FFFFFFFFFFFFFFFFFFFFZZZZZZZZZZZZZZZZZZZZFFFFFFFZ76666777777777778888888888889999999999999000000000000000qq0qqqqqqqqqqqwwqqwwwwwwwwwwwweeeeeeeeeeeeeerrrrrreerrrrrrrrrrrrrrrrrrttttttttttttttttttttttttttytytyyyyyyyyyyyyyyyyyyyyyyyyyyyyyyyyyuyuuyyyuuuyuuyyyuuuuuuuyyyyyyyyuuuuuuyyyyuuuuuuyyyyuuuuuyyyyyyyyyyyyyyyyyyyyyyyyyyyyyyyyyyyyyttttyytttttttttttttttttttttrttrtrrrrrrrrrrrrrrrreerrrerrreeeeeeeeeeeeewwwwwwwwwwwwwwwwqqqqqqqqqqqq00000000000000099999999999999999888888888888777777777777666666666655555555555555444444444444333333333332222222222211111111<<<<<<<<<<<<<,,,,,,,,>>>>>>>>>>>::::::::::;;;;;;;;;;-------------=======*************&&&&&&&%%%%%%%%%%%%$$$$$$$$$$#######@@@@@@@@@@+@+++++++++OOOOOOOOOOoooooooooXXXXXXX..X.......                                                                                    7FFFFFFFZZZZZZZZZZZZZZZZZZZZFFFFFFFFFFFFFFFFFFFF",
"FFFFFFFFFFFFFFFFFFFFZZZZZZZZZZZZZZZZZZZZFFFFFFFFr66666777777777788888888888888999999999999999900000000000000qqqqqqqqqqqqqwqqwwwwwwwwwwwweeeeeeeeeeeeereeeeeerrrrrrrrrrrrrrrrrrrrrrrrttttttttttttttttttttttttttyyyyyyyyyyyyyyyyyyyyyyyyyyyyyyyyyyyyyyyyyyyyyyyyuuuuyyyyyyyuyyuuuuuyyyyyuuuuyyyyyyuyyyyyyyyyyyyyyyyyyyyyyyyyyyyyyyyyyyyyyyttttttttttttttttttttttttttttrrttrrrrrrrrrrrrrrrreeeererreeeeeeeeeeeeeeewwwwwwwwwwwwqqqwqqqqqqqqqqqqq00000000000009090999999999989988888888888887777777777676666666665555555555555555444444444443333333333322222222222111111111<<<<<<<<<<<,,,,,,,,,,>,>>>>>>>>::::::::::;;;;;;;;;;;;;----------========**********&&&&&&&&&%%%%%%%%%%%%%$$$$$$$$$##########@@@@@@@++++++++++++OOOOOOOOOooooooooooXXXXXXX..........                                                                                    jFFFFFFFZZZZZZZZZZZZZZZZZZZZFFFFFFFFFFFFFFFFFFFF",
"FFFFFFFFFFFFFFFFFFFFZZZZZZZZZZZZZZZZZZZZFFFFFFFFh6666677777777777888888888888899999999999999999000000000000000qqqqqqqqqqqwqqqwwwwwwwwwwwwweeeeeeeeeeeeeeeeeerrrrerrrrrrrrrrrrrrrrrrrtttrtttttttttttttttttttttttttttytyyyyyyyyyyyyyyyyyyyyyyyyyyyyyyyyyyyyyyyyyyyyyyyyyyyyyyyyyyyyyyyyyyyyyyyyyyyyyyyyyyyyyyyyyyyyyyyyyyyyyyyyyyyyyyyyyytttttttttttttttttttttttttrrrtrrrrrrrrrrrrrrrrrrrrreeerrreeeeeeeeeeweeewwwwwwwwwwwwwqqqqqqqqqqqqqqqqqq000000000000990999999999999898888888888878777777777766666666666655555555555555444444444444333333333332222222212211111111<<<<<<<<<<<<<<,,,,,,,,,,>>>>>>>>:::::::::::;;;;;;;;;;-;----------=========***********&&&&&&&&%%%%%%%%%%%%$$$$$$$$$$#########@@@@@@@+@++++++++++OOOOOOOOOOoooooooooXXXXXXXX...........                                                                                  XAFFFFFFFZZZZZZZZZZZZZZZZZZZZFFFFFFFFFFFFFFFFFFFF",
"FFFFFFFFFFFFFFFFFFFFZZZZZZZZZZZZZZZZZZZZFFFFFFFFB66666776777777777888888888888899999999999999000000000000000000qqqqqqqqqqqqqwwwwwwwwwwwwwwwweeeeeeeeeeeeeerrrrereerrrrrrrrrrrrrrrrrrttttrrttttttttttttttttttttttyyyyyyyytyyyyyyyyyyyyyyyyyyyyyyyyyyyyyyyyyyyyyyyyyyyyyyyyyyyyyyyyyyyyyyyyyyyyyyyyyyyyyyyyyyyyyyyyyyyyyyyyyyyyytyttyyyyttttttttttttttttttttttrrrtrrtrrrrrrrrrrrrrrrrrrrrreerrreeeeeeeeeeeeeewwwwwwwwwwwwwwqqqqqqqqqqqqqqqqq00000000000009999999999999999988888888888877777777777766666666666655555555555554444444444443333333333322222222211111111111<1<<<<<<<<,<<,,,,,,,,>>,>>>>>>>:::::::::::;;;;;;;;;;;---------=============*******&&*&&&&&&&&&%%%%%%%%%$$$$$$$$$#########@##@@@@@@@+@++++++++++OOOOOOOoooooooooXXXXXXXXXXXX.........                                                                                   2FFFFFFFFZZZZZZZZZZZZZZZZZZZZFFFFFFFFFFFFFFFFFFFF",
"FFFFFFFFFFFFFFFFFFFFZZZZZZZZZZZZZZZZZZZZFFFFFFFFFq666667667777777777788888888888899899999999999900000000000000000qqqqqqqqqqqqqwwwwwwwwwwwwwwwweeeeeeeeeeeeeerreeeerrrrrrrrrrrrrrrrrrrrrtrrtrtttttttttttttttttttttttttyyytytttttyyyyyyyyyyyyyyyyyyyyyyyyyyyyyyyyyyyyyyyyyyyyyyyyyyyyyyyyyyyyyyyyyyyyyyyyyyyyyyyyyyyyyyyyytttyyytyttttttttttttttttttttttttttrrttttrrrrrrrrrrrrrrrrrerrrreeeereeeeeeeeeeeeeewwwwwwwwwwwwwwwqqqqqqqqqqqqqq00qq000000000000099999999999999988888888888887777777777777666666666666555555555555444444444444333333333322222222221111111111111<<<<<<<<,<<,,,,,,,,,>>>>>>>>>>:::::::::::;;;;;;;;;-;;-------=============********&&&&&&&&&%&&%%%%%%%%%%$$$$$$$##########@#@@@@@@@+@@+++++++++OOOOOOOooooooooooXXXXXXXXX............                                                                                   dFFFFFFFFZZZZZZZZZZZZZZZZZZZZFFFFFFFFFFFFFFFFFFFF",
"FFFFFFFFFFFFFFFFFFFFZZZZZZZZZZZZZZZZZZZZFFFFFFFFFf6666666677777777777788888888888888899999999999999000000000000000qqqqqqqqqqqqqqwwwwwwwwwwwwwwwweeeeeeeeeeeeeeeeeeerrrrerrrrrrrrrrrrrrrrrrrrtttrtttttttttttttttttttttttttttttttyyyttyyyyyyyyyyyyyyyyyyyyyyyyyyyyyyyyyyyyyyyyyyyyyyyyyyyyyyyyyyyyyyyyyyyyyyyyyyyyyyttyyytttttyyttttttttttttttttttttttttrrtrrrtrrrrrrrrrrrrrrrrrreeeerreeeeeeeeeeeeeeeeeewwwwwwwwwwwwwqqwwwqqqqqqqqqqqq0000000000000000009999999999999988888888888887777777777777666666666666555555555555444444444444333333333332222222222211111111111<<<<<<<<<<<,,,,,,,,,,,>>>>>>>>>>:::::::::::;;;;;;;;-;--------===========***********&&&&&&&&&&%%%%%%%%%%$$$$$$$##########@@@@@@@@@@++++++++++++OOOOOOOoooooooooXXXXXXXXXX...........                                                                                   .CFFFFFFFFZZZZZZZZZZZZZZZZZZZZFFFFFFFFFFFFFFFFFFFF",
"FFFFFFFFFFFFFFFFFFFFZZZZZZZZZZZZZZZZZZZZFFFFFFFFFM666666667777777777778888888888888888899999999999990000000000000qq0qqqqqqqqqqqqwwqqwwwwwwwwwwwweeeeeeeeeeeeeeeeeeeeerrrrrrrrrrrrrrrrrrrrrrrrttrrrtttttttttttttttttttttttttttttyyytttttttttyyyyyyyyyyyyyyyyyyyyyyyyyyyyyyyyyyyyyyyyyyyyyyyyyyyyyyyyyyyyyyyyyttttttttttyyttttttttttttttttttttttttttttrrrrrrrrrrrrrrrrrrrrrrrreeeeeeeeeeeeeeeeeeeeeeeeewwwwwwwwwwwwwwqqqwqqqqqqqqqqqq000000000000000000099999999998899888888888778877777777766676666666665565555555555554444444444443333333323322222222222211111111<11<<<<<<<<,<,,,,,,,,,,,>>>>>>>>>>>::::::::::;;;;;;;;----------==========*************&&&&&&&&&&%%%%%%%%%$$$$$$$$#########@@@@@@@@@@++++++++++++OOOOOOOooooooooooXXXXXXXXXXX.......  .                                                                                   ,FFFFFFFFFZZZZZZZZZZZZZZZZZZZZFFFFFFFFFFFFFFFFFFFF",
"FFFFFFFFFFFFFFFFFFFFZZZZZZZZZZZZZZZZZZZZFFFFFFFFFF9666666677777777777777888888888888899999999999999000000000000000qqqqqqqqqqqqqqqqqqwwwwwwwwwwwwwwweeewweeeeeeeeeeeerreerrrrrrrrrrrrrrrrrrrrrrrrrrrrttttttttttttttttttttttttttttttttyyyytttyyytttyyyyyyyyyyyyyyyyyyyyyyyyyyyyyyyyyyyyyyyyyyyyyyyyyyytyyyyytttyyyttyttttttttttttttttttttttttttttttrrttttrrrrrrrrrrrrrrrrrrrrerrrrrrrreeeeeeeeeeeeeeewwwwwwwwwwwwwwwwwwqqqqqqqqqqqqq0qq00000000000090099999999999899888888888877887777777776776666666666556555555555555444444444444333333333332222222222221111111111<<<<<<<<<,,,,,,,,,,,>>>>>>>>>>::>::::::::;;;;;;;;;;;;;-------=-========**********&&&&&&&&&&%&&%%%%%%%%$$$$$$$$$$$##########@@@@@@@@@@@++++++++OOOOOOOOoooooooooooXXXXXXX...........                                                                                     iFFFFFFFFFZZZZZZZZZZZZZZZZZZZZFFFFFFFFFFFFFFFFFFFF",
"FFFFFFFFFFFFFFFFFFFFZZZZZZZZZZZZZZZZZZZZFFFFFFFFFFs6666666677767777777778888888888888899999999999999999000000000000qqqqqqqqqqqqqqqqqwwwwwwwwwwwwwwwwweeweeeeeeeeeeeerrrererrerrrrrrrrrrrrrrrrrrrrrrrrrttttrtttttttttttttttttttttttttttttttyyyytttyyyyyyyyyttttyyyyyyyyyyyyyyyyyyyyyyyyyyyyyyttttyyyyttyyyytttttttttttttttttttttttttttttttttttttttttrrrrrrrrrrrrrrrrrrrrrrrrerrrrrreeeeeeeeeeeeeeewwwwwwwwwwwwwwqqqwqqqqqqqqqqqqqqq00000000000009990999999999998898888888888777777777777766666666666665555555555554554444444444443333333333322222222222211111111<11<<<<<<<<,,,,,,,,,,,>>>>>>>>>>:::::::::::;;;;;;;;;;;;;--------=-========**********&&&&&&&&&&%&%%%%%%%%%$$$$$$$$$$$#########@@@@@@@@@@+@++++++++OOOOOOOoooooooooXXoXXXXXXX.........                                                                                       BFFFFFFFFFZZZZZZZZZZZZZZZZZZZZFFFFFFFFFFFFFFFFFFFF",
"FFFFFFFFFFFFFFFFFFFFZZZZZZZZZZZZZZZZZZZZFFFFFFFFFFn6666666666766777777777788888888888889999999999999990090000000000000000qqqqqqqqqqqqqwwqqwwwwwwwwwwwwwweeeeeeeeeeeeeeeereeeeerrrrrrrrrrrrrrrrrrrrrrrrrrtrrrrrtttttttttttttttttttttttttttttttttttttyttttytttttyyyyyyttttttyyyyyyttttttytyyttttttttyyttttttttttttttttttttttttttttttttttttttrrtrttrrrrrrrrrrrrrrrrrrrreerrrreeeeeeeeeeeeeeeeeeeeewwwwwwwwwwwwwwqqqqqqqqqqqqqqqqq00qq0000000000000099999999999988888888888888887777777777776666666666665555555555554444444444444443333333333322222222222211111111<<<<<<<<<<<,,,,,,,,,,,,>>>>>>>>>>:::::::::::::;;;;;;;;;;--------===========**********&*&&&&&&&%%%%%%%%%%%%$$$$$$$$#########@##@@@@@@@+@@@@+++++++OOOOOOOooooooooooXXXXXXXXX..........                                                                                      -FFFFFFFFFFZZZZZZZZZZZZZZZZZZZZFFFFFFFFFFFFFFFFFFFF",
"FFFFFFFFFFFFFFFFFFFFZZZZZZZZZZZZZZZZZZZZFFFFFFFFFFD8666666666666777777777778878888888888898899999999999099900000000000000qqqqqqqqqqqqqqwqqqqwwwwwwwwwwwwwweeeeeeeeeeeeeeeeeeeerrrreeerrrrrrrrrrrrrrrrrrrrrrrrrrrrtttttttttttttttttttttttttttttttttttttttttttttttyyyyttttttttyyyyttttttttttttttttttttttttttttttttttttttttttttttttttttrrttttrrrrrrrrrrrrrrrrrrrrrrrreeeerrrreeeeeeeeeeeeeeeeeeewwwwwwwwwwwwwwwqqqqqqqqqqqqqqqq000000000000000000099999999999998888888888888888777777777777666666666656555555555555444444444444443333333333322222222222211111111<<<<<<<<<<<,,,,,,,,,,,,,>>>>>>>>>>>:::::::::::;;;;;;;;;;--------============*********&&&&&&&&&%%%%%%%%%%%%%$$$$$$$#$########@#@@@@@@@@@@++++++++++OOOOOOOoooooooooXXXXXXXXXX.........                                                                                       tFFFFFFFFFFZZZZZZZZZZZZZZZZZZZZFFFFFFFFFFFFFFFFFFFF",
"ZZZZZZZZZZZZZZZZZZZZFFFFFFFFFFFFFFFFFFFFZZZZZZZZZZZi566666666666777777777777887888888888889989999999999999000000000000000qqqqqqqqqqqqqqqqqqqwwwwwwwwwwwwwwwwwweeeeeeeeeeeeeeeerreeeerrrrrrrrrrrrrrrrrrrrrrrrrrrttttttrrttttttttttttttttttttttttttttttttttttttttttttttttttttttttttttttttttttttttttttttttttttttttttttttttttttttttrrrrrttttrrrrrrrrrrrrrrrrrrrrrrrrreeerrrreeeeeeeeeeeeeeeeeeewwwwwwwwwwwwwwwwwqqqqqqqqqqqqqqqq00000000000000000099999999999999988888888888877777777777667766666666666655555555555554444444444443333333333322222222221111111111<<1<<<<<<<<<,<,,,,,,,,,,,>>>>>>>>>>>::::::::;;;;;;;;;;;;;-------=--==========********&&&&&&&&&&%&%%%%%%%%%%$$$$$$$$#$#######@@@@@@@@@@++++++++++O+OOOOOOOOOooooooooXoXXXXXXXX...........                                                                                     vZZZZZZZZZZFFFFFFFFFFFFFFFFFFFFZZZZZZZZZZZZZZZZZZZZ",
"ZZZZZZZZZZZZZZZZZZZZFFFFFFFFFFFFFFFFFFFFZZZZZZZZZZZz5666666666667667777777777887888888888889888999999999990000000000000000qqqqqqqqqqqqqqqqqqwwwwwwwwwwwwwwwwwweeeeeeeeeeeeeeeerreeeerrrrererrrrrrrrrrrrrrrrrrrrrrrtttrrrrrtrttttttttttttttttttttttttttttttttttttttttttttttttttttttttttttttttttttttttttttttttttttttttttttttrrtrrtrrrrrrrrrrrrrrrrrrrrrrrrrrrrrrrrreeeerrreeeeeeeeeeeeeeeewwwwwwwwwwwwwwwwwwwwqqqqqqqqqqqqqqqq00000000000009090999999999999998888888888888877777777777666666666666665555555555545544444444444433333333333222222222222111111111<<<<<<<<<<<<<,,,,,,,,,,,>>>>>>>>>>>::::::::;;;;;;;;;;-----------=-==========*********&&&&&&&&&&&%%%%%%%%$$$$$$$$$$##########@@@@@@@@@+++++++++++OOOOOOOOOOOoooooooXXXXXXXXXXX.........                                                                                      *ZZZZZZZZZZZFFFFFFFFFFFFFFFFFFFFZZZZZZZZZZZZZZZZZZZZ",
"ZZZZZZZZZZZZZZZZZZZZFFFFFFFFFFFFFFFFFFFFZZZZZZZZZZZV755566666666676667777777777788888888888889889999999999990090000000000000q0q0qqqqqqqqqqqqqwqqqwwwwwwwwwwwwwwweeeeeeeeeeeeeeeeeeeeererrrerrrrrrrrrrrrrrrrrrrrrrrrrrrrrrrrrtttrtrtttttttttttttttttttttttttttttttttttttttttttttttttttttttttttttttttttttttttttttttttttrtttrrrttttrrrrrrrrrrrrrrrrrrrrrrrreererrrreeeeeeeeeeeeeeeeeeeeeewwwwwwwwwwwwwwwqqqwwqqqqqqqqqqqqq0qqq0000000000000999999999999998899888888888888887777777777667666666666656655555555554444444444444443333333333322222222212111111111111<<<<<<<<<<<,,,,,,,,,,,>>>>>>>>:>:::::::::;;;;;;;;;;-----------==========*==**********&&&&&&&&&&%%%%%%%%$%$$$$$$$$$$#########@@@@@@@@@++++++++++OOOOOOOOOOooooooooooXXXXXXXXX.........                                                                                      eZZZZZZZZZZZFFFFFFFFFFFFFFFFFFFFZZZZZZZZZZZZZZZZZZZZ",
"ZZZZZZZZZZZZZZZZZZZZFFFFFFFFFFFFFFFFFFFFZZZZZZZZZZZZi5556666666666666677777777778888888888888888999999999999909990000000000000qq0qqqqqqqqqqqqqqwqqqwwwwwwwwwwwwwweeeeeeeeeeeeeeeeeeeeeeeeeeerrrrrrrrrrrrrrrrrrrrrrrrrrrrrrrrtttrtrrrrrttttttttttttttttttttttttttttttttttttttttttttttttttttttttttttttttttttttttttrrrrrrtttrrrrrrrrrrrrrrrrrrrrrrrrrrrrrreeeeeerreeeeeeeeeeeeeeeeeeeeewwwwwwwwwwwwwwwqqqqqqqqqqqqqqqqqq000q00000000000000099999999999999888888888888888877777777777666666666666665655555555555444444444444443333333322322222222222211111111<11<<<<<<<<<,<,,,,,,,,,>>>>>>>>>>:>:::::::::;;;;;;;;;;;-------------=======**=**********&&&&&&&&&&%%%%%%%%%$$$$$$$$$$$##########@@@@@@@@@++++++++++OOOOOOOOOOoooooooooXXXXXXXXXX.........                                                                                      bZZZZZZZZZZZFFFFFFFFFFFFFFFFFFFFZZZZZZZZZZZZZZZZZZZZ",
"ZZZZZZZZZZZZZZZZZZZZFFFFFFFFFFFFFFFFFFFFZZZZZZZZZZZZx55666666666666677777777777778778888888888889999999999999999999000000000000000qqqqqqqqqqqqqqqqwwwwwwwwwwwwwwwwwwweeeeeeeeeeeeeeeeeerrrrrrrrrrrrrrrrrrrrrrrrrrrrrrrrrrrrrrrrrrrrrrrrtttttrrttttttttttttttttttttttttttttttttttttttttttttttttttttttttrrrrttttttrrrttrrrrrrrrrrrrrrrrrrrrrrrrrrrrrrrrrrrreerreeeeeeeeeeeeeeeeeeeewwwwwwwwwwwwwwwwqqqwqqqqqqqqqqqqqqq0000000000000000990099999999999999988888888888887777777777767776666666665555555555555555444444444444333333333333222222222222111111111<1<<<<<<<<<,,<,,,,,,,,,>>>>>>>>>>::::::::::;::;;;;;;;;----------=--==========**********&&&&&&&&%%%%%%%%%%%$$$$$$$$$##########@@@@@@@@@+@@+++++++++OOOOOOOOooooooooooXoXXXXXXXXX.........                                                                                      =ZZZZZZZZZZZZFFFFFFFFFFFFFFFFFFFFZZZZZZZZZZZZZZZZZZZZ",
"ZZZZZZZZZZZZZZZZZZZZFFFFFFFFFFFFFFFFFFFFZZZZZZZZZZZZC85566666666666667777777777777778888888888888999999999999999999900000000000000qqqqqqqqqqqqqqqqqwwwwwwwwwwwwwwwwwwwweeeeeeeeeeeeeeeeeeerreeeeerrerrrrrrrrrrrrrrrrrrrrrrrrrrrrrrrrrrrtttttrrttrrrrtttrttrttttttttttttttttttttttttttttttttrtttttttttrrrrrtrtttrrrrrrrrrrrrrrrrrrrrrrrrrrrrrrreeeerrrreerrrreeeeeeeeeeeeeeeeeeewwwwwwwwwwwwwwwwqqqqqqqqqqqqqqqqqqqqq000000000000009999999999999999899888888888888888777777777766766666666665555555555555555544444444444333333333333222222222222111111111<<<<<<<<<<<,,,,,,,,,,,,,>>>>>>>>>:::::::::::;;;;;;;;;;;---------============*********&**&&&&&&&%%%%%%%%%%%%%$$$$$$$##########@@@@@@@@@@+@++++++++++OOOOOOOooooooooooXXXXXXXXXXXX....... .                                                                                      rZZZZZZZZZZZZFFFFFFFFFFFFFFFFFFFFZZZZZZZZZZZZZZZZZZZZ",
"ZZZZZZZZZZZZZZZZZZZZFFFFFFFFFFFFFFFFFFFFZZZZZZZZZZZZZp55556666666666666666777777777788888888888888999899999999999990000000000000000q000qqqqqqqqqqqqqqqwqwwwwwwwwwwwwwwwwwwwweeeeeeeeeeeeeeeeeeeeeeeeerrrrrreerrrrrrrrrrrrrrrrrrrrrrrrrrrrrrrrrrrrrrrttrrtrrrrrttttttrrrrrrrrttttrrttttttrrrrrtrrtttrrrrrrrrrrrrrrrrrrrrrrrrrrrrrrrrrrrrrrrrreeeeeeeeeeeeeeeeeeeeeeeeeeeeeewwwwwwwwwwwwwwwwwwqqqqwqqqqqqqqqqqqqq0qqqq00000000000000009999999999998888888888888888777777777777777766666666666565555555555455454444444444333333333233222222222222111111111<<<<<<<<<<<<<,,,,,,,,,>,,>>>>>>>>::::::::::::;;;;;;;;;;;;--------==========*************&&&&&&&&&&%%%%%%%%%%$$$$$$$#$#########@@@@@@@@@@+@+++++++++OOOOOOOooooooooooXXXXXXXXXXXX.......                                                                                         nZZZZZZZZZZZZFFFFFFFFFFFFFFFFFFFFZZZZZZZZZZZZZZZZZZZZ",
"ZZZZZZZZZZZZZZZZZZZZFFFFFFFFFFFFFFFFFFFFZZZZZZZZZZZZZv5555565666666666666667777777777788888888888888998899999999999900000000000000000000qqqqqqqqqqqqqqqqqqqwwwwwwwwwwwwwwwwwweeeeeeeeeeeeeeeeeeeeeeeeerrerreeeerrrrrrrrrrrrrrrrrrrrrrrrrrrrrrrrrrrrrrrrrrrrrrrrrrrrtrrrrttrrrtrrrrrrrrrrrrrrrrrrrrrrrrrrrrrrrrrrrrrrrrrrrrrrrrrrrrrrreeerrrreeeeeeeeeeeeeeeeeeeeeeeeeeeeewwwwwwwwwwwwwwwwwwwqqqqqqqqqqqqqqqqqqqq000000000000000900099999999999998888888888888888777777777777777666666666666555555555555454444444444443333333333322222222222221111111111<<<<<<<<<<,,<,,,,,,,,>>,>>>>>>>>>::::::::::;:;;;;;;;;;;---------==========***********&&&&&&&&&&&&%%%%%%%%%%$$$$$$$$#$#########@@@@@@@@@@+++++++++++OOOOOOOoooooooooXXXXXXXXXX.X........                                                                                        :ZZZZZZZZZZZZZFFFFFFFFFFFFFFFFFFFFZZZZZZZZZZZZZZZZZZZZ",
"ZZZZZZZZZZZZZZZZZZZZFFFFFFFFFFFFFFFFFFFFZZZZZZZZZZZZZC955556665666666666667777777777777877888888888889998999999999999000900000000000000q0q0qqqqqqqqqqqqqqwwwwwwwwwwwwwwwwwwwwwwweeeeeeeeeeeeeeeeeeeeeerrrrreerrrrrrrrrrrrrrrrrrrrrrrrrrrrrrrrrrrrrrrrrrrrrrrrrrrrrrrrrrrrrrrrrrrrrrrrrrrrrrrrrrrrrrrrrrrrrrrrrrrrrrrrrrrrrrrrrrrrrrrerrrrerrrerrereeeeeeeeeeeeeeeeeeeewwwwwwwwwwwwwwwwwwwwwwqqqqqqqqqqqqqqq00qqq0000000000000999099999999999999988888888888887877777777777777666666666655555555555555555444444444444333333333333222222222211111111111<<<<<<<<<<<<<<,,,,,,,,>,>>>>>>>>>>>>::::::::;::;;;;;;;;-----------===========*********&*&&&&&&&&%&%%%%%%%%%$$$$$$$$$$$##########@@@@@@@@@@@++++++++OOOOOOOOOoooooooooXXXXXXXXX.......... .                                                                                       uZZZZZZZZZZZZZFFFFFFFFFFFFFFFFFFFFZZZZZZZZZZZZZZZZZZZZ",
"ZZZZZZZZZZZZZZZZZZZZFFFFFFFFFFFFFFFFFFFFZZZZZZZZZZZZZZa55555555666666666667777777777777777888888888888898989999999999990999000000000000000000qqqqqqqqqqqqqqqwwwqqwwwwwwwwwwwwwwwwweeeeeeeeeeeeeeeeeeeeeerrreeeeeerrrrrrrrrerrrrrrrrrrrrrrrrrrrrrrrrrrrrrrrrrrrrrrrrrrrrrrrrrrrrrrrrrrrrrrrrrrrrrrrrrrrrrrrrrrrrrrrrrrrrrrrrrrrrrrrrreeeeeerrrreeeeeeeeeeeeeeeeeeeeeeeewwwwwwwwwwwwwwwwqqwwwqqqqqqqqqqqqqqqq0qq0000000000000099999999999999999998888888888888777777777777766666666666665565555555555555444444444444433333333333322222222222211111111111<<<<<<<<<,<<,,,,,,,,>>,>>>>>>>>:>:::::::::;;;;;;;;;;;-;---------============********&&*&&&&&&&%%&%%%%%%%%%$$$$$$$$$$###########@@@@@@@@@@@++++++++OOOOOOOOOoooooooooXXXXXXXXX.........  .                                                                                      .MZZZZZZZZZZZZZFFFFFFFFFFFFFFFFFFFFZZZZZZZZZZZZZZZZZZZZ",
"ZZZZZZZZZZZZZZZZZZZZFFFFFFFFFFFFFFFFFFFFZZZZZZZZZZZZZZb555555566666666666667766777777777778888888888888899889999999999999999000000000000000q0q0qqqqqqqqqqqqqqqqqqwqwwwwwwwwwwwwwwwwwweeeeeeeeeeeeeeeeeeeeeeereeeeeeeerrreeeerrrrrrrrrrrrrrrrrrrrrrrrrrrrrrrrrrrrrrrrrrrrrrrrrrrrrrrrrrrrrrrrrrrrrrrrrrrrrrrrrrrrrrrrrrereerrrrrrrreeeeeeeeeeeeeeeeeeeeeeeeeeeeeeewwwwwwwwwwwwwwwwwwwqqqqqqqqqqqqqqqqqqq00000000000000000090000999999999999999988888888888888777777777777666666666666666655555555555554444444444444333333333332222222222221111111111111<<<<<<<<,,<,,,,,,,,>>>>>>>>>>>::::::::::::;;;;;;;;;;--;----------========*==*******&&&&&&&&&&&%%%%%%%%%%%%$$$$$$$$$$##########@@@@@@@+@@@@++++++++OOOOOOOOOooooooooooXXXXXXX...........                                                                                        >ZZZZZZZZZZZZZZFFFFFFFFFFFFFFFFFFFFZZZZZZZZZZZZZZZZZZZZ",
"ZZZZZZZZZZZZZZZZZZZZFFFFFFFFFFFFFFFFFFFFZZZZZZZZZZZZZZZ0555555566666666666666766777777777778888888888888888899999999999999990000000000000000qq000qqqqqqqqqqqqqqqwwqqqwwwwwwwwwwwwwwwwwweeeeeeeeeeeeeeeeeeeeeeeeeeeeeeeeeeeeerrrrrreeerrrrrrrrrrrrrrrrrrrrrrrrrrrrrrrrrrrrrrrrrrrrrrrrrrrrrrrrrrrrrrrrrrrrrrrrreeeeerrreeeeeerrreereeeeeeeeeeeeeeeeeeeeeeeeeeewwwwwwwwwwwwwwwwwwwwwqqqqqqqqqqqqqqqqqqq000000000000000000099009999999999998888888888888888888777777777776666666666666666655555555555554444444444444333333333333222222222222111111111<11<<<<<<<<,,,,,,,,,,,>>>>>>>>>>>>::::::::::::;;;;;;;;;-------------=========*=********&&&&&&&&&&%%%%%%%%%%%%$$$$$$$$##########@#@@@@@@@@+++@++++++++OOOOOOOOOOoooooooooXXXXXXXX...........                                                                                        aZZZZZZZZZZZZZZFFFFFFFFFFFFFFFFFFFFZZZZZZZZZZZZZZZZZZZZ",
"ZZZZZZZZZZZZZZZZZZZZFFFFFFFFFFFFFFFFFFFFZZZZZZZZZZZZZZZf5555555566556666666666667777777777777777888888888888999999999999999900990000000000000000qqqqqqqqqqqqqqqqqqqqqwwwwwwwwwwwwwwwwwwwwwwwwweeeeeeeeeeeeeeeeeeeeeeerrrerrrrreerrrrrrrrrrrrrrrrrrrrrrrrrrrrrrrrrrrrrrrrrrrrrrrrrrrrrrrrrrrrrrrrrrrrrrrrrrreeerrrrrrrrererrrrreeeeeeeeeeeeeeeeeeeeeeeeeeeewwwwwwwwwwwwwwwwwwwwwwqqqqqqqqqqqqqqqqqqqq0q0000000000000000000099999999999989998888888888888877777777777777766666666666556555555555555554444444444444333333333333222222222222111111111<<<<<<<<<<<,,,,,,,,,,,>>>>>>>>>>>>>::::::::::::;;;;;;;;;;---------==========***********&&&&&&&&&&&&&%%%%%%%%%%$$$$$$$$###########@@@@@@@@++@+++++++++OOOOOOOOoooooooooXXXXXXXXXX..........                                                                                         oBZZZZZZZZZZZZZZFFFFFFFFFFFFFFFFFFFFZZZZZZZZZZZZZZZZZZZZ",
"ZZZZZZZZZZZZZZZZZZZZFFFFFFFFFFFFFFFFFFFFZZZZZZZZZZZZZZZM5555555555655666666666666767777777777788888888888888899989999999999999090000000000000000qqqq0qqqqqqqqqqqqqqqqqwwwwqwwwwwwwwwwwwwwwwwwwweeeeeeeeeeeeeeeeeeeeeeeeeeerreeeereeeeerrrrrerrrrrreerrrreerrrrrrrrrrrrrrrrrrrrrrrrrrrrrrrrrerrrreerrrrrrrrrreererreeeerreerreeeeeeeeeeeeeeeeeeeeeeeeeeewwwwwwwwwwwwwwwwwwwwqwwwwqqqqqqqqqqqqqqqqqqqq00000000000000009900999999999999988898888888888888877777777777766776666666666555555555555544554444444444443333333333333222222222222111111111<<<<<<<<<<<,,,,,,,,,,,,>>>>>>>>>>>>>:::::::::::;;;;;;;;;;;--------===========**********&&&&&&&&&&&&&%%%%%%%%%%$$$$$$$$$###########@@@@@@@+++++++++++++OOOOOOOooooooooooXXXXXXXXXX.........                                                                                          5ZZZZZZZZZZZZZZZFFFFFFFFFFFFFFFFFFFFZZZZZZZZZZZZZZZZZZZZ",
"ZZZZZZZZZZZZZZZZZZZZFFFFFFFFFFFFFFFFFFFFZZZZZZZZZZZZZZZZr5555555555555666666666666667777777777788888888888888889998999999999999999990000000000000000000qqqqqqqqqqqqqqqqqwqqqqqwwwwwwwwwwwwwwwwwwewweeeeeeeeeeeeeeeeeeeeeeeeeeeeerreeeererreeeerreeeerrrreeereerrrerreeeeeerrrrrrrreeeerrrreerrrreeereererrrreeeereeeeeeeeeeeeeeeeeeeeeeeeeeeeeeeeewwwwwwwwwwwwwwwwwwwwwwqqqqqqqqqqqqqqqqqqqqqqqqqqqq000000000000009900999999999999998888888888888887887777777777777666666666666666555555555555444444444444444333333333333322222222212111111111111<<<<<<<<<<,<,,,,,,,,,>>>>>>>>>>>:>>::::::::::;;;;;;;;;;---------============**********&*&&&&&&&&&&%%%%%%%%%$$$$$$$$$$$##########@@@@@@@@@+++++++++++OOOOOOOOOoooooooooXoXXXXXXXXX..........                                                                                        kZZZZZZZZZZZZZZZFFFFFFFFFFFFFFFFFFFFZZZZZZZZZZZZZZZZZZZZ",
"ZZZZZZZZZZZZZZZZZZZZFFFFFFFFFFFFFFFFFFFFZZZZZZZZZZZZZZZZk4555555555555666666666666667777777777777888788888888888898889999999999999990000000000000000000000qqqqqqqqqqqqqqqqqqqqqqwwwwwwwwwwwwwwwweewwwweeeeeeeeeeeeeeeeeeeeeeeeeeeeeeeerreeeeeerreeeerrreeeeeeeeerrrreeeeeerrrrrrrreeeerrrreeeerreeeeeeeerrrreeeeeeeeeeeeeeeeeeeeeeeeeeeeeeeeeeeewwwwwwwwwwwwwwwwwwwwwwwwqqqqqqqqqqqqqqqqqqqqqqq00000000000000000999999999999999999998888888888888788877777777777667766666666666665555555555554444444444444443333333333333222222222222111111111111<<<<<<<<<<,,,,,,,,,,>,>>>>>>>>>::>:::::::::::;;;;;;;;;;--------=============*********&&&&&&&&&&&&%%%%%%%%%%%$$$$$$$$$$##########@@@@@@@@@@+++++++++OOOOOOOOOooooooooooXXXXXXXX.XX.........                                                                                        $CZZZZZZZZZZZZZZZFFFFFFFFFFFFFFFFFFFFZZZZZZZZZZZZZZZZZZZZ",
"ZZZZZZZZZZZZZZZZZZZZFFFFFFFFFFFFFFFFFFFFZZZZZZZZZZZZZZZZV6455555555555666666666666667777777777777788888888888888888899999999999999900099000000000000000q00qqqqqqqqqqqqqqqqqqqqwwqwwwwwwwwwwwwwwwwwwwwwwwwweeeewweeeeeeeeeeeeeeeeeeeeeeeeeeeeeeeeeerrrreerrrreeeerrrreeeeeerrrreeeeeerrrreeeeeeerrrrreeeeeeeeeeeeeeeeeeeeeeeeeeeeeeeeeeeeeeeewwwwwwwwwwwwwwwwwwwwwwqqqwwwqqqqqqqqqqqqqqqqqqqqqq00000000000000000099999999999999989999888888888888788777777777777767666666666666665555555555555544444444444443333333333332222222222211111111111111<<<<<<<<<,,,,,,,,,,,>>>>>>>>>>>:::::::::::;;;;;;;;;;;;;;--------=-===========*********&&&&&&&&&%&%%%%%%%%$$%$$$$$$$##########@@@@@@@@@@@@@++++++++++OOOOOOOOOOoooooooooXXXXXXXX.X.......  .                                                                                        wZZZZZZZZZZZZZZZZFFFFFFFFFFFFFFFFFFFFZZZZZZZZZZZZZZZZZZZZ",
"ZZZZZZZZZZZZZZZZZZZZFFFFFFFFFFFFFFFFFFFFZZZZZZZZZZZZZZZZZi445555555555566666666666666777677777777777888788888888888899999999999999999090990000000000000000qqqqqqqqqqqqqqqqqqqqqqqqwwwwwwwwwwwwwwwwwwwwwwwwwwwwwweeeeeeeeeeeeeeeeeeeeeeeeeeeeeeeeeeeeeeeeeerreeeerrrrreeeeerrereeeeeerrrreeeeeeeeeeeeeeeeeeeeeeeeeeeeeeeeeeeeeeeeeeeeeeewwwwwwwwwwwwwwwwwwwwwwwwqwwqqwwqqqqqqqqqqqqqqqqqq00q0q00000000000000000009999999999999988998888888888888888777777777776776666666666665565555555555555544444444444443333333333332222222222222111111111<<<<<<<<<<<,<,,,,,,,,,,>>>>>>>>>>>:::::::::::;;;;;;;;;;;--;--------=-===========**********&&&&&&&&%&%%%%%%%%$$%$$$$$$$$#$########@@@@@@@@@@@@++++++++++OOOOOOOOOOooooooooooXXXXXXX..........                                                                                           bZZZZZZZZZZZZZZZZFFFFFFFFFFFFFFFFFFFFZZZZZZZZZZZZZZZZZZZZ",
"ZZZZZZZZZZZZZZZZZZZZFFFFFFFFFFFFFFFFFFFFZZZZZZZZZZZZZZZZZc4555555555555555556666666666676677777777777777888888888888888888999999999999909099000000000000000qq000qqqqqqqqqqqqqqqqqqqqwqqqwwwwwwwwwwwwwwwwwwwwwwwwwwweeeeeeeeeeeeeeeeeeeeeeeeeeeeeeeeeeeeeeeeeeeeeeeeeeeeeeeeeeeeeeeeeeeeeeeeeeeeeeeeeeeeeeeeeeeeeeeeeeeeeeeeeeeeeeeewwwwwwwwwwwwwwwwwwwwwwwwwqqqqqqqqqqqqqqqqqqqqqqqqq0qq0000000000000000000090999999999999999988888888888888888877777777777766766666666666665555555555555554444444444444333333333333322222222222111111111111<<<<<<<<<<,,<,,,,,,,,,,,,>>>>>>>>:::::::::::;;;;;;;;;;;;-------------==========***********&&&&&&&%%%%%%%%%%%%%$$$$$$$$##########@@@@@@@@@@@@++++++++++OOOOOOOOOOooooooooooXXXXXXX..........                                                                                           :ZZZZZZZZZZZZZZZZZFFFFFFFFFFFFFFFFFFFFZZZZZZZZZZZZZZZZZZZZ",
"ZZZZZZZZZZZZZZZZZZZZFFFFFFFFFFFFFFFFFFFFZZZZZZZZZZZZZZZZZC945555555555555555566666666666666677777777777788888888888888888888999999999999909990000000000000000000qq0qqqqqqqqqqqqqqqqqqqwwwwqqqwwwwwwwwwwwwwwwwwwwwwwwweeeeeeeeeeeeeeeeeeeeeeeeeeeeeeeeeeeeeeeeeeeeeeeeeeeeeeeeeeeeeeeeeeeeeeeeeeeeeeeeeeeeeeeeeeeeeeeeeeeeeeeeewwwwwwwwwwwwwwwwwwwwwwwwwwwwwwqqqqqqqqqqqqqqqqqqqqqq0000qq0000000000000009999999999999999999999888888888888888888777777777777767666666666665555555555555545544444444444443333333333333222222222222111111111<<<<<<<<<<<<,,,,,,,,,,,,,,,>>>>>>>>::::::::::::;;;;;;;;;;--------------========*************&&&&&&&&%%%%%%%%%%%%%$$$$$$$############@@@@@@@@+@@++++++++++OOOOOOOoOooooooooooXXXXXXXX.........                                                                                            iZZZZZZZZZZZZZZZZZFFFFFFFFFFFFFFFFFFFFZZZZZZZZZZZZZZZZZZZZ",
"FFFFFFFFFFFFFFFFFFFFZZZZZZZZZZZZZZZZZZZZFFFFFFFFFFFFFFFFFFh445555555555555566666666666666677777777777777777788888888888889999999999999999990099000000000000000000000qqqqqqqqqqqqqqqqqqqqqqwwwwqqqwwwwwwwwwwwwwwwwwwwwwwwwwwwwwweeeeeeeeeeeeeeeeeeeeeeeeeeeeeeeeeeeeeeeeeeeeeeeeeeeeeeeeeeeeeeeeeeeeeeeeeeeeeweeeeeeewwwewwwwwwwwwwwwwwwwwwwwwwwwwwwwwqwwwwwwqqqqqqqqqqqqqqqqqqqqq00qq00000000000000000009999999999999999889988888888888888887777777777777777666666666665655555555555555554444444444444333333333333322222222211211111111111<<<<<<<<<<<<<,,,,,,,,,,,>>>>>>>>>>>:::::::::;;;;;;;;;;;-;;--------==-========************&&&&&&&&&&&&%%%%%%%%%$$$$$$$$$$$########@@@@@@@@@@+@+++++++++OOOOOOOOooOooooooooXXXXXXXXXXX.........                                                                                          oAFFFFFFFFFFFFFFFFFZZZZZZZZZZZZZZZZZZZZFFFFFFFFFFFFFFFFFFFF",
"FFFFFFFFFFFFFFFFFFFFZZZZZZZZZZZZZZZZZZZZFFFFFFFFFFFFFFFFFFC544555555555555555556666666666667777777777777777788888888888888899989999999999999900000000000000000000000qqqqqqqqqqqqqqqqqqqqqqqqqwqqwwqwwwwwwwwwwwwwwwwwwwwwwwwwwwwwwwwweeeeeeeeeeeeeeeeeeeeeeeeeeeeeeeeeeeeeeeeeeeeeeeeeeeeeeeeeeeeeeeeeeeeeeeewweeeeeewwwwwwwwwwwwwwwwwwwwwwwwwwwwwwqqqqwwwqqqqqqqqqqqqqqqqqqqq00000q0000000000000000900009999999999999999889888888888888888877777777777767776666666666655655555555555555444444444444443333333333323222222222111111111111<11<<<<<<<<<,<<,,,,,,,,,>,,>>>>>>>>>>:::::::::;;;;;;;;;;;;----------=============**********&&&&&&&&&&&&%%%%%%%%%%$$$$$$$$#$########@@@@@@@@@@++++++++++++OOOOOOOOoooooooooooXXXXXXXX.XX.........                                                                                          8FFFFFFFFFFFFFFFFFFZZZZZZZZZZZZZZZZZZZZFFFFFFFFFFFFFFFFFFFF",
"FFFFFFFFFFFFFFFFFFFFZZZZZZZZZZZZZZZZZZZZFFFFFFFFFFFFFFFFFFFu444454455555555555665666666666666676777777777777888888888888888889988999999999999999009990000000000000000q00qqqqqqqqqqqqqqqqqqqqqqqqqqqqwwwwwwwwwwwwwwwwwwwwwwwwwwwwwwwwwwwwwwwweeeeeeeeeeeeeeeeeeeeeeeeeeeeeeeeeeeeeeeeeeeeeeeeeeeeeeeeweweeewwwwwwwwwwwwwwwwwwwwwwwwwwwwwwwwwwwqqqwwwqqqqqqqqqqqqqqqqqqqqqqqq00000000000000000000009999999999999999999999988888888888888888877777777777666666666666666555555555555555555444444444444443333333333332222222222221111111111<<<<<<<<<<<<<,,,,,,,,,,,>>,>>>>>>>>:>>::::::::::;;;;;;;;;;-----------==========*==***********&&&&&&&&&&%%%%%%%%%%$$$$$$$$$#########@@@@@@@@@@@++++++++++++OOOOOOOooooooooooooXXXXXXXXX...........                                                                                          bFFFFFFFFFFFFFFFFFFZZZZZZZZZZZZZZZZZZZZFFFFFFFFFFFFFFFFFFFF",
"FFFFFFFFFFFFFFFFFFFFZZZZZZZZZZZZZZZZZZZZFFFFFFFFFFFFFFFFFFFb444444445555555555565566666666666666667777777777778888888888888888889888999999999999990999900000000000000000qqq000qqqqqqqqqqqqqqqqqqqqqqwwwwqqqqwwwwwwwwwwwwwwwwwwwwwwwwwwwwwwwwwwwwwwwwwwweeeeeeeeeeeeeeeeeeeeeeeeeeeeeeeeeeeeeeeewweewwwwwwwwwwwwwwwwwwwwwwwwwwwwwwwwwwwwwwwwwqqqqwwqqqqqqqqqqqqqqqqqqqqqqqqqq000000000000000000009999999999999999998889988888888888888888777777777777666666666666666655555555555554555444444444444433333333333332222222222222111111111<<<<<<<<<<<<,<<,,,,,,,,,>>>>>>>>>>>::>:::::::::::;;;;;;;;;;----------=-========**=***********&&&&&&&&&&%%%%%%%%%%%$$$$$$$$$$#######@@@@@@@@@@+@+++++++++++OOOOOOOooooooooooXooXXXXXXXXXX.........                                                                                          -DFFFFFFFFFFFFFFFFFFZZZZZZZZZZZZZZZZZZZZFFFFFFFFFFFFFFFFFFFF",
"FFFFFFFFFFFFFFFFFFFFZZZZZZZZZZZZZZZZZZZZFFFFFFFFFFFFFFFFFFFD944444554555555555555555666666666666777777777777777777778888888888888888999999999999999900009000000000000000000q0000qqqqqqqqqqqqqqqqqqqqqqqqqqwwwwqqwwwwwwwwwwwwwwwwwwwwwwwwwwwwwwwwwwwwwwwwwwwwwwwwwwwwwwwwwwwwwwwwwwwwwwwwwwwwwwwwwwwwwwwwwwwwwwwwwwwwwwwwwwwwwwwwwwwwwwwwwwwwqqqqqqqqqqqqqqqqqqqqqqqqqqqqqqq000000000000000009000999999999999999998889888888888888888777777777777777767666666666666665555555555554444444444444444433333333333332222222222221111111111<11<<<<<<<<<,,,,,,,,,,,,>,,>>>>>>>>>:::::::::::::;;;;;;;;;;;----------===========*********&&&&&&&&&&&%%%%%%%%%%%$$$$$$$$$$$$########@@@@@@@@@@@@++++++++OOOOOOOOOOoooooooooooXXXXXXXX..........                                                                                             aFFFFFFFFFFFFFFFFFFFZZZZZZZZZZZZZZZZZZZZFFFFFFFFFFFFFFFFFFFF",
"FFFFFFFFFFFFFFFFFFFFZZZZZZZZZZZZZZZZZZZZFFFFFFFFFFFFFFFFFFFFf444455445455555555555555566666666666777677777777777777888888888888888889999999999999999990090990000000000000000000000qqqqqqqqqqqqqqqqqqqqqqqqqqwwqqwwqqwqwwwwwwwwwwwwwwwwwwwwwwwwwwwwwwwwwwwwwwwwwwwwwwwwwwwwwwwwwwwwwwwwwwwwwwwwwwwwwwwwwwwwwwwwwwwwwwwwwwwwwwwwwqqqqqqqwwwqqqqqqqqqqqqqqqqqqqqqqqq0000qqq000000000000000000999909999999999999999988888888888888888888777777777777777766666666666666665555555555554444444444444444333333333333322222222222221111111111<<<<<<<<<<<<,,,,,,,,,,,,>>>>>>>>>>>>:::::::::::::;;;;;;;;;;;----------=========*=********&&&&&&&&&&&%%%%%%%%%%%%$$$$$$$$$$$########@@@@@@@@@@@@@++++++++OOOOOOOOOOoooooooooXoXXXXXXXX..........                                                                                            oAFFFFFFFFFFFFFFFFFFFZZZZZZZZZZZZZZZZZZZZFFFFFFFFFFFFFFFFFFFF",
"FFFFFFFFFFFFFFFFFFFFZZZZZZZZZZZZZZZZZZZZFFFFFFFFFFFFFFFFFFFFM54444444544555555555555555666666666666666777777777777788888888888888888888888999999999999999999990000000000000000000000000qqqqqqqqqqqqqqqqqqqqqqqqqwqqqwwwwwwqqwwwwwwwwwwwwwwwwwwwwwwwwwwwwwwwwwwwwwwwwwwwwwwwwwwwwwwwwwwwwwwwwwwwwwwwwwwwwwwwwwwwwwwwwwwwwwwwwqqqqqqqqqqqqqqqqqqqqqqqqqqqqqqqqqqqq0000000000000000000000009999999999999999999999999888888888888888888777777777777677766666666666666655555555555555544444444444443333333333333322222222222211111111111<1<<<<<<<<<<<<,,,,,,,,,,>,>>>>>>>>>>>:::::::::;::;;;;;;;;;-;--------=--===========********&&&&&&&&&&&&&%%%%%%%%%%$$$$$$$$$$$##########@@@@@@@@@@+++++++++OOOOOOOOOOOoooooooXXoXXXXXXX..........                                                                                             5FFFFFFFFFFFFFFFFFFFFZZZZZZZZZZZZZZZZZZZZFFFFFFFFFFFFFFFFFFFF",
"FFFFFFFFFFFFFFFFFFFFZZZZZZZZZZZZZZZZZZZZFFFFFFFFFFFFFFFFFFFFZt4444444444555555555555556556666666666666667777777777777888888888888888888998889999999999999999999900000000000000000000qq000qqqqqqqqqqqqqqqqqqqqqqqqqqqqwwwwwqqqqwqqqwwwwwwwwwwwwwwwwwwwwwwwwwwwwwwwwwwwwwwwwwwwwwwwwwwwwwwwwwwwwwwwwwwwwwwwwwwwwwwwwwwqqqqwwwwqqqqqqqqqqqqqqqqqqqqqqqqqqqqqq00qqqq00000000000000000000009999999999999999999988989888888888888888888777777777777666666666666666656665555555555544554444444444444333333333323322222222222221111111111<11<<<<<<<<<,<<,,,,,,,,,>,,>>>>>>>>::>:::::::::;;:;;;;;;;;------------=-========************&&&&&&&&&&&&%%%%%%%%%%$$$$$$$$#############@@@@@@@@@@++++++++++OOOOOOOOOOooooooooXXXXXXXXXXX........                                                                                              zFFFFFFFFFFFFFFFFFFFFZZZZZZZZZZZZZZZZZZZZFFFFFFFFFFFFFFFFFFFF",
"FFFFFFFFFFFFFFFFFFFFZZZZZZZZZZZZZZZZZZZZFFFFFFFFFFFFFFFFFFFFZx4444444444555555555555556665666666666666677777777777777778888888888888888889999999999999999999999900000000000000000000000000qqqqqqqqqqqqqqqqqqqqqqqqqqqqqqqqqwqqqqqqwwwwwwwwwwwwwwwwwwwwwwwwwwwwwwwwwwwwwwwwwwwwwwwwwwwwwwwwwwwwwwwwwwwwwwwwwwwwwwwwwwqqqqwwqqqqqqqqqqqqqqqqqqqqqqqqqqqqqqqq000q000000000000000000000900009999999999999999889998888888888888778777777777777777677766666666666555655555555555555544444444444444333333333333322222222222111111111111<<<<<<<<<<<<,,,,,,,,,,,,>>>>>>>>>>>>:::::::::::;;;;;;;;;;;--------------==========*********&&&&&&&&&&&&&%%%%%%%%%%$$$$$$$$###########@@@@@@@@@@+++++++++++++OOOOOOOOOooooooooooXXXXXXXX...........                                                                                            =CFFFFFFFFFFFFFFFFFFFFZZZZZZZZZZZZZZZZZZZZFFFFFFFFFFFFFFFFFFFF",
"FFFFFFFFFFFFFFFFFFFFZZZZZZZZZZZZZZZZZZZZFFFFFFFFFFFFFFFFFFFFZC9444444444455555555555555566656666666666667766777777777777788888888888888888899988999999999999999990000090000000000000000000qqqq00q0qqqqqqqqqqqqqqqqqqqqqqqqqqqqqqqqwwwwqwwwwwqwqqwwwwwwwwwwwwwwwwwwwwwwwwwwwwwwwwwwwwwwwwwwwwwwwwwwqqwwwqwqqqqwwqwwwwqqqqqqqqqqqqqqqqqqqqqqqqqqqqqqqqqqqq0q00000000000000000000099909099999999999999999998888888888888888877777777777777777667766666666666655555555555555544444444444444444333333333333332222222222211111111111<<<<<<<<<<<<<,,,,,,,,,,,,>>>>>>>>>>>>>::::::::::;;;;;;;;;;;--------------========*==********&&&&&&&&&&&&&%%%%%%%%%%%$$$$$$$$##########@@@@@@@@@@++@++++++++++OOOOOOOOOoooooooooooXXXXXXX...........                                                                                             iZFFFFFFFFFFFFFFFFFFFFZZZZZZZZZZZZZZZZZZZZFFFFFFFFFFFFFFFFFFFF",
"FFFFFFFFFFFFFFFFFFFFZZZZZZZZZZZZZZZZZZZZFFFFFFFFFFFFFFFFFFFFZZg444444444455544555555555555656666666666666777677777777777777888888888888888888998889999999999999999999999900000000000000000000000qq0000qqqqqqqqqqqqqqqqqqqqqqqqqqqqqqqqqqqwqqqqqqqqwwwwwwqqqqqqwwwwwwqqqqqqwwwwwwqqqqqqwwwwwwqqqqqqwqwwqqwwqqqqqqqqqqqqqqqqqqqqqqqqqqqqqqqqqqqqq0000q0q00000000000000000000009900999999999999999999999999888888888888888888777777777777776666666666666666555555555555555545544444444444444333333333333332222222222222111111111111<<<<<<<<<<<,<,,,,,,,,,,>,>>>>>>>>:>>:::::::::;;;;;;;;;;;;-------------========***********&&&&&&&&&&&&&&%%%%%%%%%$$$$$$$$$$############@@@@@@@+++++++++++++OOOOOOOOoOooooooooooXXXXXXX........... .                                                                                           +BZFFFFFFFFFFFFFFFFFFFFZZZZZZZZZZZZZZZZZZZZFFFFFFFFFFFFFFFFFFFF",
"FFFFFFFFFFFFFFFFFFFFZZZZZZZZZZZZZZZZZZZZFFFFFFFFFFFFFFFFFFFFZZB5444444444444444455555555555566666666666666676667777777777777888888888888888888888999999999999999999999999990000000000000000000000q0000qq00qqqqqqqqqqqqqqqqqqqqqqqqqqqqqqqqqqqqqqqqwwwwwwqqqqqqqqwwwwqqqqqqqqwwwqqqqqqqqqwwwwqqqqqwwqqqqqqqqqqqqqqqqqqqqqqqqqqqqqqqqqqqqqqqqq00000000000000000000000000000999000099999999999999999999998888888888888888888777777777777767666666666666666655555555555555555444444444444444333333333333322222222222221111111111111<<<<<<<<<<<<<,,,,,,,,,>,>>>>>>>>>::::::::::::;;;;;;;;;;;;;------------=========**********&&&&&&&&&&&&&&%%%%%%%%%%$$$$$$$$$#########@@#@@@@@@@@+@+@++++++++OOOOOOOOooooooooooXoXXXXXXXX............                                                                                            9ZZFFFFFFFFFFFFFFFFFFFFZZZZZZZZZZZZZZZZZZZZFFFFFFFFFFFFFFFFFFFF",
"FFFFFFFFFFFFFFFFFFFFZZZZZZZZZZZZZZZZZZZZFFFFFFFFFFFFFFFFFFFFZZZi4444444444444555555555555555566666666666666666667777777777777788777888888888888888999989999999999999999999000090000000000000000000000qqq0000qqqqqqqqqqqqqqqqqqqqqqqqqqqqqqqqqqqqqqqqqqqqqqqqqqqqqqqqqqwwqqwwwwqqqqqqqqqqqqqqqqqqqqqqqqqqqqqqqqqqqqqqqqqqqqqqqqqqqqqqqq00qqqq00000000000000000000000000999900099999999999999999998899888888888888888877777777777777776677666666666666655555555555555555444444444444444433333333333333222222222222111111111111<1<<<<<<<<<,,,,,,,,,,,,,>>>>>>>>>>>:::::::::::::;:;;;;;;;;;;;---------=-=========*=*********&*&&&&&&&&&&&%%%%%%%%$$$$$$$$$$$#$##########@@@@@@@@@@@@+++++++++OOOOOOOOoooooooooXXXXXXXXXX.XX.........                                                                                            .bZZFFFFFFFFFFFFFFFFFFFFZZZZZZZZZZZZZZZZZZZZFFFFFFFFFFFFFFFFFFFF",
"FFFFFFFFFFFFFFFFFFFFZZZZZZZZZZZZZZZZZZZZFFFFFFFFFFFFFFFFFFFFZZZn4444444444444445555555555555556655666666666666667777777777777777777888888888888888889989889999999999999999990099000000000000000000000000000000qqqq0qqqqqqqqqqqqqqqqqqqqqqqqqqqqqqqqqqqqqqqqqqqqqqqqqqqqqqqqqqqqqqqqqqqqqqqqqqqqqqqqqqqqqqqqqqqqqqqqqqqqqqqqqqqqqqqqq0000qqq00000000000000000000000090009999999999999999999999999888888888888888888887777777777777776766666666666666566655555555555555544444444444444433333333333333222222222222211111111111<1<<<<<<<<<,,,,,,,,,,,,>>>>>>>>>>>>:::::::::::::::;;;;;;;;;;;---------===========**=**********&&&&&&&&%%%%%%%%%%%%$$$$$$$$$$$$########@#@@@@@@@@@@@++++++++++OOOOOOOoOOooooooooXXXXXXXXXXXX..........                                                                                            1ZZZFFFFFFFFFFFFFFFFFFFFZZZZZZZZZZZZZZZZZZZZFFFFFFFFFFFFFFFFFFFF",
"FFFFFFFFFFFFFFFFFFFFZZZZZZZZZZZZZZZZZZZZFFFFFFFFFFFFFFFFFFFFZZZZe3444444444444445554555555555555555566666666666666666777777777777788888888888888888888899988999999999999999999990090990000000000000000000000000000000q000qqqqqqqqqqqqqqqqqqqqqqqqqqqqqqqqqqqqqqqqqqqqqqqqqqqqqqqqqqqqqqqqqqqqqqqqqqqqqqqqqqqqqqqqqqqqqqqqqqqqqqq00qqqq0000000000000000000000000099000099999999999999999998889998888888888888888888877777777777777666766666666666666666555555555554445444444444444444333333333333322222222221222111111111<<<<<<<<<<<<<,,,,,,,,,,,,,,,>>>>>>>>>::::::::::::;::;;;;;;;;;;;---------============*************&&&&&&&&%%%%%%%%%%%%%$$$$$$$$$$###########@@@@@@@@@@++++++++++OOOOOOOOoOooooooooXXXXXXXXXXX...........                                                                                             jZZZFFFFFFFFFFFFFFFFFFFFZZZZZZZZZZZZZZZZZZZZFFFFFFFFFFFFFFFFFFFF",
"FFFFFFFFFFFFFFFFFFFFZZZZZZZZZZZZZZZZZZZZFFFFFFFFFFFFFFFFFFFFZZZZz3344444444444454454445555555555555566666666666666666677777777777777888888888888888888888988899999999999999999999999999990000000000000000000000000000000000qqqqqqqqqqqqqqqqqqqqqqqqqqqqqqqqqqqqqqqqqqqqqqqqqqqqqqqqqqqqqqqqqqqqqqqqqqqqqqqqqqqqqqqqqqq000qq0qqqq0000000000000000000000000000000090009999999999999999999988898888888888888888888887777777777777767666666666666666566655555555555544444444444444444433333333333333222222222211121111111111<<<<<<<<<<<<,,,,,,,,,,,,,,,>>>>>>>>>::::::::::::;;:;;;;;;;;;-;----------=============********&**&&&&&&&&%%%%%%%%%%%%%$$$$$$$$#$$##########@@@@@@@@@@++++++++++OOOOOOOOooOoooooooXXXXXXXXXX.......... .                                                                                             *CZZZFFFFFFFFFFFFFFFFFFFFZZZZZZZZZZZZZZZZZZZZFFFFFFFFFFFFFFFFFFFF",
"FFFFFFFFFFFFFFFFFFFFZZZZZZZZZZZZZZZZZZZZFFFFFFFFFFFFFFFFFFFFZZZZC8334444444444444445555555555555555566666666666666667776777777777777777777888888888888888888999999999999999999999999999000000000000000000000000000000000000qqq000000qqqqqqqqqqqqqqqqqqqqqqqqqqqqqqqqqqqqqqqqqqqqqqqqqqqqqqqqqqqqqqqqqqqqqqqqqqqq00qqqqqq000qq00000000000000000000000000009000000999999999999999999999999998888888888888888787887777777777777777766666666666666555555555555555555554444444444444443333333333333322222222222111111111111<1<<<<<<<<<<<<,,,,,,,,,,,>>>>>>>>>>>>>>>::::::::::;;;;;;;;;;;-------------=========*==********&&*&&&&&&&&&&&%%%%%%%%$$$$$$$$$$##$#########@@@@@@@@@+++++++++++++OOOOOOOooooooooooXXXXXXXXXX..........  .                                                                                             uZZZZFFFFFFFFFFFFFFFFFFFFZZZZZZZZZZZZZZZZZZZZFFFFFFFFFFFFFFFFFFFF",
"FFFFFFFFFFFFFFFFFFFFZZZZZZZZZZZZZZZZZZZZFFFFFFFFFFFFFFFFFFFFZZZZZf333344444444444444455545555555555556656666666666666677667777777777777778888888888888888888889999999999999999999999999900000000000000000000000000000000000000qq000000qqqqqqqqqqqqqqqqqqqqqqqqqqqqqqqqqqqqqqqqqqqqqqqqqqqqqqqqqqqqqqqqqqqqqq000000qqqq00000000000000000000000000000000009999099999999999999999999888999888888888888888888888877777777777777677766666666666665555555555555555555544444444444444433333333333333222222222222211111111111<<<<<<<<<<<<<<<,,,,,,,,,,>>>>>>>>>>>>>>::::::::::::;;;;;;;;;;;-------------========***********&&*&&&&&&&&&&&%%%%%%%%%$$$$$$$$$$############@@@@@@@@++++++++++++OOOOOOOOOooooooooooXXXXXXXXXX...........                                                                                              +BZZZZFFFFFFFFFFFFFFFFFFFFZZZZZZZZZZZZZZZZZZZZFFFFFFFFFFFFFFFFFFFF",
"FFFFFFFFFFFFFFFFFFFFZZZZZZZZZZZZZZZZZZZZFFFFFFFFFFFFFFFFFFFFZZZZZB53333444444444444444554455555555555555665666666666666677667777777777777778888888888888888888888999988999999999999999999999909909990000000000000000000000000000000000000000qq0qqq0000qqqqq000qqqqqqqqqqqqqqqqqqqqqqqqqq0000qqqqq00000qqqq0000000000000000000000000000000000000000999900999999999999999999999999888888888888888888888888887777777777777777666666666666666665655555555555555455544444444444444433333333333333222222222222221111111111<<<<<<<<<<<<<<<<,,,,,,,,,>>>>>>>>>>>>:>>:::::::::;::;;;;;;;;;;;----------=-========***********&*&&&&&&&&&&&&%%%%%%%%%%%$$$$$$$$##########@##@@@@@@@@@@++++++++++OOOOOOOOOooooooooooXXXXXXXXXX..........                                                                                               9ZZZZZFFFFFFFFFFFFFFFFFFFFZZZZZZZZZZZZZZZZZZZZFFFFFFFFFFFFFFFFFFFF",
"FFFFFFFFFFFFFFFFFFFFZZZZZZZZZZZZZZZZZZZZFFFFFFFFFFFFFFFFFFFFZZZZZZp3333334444444444444445544555555555555665566666666666666666677777777777777778888888888888888888888888888999999999999999999999909999999000000000000000000000000000000000000000qqq0000qqqqqq0000q00q0000qq0000qq0qqqqqq00000qqqqqq0000000000000000000000000000000000000000000009009999999999999999999999999888999888888888888888888777887777777777777777776766666666666666666555555555555455544454444444444433333333333333322222222221221111111111<1<<<<<<<<<<<<,,,,,,,,,,,,>>>>>>>>>>>>::>:::::::::;;:;;;;;;;;;;;---------===========*=*********&&*&&&&&&&&%&&%%%%%%%%%%%$$$$$$$$#$########@@#@@@@@@@@@@++++++++++OOOOOOOOOOoooooooooXXXXXXXXX.X........                                                                                                XnZZZZZFFFFFFFFFFFFFFFFFFFFZZZZZZZZZZZZZZZZZZZZFFFFFFFFFFFFFFFFFFFF",
"ZZZZZZZZZZZZZZZZZZZZFFFFFFFFFFFFFFFFFFFFZZZZZZZZZZZZZZZZZZZZFFFFFFV433333344444444444444444555555555555555665566666666666666677777777777777777788888788888888888888888998888999999999999999999999990999000009000000000000000000000000000000000000000000000000000qqqqqqqq0000000q00qqqq00000000000000000000000000000000000000000000000000090000990999999999999999999999998888999888888888888888888888777777777777777777776666666666666665556555555555555545444444444444444443333333333333322222222222221111111111111<<<<<<<<<<<<<,,,,,,,,,,,,>,>>>>>>>>>>:::::::::::;:;;;;;;;;;;-----------=============***********&&&&&&&&&%&&%%%%%%%%%%$$$$$$$$$$#########@@@@@@@@@@@@@+@+++++++++OOOOOOOOOOooooooooXXXXXXXXXX.X........                                                                                                6FFFFFFZZZZZZZZZZZZZZZZZZZZFFFFFFFFFFFFFFFFFFFFZZZZZZZZZZZZZZZZZZZZ",
"ZZZZZZZZZZZZZZZZZZZZFFFFFFFFFFFFFFFFFFFFZZZZZZZZZZZZZZZZZZZZFFFFFFFu3333333344444444444444455555555555555555555566666666666666777777777777777777778877888888888888888888888899999999999999999999999999990000999900000000000000000000000000000000000000000000000000000000000000000000000000000000000000000000000000000000000000000000999999990099999999999999999999999999889988888888888888888888888777777777777777777677666666666666665565555555555555554444444444444444433333333333333322222222222222111111111111<<<<<<<<<<<<<<,,,,,,,,,,,,,>>>>>>>>>>>::::::::::;;:;;;;;;;;;-----------=============************&&&&&&&&&%&%%%%%%%%%%%$$$$$$$$$$#########@@@@@@@@@@+@@@@++++++++OOOOOOOOOOooooooooooXXXXXXXX..........                                                                                                 nFFFFFFZZZZZZZZZZZZZZZZZZZZFFFFFFFFFFFFFFFFFFFFZZZZZZZZZZZZZZZZZZZZ",
"ZZZZZZZZZZZZZZZZZZZZFFFFFFFFFFFFFFFFFFFFZZZZZZZZZZZZZZZZZZZZFFFFFFFM3333333334444444444444444555455555555555565555666666666666667666777777777777777787888888888888888888888899999889999999999999999999999999909900909990000000000000000000000000000000000000000000000000000000000000000000000000000000000000000000000000000000000999000999999999999999999999999999889999988888888888888888888878777777777777777776667666666666666666666655555555555555554444444444444444333333333333332222222222222211111111111111<<<<<<<<<<,<<,,,,,,,,,,,,,>>>>>>>>>>>>:::::::::;;;;;;;;;;;;-----------==============*********&*&&&&&&&&&%%%%%%%%%%%%%$$$$$$$$$$$########@#@@@@@@@@+++++++++++++OOOOOOOOoOoooooooooooXXXXXXXXXX........ .                                                                                              1FFFFFFFZZZZZZZZZZZZZZZZZZZZFFFFFFFFFFFFFFFFFFFFZZZZZZZZZZZZZZZZZZZZ",
"ZZZZZZZZZZZZZZZZZZZZFFFFFFFFFFFFFFFFFFFFZZZZZZZZZZZZZZZZZZZZFFFFFFFFr33333333334444444444444445544455555555555555665666666666666666677777777777777777777788888888888888888888889988899999999999999999999999999999099999999999000000000000000000000000000000000000000000000000000000000000000000000000000000000000000000099999900099999999999999999999999999999998888998888888888888888888888777777777777777777776666666666666666666666555555555555444555444444444444443333333333323332222222222222211111111111111<<<<<<<<<<<,,,,,,,,,,,>>>>>>>>>>>>>::>:::::::::;;;;;;;;;;;;-------------============**********&*&&&&&&&&%%&%%%%%%%%%%$$$$$$$$$#$########@@#@@@@@@@@++++++++++++OOOOOOOOooOooooooooooXXXXXXXXXX..........                                                                                               zFFFFFFFZZZZZZZZZZZZZZZZZZZZFFFFFFFFFFFFFFFFFFFFZZZZZZZZZZZZZZZZZZZZ",
"ZZZZZZZZZZZZZZZZZZZZFFFFFFFFFFFFFFFFFFFFZZZZZZZZZZZZZZZZZZZZFFFFFFFFv333333333334444444444444444445555555555555555666666666666666666766677777777777777777788888888888888888888888888999998999999999999999999999999999900000099009999000000000000000000000000000000000000000000000000000000000000000000000000000000000900000099999999999999999999999999999999999999888888888888888888888788887777777777777777667776666666666666665566555555555555554554454444444444444333333333332233222222222211211111111111<<1<<<<<<<<<<<,,,,,,,,,,,,>>>>>>>>>>>>>>>>:::::::::;;;;;;;;;;;;-----------============*=*********&**&&&&&&&&&&&%%%%%%%%%$$$$$$$$$$#$#########@@@@@@@@@@@@+++++++++++OOOOOOOooooooooooooXXXXXXXXX.X..........                                                                                               ;DFFFFFFFZZZZZZZZZZZZZZZZZZZZFFFFFFFFFFFFFFFFFFFFZZZZZZZZZZZZZZZZZZZZ",
"ZZZZZZZZZZZZZZZZZZZZFFFFFFFFFFFFFFFFFFFFZZZZZZZZZZZZZZZZZZZZFFFFFFFFD03333333333334444444444444444555555555555555556666666666666666666667667777777777777777788888888888888888888888888999888999999999999999999999999999999999900999900090099000000000000000000000000000000000000000000000000000000000000099900000099990009999999999999999999999999999998889999988888888888888888888888878777777777777777776666766666666666666555555555555555555455444454444444444443333333333333222222222222211211111111111<<<<<<<<<<<<<<<,,,,,,,,,,,>>>>>>>>>>>>:::::::::::::;;:;;;;;;;;;-----------============***********&&&&&&&&&&&%&&%%%%%%%%%%$$$$$$$$$#############@@@@@@@@@@@++++++++++OOOOOOOOoooooooooooXXXXXXXXX.............                                                                                               gFFFFFFFFZZZZZZZZZZZZZZZZZZZZFFFFFFFFFFFFFFFFFFFFZZZZZZZZZZZZZZZZZZZZ",
"ZZZZZZZZZZZZZZZZZZZZFFFFFFFFFFFFFFFFFFFFZZZZZZZZZZZZZZZZZZZZFFFFFFFFFz33333333333334444444444444444544555555555555555555556666666666666677666777777777777777778888888888888888888888888889889999889999999999999999999999999999999999009900999900999900000000000000000000000000000000000000000900990000009999990000999999999999999999999999999999999899998889888888888888888888887788887777777777777777767777666666666666666655555555555555555444544444444444444443333333333333332222222222222221111111111111<<<<<<<<<<<,<<,,,,,,,,,,>>>>>>>>>>>>:::::::::::::;;;;;;;;;;;;;;----------===========***********&&&&&&&&&&&%%&%%%%%%%%%%%$$$$$$$$###########@#@@@@@@@@@@@++++++++++OOOOOOOOOOoooooooooooXXXXXXX........... .                                                                                               %SFFFFFFFFZZZZZZZZZZZZZZZZZZZZFFFFFFFFFFFFFFFFFFFFZZZZZZZZZZZZZZZZZZZZ",
"ZZZZZZZZZZZZZZZZZZZZFFFFFFFFFFFFFFFFFFFFZZZZZZZZZZZZZZZZZZZZFFFFFFFFFS8333333333333334444444444444444444555555555555555555666666666666666666667777777777777777777888777888888888888888888888889988899999999999999999999999999999999999999999990099990000999999990900999999990009009999000099990099900000999999999999999999999999999999999999999989889999888888888888888888888888778877777777777777777666776666666666666665565555555555555555444444444444444444443333333333333332222222222222221111111111111<<<<<<<<<<<,,<,,,,,,,,,,,,>>>>>>>>>>>:::::::::::;;;;;;;;;;;;;;;-----------===========**********&*&&&&&&&&&%%%%%%%%%%%%%%$$$$$$$$############@@@@@@@@@@@@++++++++++OOOOOOOOOOOooooooooooXXXXXXXXX.........                                                                                                  pFFFFFFFFFZZZZZZZZZZZZZZZZZZZZFFFFFFFFFFFFFFFFFFFFZZZZZZZZZZZZZZZZZZZZ",
"ZZZZZZZZZZZZZZZZZZZZFFFFFFFFFFFFFFFFFFFFZZZZZZZZZZZZZZZZZZZZFFFFFFFFFFk32223333333333334444444444444444555555555555555555666666666666666666666676677777777777777777777778888888888888888888888888899998999999999999999999999999999999999999999999999999000009999000090009900009999990000999909999999999999999999999999999999999999999999999899998899888888888888888888888888878877777777777777777777666666666666666666656666555555555555555555444444444444444433333333333333332222222222222211111111111<1<<<<<<<<<<<,,,,,,,,,,,,,,,,>>>>>>>>>>>>:::::::::::;;;;;;;;;;;---------------===========**********&*&&&&&&&&%&&%%%%%%%%%$$$$$$$$$$$##########@@@@@@@@@@@++++++++++++OOOOOOOOooOooooooooXXXXXXXXXX.X........                                                                                                  #AFFFFFFFFFZZZZZZZZZZZZZZZZZZZZFFFFFFFFFFFFFFFFFFFFZZZZZZZZZZZZZZZZZZZZ",
"ZZZZZZZZZZZZZZZZZZZZFFFFFFFFFFFFFFFFFFFFZZZZZZZZZZZZZZZZZZZZFFFFFFFFFFS723333333333333334444444444444444445555555555555555566665666666666666666766777777777777777777777788888888888888888888888888888999999988899999999999999999999999999999999999999999999999999999999999999999999999999999999999999999999999999999999999999999999999888888999988888888888888888888888888888777777777777777777777776666666666666666665566555555555555555555444444444444444443333333333333332222222222222221111111111<<<1<<<<<<<<<<<,,,,,,,,,,,,,,,>>>>>>>>>>>>>::::::::::;;;;;;;;;;;---------------============**********&&&&&&&&&&%&%%%%%%%%%%$$$$$$$$$$##########@@@@@@@@@@@@++++++++++++OOOOOOOOooooooooooXXXXXXXXXX..........                                                                                                   uFFFFFFFFFFZZZZZZZZZZZZZZZZZZZZFFFFFFFFFFFFFFFFFFFFZZZZZZZZZZZZZZZZZZZZ",
"ZZZZZZZZZZZZZZZZZZZZFFFFFFFFFFFFFFFFFFFFZZZZZZZZZZZZZZZZZZZZFFFFFFFFFFFh223333333333333333444444444444444444555555555555555556555566666666666666666677777777777777777777778887778888888888888888888888888899998898889999999999999999999999999999999999999999999999999999999999999999999999999999999999999999999999999999999999999899999999888888888888888888888888888888888777777777777777777777777666666666666666665555555555555555554455444444444444444443333333333333332222222222222221111111111111<<<<<<<<<<<<<<<,,,,,,,,,,,,,>>>>>>>>>>::>::::::::::::;;;;;;;;;;--------------==========*=********&**&&&&&&&&&&&%%%%%%%%%%%$$$$$$$$$$$###########@@@@@@@@@@@++++++++++OOOOOOOOOoooooooooXXXXXXXXXXX.X........                                                                                                  @AFFFFFFFFFFZZZZZZZZZZZZZZZZZZZZFFFFFFFFFFFFFFFFFFFFZZZZZZZZZZZZZZZZZZZZ",
"ZZZZZZZZZZZZZZZZZZZZFFFFFFFFFFFFFFFFFFFFZZZZZZZZZZZZZZZZZZZZFFFFFFFFFFFA62223333333333333334444444444444444445554555555555555555555666666666666666667766667777777777777777777877888888888888888888888888888888889988889999999999999999999999999999999999999999999999999999999999999999999999999999999999999999999999999999988889888999888888888888888888888888888777778877777777777777777776777676666666666666666655555555555555555544444554444444444444433333333333333332222222222222221111111111111<<<<<<<<<<<,,<<,,,,,,,,,,,,,>>>>>>>>>::::::::::::::::;;;;;;;;;;;----------============************&*&&&&&&&&&&&%%%%%%%%%%%$$$$$$$$$$$###########@@@@@@@@@@@++++++++++OOOOOOOOooooooooooXXXXXXXXXXXXX........                                                                                                   tFFFFFFFFFFFZZZZZZZZZZZZZZZZZZZZFFFFFFFFFFFFFFFFFFFFZZZZZZZZZZZZZZZZZZZZ",
"ZZZZZZZZZZZZZZZZZZZZFFFFFFFFFFFFFFFFFFFFZZZZZZZZZZZZZZZZZZZZFFFFFFFFFFFFg222233333333333333334444444444444444455445555555555555555666666666666666666666766777777777777777777777788788888888888888888888888888888888899999988999999999999999999999999999999999999999999999999999999999999999999999999999999999999999998999999999988888888888888888888888888888777777887777777777777777777767777666666666666666665655555555555555555555544544444444444444333333333333333322222222222221111111111111<<<1<<<<<<<<<<,,,,,,,,,,,,,>,,,>>>>>>>>>::::::::::::::::;;;;;;;;;-------------===========**************&&&&&&&&&%%%%%%%%%%%$%$$$$$$$$$###########@@@@@@@@@@@@@+@@++++++OOOOOOOOOOOOooooooooXXXXXXXXXX.X........                                                                                                   +CFFFFFFFFFFFZZZZZZZZZZZZZZZZZZZZFFFFFFFFFFFFFFFFFFFFZZZZZZZZZZZZZZZZZZZZ",
"ZZZZZZZZZZZZZZZZZZZZFFFFFFFFFFFFFFFFFFFFZZZZZZZZZZZZZZZZZZZZFFFFFFFFFFFFA52222233333333333333334444444444444444444544555555555555556666666666666666666666677776777777777777777777777888888888888888888888888888888888888898899999988999999999999999999999999999999999999999999999999999999999999999999999999888899999888999888888888888888888888888888888888778777777777777777777777766676766666666666666666556655555555555555554455444454444444444444333333333333333322222222222222111111111111<<<<<<<<<<<<<<,,,,,,,,,,,,,,>>>>>>>>>>>>:::::::::::::;::;;;;;;;;;--------------==========**************&&&&&&&&&%%%%%%%%%%%%$$$$$$$$$$###########@@@@@@@@@@@@@++++++++++OOOOOOOOOOOooooooooXXXXXXXXXX.......... ..                                                                                                 eFFFFFFFFFFFFZZZZZZZZZZZZZZZZZZZZFFFFFFFFFFFFFFFFFFFFZZZZZZZZZZZZZZZZZZZZ",
"ZZZZZZZZZZZZZZZZZZZZFFFFFFFFFFFFFFFFFFFFZZZZZZZZZZZZZZZZZZZZFFFFFFFFFFFFFf222222233333333333333334444444444444444445555555555555555555556666666666666666666666667777777777777777777777788888777888888888888888888888888888888888988888999999888899899999999999999999999999999999999999999999999999889999999888899999888888888888888888888888888888888888888888777777777777777777777766666666666666666666665566655555555555555555544444444444444444443333333333333333222222222222122111111111111<1<<<<<<<<<<<<<<<,,,,,,,,,,,,>>>>>>>>>>>>>:::::::::::;;:;;;;;;;;;---------------=========**************&&&&&&&&&&&&%%%%%%%%%%$$$$$$$$$$$$########@@@@@@@@@@@@@+++++++++++OOOOOOOOoooooooooooXoXXXXXXX........... .                                                                                                 OCFFFFFFFFFFFFZZZZZZZZZZZZZZZZZZZZFFFFFFFFFFFFFFFFFFFFZZZZZZZZZZZZZZZZZZZZ",
"ZZZZZZZZZZZZZZZZZZZZFFFFFFFFFFFFFFFFFFFFZZZZZZZZZZZZZZZZZZZZFFFFFFFFFFFFFZ522222223333333333333333444444444444444444555545555555555555556556566666666666666666666666677777777777777777777778777888888888888888888888888888888888888888889999888899888899888988889999888899888899999888889999888899888999999898888888888888888888888888888888888888777788887777777777777777777777777766666666666666666665555565555555555555555555444444444444444444333333333333333322222222222222121111111111111<<<<<<<<<<<<,<<,,,,,,,,,,,>>,>>>>>>>>>>>>>:::::::::::::;;;;;;;;;;;-------------===========*********&**&&&&&&&&&&&&%%%%%%%%%%%$$$$$$$$$$$#########@@@@@@@@@@+++++++++++++OOOOOOOOOooooooooooooXXXXXXXX............                                                                                                  qFFFFFFFFFFFFFZZZZZZZZZZZZZZZZZZZZFFFFFFFFFFFFFFFFFFFFZZZZZZZZZZZZZZZZZZZZ",
"ZZZZZZZZZZZZZZZZZZZZFFFFFFFFFFFFFFFFFFFFZZZZZZZZZZZZZZZZZZZZFFFFFFFFFFFFFFd2222222223333333333333333444444444444444444554455555555555555556666666666666666666666677777777777777777777777777777788888888888888888888888888888888888888888888888888888999999998999999999999888999999998888999999999888888888888888888888888888888888888888888888888888887777777777777777777777777777766666666666666666665555555555555555555555554444444444444444443333333333333333322222222222222211111111111111<<<<<<<<<<<<<<<,,,,,,,,,,>>>,>>>>>>>>>::>>:::::::::;::;;;;;;;;;;--;------------============********&**&&&&&&&&&%&&%%%%%%%%%$%$$$$$$$$##$###########@@@@@@@@+@@+@++++++++OOOOOOOOOOOooooooooXXXXXXXXXX.............                                                                                                 OVFFFFFFFFFFFFFZZZZZZZZZZZZZZZZZZZZFFFFFFFFFFFFFFFFFFFFZZZZZZZZZZZZZZZZZZZZ",
"ZZZZZZZZZZZZZZZZZZZZFFFFFFFFFFFFFFFFFFFFZZZZZZZZZZZZZZZZZZZZFFFFFFFFFFFFFFZ5222222222333333333333333334444444444444444554455555555555555555556666666666666666666666677777767777777777777777777777778888877788888888888888888888888888888888888888888888888888888888888888888888888888888888888888888888888888888888888888888888888888888878888888877777777777777777777777666677766666666666666666655665655555555555555544455454444444444444444333333333333332232222222222222112111111111111<11<<<<<<<<<<,,<,,,,,,,,,,,>>>>>>>>>>>>>:::::::::::::;;:;;;;;;;;;;------------============***********&&&&&&&&&&&&%%&%%%%%%%%%$$$$$$$$$$##$########@@@@@@@@@@@++@++++++++++OOOOOOOOOOOoooooooooXXXXXXXXX.............                                                                                                  eFFFFFFFFFFFFFFZZZZZZZZZZZZZZZZZZZZFFFFFFFFFFFFFFFFFFFFZZZZZZZZZZZZZZZZZZZZ",
"ZZZZZZZZZZZZZZZZZZZZFFFFFFFFFFFFFFFFFFFFZZZZZZZZZZZZZZZZZZZZFFFFFFFFFFFFFFFf222222222223333333333333333344444444444444554445555555555555555555555555566666666666666666676666667777777777777777777777777877888888888888888888888888888888888888888888888888888888888888888888888888888888888888888888888888888888888888888888888888888888777887777777777777777777777777776666666666666666666666665555655555555555555554444444444444444444444443333333333333332222222222222222111111111111<<<<<<<<<<<<<<<,,,,,,,,,,,,,,>>>>>>>>>>>>>::>:::::::::::;;;;;;;;;;;--;----------============************&&&&&&&&&&&%%&%%%%%%%%%%$$$$$$$$$###########@@@@@@@@@@@@+@+++++++++++OOOOOOOOOOoooooooooooXXXXXXXXXX........ .                                                                                                  +CFFFFFFFFFFFFFFZZZZZZZZZZZZZZZZZZZZFFFFFFFFFFFFFFFFFFFFZZZZZZZZZZZZZZZZZZZZ",
"ZZZZZZZZZZZZZZZZZZZZFFFFFFFFFFFFFFFFFFFFZZZZZZZZZZZZZZZZZZZZFFFFFFFFFFFFFFFA622222222222233333333333333333444444444444444444555445555555555555555555556666666666666666666666666666777777777777777777777777778888888888888888888888888888888888888888888888888888888888888888888888888888888888888888888888888888888888888888887777888888777777777777777777777777777666776666666666666666666666655555555555555555555544444444444444444444444333333333333333332222222222222222111111111111<<<<<<<<<<<<<,,,,,,,,,,,,,,,>>>>>>>>>>>>>:::::::::::::;;;;;;;;;;;;--------------============************&&&&&&&&&&%%%%%%%%%%%%%%$$$$$$$$############@@@@@@@@@@@@++++++++++++OOOOOOOOoooooooooooooXXXXXXXXXX.........                                                                                                    rFFFFFFFFFFFFFFFZZZZZZZZZZZZZZZZZZZZFFFFFFFFFFFFFFFFFFFFZZZZZZZZZZZZZZZZZZZZ",
"FFFFFFFFFFFFFFFFFFFFZZZZZZZZZZZZZZZZZZZZFFFFFFFFFFFFFFFFFFFFZZZZZZZZZZZZZZZZd2222222222222333333333333333333444444444444445444454455555555555555555555666666666666666666666666667776677777777777777777777777777777788888888888888888888888888888888888888888888888888888888888888888888888888888888888888888888888888888888887788887777777777777777777777777777766777766666666666666666666666655555555555555555555555544444444444444444443333333333333333322222222222222121111111111111<<<<<<<<<<<<<<<<,,,,,,,,,,,,,>>>>>>>>>>>>>>::::::::::::::;;;;;;;;;;;;------------============************&&&&&&&&&&&&%%%%%%%%%%%$$$$$$$$$############@@@@@@@@@@@@+++++++++++OOOOOOOOooooooooooooXXXXXXXXXXX........                                                                                                     +NZZZZZZZZZZZZZZZFFFFFFFFFFFFFFFFFFFFZZZZZZZZZZZZZZZZZZZZFFFFFFFFFFFFFFFFFFFF",
"FFFFFFFFFFFFFFFFFFFFZZZZZZZZZZZZZZZZZZZZFFFFFFFFFFFFFFFFFFFFZZZZZZZZZZZZZZZZB6222222222222223333333333333333334444444444444444444455555555555555555555566655566666666666666666666777677777777777777777777777777777777778888877888877888888888888888888888888888888888888888888888888888888888888888888888888888888888877888877777777777777777777777777777776777766766666666666666666666666565555555555555555555555554444444444444444444333333333333333332222222222222221111111111111111<<<<<<<<<<<<<,<,,,,,,,,,,,,,,>>>>>>>>>>>>>::::::::::;::;;;;;;;;;;;;;------------============************&&&&&&&&&&&&%%%%%%%%%%%$$$$$$$$$$############@@@@@@@@@@@@++++++++++OOOOOOOOoooooooooooooXXXXXXXX.XX.......                                                                                                      rZZZZZZZZZZZZZZZZFFFFFFFFFFFFFFFFFFFFZZZZZZZZZZZZZZZZZZZZFFFFFFFFFFFFFFFFFFFF",
"FFFFFFFFFFFFFFFFFFFFZZZZZZZZZZZZZZZZZZZZFFFFFFFFFFFFFFFFFFFFZZZZZZZZZZZZZZZZZf2222222222222222333333333333333333444444444444444444454455555555555555555556655566666666666666666666666677777767777777777777777777777777777777777788877888888877888888888888888888888888888888888888888888888888888888888877888877887777777777777777777777777777777777777766666677666666666666666666666555665555555555555555555555544444444444444444444333333333333333332222222222222122111111111111<<1<<<<<<<<<<<<,<<,,,,,,,,,,,,,>,>>>>>>>>>>:>>::::::::::;;;;;;;;;;;;;;-----------=-===========***********&*&&&&&&&&&&%&&%%%%%%%%%%$$$$$$$$$$$$#########@##@@@@@@@@@@+@+++++++++OOOOOOOOOOOooooooooooXXXXXXXX..X.........                                                                                                    #NZZZZZZZZZZZZZZZZFFFFFFFFFFFFFFFFFFFFZZZZZZZZZZZZZZZZZZZZFFFFFFFFFFFFFFFFFFFF",
"FFFFFFFFFFFFFFFFFFFFZZZZZZZZZZZZZZZZZZZZFFFFFFFFFFFFFFFFFFFFZZZZZZZZZZZZZZZZZV622222222222222222233333333333333334444444444444444444444455555555555555555555556656666666666666666666666677776666677777777777777777777777777777777777788888887788888788888888888888888888888888888888888888888888888888887788887777777777777777777777777777777777777677776666666666666666666666666666555555555555555555555444555444444444444444444443333333333333223332222222222221222111111111111<111<<<<<<<<<<<,,<,,,,,,,,,,,,,>>>>>>>>>>>:::>::::::::::;::;;;;;;;;;;;;;---------=-=============*********&*&&&&&&&&&&&&&%%%%%%%%$%%$$$$$$$$$#$$########@@#@@@@@@@@@@@@+++++++++OOOOOOOOOOOoooooooooooXXXXXXX............                                                                                                     yZZZZZZZZZZZZZZZZZFFFFFFFFFFFFFFFFFFFFZZZZZZZZZZZZZZZZZZZZFFFFFFFFFFFFFFFFFFFF",
"FFFFFFFFFFFFFFFFFFFFZZZZZZZZZZZZZZZZZZZZFFFFFFFFFFFFFFFFFFFFZZZZZZZZZZZZZZZZZZg112221222222222222333223333333333333344444444444444554444555555555555555555555555566666666666666666666666666676666677777777777777777777777777777777777777777777778877888888888887888877778887788888888887888877778877887777777777777777777777777777777777777777776677776666666666666666666666666566665555555555555555555554444444444444444444444443333333333333332232222222222222121111111111111<<<<<<<<<<<<<<<<<,,,,,,,,,,,,,,,,>>>>>>>>>>::::::::::::::;;;;;;;;;;;;-;;;---------===============*********&&&&&&&&&&&&&&&%%%%%%%%$$%$$$$$$$$$#$$########@@@@@@@@@@@++@+++++++++++OOOOOOOOooooooooooXXoXXXXXXXX.X...........                                                                                                   $BZZZZZZZZZZZZZZZZZFFFFFFFFFFFFFFFFFFFFZZZZZZZZZZZZZZZZZZZZFFFFFFFFFFFFFFFFFFFF",
"FFFFFFFFFFFFFFFFFFFFZZZZZZZZZZZZZZZZZZZZFFFFFFFFFFFFFFFFFFFFZZZZZZZZZZZZZZZZZZV8111222222222222222232323333333333333334444444444444444444455555555555555555555555566665566666666666666666666666666777766777777777777777777777777777777777777777777777777777778778888877788888887888888777777777777777777777777777777777777777777777777777777777666766666666666666666666666656555665555555555555555555555444444444444444444444443333333333333333322222222222222222211111111111111<<<<<<<<<<<<<<<<,,,,,,,,,,,,>>,>>>>>>>>>>:::::::::::::;;;:;;;;;;;;;;------------===============*********&&&&&&&&&&&&&&&%%%%%%%%$$$$$$$$$$$$############@@@@@@@@@@++++++++++++++OOOOOOOOooooooooooXXXXXXXXXXX.............                                                                                                    iZZZZZZZZZZZZZZZZZZFFFFFFFFFFFFFFFFFFFFZZZZZZZZZZZZZZZZZZZZFFFFFFFFFFFFFFFFFFFF",
"FFFFFFFFFFFFFFFFFFFFZZZZZZZZZZZZZZZZZZZZFFFFFFFFFFFFFFFFFFFFZZZZZZZZZZZZZZZZZZZk11112222222222222222233333333333333333334444444444444444444445555555555555555555555556556555666666666666666666666666666677666667777777777777777777777777777777777777777777777777777777777777777777777777777777777777777777777777777777777777777777777676666777666666666666666666666666666555666555555555555555555555555544444444444444444444333333333333333333322222222222221122111111111111<<11<<<<<<<<<<<<,<<,,,,,,,,,,,,>>>>>>>>>>>>>::::::::::::::::;;;;;;;;;;;---------------==========**************&&&&&&&&&&&&%%%%%%%%%%%$$$$$$$$$#$############@@@@@@@@@+++++++++++++OOOOOOOOoooooooooooXXXXXXXXXXXX........ ..                                                                                                    *VZZZZZZZZZZZZZZZZZZFFFFFFFFFFFFFFFFFFFFZZZZZZZZZZZZZZZZZZZZFFFFFFFFFFFFFFFFFFFF",
"FFFFFFFFFFFFFFFFFFFFZZZZZZZZZZZZZZZZZZZZFFFFFFFFFFFFFFFFFFFFZZZZZZZZZZZZZZZZZZZCq1111122222222222222222333333333333333333344444444444444444444455544455555555555555555556555666666666666666666666666666667666666676667777777777777777777777777777777777777777777777777777777777777777777777777777777777777777777777777777777777677666666666666666666666666666666666666656555555555555555555555554445555444444444444444444433333333333333333332222222222222221211111111111111<1<<<<<<<<<<<,<<,,,,,,,,,,,,>>>>>>>>>>>>>>>>>::::::::::::::;;;;;;;;;;----------------=========***************&&&&&&&&&%&&%%%%%%%%%%%$$$$$$$$$##############@@@@@@@@@@++++++++++++OOOOOOOOoooooooooooXXXXXXXXXXXXX........ .                                                                                                     fZZZZZZZZZZZZZZZZZZZFFFFFFFFFFFFFFFFFFFFZZZZZZZZZZZZZZZZZZZZFFFFFFFFFFFFFFFFFFFF",
"FFFFFFFFFFFFFFFFFFFFZZZZZZZZZZZZZZZZZZZZFFFFFFFFFFFFFFFFFFFFZZZZZZZZZZZZZZZZZZZZn21111122222222222222222233333333333333333334444444444444444444444545555555555555555555555566555555666666666666666666666666666666667776666677777777777777777777777777777777777777777777777777777777777777777777777777777777777777777777776667766766676666666666666666666666666666656665555555555555555555555555544455444444444444444444433333333333333323332222222222222212221111111111111<11<<<<<<<<<<<<,,<,,,,,,,,,,,>>>>>>>>>>>>>>::>::::::::::::::;;;;;;;;;;--;---------==-===========*=*********&&&&&&&&&&&&%&&%%%%%%%%%$%$$$$$$$$$$$#########@@#@@@@@@@@@@@+++++++++++OOOOOOOOoOOooooooooXXXXXXXXXX..X........  .                                                                                                    ,CZZZZZZZZZZZZZZZZZZZFFFFFFFFFFFFFFFFFFFFZZZZZZZZZZZZZZZZZZZZFFFFFFFFFFFFFFFFFFFF",
"FFFFFFFFFFFFFFFFFFFFZZZZZZZZZZZZZZZZZZZZFFFFFFFFFFFFFFFFFFFFZZZZZZZZZZZZZZZZZZZZFt1111111222222222222222222333333333333333333344444444444444444444445555555555555555555555555555555566566666666666666666666666666666776766667777777777777777777777777777777777777777777777777777777777777777777777777777777777777766667776677776666666666666666666666666666665556666555555555555555555555544555544444444444444444444443333333333333333223222222222222222222111111111111<1<1<<<<<<<<<<<,,<<,,,,,,,,,,,>>>>>>>>>>>>>>>::>::::::::::;:;;;;;;;;;;;-------------===============**********&&*&&&&&&&&&%%&%%%%%%%%%$$$$$$$$$$$#$$########@@#@@@@@@@@+@++++++++++++OOOOOOOOOoooooooooooXXXXXXXXXX..........                                                                                                       .vZZZZZZZZZZZZZZZZZZZZFFFFFFFFFFFFFFFFFFFFZZZZZZZZZZZZZZZZZZZZFFFFFFFFFFFFFFFFFFFF",
"FFFFFFFFFFFFFFFFFFFFZZZZZZZZZZZZZZZZZZZZFFFFFFFFFFFFFFFFFFFFZZZZZZZZZZZZZZZZZZZZFN31111111112112222222222222233333333333333333334444444444444444454444455444455555555555555555555555666655666666666666666666666666666666666677666666777766677777777777777777777777777777777777777777777777777777777777777776666677776666776666666666666666666666666666666665555556555555555555555555555544445444444444444444444444433333333333333333332222222222222222221111111111111<<<<<<<<<<<<<<<<,,,,,,,,,,,,,,,>>>>>>>>>>>>>>:>>:::::::::::;;;;;;;;;;;;;---------------===========*==*********&*&&&&&&&&&&%%%%%%%%%%%%%$$$$$$$$$$##$########@@@@@@@@@@@@+++@+++++++++OOOOOOOOOOOoooooooooooXXXXXXXX............                                                                                                      5FZZZZZZZZZZZZZZZZZZZZFFFFFFFFFFFFFFFFFFFFZZZZZZZZZZZZZZZZZZZZFFFFFFFFFFFFFFFFFFFF",
"FFFFFFFFFFFFFFFFFFFFZZZZZZZZZZZZZZZZZZZZFFFFFFFFFFFFFFFFFFFFZZZZZZZZZZZZZZZZZZZZFFp111111111111122222222222222233333333333333333333444444444444444444444444444455555555555555555555555565555666666666666666666666666666666666666666677776666777677666677777777777777777777777777777777777777777677666677777666667776666666666666666666666666666666666566666555555555555555555555555555554444444544444444444444444333333333333333333332222222222222222221111111111111<<<<<<<<<<<<<<<<,,,,,,,,,,,,,,,,>>>>>>>>>>>>>:::::::::::::::;;;;;;;;;;;;--------------=-=========*************&&*&&&&&&&&&&&%%%%%%%%%%%%$$$$$$$$$###########@@@@@@@@@@@@++++@++++++++OOOOOOOOOooooooooooooXXXXXXXXX.............                                                                                                     oMFZZZZZZZZZZZZZZZZZZZZFFFFFFFFFFFFFFFFFFFFZZZZZZZZZZZZZZZZZZZZFFFFFFFFFFFFFFFFFFFF",
"FFFFFFFFFFFFFFFFFFFFZZZZZZZZZZZZZZZZZZZZFFFFFFFFFFFFFFFFFFFFZZZZZZZZZZZZZZZZZZZZFFC311111111111111122222222222222333333333333333333334444444444444444444454445555555555555555555555555555566665555566666666666666666666666666666666666666677776666667777777766667777777766667777667777666677776666667777776666666666666666666666666666666666666665556666665555555555555555555555545555544455444444444444444444433333333333333333333222222222222222221111111111111111<<<<<<<<<<<<<<<<,<,,,,,,,,,,,,,,,>>>>>>>>>>>::::::::::::::::;;;;;;;;;;;-;;------------==========*************&&*&&&&&&&&&&&&%%%%%%%%%%$$$$$$$$$$#$$#########@@@@@@@@@@@@@@++++++++++OOOOOOOOOoOoooooooooXXXXXXXXXXX...........                                                                                                       0FFZZZZZZZZZZZZZZZZZZZZFFFFFFFFFFFFFFFFFFFFZZZZZZZZZZZZZZZZZZZZFFFFFFFFFFFFFFFFFFFF",
"FFFFFFFFFFFFFFFFFFFFZZZZZZZZZZZZZZZZZZZZFFFFFFFFFFFFFFFFFFFFZZZZZZZZZZZZZZZZZZZZFFFf11111111111111122222222222222223333333333333333333334444444444444444455444455555555555555555555555555555555555555556666666666666666666666666666666666666666666666667777766666677777766667777667777666676766666666666666666666666666666666666666666666666555555555655555555555555555555555555445544444454444444444444444433333333333333333333322222222222222122211111111111111111<<<<<<<<<<<<<<<<,,,,,,,,,,,,,,,>>>>>>>>>>>>>>::::::::::::::;;;;;;;;;;-;-----------==--==========***********&**&&&&&&&&&&&&&%%%%%%%%%%%$$$$$$$$$$############@@@@@@@@@@@@@+++++++++++OOOOOOOOoooooooooooXoXXXXXXXXX.............                                                                                                     +VFFZZZZZZZZZZZZZZZZZZZZFFFFFFFFFFFFFFFFFFFFZZZZZZZZZZZZZZZZZZZZFFFFFFFFFFFFFFFFFFFF",
"FFFFFFFFFFFFFFFFFFFFZZZZZZZZZZZZZZZZZZZZFFFFFFFFFFFFFFFFFFFFZZZZZZZZZZZZZZZZZZZZFFFA611111111111112222222222222222222233333333333333333333444444444444444444444444455545445555555555555555555555555555566655666666666666666666666666666666666666666666666666666666666666666666666666666666666666666666666666666666666666666666666666666566555665655555555555555555555555555555554444444444444444444444444433333333333333332333322222222222222221211111111111111111<<<<<<<<<<<<,,<<,,,,,,,,,,,,,,,,>>>>>>>>>>>:>>:::::::::::;:;;;;;;;;;;;;;;----------================************&&&&&&&&&&&&&%%%%%%%%%%%$$$$$$$$$$#$###########@@@@@@@@@@@@+++++++++++OOOOOOOOoooooooooooXXoXXXXXXXXXX........                                                                                                         iFFFZZZZZZZZZZZZZZZZZZZZFFFFFFFFFFFFFFFFFFFFZZZZZZZZZZZZZZZZZZZZFFFFFFFFFFFFFFFFFFFF",
"FFFFFFFFFFFFFFFFFFFFZZZZZZZZZZZZZZZZZZZZFFFFFFFFFFFFFFFFFFFFZZZZZZZZZZZZZZZZZZZZFFFFz1<111111111111122222222222222222222333333333333333333333444444444444444444444444444444555555555555555555555555555566655555655666666666666666666666666666666666666666666666666666666666666666666666666666666666666666666666666666666666666666665555566555555555555555555555555555554445555444444444444444444444444433333333333333333223322222222222222222221111111111111<<11<<<<<<<<<<<<<<,,<,,,,,,,,,,,>>,,>>>>>>>>>>>:::>::::::::::;;::;;;;;;;;;;;;;----------=============*==*********&**&&&&&&&&&%%&%%%%%%%%%%%%$$$$$$$$$#$$#########@#@@@@@@@@@@@@+++++++++++OOOOOOOOoOoooooooooXXXXXXXXXXXXX.........                                                                                                        =SFFFZZZZZZZZZZZZZZZZZZZZFFFFFFFFFFFFFFFFFFFFZZZZZZZZZZZZZZZZZZZZFFFFFFFFFFFFFFFFFFFF",
"FFFFFFFFFFFFFFFFFFFFZZZZZZZZZZZZZZZZZZZZFFFFFFFFFFFFFFFFFFFFZZZZZZZZZZZZZZZZZZZZFFFFDw11111111111111111222222222222222222333333333333333333333344444444444444444444444554555555555555555555555555555555555556666565566666666666666666666666666666666666666666666666666666666666666666666666666666666666666666666666666666666665565656656555555555555555555555555555554555554444444444444444444444444433333333333333332333322222222222222112221111111111111<<<<<<<<<<<<<<<<<<<<<,,,,,,,,,,,,>>>>>>>>>>>>>>>:>>:::::::::::;::;;;;;;;;;;;;;;----------=============************&&&&&&&&&&&&%&&%%%%%%%%%%%%$$$$$$$$$$$##########@@@@@@@@@@@@++++@++++++++OOOOOOOOOOOooooooooooXXXXXXXXX..........                                                                                                          kFFFFZZZZZZZZZZZZZZZZZZZZFFFFFFFFFFFFFFFFFFFFZZZZZZZZZZZZZZZZZZZZFFFFFFFFFFFFFFFFFFFF",
"FFFFFFFFFFFFFFFFFFFFZZZZZZZZZZZZZZZZZZZZFFFFFFFFFFFFFFFFFFFFZZZZZZZZZZZZZZZZZZZZFFFFFm2111<11111111111111222222222222222222233332333333333333333334444444444444444444455444455555555555555555555555555555555555556565666666655566666666666666666666666666666666666666666666666666666666666666666666666666666666666666555666655556555555555555555555555555555555455555544444444444444444444444444443333333333333333332233222222222222222211211111111111111<<1<<<<<<<<<<<<<,,,<,,,,,,,,,,,,>>>>>>>>>>>>>>>::::::::::::::;;;:;;;;;;;;;;--;;----------============*************&&&&&&&&&&&&%%%%%%%%%%%%%$$$$$$$$$$$#$$#########@@@@@@@@@@@@@++++++++++++OOOOOOOOOOOoooooooooooXXXXXXXX...........                                                                                                         2DFFFFZZZZZZZZZZZZZZZZZZZZFFFFFFFFFFFFFFFFFFFFZZZZZZZZZZZZZZZZZZZZFFFFFFFFFFFFFFFFFFFF",
"FFFFFFFFFFFFFFFFFFFFZZZZZZZZZZZZZZZZZZZZFFFFFFFFFFFFFFFFFFFFZZZZZZZZZZZZZZZZZZZZFFFFFFu<<<<<11111111111111221112222222222222223322333333333333333333444444444444444444444444444455445555555555555555555555555555555555566655555566555566666666666666666666666666666666666666666666666666666666666666666666665555666555556655555555555555555555555555555555554444555544444444444444444444444444433333333333333333333332222222222222222222111111111111111<<<1<<<<<<<<<<<<<,,,,,,,,,,,,,,,,>>>>>>>>>>>>>>>>:::::::::::::;;;;;;;;;;;;;;;----------------============***********&*&&&&&&&&&%%&%%%%%%%%%%%$$$$$$$$$$############@@@@@@@@@@@@@@+++++++++++OOOOOOOOOOOooooooooooXXXXXXXXX.............                                                                                                       XmFFFFFZZZZZZZZZZZZZZZZZZZZFFFFFFFFFFFFFFFFFFFFZZZZZZZZZZZZZZZZZZZZFFFFFFFFFFFFFFFFFFFF",
"FFFFFFFFFFFFFFFFFFFFZZZZZZZZZZZZZZZZZZZZFFFFFFFFFFFFFFFFFFFFZZZZZZZZZZZZZZZZZZZZFFFFFFC4<<<<111111111111111121112222222222222222223333333333333333333334444444444444444444444444444444555544555555555555555555555555555555555555665555666655556656666666666666666666666666666666666666666666666666655555666655556665555555555555555555555555555555555555555444445444444444444444444444444444333333333333333333333332222222222222222222211111111111111<<<<<<<<<<<<<<<<<<,,,,,,,,,,,,,,,,,>>>>>>>>>>>>>>>>::::::::::::;;;;;;;;;;;;;;-;;----------=--=============*************&&&&&&&&&%&%%%%%%%%%%%%%$$$$$$$$$############@@@@@@@@@@@@@@+++++++++++OOOOOOOOOOOooooooooXooXXXXXXXX.............                                                                                                        qFFFFFFZZZZZZZZZZZZZZZZZZZZFFFFFFFFFFFFFFFFFFFFZZZZZZZZZZZZZZZZZZZZFFFFFFFFFFFFFFFFFFFF",
"ZZZZZZZZZZZZZZZZZZZZFFFFFFFFFFFFFFFFFFFFZZZZZZZZZZZZZZZZZZZZFFFFFFFFFFFFFFFFFFFFZZZZZZZd<<<<11111111111111111122222222222222222222233333333333333333333333444444444444444444444444444445544455555555555555555555555555555555555555555556555555565566665566665555666655555566665555556666555555666666555566665555555555555555555555555555555555555555554555554444444444444444444444444444433333333333333333333333222222222222222222221111111111111111<<<<<<<<<<<<<<<<,<,,,,,,,,,,,,,,,>>>>>>>>>>>>>>>::>::::::::::::;;;;;;;;;;;;;--;;----------==============*=**********&&&&&&&&&&&&&&&%%%%%%%%%%%%$$$$$$$$$#$$#########@@#@@@@@@@@@@@++++++++++OOOOOOOOOOOooooooooooooXXXXXXXX..X...........                                                                                                       #MZZZZZZFFFFFFFFFFFFFFFFFFFFZZZZZZZZZZZZZZZZZZZZFFFFFFFFFFFFFFFFFFFFZZZZZZZZZZZZZZZZZZZZ",
"ZZZZZZZZZZZZZZZZZZZZFFFFFFFFFFFFFFFFFFFFZZZZZZZZZZZZZZZZZZZZFFFFFFFFFFFFFFFFFFFFZZZZZZZV7<<<<<111111111111111111222222222222222222222333333333333333333333333444444444444444444444444444444455555555555555555555555555555555555555555555555555555566665566665555666665555565665555556666555555666655555555555555555555555555555555555555555555545555554444544445444444444444444444444433333333333333333333333322222222222222222222211111111111111111<<<<<<<<<<<<<<,,<<,,,,,,,,,,,,,>,>>>>>>>>>>>>>::>>:::::::::::::;;;;;;;;;;;;-------------===============*=*********&&*&&&&&&&&&&%&&%%%%%%%%%%$%$$$$$$$$$$#############@@@@@@@@@@@@+++++++++++OOOOOOOOOoooooooooooXXXXXXXXXXX.X...........                                                                                                        iZZZZZZZFFFFFFFFFFFFFFFFFFFFZZZZZZZZZZZZZZZZZZZZFFFFFFFFFFFFFFFFFFFFZZZZZZZZZZZZZZZZZZZZ",
"ZZZZZZZZZZZZZZZZZZZZFFFFFFFFFFFFFFFFFFFFZZZZZZZZZZZZZZZZZZZZFFFFFFFFFFFFFFFFFFFFZZZZZZZZl1<<<<<11<<<11111111111111112122222222222222222233333333333333333333333344444444444444444444444544444444555544445455555555555555555555555555555555555555555555555555555555555555555555555555555555555555555555555555555555555555555555555555555555555555444444444444544444444444444444444443333333333333333333333332222222222222222222121111111111111111111<<<<<<<<<<<<<<,,,<,,,,,,,,,,,,,,,,>>>>>>>>>>>>::::::::::::::::::;;;;;;;;;;-----------------==========*************&&&&&&&&&&&&&&&&%%%%%%%%%%%$$$$$$$$$$$#$############@@@@@@@@++++++++++++++OOOOOOOOOooooooooooooXXXXXXXXXXXX...........                                                                                                        ;VZZZZZZZFFFFFFFFFFFFFFFFFFFFZZZZZZZZZZZZZZZZZZZZFFFFFFFFFFFFFFFFFFFFZZZZZZZZZZZZZZZZZZZZ",
"ZZZZZZZZZZZZZZZZZZZZFFFFFFFFFFFFFFFFFFFFZZZZZZZZZZZZZZZZZZZZFFFFFFFFFFFFFFFFFFFFZZZZZZZZCe<<<<<<<1<<11111111111111111122222222222222222222333333333333333333333333344444444444444444444444444444444444445444445555555555555555555555555555555555555555555555555555555555555555555555555555555555555555555555555555555555555555555555444444455555444444444444444444444444444444443333333333333333333333333222222222222222222221111111111111111<111<<<<<<<<<<<<<<<,,,,,,,,,,,,,,,,,,,>>>>>>>>>>>>>:::::::::::::::::;;;;;;;;;;;-----------------===========************&&&&&&&&&&&&&&&&%%%%%%%%%%%%$$$$$$$$$#$$#########@##@@@@@@@@++++++++++++++OOOOOOOOOOooooooooooXoXXXXXXXXXXXX........                                                                                                          XlZZZZZZZZFFFFFFFFFFFFFFFFFFFFZZZZZZZZZZZZZZZZZZZZFFFFFFFFFFFFFFFFFFFFZZZZZZZZZZZZZZZZZZZZ",
"ZZZZZZZZZZZZZZZZZZZZFFFFFFFFFFFFFFFFFFFFZZZZZZZZZZZZZZZZZZZZFFFFFFFFFFFFFFFFFFFFZZZZZZZZZm3<<<<<<<<111<<11111111111111122211222222222222222223332333333333333333333333344444444444444444444444444444444445555555444455555555555555555555555555555555555555555555555555555555555555555555555555555555555555555555555555555555555544555555554444554444444444444444444444444444433333333333333333333333332222222222222222222222111111111111111<111<<<<<<<<<<<<<<<<<,,,,,,,,,,,,,,>>>>>>>>>>>>>>>>::::::::::::::;:::;;;;;;;;;;;;-------------==-==========**************&&&&&&&&&&&%&&&%%%%%%%%%%%%$$$$$$$$$##$#########@@#@@@@@@@@@@@++++++++++++OOOOOOOOoOoooooooooXooXXXXXXXXX...........                                                                                                          8ZZZZZZZZZFFFFFFFFFFFFFFFFFFFFZZZZZZZZZZZZZZZZZZZZFFFFFFFFFFFFFFFFFFFFZZZZZZZZZZZZZZZZZZZZ",
"ZZZZZZZZZZZZZZZZZZZZFFFFFFFFFFFFFFFFFFFFZZZZZZZZZZZZZZZZZZZZFFFFFFFFFFFFFFFFFFFFZZZZZZZZZZs<<<<<<<<<<11<111111111111111111112222222222222222222323333333333333333333333333444444444444444444444444444444445544554454555555445555555555555555555555555555555555555555555555555555555555555555555555555555555555555555555444445555445554444444445544444444444444444444444443333333333333333333323333322222222222222222112222111111111111111<<<1<<<<<<<<<<<<<<,<<<,,,,,,,,,,,,,>>>>>>>>>>>>>>>>>>>::::::::::::;;;:;;;;;;;;;;;;;------------=============***************&&&&&&&&&&%%&%%%%%%%%%%%%%$$$$$$$$$$###########@@@@@@@@@@@@@@++++++++++++OOOOOOOOoooooooooooXXXXXXXXXXXX.X..........                                                                                                         #MZZZZZZZZZFFFFFFFFFFFFFFFFFFFFZZZZZZZZZZZZZZZZZZZZFFFFFFFFFFFFFFFFFFFFZZZZZZZZZZZZZZZZZZZZ",
"ZZZZZZZZZZZZZZZZZZZZFFFFFFFFFFFFFFFFFFFFZZZZZZZZZZZZZZZZZZZZFFFFFFFFFFFFFFFFFFFFZZZZZZZZZZV8<<<<<<<<<<<<1<<<1111111111111111222222222222222222222233333333333333333333333333344444444444444444444444444444554444444445554444555554445555555555555555555555555555555555555555555555555555555555555555555555555555445555555545555444444444444444444444444444444444444444333333333333333333333333333222222222222222222212211111111111111111<<<<<<<<<<<<<<<<<<,,<,,,,,,,,,,,,,,>>>>>>>>>>>>>>>>>>>:::::::::::;:;;;;;;;;;;;;;;;;-------------============****************&&&&&&&&&&%%%%%%%%%%%%%%$$$$$$$$$$$$############@@@@@@@@@+@@++++++++++++OOOOOOOOoooooooooooXXXXXXXXXXX.X......... ..                                                                                                         aZZZZZZZZZZFFFFFFFFFFFFFFFFFFFFZZZZZZZZZZZZZZZZZZZZFFFFFFFFFFFFFFFFFFFFZZZZZZZZZZZZZZZZZZZZ",
"ZZZZZZZZZZZZZZZZZZZZFFFFFFFFFFFFFFFFFFFFZZZZZZZZZZZZZZZZZZZZFFFFFFFFFFFFFFFFFFFFZZZZZZZZZZZx1<<<<<<<<<<<<1<<<<1111111111111111222222222222222222222223333333333333333333333333333444444444444444444444444444444444444444444455555444444555554455555555555555555555555555555555555555555555555555555555554444555544455555444444454444444444444444444444444444444444333333333333333333333333333322222222222222222222221111111111111111<<11<<<<<<<<<<<<<<<<<<,<,,,,,,,,,,,,,,,,,>>>>>>>>>>>>:>>>:::::::::::;:;;;;;;;;;;;;;;-;-----------=--==========*=***********&&&&&&&&&&&&&&%%%%%%%%%%%$$%%$$$$$$$$$#$$###########@@@@@@@@@@@@++++++++++++OOOOOOOOoooooooooooooXXXXXXXXX...........  .                                                                                                         >CZZZZZZZZZZFFFFFFFFFFFFFFFFFFFFZZZZZZZZZZZZZZZZZZZZFFFFFFFFFFFFFFFFFFFFZZZZZZZZZZZZZZZZZZZZ",
"ZZZZZZZZZZZZZZZZZZZZFFFFFFFFFFFFFFFFFFFFZZZZZZZZZZZZZZZZZZZZFFFFFFFFFFFFFFFFFFFFZZZZZZZZZZZZt<<<<<<<<<<<<<<1<<<<111111111111111122112222222222222222222233333333333333333333333333333444444444444444444444444444444444554444445544554555555555554444555555554444555555555555555555554444555555554455555544555555445444454444445444444444444444444444444444444433333333333333333333333333333222222222222222222222222111111111111111<<111<<<<<<<<<<<<<<<<<,,,,,,,,,,,,,,,>>>,>>>>>>>>>>>>>:::::::::::::::;;;;;;;;;;;;;;;;;-----------=-===============***********&&&&&&&&&&&&&&&%%%%%%%%%%$$$$$$$$$$$$$#############@@@@@@@@@+@@++++++++++OOOOOOOOOOOoooooooooooooXXXXXXXXXX.........                                                                                                            XxZZZZZZZZZZZFFFFFFFFFFFFFFFFFFFFZZZZZZZZZZZZZZZZZZZZFFFFFFFFFFFFFFFFFFFFZZZZZZZZZZZZZZZZZZZZ",
"ZZZZZZZZZZZZZZZZZZZZFFFFFFFFFFFFFFFFFFFFZZZZZZZZZZZZZZZZZZZZFFFFFFFFFFFFFFFFFFFFZZZZZZZZZZZZM3<<<<<<<<<<<<<<<<<<1<11111111111111112222222222222222222222222333332333333333333333333333333444444444444444444444444444444444554444444444444444455544445555555544445555555544445555555544445555555544555544444444444455444444444444444444444444444444444444443333333333333333333333333333332222222222222222222122221111111111111111<<<<1<<<<<<<<<<<<<<<<,<<,,,,,,,,,,,,,,,,,>>>>>>>>>>>>>>>:::::::::::::::;;;;;;;;;;;;;;-;-----------==-=============**************&&&&&&&&&&&&&%%%%%%%%%%%$$$$$$$$$$##$#########@@#@@@@@@@@@++@+@@++++++++OOOOOOOOOOoooooooooooooXXXXXXXXXXX........                                                                                                             0ZZZZZZZZZZZZFFFFFFFFFFFFFFFFFFFFZZZZZZZZZZZZZZZZZZZZFFFFFFFFFFFFFFFFFFFFZZZZZZZZZZZZZZZZZZZZ",
"ZZZZZZZZZZZZZZZZZZZZFFFFFFFFFFFFFFFFFFFFZZZZZZZZZZZZZZZZZZZZFFFFFFFFFFFFFFFFFFFFZZZZZZZZZZZZZf<,,<<<<<<<<<<<<<<<<<<<<1111111111111111122222222222222222222222233323333333333333333333333333334444444444444444444444444444444444444444444444444554444444444554444444455555544444455555444444444444444444444444444444444444444444444444444444444444444433333333333333333333333333333232222222222222222222222111211111111111111111111<<<<<<<<<<<<<<<,,,<<,,,,,,,,,,,,,,,,,>>>>>>>>>>>>>>>>>:::::::::::::::;;;;;;;;;;;--;;----------==============**==*************&&&&&&&&&&&&&%%%%%%%%%%%%$$$$$$$$$##$#########@@@@@@@@@@@@+++++++++++++++OOOOOOOOOOOoooooooooXoXXXXXXXXX.X...........                                                                                                          %NZZZZZZZZZZZZFFFFFFFFFFFFFFFFFFFFZZZZZZZZZZZZZZZZZZZZFFFFFFFFFFFFFFFFFFFFZZZZZZZZZZZZZZZZZZZZ",
"ZZZZZZZZZZZZZZZZZZZZFFFFFFFFFFFFFFFFFFFFZZZZZZZZZZZZZZZZZZZZFFFFFFFFFFFFFFFFFFFFZZZZZZZZZZZZZC0,,,,<<<<<<<<<<<<<<<<<<<11111111111111111122222222222222222222222223333333333333333333333333333333334444443444444444444444444444444444444444444455444444444455444444444444444444444455444444444444444444444444444444444444444444444444444444444444433333333333333333333333333322233322222222222222222222222211111111111111111<11111<<<<<<<<<<<<<<<,,,<,,,,,,,,,,,,,>,,,>>>>>>>>>>>>>::::::::::::::::::::;;;;;;;;;;;--;------------=============*=***************&&&&&&&&&%&&%%%%%%%%%%%%%$$$$$$$$$############@@@@@@@@@@@@@++++++++++++++OOOOOOOOOOOooooooooooXXXXXXXXXXX.X........                                                                                                            .gZZZZZZZZZZZZZFFFFFFFFFFFFFFFFFFFFZZZZZZZZZZZZZZZZZZZZFFFFFFFFFFFFFFFFFFFFZZZZZZZZZZZZZZZZZZZZ",
"ZZZZZZZZZZZZZZZZZZZZFFFFFFFFFFFFFFFFFFFFZZZZZZZZZZZZZZZZZZZZFFFFFFFFFFFFFFFFFFFFZZZZZZZZZZZZZZb2,,<<<<<<<<<<<<<<<<<<1<<<1111111111111111112222222222222222222222222233333333333333333333333333333333333344444444444444444444444444444444444444444444444444444444444444554444444444554444444444444444444444444444444444444444444444444444444433333333333333333333333333333333332222222222222222222222112211111111111111111<1111<<<<<<<<<<<<<<<<<<<<,,,,,,,,,,,,,>>>,,>>>>>>>>>>>>:>>>:::::::::::::;::;;;;;;;;;;;---;-----------=-============**=**********&**&&&&&&&&&&&&&%%%%%%%%%%$$$$$$$$$$$$############@@@@@@@@@@@@@++++@+++++++++OOOOOOOOOooooooooooooXXXXXXXXXXXXX.........                                                                                                            4CZZZZZZZZZZZZZFFFFFFFFFFFFFFFFFFFFZZZZZZZZZZZZZZZZZZZZFFFFFFFFFFFFFFFFFFFFZZZZZZZZZZZZZZZZZZZZ",
"ZZZZZZZZZZZZZZZZZZZZFFFFFFFFFFFFFFFFFFFFZZZZZZZZZZZZZZZZZZZZFFFFFFFFFFFFFFFFFFFFZZZZZZZZZZZZZZZs<,,<<<,<<<<<<<<<<<<<<<1111<<1111111111111111122222222222222222222222222233333333333333333333333333333333333344444444444444444444444444444444444444444444444444444444444444444444444444444444444444444444444444444444444444444444444444333333333333333333333333333333333333222222222222222222222122221111111111111111111<<<1<<<<<<<<<<<<<<<<,,,<<,,,,,,,,,,,,,>>>>>>>>>>>>>>>>>>::>>::::::::::::;:;;;;;;;;;;;;;--------------==============**************&&&&&&&&&&&&&%%%%%%%%%%%%%%%$$$$$$$$$$##$#########@@@@@@@@@@@@@@+++++++++++++OOOOOOOOoOOooooooooooXXXXXXXXXXXXX........ ..                                                                                                          #mZZZZZZZZZZZZZZFFFFFFFFFFFFFFFFFFFFZZZZZZZZZZZZZZZZZZZZFFFFFFFFFFFFFFFFFFFFZZZZZZZZZZZZZZZZZZZZ",
"ZZZZZZZZZZZZZZZZZZZZFFFFFFFFFFFFFFFFFFFFZZZZZZZZZZZZZZZZZZZZFFFFFFFFFFFFFFFFFFFFZZZZZZZZZZZZZZZV8,,,,,,,,<<<<<<<<<<<<<<<<111<<111111111111111111222211222222222222222222222322333333333333333333333333333333333333444444444444444444444444444444444444444444444444444444444444444444444444444444444444444444444444444444444444444333333333333333333333333333333322333332222222222222222222222222222111111111111111111111<<<<<<<<<<<<<<<<<,,,,,,,,,,,,,,,,,,,>>>>>>>>>>>>>>>>>::::::::::::::::;;;;;;;;;;;;;;;;;;;------------================**********&*&&&&&&&&&&&&%%%%%%%%%%%%%%%%$$$$$$$$$###############@@@@@@@@@@@@++++++++++++OOOOOOOOOOOooooooooooooXXXXXXXXXXX........                                                                                                              aZZZZZZZZZZZZZZZFFFFFFFFFFFFFFFFFFFFZZZZZZZZZZZZZZZZZZZZFFFFFFFFFFFFFFFFFFFFZZZZZZZZZZZZZZZZZZZZ",
"ZZZZZZZZZZZZZZZZZZZZFFFFFFFFFFFFFFFFFFFFZZZZZZZZZZZZZZZZZZZZFFFFFFFFFFFFFFFFFFFFZZZZZZZZZZZZZZZZc1,,,,,,,,,<<<<<<<<<<<<<<<<1<<<<<111111111111111112211122222222222222222222222223333233333333333333333333333333333333333444444444444444444444444444444444444444444444444444444444444444444444444444444444444444444444444443333333333333333333333333333333333333323332222222222222222222222222222111111111111111111<<111<<<<<<<<<<<<<<<<<,,,,,,,,,,,,,,,,,,,,>>>>>>>>>>>>>>>>::::::::::::::::;;;;;;;;;;;;;;;-;;-----------==-===============*************&&&&&&&&&&%&%%%%%%%%%%%$%%$$$$$$$$$$###############@@@@@@@@@@@@++++++++++++OOOOOOOOOOOooooooooooooXXXXXXXX.XX........                                                                                                              1CZZZZZZZZZZZZZZZFFFFFFFFFFFFFFFFFFFFZZZZZZZZZZZZZZZZZZZZFFFFFFFFFFFFFFFFFFFFZZZZZZZZZZZZZZZZZZZZ",
"ZZZZZZZZZZZZZZZZZZZZFFFFFFFFFFFFFFFFFFFFZZZZZZZZZZZZZZZZZZZZFFFFFFFFFFFFFFFFFFFFZZZZZZZZZZZZZZZZZi,,,,,,,,<<<<<<<<<<<<<<<<<<<<<<<<111111111111111111111122112222222222222222222222233333333333333333333333333333333333333333333344444444444444444444444444444444444444444444444444444444444444444444444444444444443333333333333333333333333333333333333333333333222222222222222222222211222111111111111111111111<<111<<<<<<<<<<<<<<<<,,,,,,,,,,,,,,,,,,,,,,,>>>>>>>>>>>>>>>>::::::::::::::::;;;;;;;;;;;;;-;;;-------------=-==========**************&&&&&&&&&&&&&&&&%%%%%%%%%%%$$$$$$$$$$$$############@@@@@@@@@@@@@@@+++++++++++OOOOOOOOOOOOoooooooooXXXXXXXXXXX.XX........  .                                                                                                           +bZZZZZZZZZZZZZZZZFFFFFFFFFFFFFFFFFFFFZZZZZZZZZZZZZZZZZZZZFFFFFFFFFFFFFFFFFFFFZZZZZZZZZZZZZZZZZZZZ",
"ZZZZZZZZZZZZZZZZZZZZFFFFFFFFFFFFFFFFFFFFZZZZZZZZZZZZZZZZZZZZFFFFFFFFFFFFFFFFFFFFZZZZZZZZZZZZZZZZZB6,,,,,,,,<<<,,<<<<<<<<<<<<<<<<<<111111111111111111111122112222222222222222222222222223333333223333333333333333333333333333333333333333344444444444444444444444444444444444444444444444444444444444444443333333333333333333333333333333333333333333333333332222222222222222222222222221221111111111111111111111<<<<<<<<<<<<<<<<<<,,<,,,,,,,,,,,,,,,,,>>,,>>>>>>>>>>>>>:>>>>::::::::::::::::;;;;;;;;;;;;--;-----------==--===========*****************&&&&&&&&&&&&&%%%%%%%%%%%%%$$$$$$$$$$$###########@@@@@@@@@@@@@@@++++++++++++OOOOOOOOoOOoooooooooXXXXXXXXXXX............                                                                                                              uZZZZZZZZZZZZZZZZZFFFFFFFFFFFFFFFFFFFFZZZZZZZZZZZZZZZZZZZZFFFFFFFFFFFFFFFFFFFFZZZZZZZZZZZZZZZZZZZZ",
"ZZZZZZZZZZZZZZZZZZZZFFFFFFFFFFFFFFFFFFFFZZZZZZZZZZZZZZZZZZZZFFFFFFFFFFFFFFFFFFFFZZZZZZZZZZZZZZZZZZz<,,,,,,,,,<<,,,<<<<<<<<<<<<<<<<<11<<<111111111111111111112222222222222222222222222222222333323333333333333333333333333333333333333333333333333333333444444444444444444444444444444444444433333333333333333333333333333333333333333333333333333333333222222222222222222222222211222211111111111111111111<<<<11<<<<<<<<<<<<<<<<<<<<<,,,,,,,,,,,,,,,>>>>>>>>>>>>>>>>>>::>>::::::::::::;;::;;;;;;;;;;;;;;-------------===-============************&&&*&&&&&&&&&&%&&%%%%%%%%%%%%%$$$$$$$$$$$$##########@@@@@@@@@@@@+++++++++++++++OOOOOOOOoooooooooooooXXXXXXXXXX..............                                                                                                            :VZZZZZZZZZZZZZZZZZFFFFFFFFFFFFFFFFFFFFZZZZZZZZZZZZZZZZZZZZFFFFFFFFFFFFFFFFFFFFZZZZZZZZZZZZZZZZZZZZ",
"ZZZZZZZZZZZZZZZZZZZZFFFFFFFFFFFFFFFFFFFFZZZZZZZZZZZZZZZZZZZZFFFFFFFFFFFFFFFFFFFFZZZZZZZZZZZZZZZZZZZy,,,,,,,,,,,,,,,,<<<<<<<<<<<<<<<<<1<<<<<1111111111111111111222222112222222222222222222222222233333333333333333333333333333333333333333333333333333333333333333333333333333333333333333333333333333333333333333333333333333333333333332233333322322222222222222222222222222222222211111111111111111111<<<<<<<<<<<<<<<<<<<<<<<<<<<,,,,,,,,,,,,,,,>>>>>>>>>>>>>>>>>>:::::::::::::::::;;;:;;;;;;;;;;;--;;------------=================***********&&&&&&&&&&&&&&&%&%%%%%%%%%%%%%$$$$$$$$$$$$##########@@@@@@@@@@@@+++++++++++++++OOOOOOOOOoooooooooooooXXXXXXXXX.X............                                                                                                            OcZZZZZZZZZZZZZZZZZZFFFFFFFFFFFFFFFFFFFFZZZZZZZZZZZZZZZZZZZZFFFFFFFFFFFFFFFFFFFFZZZZZZZZZZZZZZZZZZZZ",
"FFFFFFFFFFFFFFFFFFFFZZZZZZZZZZZZZZZZZZZZFFFFFFFFFFFFFFFFFFFFZZZZZZZZZZZZZZZZZZZZFFFFFFFFFFFFFFFFFFFA6,,,,,,,,,,,,,,,<<<<<<<<<<<<<<<<<<<<<<1111111111111111111111112222112222222222222222222222222222333333333333333333333333333333333333333333333333333333333333333333333333333333333333333333333333333333333333333333333333333333323333233333222222222222222222222222222212122211111111111111111111111111<<<<<<<<<<<<<<<<<,<<<<,,,,,,,,,,,,,,,,,>>>>>>>>>>>>>>>>>:>::::::::::::::::;;;;;;;;;;;;;;;---;-------------=============**************&&&&&&&&&&&&&%%%%%%%%%%%%%%%%$$$$$$$$$$$$$###########@@@@@@@@@@@@@@++++++++++++OOOOOOOOOOooooooooooXXXXXXXXXXXXXX......... .                                                                                                             pFFFFFFFFFFFFFFFFFFFZZZZZZZZZZZZZZZZZZZZFFFFFFFFFFFFFFFFFFFFZZZZZZZZZZZZZZZZZZZZFFFFFFFFFFFFFFFFFFFF",
"FFFFFFFFFFFFFFFFFFFFZZZZZZZZZZZZZZZZZZZZFFFFFFFFFFFFFFFFFFFFZZZZZZZZZZZZZZZZZZZZFFFFFFFFFFFFFFFFFFFFx<,,,,,,,,,,,,,,,,<<<<<<<<<<<<<<<<<<<<1111<<11111111111111111111121122222222222222222222222222222222233333323333333333333333333333333333333333333333333333333333333333333333333333333333333333333333333333333333333333332233333233333222222222222222222222222222222222211111111111111111111111<<<<11<<<<<<<<<<<<<<<<<,,,<<,,,,,,,,,,,,,,,,,>>>>>>>>>>>>>>>>>::>>::::::::::::::::;;;;;;;;;;;;;;--------------==--===========**************&**&&&&&&&&&&&%%%%%%%%%%%%%%%%$$$$$$$$$$#$$#########@##@@@@@@@@@@@@@++++++++++++OOOOOOOOooooooooooooXXXXXXXXXXXXXX.........                                                                                                               ,SFFFFFFFFFFFFFFFFFFFZZZZZZZZZZZZZZZZZZZZFFFFFFFFFFFFFFFFFFFFZZZZZZZZZZZZZZZZZZZZFFFFFFFFFFFFFFFFFFFF",
"FFFFFFFFFFFFFFFFFFFFZZZZZZZZZZZZZZZZZZZZFFFFFFFFFFFFFFFFFFFFZZZZZZZZZZZZZZZZZZZZFFFFFFFFFFFFFFFFFFFFZu,,,,,,,,,,,,,,,,,,,,,,<<<<<<<<<<<<<<<<<<<<111111111111111111111111122221122222222222222222222222222222222233332233333323333333333333333333333333333333333333333333333333333333333333333333333333333333333333333333333323333332222222222222222222222222222222112122211111111111111111111111<<<<<<<<<<<<<<<<<<<<<<<<,,,,,,,,,,,,,,,,,,,>,,>>>>>>>>>>>>>>>>>>:::::::::::::::;:::;;;;;;;;;;;;;;;;------------==================**************&&&&&&&&&&&%%&%%%%%%%%%%%%%$$$$$$$$$$##$#########@@@@@@@@@@@@@@@@++++++++++++OOOOOOOOooooooooooooXXXXXXXXXXXXXX.........                                                                                                               +vFFFFFFFFFFFFFFFFFFFFZZZZZZZZZZZZZZZZZZZZFFFFFFFFFFFFFFFFFFFFZZZZZZZZZZZZZZZZZZZZFFFFFFFFFFFFFFFFFFFF",
"FFFFFFFFFFFFFFFFFFFFZZZZZZZZZZZZZZZZZZZZFFFFFFFFFFFFFFFFFFFFZZZZZZZZZZZZZZZZZZZZFFFFFFFFFFFFFFFFFFFFZB6,>,,,,,,,,,,,,,,,,,,,<<<<<<<<<<<<<<<<<<<<1111<<11111111111111111111112111222212222222222222222222222222222222222233333333333333333333333333333333333333333333333333333333333333333333333333333333333333333333333333333222222222222222222222222222222222222211211111111111111111111111<<11<<<<<<<<<<<<<<<<<<<<,,<<,,,,,,,,,,,,,,,,,>,,,,>>>>>>>>>>>>>>>>>::::::::::::::::;;:;;;;;;;;;;;;--;;-----------=--===============***************&&&&&&&&&&&&&%%%%%%%%%%%%%%$$$$$$$$$$$$$##########@@@@@@@@@@@@@@@+++++++++++OOOOOOOOOooooooooooooXoXXXXXXXXXXXX...........                                                                                                              iZFFFFFFFFFFFFFFFFFFFFZZZZZZZZZZZZZZZZZZZZFFFFFFFFFFFFFFFFFFFFZZZZZZZZZZZZZZZZZZZZFFFFFFFFFFFFFFFFFFFF",
"FFFFFFFFFFFFFFFFFFFFZZZZZZZZZZZZZZZZZZZZFFFFFFFFFFFFFFFFFFFFZZZZZZZZZZZZZZZZZZZZFFFFFFFFFFFFFFFFFFFFZZx<>>>,,,,,,,,,,,,,,,,<<<,,,<<<<<<<<<<<<<<<<<<11111<1111111111111111111111122222222222222222222222222222222222222222222233333333333333333333333333333333333333333333333333333333333333333333333333333333333333322222222222222222222222222222222222222222112221111111111111111111111<<<<<<<<<<<<<<<<<<<<<<<<<,,,<<<,,,,,,,,,,,,,,,,,>>>>>>>>>>>>>>>>>>>>>>::::::::::::::::;;;;;;;;;;;;;;-----------------==-==============***********&***&&&&&&&&&&&&&%%%%%%%%%%$$$$$$$$$$$$$#$$##########@#@@@@@@@@@@@@@+++++++++++OOOOOOOOOOOooooooooooooXoXXXXXXXXX..............                                                                                                             1CZFFFFFFFFFFFFFFFFFFFFZZZZZZZZZZZZZZZZZZZZFFFFFFFFFFFFFFFFFFFFZZZZZZZZZZZZZZZZZZZZFFFFFFFFFFFFFFFFFFFF",
"FFFFFFFFFFFFFFFFFFFFZZZZZZZZZZZZZZZZZZZZFFFFFFFFFFFFFFFFFFFFZZZZZZZZZZZZZZZZZZZZFFFFFFFFFFFFFFFFFFFFZZZi>>>>,,,,,,,,,,,,,,,,,<,<<<,<<<<<<<<<<<<<<<<<<<11<<<<<111111111111111111111112222222222222222222222222222222222222222222222222333333333223333333333333333333333333333333333333322333333223333333333332222222222222222222222222222222222222222222222221111111111111111111111111111<<<<<<<<<<<<<<<<<<<<<<<,,,,,,,,,,,,,,,,,,,,,,,,,>>>>>>>>>>>>>>>>::>:>::::::::::::::;::;;;;;;;;;;;;;;--------------=---===========*===***********&&&&&&&&&&&&&&&&&%%%%%%%%%%%%$$$$$$$$$$$##$##########@@@@@@@@@@@@+@@++++++++++++OOOOOOOOOOooooooooooooXXXXXXXXXXX.............                                                                                                              @bZZFFFFFFFFFFFFFFFFFFFFZZZZZZZZZZZZZZZZZZZZFFFFFFFFFFFFFFFFFFFFZZZZZZZZZZZZZZZZZZZZFFFFFFFFFFFFFFFFFFFF",
"FFFFFFFFFFFFFFFFFFFFZZZZZZZZZZZZZZZZZZZZFFFFFFFFFFFFFFFFFFFFZZZZZZZZZZZZZZZZZZZZFFFFFFFFFFFFFFFFFFFFZZZB7>>>,,,,,,,,,,,,,,,,,,,,,,,,,,<<<<<<<<<<<<<<<<<<<<<<1111111111111111111111111111112222221122222222222222222222222222222222222222222222222233332233333333332233333333333333333332333333323222222222222222222222222222222222222222222222221122221111111111111111111111111111<<1<111<<<<<<<<<<<<<<<<<<<,,,,<,,,,,,,,,,,,,,,,,>>,,,>>>>>>>>>>>>>>>::::::::::::::::::;;;;;;;;;;;;;;;;;-;;;------------==--===========**************&&&&&&&&&&&&&&&&&&%%%%%%%%%%%%%$$$$$$$$$$$############@@#@@@@@@@@@+++++++++++++++OOOOOOOOOOOOooooooooooooXXXXXXXXX..............                                                                                                              aZZZFFFFFFFFFFFFFFFFFFFFZZZZZZZZZZZZZZZZZZZZFFFFFFFFFFFFFFFFFFFFZZZZZZZZZZZZZZZZZZZZFFFFFFFFFFFFFFFFFFFF",
"FFFFFFFFFFFFFFFFFFFFZZZZZZZZZZZZZZZZZZZZFFFFFFFFFFFFFFFFFFFFZZZZZZZZZZZZZZZZZZZZFFFFFFFFFFFFFFFFFFFFZZZZv1>>>,,,,,,,,,,,,,,,,,,,,,,,,,,,<<<<<<<<<<<<<<<<<<<<1<11<<11111111111111111111111111122211222222222222222222222222222222222222222222222222222222222222222222222222222222222222222222222222222222222222222222222222222222222222222222222211122111111111111111111111111111<<<<<<<<<<<<<<<<<<<<<<<<<<,,,,<,,,,,,,,,,,,,,,,,>>>>,>>>>>>>>>>>>>>>::::::::::::::::::;;;;;;;;;;;;;;;;;---;------------================**************&&&&&&&&&&&&&&&&&%%%%%%%%%%%%%%$$$$$$$$$$$$##########@@@@@@@@@@@@@@++++++++++++++OOOOOOOOOOOOooooooooooooXXXXXXXXXX..........                                                                                                                 4CZZZFFFFFFFFFFFFFFFFFFFFZZZZZZZZZZZZZZZZZZZZFFFFFFFFFFFFFFFFFFFFZZZZZZZZZZZZZZZZZZZZFFFFFFFFFFFFFFFFFFFF",
"FFFFFFFFFFFFFFFFFFFFZZZZZZZZZZZZZZZZZZZZFFFFFFFFFFFFFFFFFFFFZZZZZZZZZZZZZZZZZZZZFFFFFFFFFFFFFFFFFFFFZZZZZd,>>>>,,,>>,,,,,,,,,,,,,,,,,<<<<<<<<<<<<<<<<<<<<<<<<<<1<<111111111111111111111111111111112211222211222222222222222222222222222222222222222222222222222222222222222222222222222222222222222222222222222222222222222222222222222211222222111111111111111111111111111111<<11<<<<<<<<<<<<<<<<<<<<<<<<<<,,,,,,,,,,,,,,,,,,,,>>>>>>>>>>>>>>>>>>>>>>::::::::::::::::;;;;;;;;;;;;;;;;;;;------------=---==============************&***&&&&&&&&&&&%%&%%%%%%%%%%%%$$$$$$$$$$$#$$$############@@@@@@@@@@@@@+++++++++++OOOOOOOOOOooooooooooooXXXXXXXXXXXXXX......... ..                                                                                                              %mZZZZFFFFFFFFFFFFFFFFFFFFZZZZZZZZZZZZZZZZZZZZFFFFFFFFFFFFFFFFFFFFZZZZZZZZZZZZZZZZZZZZFFFFFFFFFFFFFFFFFFFF",
"FFFFFFFFFFFFFFFFFFFFZZZZZZZZZZZZZZZZZZZZFFFFFFFFFFFFFFFFFFFFZZZZZZZZZZZZZZZZZZZZFFFFFFFFFFFFFFFFFFFFZZZZZCq>>>>>>>>>,,,,,,,,,,,,,,,,,,,,<<<<,<<<<<<<<<<<<<<<<<<<<<<1111111111111111111111111111111111112221122222222222222222222222222222222222222222222222222222222222222222222222222222222222222222222222222222222222222222222222211121121111111111111111111111111111<1111<<<<<<<<<<<<<<<<<<<<<<<<<<<,<<,,,,,,,,,,,,,,,,,>>,,,>>>>>>>>>>>>>>>>>:>>::::::::::::::::;;;;;;;;;;;;;;;;--;;------------===============*===***********&&&*&&&&&&&&&&%%%%%%%%%%%%%%%%$$$$$$$$$$$################@@@@@@@@@@@@@++++++++++++OOOOOOOOOooooooooooooXXXXXXXXXXXXXX.........                                                                                                                 XhZZZZZFFFFFFFFFFFFFFFFFFFFZZZZZZZZZZZZZZZZZZZZFFFFFFFFFFFFFFFFFFFFZZZZZZZZZZZZZZZZZZZZFFFFFFFFFFFFFFFFFFFF",
"FFFFFFFFFFFFFFFFFFFFZZZZZZZZZZZZZZZZZZZZFFFFFFFFFFFFFFFFFFFFZZZZZZZZZZZZZZZZZZZZFFFFFFFFFFFFFFFFFFFFZZZZZZM3>>>>>>>>>>,,>,,,,,,,,,,,,,,,,,,,,,,,<<<<<<<<<<<<<<<<<<<<<<<<1111<<1111111111111111111111111111112222222211122222222222222222222222222222222222222222222222222222222222222222222222222222222222222222222222222211222222222111111111111111111111111111111<<<1111<<<<<<<<<<<<<<<<<<<<<<<,,,<<,,,,,,,,,,,,,,,,,,,>>>>>>>>>>>>>>>>>>>>>>>>>::::::::::::::;;:::;;;;;;;;;;;;;--;;--------------==============******************&&&&&&&&&&&&&&%%%%%%%%%%%%%%$$$$$$$$$$###############@@@@@@@@@@@@@@@+++++++++++OOOOOOOOOOooooooooooooXXXXXXXXXXX..X........                                                                                                                  qCZZZZZFFFFFFFFFFFFFFFFFFFFZZZZZZZZZZZZZZZZZZZZFFFFFFFFFFFFFFFFFFFFZZZZZZZZZZZZZZZZZZZZFFFFFFFFFFFFFFFFFFFF",
"FFFFFFFFFFFFFFFFFFFFZZZZZZZZZZZZZZZZZZZZFFFFFFFFFFFFFFFFFFFFZZZZZZZZZZZZZZZZZZZZFFFFFFFFFFFFFFFFFFFFZZZZZZZk,>>>>>>>>>,,>>>>,,,,,,,,,,,,,,,,,,,,<<,,<<<<<<<<<<<<<<<<<<<<<<11<<<<1111111111111111111111111111111111121112221122222222222222222222222222222222222222222222222222222222222222222222222222222222222222222222221122211111111111111111111111111111111<11<<<<<<<<<<<<<<<<<<<<<<<<<<<<,,,,<<,,,,,,,,,,,,,,,,,,,>>>>>>>>>>>>>>>>>>>>>>>>:::::::::::::::::;;:;;;;;;;;;;;;;--------------------============**==************&&*&&&&&&&&&&%&&&%%%%%%%%%%%%%%$$$$$$$$$$################@@@@@@@@@++@+@+++++++++++OOOOOOOOOOOooooooooooooXXXXXXXXXX.............                                                                                                                :BZZZZZZFFFFFFFFFFFFFFFFFFFFZZZZZZZZZZZZZZZZZZZZFFFFFFFFFFFFFFFFFFFFZZZZZZZZZZZZZZZZZZZZFFFFFFFFFFFFFFFFFFFF",
"FFFFFFFFFFFFFFFFFFFFZZZZZZZZZZZZZZZZZZZZFFFFFFFFFFFFFFFFFFFFZZZZZZZZZZZZZZZZZZZZFFFFFFFFFFFFFFFFFFFFZZZZZZZZy>>>>>>>>>>>,>>>,,,,,,,,,,,,,,,,,,,,<<<<,,,<<<<<<<<<<<<<<<<<<<<<<<<<1111<<<11111111111111111111111111111111111222212222222222222222222222222222222222222222222222222222222222222222222221122222222222222121211111111111111111111111111111111111111<<1111<<<<<<<<<<<<<<<<<<<<<<<<,,,,,,,,,,,,,,,,,,,,,,,>,,>>>>>>>>>>>>>>>>>>>:>>>>::::::::::::::::::;;;;;;;;;;;;;;;----------------=---============**=**************&&&&&&&&&&&&&&&&%%%%%%%%%%%%$$$$$$$$$$$$##$#########@###@@@@@@@@@++++++++++++++++OOOOOOOOOOOOoooooooooXXoXXXXXXXXX..............                                                                                                               +cZZZZZZZFFFFFFFFFFFFFFFFFFFFZZZZZZZZZZZZZZZZZZZZFFFFFFFFFFFFFFFFFFFFZZZZZZZZZZZZZZZZZZZZFFFFFFFFFFFFFFFFFFFF",
"FFFFFFFFFFFFFFFFFFFFZZZZZZZZZZZZZZZZZZZZFFFFFFFFFFFFFFFFFFFFZZZZZZZZZZZZZZZZZZZZFFFFFFFFFFFFFFFFFFFFZZZZZZZZB6>>>>>>>>>>>>>>,,,,,,,,,,,,,,,,,,,,,,,<,,,,<<<<<<<<<<<<<<<<<<<<<<<<<<11<<<<111111111111111111111111111111111111111111222222222211222222212122122222122222222222212222222222222222222222112222222211111111111111111111111111111111111111111<<<1111<<<<<<<<<<<<<<<<<<<<<<<<<,<<<<,,,,,,,,,,,,,,,,,,,,,,>>,,,>>>>>>>>>>>>>>>>>::>:::::::::::::::;;;;:;;;;;;;;;;;;;-;;;-------------===-============***************&&**&&&&&&&&&&&&&&%%%%%%%%%%%%%%$$$$$$$$$$$$$###########@@@@@@@@@@@@++++++++++++++++OOOOOOOOOOOOooooooooooXXXXXXXXXXX..............                                                                                                               .iZZZZZZZZFFFFFFFFFFFFFFFFFFFFZZZZZZZZZZZZZZZZZZZZFFFFFFFFFFFFFFFFFFFFZZZZZZZZZZZZZZZZZZZZFFFFFFFFFFFFFFFFFFFF",
"FFFFFFFFFFFFFFFFFFFFZZZZZZZZZZZZZZZZZZZZFFFFFFFFFFFFFFFFFFFFZZZZZZZZZZZZZZZZZZZZFFFFFFFFFFFFFFFFFFFFZZZZZZZZZv<>>>>>>>>>>>>>>>>>,>>,,,,,,,,,,,,,,,,,,,,,<,,,,,<<<<<<<<<<<<<<<<<<<<<<<<<<<<<<<<1<1111111111111111111111111111111111111111111111112222212122122222221122222222111222221221222212112222211111111111111111111111111111111111111111111111<<<<1<11<<<<<<<<<<<<<<<<<<<<<<<<,,,,<<<,,,,,,,,,,,,,,,,,,,,,>>>>>>>>>>>>>>>>>>>>::>>::::::::::::::::;;;;;;;;;;;;;;;;;;;;;;;---------------==============******************&&&&&&&&&&&%%&&%%%%%%%%%%%%%%$$$$$$$$$$#$$###########@@@@@@@@@@@@@@@++++++++++++OOOOOOOOOOOOOooooooooooooXXXXXXXXX............ .                                                                                                                3CZZZZZZZZFFFFFFFFFFFFFFFFFFFFZZZZZZZZZZZZZZZZZZZZFFFFFFFFFFFFFFFFFFFFZZZZZZZZZZZZZZZZZZZZFFFFFFFFFFFFFFFFFFFF",
"FFFFFFFFFFFFFFFFFFFFZZZZZZZZZZZZZZZZZZZZFFFFFFFFFFFFFFFFFFFFZZZZZZZZZZZZZZZZZZZZFFFFFFFFFFFFFFFFFFFFZZZZZZZZZZf>>>>>>>>>>>>>>>>>,,>>>>,,,,,,,,,,,,,,,,,,,,,,,,<<,<<<<<<<<<<<<<<<<<<<<<<<<<<<<<111111<1111111111111111111111111111111111111111111111111111111111112111222222211122111111111111111111111111111111111111111111111111111111111111<1111<<<<<<<<<<<<<<<<<<<<<<<<<<<<<<<<,,,,<,,,,,,,,,,,,,,,,,,,,>,,,>>>>>>>>>>>>>>>>>>>::::>::::::::::::::::;;;;;;;;;;;;;;;;;;--;;----------------===============*************&&**&&&&&&&&&&&%%%%%%%%%%%%%%%%%$$$$$$$$$$$##$##########@@@@@@@@@@@@@@@@++++++++++++OOOOOOOOOOOooooooooooooooXXXXXXXXXX..........                                                                                                                   &MZZZZZZZZZFFFFFFFFFFFFFFFFFFFFZZZZZZZZZZZZZZZZZZZZFFFFFFFFFFFFFFFFFFFFZZZZZZZZZZZZZZZZZZZZFFFFFFFFFFFFFFFFFFFF",
"FFFFFFFFFFFFFFFFFFFFZZZZZZZZZZZZZZZZZZZZFFFFFFFFFFFFFFFFFFFFZZZZZZZZZZZZZZZZZZZZFFFFFFFFFFFFFFFFFFFFZZZZZZZZZZCe>>>>>>>>>>>>>>>>>>>>>,,,,,,,,,,,,,,,,,,,,,,,,,,<,,,,<<<<<<<<<<<<<<<<<<<<<<<<<<<1<<1111<<<<1111111111111111111111111111111111111111111111111111111111111111111111111111111111111111111111111111111111111111111111111111111111<<<1<<<<<<<<<<<<<<<<<<<<<<<<<<<<<<<<<,,,,,,,,,,,,,,,,,,,,,,,,,>,,,>>>>>>>>>>>>>>>>>>>::>>:::::::::::::::::::;;;;;;;;;;;;;;;-----------------==--================*************&&&&&&&&&&&&&%%&&%%%%%%%%%%%%$$$$$$$$$$$$##############@@#@@@@@@@@@++@@+@++++++++++OOOOOOOOOOOOoooooooooooooXXXXXXXXXXX..........                                                                                                                  olZZZZZZZZZZFFFFFFFFFFFFFFFFFFFFZZZZZZZZZZZZZZZZZZZZFFFFFFFFFFFFFFFFFFFFZZZZZZZZZZZZZZZZZZZZFFFFFFFFFFFFFFFFFFFF",
"FFFFFFFFFFFFFFFFFFFFZZZZZZZZZZZZZZZZZZZZFFFFFFFFFFFFFFFFFFFFZZZZZZZZZZZZZZZZZZZZFFFFFFFFFFFFFFFFFFFFZZZZZZZZZZZN5>::>>>>>>>>>>>>>>>>>>,,,,>>,,,,,,,,,,,,,,,,,,,,,,,,<<<<<<<<<<<<<<<<<<<<<<<<<<<<<<<<1<<<<<1<1111111111111111111111111111111111111111111111111111111111111111111111111111111111111111111111111111111111111111111111<<<11111<<<<<<<<<<<<<<<<<<<<<<<<<<<<<<<,,,,,<<,,,,,,,,,,,,,,,,,,,,,,>>,,,,>>>>>>>>>>>>>>>>>:::>>>::::::::::::::::;:::;;;;;;;;;;;;;;-------------------===============*==************&&*&&&&&&&&&&&&%%%%%%%%%%%%%%%%%%$$$$$$$$$$$##############@@@@@@@@@@@@++++@@+++++++++OOOOOOOOOOOOoooooooooooXXXXXXXXXXXXX...........                                                                                                                  yCZZZZZZZZZZFFFFFFFFFFFFFFFFFFFFZZZZZZZZZZZZZZZZZZZZFFFFFFFFFFFFFFFFFFFFZZZZZZZZZZZZZZZZZZZZFFFFFFFFFFFFFFFFFFFF",
"FFFFFFFFFFFFFFFFFFFFZZZZZZZZZZZZZZZZZZZZFFFFFFFFFFFFFFFFFFFFZZZZZZZZZZZZZZZZZZZZFFFFFFFFFFFFFFFFFFFFZZZZZZZZZZZZc<::::>>>>>>>>>>>>>>>>>>>>>>,,,,,,,,,,,,,,,,,,,,,,,,,<,,,,,,<<<<<<<<<<<<<<<<<<<<<<<<<<<<<<<<<<111111<<<111111111111111111111111111111111111111111111111111111111111111111111111111111111111111111111111111<<11<<<<<<<<<1<<<<<<<<<<<<<<<<<<<<<<<<<<<<<<<<,,,,,,,,,,,,,,,,,,,,,,,,,,,,>>>>>>>>>>>>>>>>>>>>>>>>::::::::::::::::::::;;;;;;;;;;;;;;;;;;;;----------------==--=============***=***********&&&&&&&&&&&&&&&&&&%%%%%%%%%%%%%%$$$$$$$$$$$$$$$##########@##@@@@@@@@@@@@++++++++++++++OOOOOOOOOooooooooooooXooXXXXXXXXX...............                                                                                                                 3VZZZZZZZZZZZFFFFFFFFFFFFFFFFFFFFZZZZZZZZZZZZZZZZZZZZFFFFFFFFFFFFFFFFFFFFZZZZZZZZZZZZZZZZZZZZFFFFFFFFFFFFFFFFFFFF",
"FFFFFFFFFFFFFFFFFFFFZZZZZZZZZZZZZZZZZZZZFFFFFFFFFFFFFFFFFFFFZZZZZZZZZZZZZZZZZZZZFFFFFFFFFFFFFFFFFFFFZZZZZZZZZZZZCd>:::>>>>>>>>>>>>>>>>>>>>>>,,,,>,,,,,,,,,,,,,,,,,,,,,,<,,,,<<<,<<<<<<<<<<<<<<<<<<<<<<<<<<<<<<<<1111<<<<11<<<<11111111111111111111111111111111111111111111111111111111111111111111111111111111111111<<<<<<1111<<<<<<<<<<<<<<<<<<<<<<<<<<<<<<<<<<<<<,<<<,,,,,,,,,,,,,,,,,,,,,,,,,,,,,>>>>>>>>>>>>>>>>>>>>>>>>::::::::::::::::::::;;;;;;;;;;;;;;;;;;;;---------------===-=============****************&&&&&&&&&&&&&&&&&%%%%%%%%%%%$$%%$$$$$$$$$$##$$##########@@#@@@@@@@@@@@@@+++++++++++++OOOOOOOOOoOOooooooooooXoXXXXXXXXX.XX............                                                                                                                 &MZZZZZZZZZZZZFFFFFFFFFFFFFFFFFFFFZZZZZZZZZZZZZZZZZZZZFFFFFFFFFFFFFFFFFFFFZZZZZZZZZZZZZZZZZZZZFFFFFFFFFFFFFFFFFFFF",
"ZZZZZZZZZZZZZZZZZZZZFFFFFFFFFFFFFFFFFFFFZZZZZZZZZZZZZZZZZZZZFFFFFFFFFFFFFFFFFFFFZZZZZZZZZZZZZZZZZZZZFFFFFFFFFFFFFDr:::::::>>>>>>>>>>>>>>>>>>>>,,>>,,,,,,,,,,,,,,,,,,,,,,,,,<<<,,,,<<<<<<<<<<<<<<<<<<<<<<<<<<<<<<<<<<<<<1<<<<11111111<<<<<1111111111111111111111111111111111111111111111111111111111111111111<<<<11111111<<<<<<<<<<<<<<<<<<<<<<<<<<<<<<<<<<<<<,,<,,<<<<,,,,,,,,,,,,,,,,,,,,,,,>,,,,,>>>>>>>>>>>>>>>>>>>>>>>>::::::::::::::::;::::;;;;;;;;;;;;;;;-;;;--------------===================****************&&&&&&&&&&&&&&&&%%%%%%%%%%%%$$$$$$$$$$$$$#############@@@@@@@@@@@@@@@@@+++++++++++++OOOOOOOOOooooooooooooXXXXXXXXXXXX............                                                                                                                    ocFFFFFFFFFFFFFZZZZZZZZZZZZZZZZZZZZFFFFFFFFFFFFFFFFFFFFZZZZZZZZZZZZZZZZZZZZFFFFFFFFFFFFFFFFFFFFZZZZZZZZZZZZZZZZZZZZ",
"ZZZZZZZZZZZZZZZZZZZZFFFFFFFFFFFFFFFFFFFFZZZZZZZZZZZZZZZZZZZZFFFFFFFFFFFFFFFFFFFFZZZZZZZZZZZZZZZZZZZZFFFFFFFFFFFFFFZ5::::::>>>>>>>>>>>>>>>>>>>>>>>>,,,,>>,,,,,,,,,,,,,,,,,,,,,,,<,,<<<<,,<<<<<<<<<<<<<<<<<<<<<<<<<<<<<<<<<<<<<<<11111<<<<<<111111<1<1<<<<11111111111111111111111111111111<<111111<1<1<<111111<<<<<11<<<<<<<<<<<<<<<<<<<<<<<<<<<<<<<<<<<<<<<,,,,<<,,,,,,,,,,,,,,,,,,,,,,,,,,>>>>,,>>>>>>>>>>>>>>>>>>>>::>>>::::::::::::::::;;;::;;;;;;;;;;;;;;;--;;---------------====================****************&&&&&&&&&&&&&&&%%%%%%%%%%%%%$$$$$$$$$$$$#############@@@@@@@@@@@@@++@@++++++++++++OOOOOOOOOOooooooooooooXXXXXXXXXXXX............                                                                                                                     iFFFFFFFFFFFFFFZZZZZZZZZZZZZZZZZZZZFFFFFFFFFFFFFFFFFFFFZZZZZZZZZZZZZZZZZZZZFFFFFFFFFFFFFFFFFFFFZZZZZZZZZZZZZZZZZZZZ",
"ZZZZZZZZZZZZZZZZZZZZFFFFFFFFFFFFFFFFFFFFZZZZZZZZZZZZZZZZZZZZFFFFFFFFFFFFFFFFFFFFZZZZZZZZZZZZZZZZZZZZFFFFFFFFFFFFFFFn<:::::::>>:>>>>>>>>>>>>>>>>>>>>>,>>>,,>,,,,,,,,,,,,,,,,,,,,,,,,,<<,,<,,,,<<<<<<<<<<<<<<<<<<<<<<<<<<<<<<<<<<<<<<<<<<<<<<<11<1<<<<<<<<11<1<<<<<<<111<<<<11<<<111<<<<<<<<<111<<<<<<<<<<1<<<<<<<<<<<<<<<<<<<<<<<<<<<<<<<<<<<<<<<<<<<,,,,<,,,<<,,,,,,,,,,,,,,,,,,,,,,,,>>,>>>,>>>>>>>>>>>>>>>>>>>::>::>::::::::::::::::::;;;;;;;;;;;;;;;;;;;-;;;--------------=---=============**==************&&**&&&&&&&&&&&&&&&%%%%%%%%%%%%%%%$$$$$$$$$$$$$$##########@@@@@@@@@@@@@@+++@+++++++++++OOOOOOOOOOOOoooooooooooooXXXXXXXXXXX............                                                                                                                   5DFFFFFFFFFFFFFFZZZZZZZZZZZZZZZZZZZZFFFFFFFFFFFFFFFFFFFFZZZZZZZZZZZZZZZZZZZZFFFFFFFFFFFFFFFFFFFFZZZZZZZZZZZZZZZZZZZZ",
"ZZZZZZZZZZZZZZZZZZZZFFFFFFFFFFFFFFFFFFFFZZZZZZZZZZZZZZZZZZZZFFFFFFFFFFFFFFFFFFFFZZZZZZZZZZZZZZZZZZZZFFFFFFFFFFFFFFFFj>::::::::::>>::>>>>>>>>>>>>>>>>>>>>,,>>>>>,,,,,,,,,,,,,,,,,,,,,,,,,<<,,,<<,,<<<<<<<<<<<<<<<<<<<<<<<<<<<<<<<<<<<<<<<<<<<<<<<<<<<<<<111<<<<<<<<<111<<<<<1<<<111<<<<<<<<<<<<<<<<<<<<<<<<<<<<<<<<<<<<<<<<<<<<<<<<<<<<<<<<<<<<<,<<,,,,<,<,,,,,,,,,,,,,,,,,,,,,,,,,,,>>>>,>>>>>>>>>>>>>>>>>>>>>::::::::::::::::::::::;;::;;;;;;;;;;;;;;;;;--;;--------------===-=============****************&&&&&&&&&&&&&&&&%%&&%%%%%%%%%%%%%%$$$$$$$$$$$#$$#############@@@@@@@@@@@@@++++++++++++++OOOOOOOOOOOOOooooooooooooXXXXXXXXXXXX............                                                                                                                  -CFFFFFFFFFFFFFFFZZZZZZZZZZZZZZZZZZZZFFFFFFFFFFFFFFFFFFFFZZZZZZZZZZZZZZZZZZZZFFFFFFFFFFFFFFFFFFFFZZZZZZZZZZZZZZZZZZZZ",
"ZZZZZZZZZZZZZZZZZZZZFFFFFFFFFFFFFFFFFFFFZZZZZZZZZZZZZZZZZZZZFFFFFFFFFFFFFFFFFFFFZZZZZZZZZZZZZZZZZZZZFFFFFFFFFFFFFFFFDu::::::::::>:::>>>>>>>>>>>>>>>>>>>>>>>,,,>>,,,,,,,,,,,,,,,,,,,,,,,,,,,,,,,,,,,,<<<<<<<<<<<<<<<<<<<<<<<<<<<<<<<<<<<<<<<<<<<<<<<<<<<<<<<<<<<<<<<<<<<<<<<<<<<<<<<<<<<<<<<<<<<<<<<<<<<<<<<<<<<<<<<<<<<<<<<<<<<<<<<<<<<<<,,,<<,,<<<<,,,,,,,,,,,,,,,,,,,,,,,,,,,,,,,,,>>>>>>>>>>>>>>>>>>>>>>:>>>>:::::::::::::::::::;:::;;;;;;;;;;;;;;;;;;--------------------================**************&***&&&&&&&&&&&%%&&%%%%%%%%%%%$%%%$$$$$$$$$$##$$##########@@@@@@@@@@@@@@+@@+++++++++++OOOOOOOOOOOOOOOooooooooooXoXXXXXXXXXXXX..........                                                                                                                    +bFFFFFFFFFFFFFFFFZZZZZZZZZZZZZZZZZZZZFFFFFFFFFFFFFFFFFFFFZZZZZZZZZZZZZZZZZZZZFFFFFFFFFFFFFFFFFFFFZZZZZZZZZZZZZZZZZZZZ",
"ZZZZZZZZZZZZZZZZZZZZFFFFFFFFFFFFFFFFFFFFZZZZZZZZZZZZZZZZZZZZFFFFFFFFFFFFFFFFFFFFZZZZZZZZZZZZZZZZZZZZFFFFFFFFFFFFFFFFFA9:::::::::::::>>>::>>>>>>>>>>>>>>>>>>>>>>>,>>>,,,,,,,,,,,,,,,,,,,,,,,,,,,,,,,,,,<<<<,,,,<<<<<<<<<<<<<<<<<<<<<<<<<<<<<<<<<<<<<<<<<<<<<<<<<<<<<<<<<<<<<<<<<<<<<<<<<<<<<<<<<<<<<<<<<<<<<<<<<<<<<<<<<<<<<<<<<<<<<,<<<,<,,<<<<,,,,,,,,,,,,,,,,,,,,,,,,,,,,>,,,,,,,>>>>>>>>>>>>>>>>>>>>>::::>>:::::::::::::::::;;;;;:;;;;;;;;;;;;;;;--;;---------------==---================*************&&&*&&&&&&&&&&&&%%%&%%%%%%%%%%%$$%$$$$$$$$$$$###$##########@@@@@@@@@@@@@+++@+++++++++++OOOOOOOOOOOoooooooooooooooXXXXXXXXXX..X...........                                                                                                                   .gFFFFFFFFFFFFFFFFFZZZZZZZZZZZZZZZZZZZZFFFFFFFFFFFFFFFFFFFFZZZZZZZZZZZZZZZZZZZZFFFFFFFFFFFFFFFFFFFFZZZZZZZZZZZZZZZZZZZZ",
"ZZZZZZZZZZZZZZZZZZZZFFFFFFFFFFFFFFFFFFFFZZZZZZZZZZZZZZZZZZZZFFFFFFFFFFFFFFFFFFFFZZZZZZZZZZZZZZZZZZZZFFFFFFFFFFFFFFFFFFB3::::::::::::::::>>::>>>>>>>>>>>>>>>>>>>>>,>>>>,,>,,,,,,,,,,,,,,,,,,,,,,,,,,,,,,,<,,,,,<<<<<<<<<<<<<<<<<<<<<<<<<<<<<<<<<<<<<<<<<<<<<<<<<<<<<<<<<<<<<<<<<<<<<<<<<<<<<<<<<<<<<<<<<<<<<<<<<<<<<<<<<<<<<<<<<<,,<,<<,,<<,,,,,,,,,,,,,,,,,,,,,,,,,,,,,>,,>>,>,>>>>>>>>>>>>>>>>>>>>>>>>>::::::::::::::::::::::::;;;;;;;;;;;;;;;;;;--;-;--------------==================*==**************&&&&&&&&&&&&&&&%&%&%%%%%%%%%%%%%%%$$$$$$$$$$$##############@#@@@@@@@@@@@@@++++++++++++++OOOOOOOOOOoooooooooooooXooXXXXXXXXX.X.......... ..                                                                                                                   wDFFFFFFFFFFFFFFFFFZZZZZZZZZZZZZZZZZZZZFFFFFFFFFFFFFFFFFFFFZZZZZZZZZZZZZZZZZZZZFFFFFFFFFFFFFFFFFFFFZZZZZZZZZZZZZZZZZZZZ",
"ZZZZZZZZZZZZZZZZZZZZFFFFFFFFFFFFFFFFFFFFZZZZZZZZZZZZZZZZZZZZFFFFFFFFFFFFFFFFFFFFZZZZZZZZZZZZZZZZZZZZFFFFFFFFFFFFFFFFFFFc,::::::::::::::::>::::>>>>>>>>>>>>>>>>>>>>>>>>,,,>>>>,,,,,,,,,,,,,,,,,,,,,,,,,,,,,,,,<<<<<<<,,,,,,,,<<<<<<<<<<<<<<<<<<<<<<<<<<<<<<<<<<<<<<<<<<<<<<<<<<<<<<<<<<<<<<<<<<<<<<<<<<<<<<<<<<<<<<<<<,,,,,,,<<<<,,<<,,,,,,,,,,,,,,,,,,,,,,,,,,,,,,,>>>,,,,>>>>>>>>>>>>>>>>>>>>>>>>>>>>>>::::::::::::::::::;;::::;;;;;;;;;;;;;;;;----;---------------=================***=*************&*&&&&&&&&&&&&&&&%&%%%%%%%%%%%%%%%$$$$$$$$$$$################@#@@@@@@@@@@@@++++++++++++++OOOOOOOOOOOoooooooooooXXXXXXXXXXXXXX.X.........  .                                                                                                                   1AFFFFFFFFFFFFFFFFFFZZZZZZZZZZZZZZZZZZZZFFFFFFFFFFFFFFFFFFFFZZZZZZZZZZZZZZZZZZZZFFFFFFFFFFFFFFFFFFFFZZZZZZZZZZZZZZZZZZZZ",
"ZZZZZZZZZZZZZZZZZZZZFFFFFFFFFFFFFFFFFFFFZZZZZZZZZZZZZZZZZZZZFFFFFFFFFFFFFFFFFFFFZZZZZZZZZZZZZZZZZZZZFFFFFFFFFFFFFFFFFFFFs:::::::::::::::::::::>>:>>>>>>>>>>>>>>>>>>>>>>>>>>>>>,,>,,,,,,,,,,,,,,,,,,,,,,,,,,,,,,,,,,,,<,<,,<<<<,,<<<<,<<<<<<<<<<<<<<<<<<<<<<<<<<<<<<<<<<<<<<<<<<<<<<<<<<<<<<<<<<<<<<<<<<<<<<<,,,,<<<<,,,,,,<<<,,,,,,,,,,,,,,,,,,,,,,,,,,,,,,,,,,,>>>>,,,,>>>>>>>>>>>>>>>>>>>>>>>>::>>>:::::::::::::::::::;;:::;;;;;;;;;;;;;;;;;;;--;-----------------=-==============****************&&&*&&&&&&&&&&&&&&&&%%%%%%%%%%%%$$%$$$$$$$$$$$$#############@@@@@@@@@@@@@@@@@+++++++++++++OOOOOOOOOOooOoooooooooXXXXXXXXXXXXX.XX.........                                                                                                                      %BFFFFFFFFFFFFFFFFFFFZZZZZZZZZZZZZZZZZZZZFFFFFFFFFFFFFFFFFFFFZZZZZZZZZZZZZZZZZZZZFFFFFFFFFFFFFFFFFFFFZZZZZZZZZZZZZZZZZZZZ",
"ZZZZZZZZZZZZZZZZZZZZFFFFFFFFFFFFFFFFFFFFZZZZZZZZZZZZZZZZZZZZFFFFFFFFFFFFFFFFFFFFZZZZZZZZZZZZZZZZZZZZFFFFFFFFFFFFFFFFFFFFCe:;:::::::::::::::::::>:::::>>>>>>>>>>>>>>>>>>>>>>>>>,,>>>>,,,,,,,,,,,,,,,,,,,,,,,,,,,,,,,,,,,,,,,<<<,,<<<<,,,,,,,<<<,,<<,<<<<<<<<<<<<<<<<<<<<<<<<<<<<<<<<<<<<<<<<<<<<<<<,,,,,<<<<<,,,,<<<<,,,,,,,,,,,,,,,,,,,,,,,,,,,,,,,,,,,,,,,,>,,,>>>>>>>>>>>>>>>>>>>>>>>>>>>>>>>>::::::::::::::::::::::::;;:;;;;;;;;;;;;;;;;;;;;;---------------=----================******************&&&&&&&&&&&&&&&&%%%%%%%%%%%%%%$$$$$$$$$$$$$$$############@#@@@@@@@@@@@@@@@+++++++++++++OOOOOOOOOOOooooooooooooXXXXXXXXXXXX............  .                                                                                                                   OlFFFFFFFFFFFFFFFFFFFFZZZZZZZZZZZZZZZZZZZZFFFFFFFFFFFFFFFFFFFFZZZZZZZZZZZZZZZZZZZZFFFFFFFFFFFFFFFFFFFFZZZZZZZZZZZZZZZZZZZZ",
"ZZZZZZZZZZZZZZZZZZZZFFFFFFFFFFFFFFFFFFFFZZZZZZZZZZZZZZZZZZZZFFFFFFFFFFFFFFFFFFFFZZZZZZZZZZZZZZZZZZZZFFFFFFFFFFFFFFFFFFFFZN6;:::::::::::::::::::::::::::::>>>>>>>>>>>>>>>>>>>>>>>>>>>>,>>>>,,,,,,,,,,,,,,,,,,,,,,,,,,,,,,,,,,,,,,,,,,<,,,,,<<<<,,,,,,<<<,<<,,,,<,,,,,,,<<<<,,,<<,<<,,,,<,,,,,,,<<<,,,<<<<<<<<,,,,,,,,,,,,,,,,,,,,,,,,,,,,,,,,,,,,,,,,,,>>>>,>>,>,>>>>>>>>>>>>>>>>>>>>>>>>::>::>>:::::::::::::::::::;;:;::;;;;;;;;;;;;;;;;;--------------------===--=============*====*************&&&*&&&&&&&&&&&&%&&&%%%%%%%%%%%%%%%$$$$$$$$$$$#$$$##########@@@#@@@@@@@@@@@@@++++++++++++++OOOOOOOOOOOOoooooooooooooXXXXXXXXXXX.............                                                                                                                    .iZFFFFFFFFFFFFFFFFFFFFZZZZZZZZZZZZZZZZZZZZFFFFFFFFFFFFFFFFFFFFZZZZZZZZZZZZZZZZZZZZFFFFFFFFFFFFFFFFFFFFZZZZZZZZZZZZZZZZZZZZ",
"ZZZZZZZZZZZZZZZZZZZZFFFFFFFFFFFFFFFFFFFFZZZZZZZZZZZZZZZZZZZZFFFFFFFFFFFFFFFFFFFFZZZZZZZZZZZZZZZZZZZZFFFFFFFFFFFFFFFFFFFFZZn2::;;;:::::::::::::::::::::::::>>>>>>>>>>>>>>>>>>>>>>>>>>>>>>>>>,,,,>,,,,,,,,,,,,,,,,,,,,,,,,,,,,,,,,,,,,,,,,,,,,,,,,,,,,<<<<<<,,,,,,,,,,,,<<<<,,,,<,<<,,,,,,,,,,,,<,,,,,,,,,,,,,,,,,,,,,,,,,,,,,,,,,,,,,,,,,,,,,,,,,,,,>>>>>>>>>>>>>>>>>>>>>>>>>>>>>>>>>>:::::::::::::::::::::::::::;;;;;;;;;;;;;;;;;;;;;;;;-------------------==================****=**************&&&&&&&&&&&&&&&&%%&%%%%%%%%%%%%%%%$$$$$$$$$$$$##$###########@@@@@@@@@@@@@@+@@+++++++++++++OOOOOOOOOOooOooooooooooXooXXXXXXXXX.XX.............                                                                                                                    0CZFFFFFFFFFFFFFFFFFFFFZZZZZZZZZZZZZZZZZZZZFFFFFFFFFFFFFFFFFFFFZZZZZZZZZZZZZZZZZZZZFFFFFFFFFFFFFFFFFFFFZZZZZZZZZZZZZZZZZZZZ",
"ZZZZZZZZZZZZZZZZZZZZFFFFFFFFFFFFFFFFFFFFZZZZZZZZZZZZZZZZZZZZFFFFFFFFFFFFFFFFFFFFZZZZZZZZZZZZZZZZZZZZFFFFFFFFFFFFFFFFFFFFZZZz,;::;;::::::::::::::::::::::::>>>>::>>>>>>>>>>>>>>>>>>>>>>>>>>>,,,>>>>>>,,,,,,,,,,,,,,,,,,,,,,,,,,,,,,,,,,,,,,,,,,,,,,,,,,,,,,,,,,,,,,,,,,,,,,,,,,,,,,,,,,,,,,,,,,,,,,,,,,,,,,,,,,,,,,,,,,,,,,,,,,,,,,,,,,,,,,,,,,>>>>,,,,,>>>>>>>>>>>>>>>>>>>>>>>>>>:>>>>>>:::::::::::::::::::::;::;;;;;;;;;;;;;;;;;;;;;;;;;----------------=----==============********************&&&&&&&&&&&&&%%%&%%%%%%%%%%%%%%%$$$$$$$$$$$$################@@@@@@@@@@@@+++++++++++++++++OOOOOOOOOOoooooooooooooXXXXXXXXXXXX.XX.........  .                                                                                                                     2BZZFFFFFFFFFFFFFFFFFFFFZZZZZZZZZZZZZZZZZZZZFFFFFFFFFFFFFFFFFFFFZZZZZZZZZZZZZZZZZZZZFFFFFFFFFFFFFFFFFFFFZZZZZZZZZZZZZZZZZZZZ",
"ZZZZZZZZZZZZZZZZZZZZFFFFFFFFFFFFFFFFFFFFZZZZZZZZZZZZZZZZZZZZFFFFFFFFFFFFFFFFFFFFZZZZZZZZZZZZZZZZZZZZFFFFFFFFFFFFFFFFFFFFZZZZf>;;;;::::;:::::::::::::::::::::>>::>>:>>>>>>>>>>>>>>>>>>>>>>>>>>>>,>>>>,,,>,,>,,,,,,,,,,,,,,,,,,,,,,,,,,,,,,,,,,,,,,,,,,,,,,,,,,,,,,,,,,,,,,,,,,,,,,,,,,,,,,,,,,,,,,,,,,,,,,,,,,,,,,,,,,,,,,,,,,,,,,,,,,,,>,,,,>>>>>>>>>>>>>>>>>>>>>>>>>>>>>>>>>:::::>:>:::::::::::::::::::::;;;;::;;;;;;;;;;;;;;;;;;----;-----------------==-=================***************&&&*&&&&&&&&&&&&&%%%%%%%%%%%%%%%$%%%$$$$$$$$$$$##################@@@@@@@@@@@@++++++++++++++++OOOOOOOOOOooooooooooooooXXXXXXXXXXXX............                                                                                                                       =mZZZFFFFFFFFFFFFFFFFFFFFZZZZZZZZZZZZZZZZZZZZFFFFFFFFFFFFFFFFFFFFZZZZZZZZZZZZZZZZZZZZFFFFFFFFFFFFFFFFFFFFZZZZZZZZZZZZZZZZZZZZ",
"ZZZZZZZZZZZZZZZZZZZZFFFFFFFFFFFFFFFFFFFFZZZZZZZZZZZZZZZZZZZZFFFFFFFFFFFFFFFFFFFFZZZZZZZZZZZZZZZZZZZZFFFFFFFFFFFFFFFFFFFFZZZZCu:;;;;:;;;;::::::::::::::::::::::::::::::>>>>>>>>>>>>>>>>>>>>>>>>>>>>>>,,>>,>>>>>,,,,,,,,,,,,,,,,,,,,,,,,,,,,,,,,,,,,,,,,,,,,,,,,,,,,,,,,,,,,,,,,,,,,,,,,,,,,,,,,,,,,,,,,,,,,,,,,,,,,,,,,,,,,,,,,,,,,>>>>,,,,>>>>>>>>>>>>>>>>>>>>>>>>>>>>>>>>>>:::::::::::::::::::::::::::::;;;;;;;;;;;;;;;;;;;;;;;--------------------==--====================*************&&&&*&&&&&&&&&&&&&%&&%%%%%%%%%%%%%$%%$$$$$$$$$$$#$#$##############@@@@@@@@@@@@@@+++++++++++++OOOOOOOOOOOOOOoooooooooXooXXXXXXXXXXXX............                                                                                                                      #cZZZZFFFFFFFFFFFFFFFFFFFFZZZZZZZZZZZZZZZZZZZZFFFFFFFFFFFFFFFFFFFFZZZZZZZZZZZZZZZZZZZZFFFFFFFFFFFFFFFFFFFFZZZZZZZZZZZZZZZZZZZZ",
"ZZZZZZZZZZZZZZZZZZZZFFFFFFFFFFFFFFFFFFFFZZZZZZZZZZZZZZZZZZZZFFFFFFFFFFFFFFFFFFFFZZZZZZZZZZZZZZZZZZZZFFFFFFFFFFFFFFFFFFFFZZZZZVq;;;;;;;;;::::;::::::::::::::::::::::::::>>>>>>>>>>>>>>>>>>>>>>>>>>>>>>>>>>>>>>>>,,,,,>>>>>,,,,,,,,,,,,,,,,,,,,,,,,,,,,,,,,,,,,,,,,,,,,,,,,,,,,,,,,,,,,,,,,,,,,,,,,,,,,,,,,,,,,,,,,,,,,,,,,,>>>>,,,,>>>>>>>>>>>>>>>>>>>>>>>>>>>>>>>>>>>>::>>>>::::::::::::::::::::::::;;:::;;;;;;;;;;;;;;;;;;;;-;;------------------====-===============***=**************&&&&&&&&&&&&&&&&&&&%%%%%%%%%%%%%%%%%$$$$$$$$$$$#$$$#############@@@@@@@@@@@@@@@@+++++++++++++OOOOOOOOOOOOOooooooooooXXoXXXXXXXXXX..X......... ..                                                                                                                     ohZZZZZFFFFFFFFFFFFFFFFFFFFZZZZZZZZZZZZZZZZZZZZFFFFFFFFFFFFFFFFFFFFZZZZZZZZZZZZZZZZZZZZFFFFFFFFFFFFFFFFFFFFZZZZZZZZZZZZZZZZZZZZ",
"ZZZZZZZZZZZZZZZZZZZZFFFFFFFFFFFFFFFFFFFFZZZZZZZZZZZZZZZZZZZZFFFFFFFFFFFFFFFFFFFFZZZZZZZZZZZZZZZZZZZZFFFFFFFFFFFFFFFFFFFFZZZZZZN5;;;;;;;;;:::;;;;::::::::::::::::::::::::>>>>:::>>>>>>>>>>>>>>>>>>>>>>>>>>>>>>>>>>,,,,,,,>>>>>,,,>>,,,,,,,,,,,,,,,,,,,,,,,,,,,,,,,,,,,,,,,,,,,,,,,,,,,,,,,,,,,,,,,,,,,,,,,,,,,,,>>,,,,,,,>>>>>>>,>>>>>>>>>>>>>>>>>>>>>>>>>>>>>>>>>>>>::::>>:::::::::::::::::::::::;;;:::;;;;;;;;;;;;;;;;;;;-----;----------------====================***=**************&&&&&&&&&&&&&&&&&&&&&%%%%%%%%%%%%%$%%$$$$$$$$$$$$###############@@@@@@@@@@@@@@@@++@@++++++++++OOOOOOOOOOoooooooooooooXXXXXXXXXXXXX..X..........                                                                                                                       .uZZZZZZFFFFFFFFFFFFFFFFFFFFZZZZZZZZZZZZZZZZZZZZFFFFFFFFFFFFFFFFFFFFZZZZZZZZZZZZZZZZZZZZFFFFFFFFFFFFFFFFFFFFZZZZZZZZZZZZZZZZZZZZ",
"ZZZZZZZZZZZZZZZZZZZZFFFFFFFFFFFFFFFFFFFFZZZZZZZZZZZZZZZZZZZZFFFFFFFFFFFFFFFFFFFFZZZZZZZZZZZZZZZZZZZZFFFFFFFFFFFFFFFFFFFFZZZZZZZb1;;;;;;;;;;;;;;;::::::::::::::::::::::::::>>::::>>>>>>>>>>>>>>>>>>>>>>>>>>>>>>>>>>>>>>>>>>>>>>,,>>,,,,>>,,>>>,,,,,,,,,,,,,,,,,,,,,,,,,,,,,,,,,,,,,,,,,,,,,,,,,,,,,,,,,,,>,,,>>>>>>,,,,,,>>>>>>>>>>>>>>>>>>>>>>>>>>>>>>>>>>>>>>>>>>>>::::::::::::::::::::::::::::;;;;;;;;;;;;;;;;;;;;;;;;---------------------======================*=*****************&&&&&&&&&&&&&&&&&&&%%%%%%%%%%%%%%%$$$$$$$$$$$$$$$$###########@##@@@@@@@@@@@+@@@++++++++++++++OOOOOOOOOOoooooooooooooXXXXXXXXXXXX............. ..                                                                                                                      8CZZZZZZFFFFFFFFFFFFFFFFFFFFZZZZZZZZZZZZZZZZZZZZFFFFFFFFFFFFFFFFFFFFZZZZZZZZZZZZZZZZZZZZFFFFFFFFFFFFFFFFFFFFZZZZZZZZZZZZZZZZZZZZ",
"ZZZZZZZZZZZZZZZZZZZZFFFFFFFFFFFFFFFFFFFFZZZZZZZZZZZZZZZZZZZZFFFFFFFFFFFFFFFFFFFFZZZZZZZZZZZZZZZZZZZZFFFFFFFFFFFFFFFFFFFFZZZZZZZZl,;;;;;;;;;;;;;;::;;;;::::::::::::::::::::::::::>>:>::::>>>>>>>>>>>>>>>>>>>>>>>>>>>>>>>>>>>>>>>>>>>>,,,>,>>>,,,,>>,,>>>>,,>,>>>>>>>,,,>>>>,,,,,,,>>>,,,>,,>>>,,>>>,,>>>>>>,,,,>>>>>>>>>>>>>>>>>>>>>>>>>>>>>>>>>>>>>>>>>>::::::>>>>::::::::::::::::::::::::;;;;:::;;;;;;;;;;;;;;;;;;;;-;;;------------------==--================*====**************&&**&&&&&&&&&&&&&&&&&%%%%%%%%%%%%$%%%$$$$$$$$$$$$$$$$##############@@@@@@@@@@@+++@+++++++++++++OOOOOOOOOOOOoooooooooooXXXXXXXXXXXXX............. .                                                                                                                       1BZZZZZZZFFFFFFFFFFFFFFFFFFFFZZZZZZZZZZZZZZZZZZZZFFFFFFFFFFFFFFFFFFFFZZZZZZZZZZZZZZZZZZZZFFFFFFFFFFFFFFFFFFFFZZZZZZZZZZZZZZZZZZZZ",
"ZZZZZZZZZZZZZZZZZZZZFFFFFFFFFFFFFFFFFFFFZZZZZZZZZZZZZZZZZZZZFFFFFFFFFFFFFFFFFFFFZZZZZZZZZZZZZZZZZZZZFFFFFFFFFFFFFFFFFFFFZZZZZZZZCg:;;;;;;;;;;;;;;;;;;;;;;;:::::::::::::::::::::::::::::::::::>>>>>>>>>>>>>>>>>>>>>>>>>>>>>>>>>>>>>>>>>>>>>>>,,,,>>>,>>>,,,>>>>>>>>>,,,>>>>>,,,,,,>>>,,,>,,>>>>,>>>>>>>>>>>>>>>>>>>>>>>>>>>>>>>>>>>>>>>>>>>>>>>>>>>>:::::::::::::::::::::::::::::::::::::;;;;;;;;;;;;;;;;;;;;;;;;;;----;;------------------=====================*==**************&&&&&&&&&&&&&&&&&%&&&&%%%%%%%%%%%%$%%%$$$$$$$$$$$#$$$###############@@@@@@@@@@@@++++++++++++++++OOOOOOOOOOOOOooooooooooXXXXXXXXXXXXX.............                                                                                                                         ;MZZZZZZZZFFFFFFFFFFFFFFFFFFFFZZZZZZZZZZZZZZZZZZZZFFFFFFFFFFFFFFFFFFFFZZZZZZZZZZZZZZZZZZZZFFFFFFFFFFFFFFFFFFFFZZZZZZZZZZZZZZZZZZZZ",
"FFFFFFFFFFFFFFFFFFFFZZZZZZZZZZZZZZZZZZZZFFFFFFFFFFFFFFFFFFFFZZZZZZZZZZZZZZZZZZZZFFFFFFFFFFFFFFFFFFFFZZZZZZZZZZZZZZZZZZZZFFFFFFFFFFd;;;;;;;;;;;;;;;;;;;::::::::::::::::::::::::::::::::::>>>>::>>>>>>>>>>>>>>>>>>>>>>>>>>>>>>>>>>>>>>>>>>>>>>>>>>>>>>>>>>>>>>>>>>>>>>,,,,>,,,>>>>>>>>>>>>>>>>>>>>>>>>>>>>>>>>>>>>>>>>>>>>>>>>>>>>>>>>>>>>>>>>>>>>::>>>>::::::::::::::::::::::::::::::::;;:::;;;;;;;;;;;;;;;;;;;;;;;---------------------=----===============*====******************&&&&&&&&&&&&&&%%&&%%%%%%%%%%%%$$%%$$$$$$$$$$$$##$$###########@##@@@@@@@@@@@+@@@++++++++++++++OOOOOOOOOOoOOooooooooooXXoXXXXXXXXXXXXX..........  .                                                                                                                      &MFFFFFFFFFZZZZZZZZZZZZZZZZZZZZFFFFFFFFFFFFFFFFFFFFZZZZZZZZZZZZZZZZZZZZFFFFFFFFFFFFFFFFFFFFZZZZZZZZZZZZZZZZZZZZFFFFFFFFFFFFFFFFFFFF",
"FFFFFFFFFFFFFFFFFFFFZZZZZZZZZZZZZZZZZZZZFFFFFFFFFFFFFFFFFFFFZZZZZZZZZZZZZZZZZZZZFFFFFFFFFFFFFFFFFFFFZZZZZZZZZZZZZZZZZZZZFFFFFFFFFFDy;;;;;;;;;;;;;;;;;;;;;:::::::::::::::::::::::::::::::::::::>>>>::::>>>>>>>>>>>>>>>>>>>>>>>>>>>>>>>>>>>>>>>>>>>>>>>>>>>>>>>>>>>>>>>>>>>>>>>>>>>>>>>>>>>>>>>>>>>>>>>>>>>>>>>>>>>>>>>>>>>>>>>>>>>>>>>>>>::::>>>>::>>:::::::::::::::::::::::::::;::::;;;;;;;;;;;;;;;;;;;;;;;;----;;---------------------==================***==**************&&***&&&&&&&&&&&&&&&%%%%%%%%%%%%%%$%$$$$$$$$$$$$$$###############@@@#@@@@@@@@@@@++@++++++++++++++OOOOOOOOOOOoooooooooooooXXXXXXXXXXXXXXX............                                                                                                                        @vFFFFFFFFFFZZZZZZZZZZZZZZZZZZZZFFFFFFFFFFFFFFFFFFFFZZZZZZZZZZZZZZZZZZZZFFFFFFFFFFFFFFFFFFFFZZZZZZZZZZZZZZZZZZZZFFFFFFFFFFFFFFFFFFFF",
"FFFFFFFFFFFFFFFFFFFFZZZZZZZZZZZZZZZZZZZZFFFFFFFFFFFFFFFFFFFFZZZZZZZZZZZZZZZZZZZZFFFFFFFFFFFFFFFFFFFFZZZZZZZZZZZZZZZZZZZZFFFFFFFFFFFAq;;;;;;;;;;;;;;;;;;;;;;;;;;;;;::::::::::::::::::::::::::::::::::::>>>>>>:::>>>>>>>>>>>>>>>>>>>>>>>>>>>>>>>>>>>>>>>>>>>>>>>>>>>>>>>>>>>>>>>>>>>>>>>>>>>>>>>>>>>>>>>>>>>>>>>>>>>>>>>>>>>>>>>>>>>>>>>>>::::::::::::::::::::::::::::::::::::;;;;::;;;;;;;;;;;;;;;;;;;;;;;-;;---------------------=-=--==================******************&&&&*&&&&&&&&&&&&&&&&&%%%%%%%%%%%%%%%%$$$$$$$$$$$$$###############@@@@@@@@@@@@@@@@++++++++++++++++OOOOOOOOOOOoooooooooooooXXXXXXXXXXXXXXXX......... ..                                                                                                                       okFFFFFFFFFFFZZZZZZZZZZZZZZZZZZZZFFFFFFFFFFFFFFFFFFFFZZZZZZZZZZZZZZZZZZZZFFFFFFFFFFFFFFFFFFFFZZZZZZZZZZZZZZZZZZZZFFFFFFFFFFFFFFFFFFFF",
"FFFFFFFFFFFFFFFFFFFFZZZZZZZZZZZZZZZZZZZZFFFFFFFFFFFFFFFFFFFFZZZZZZZZZZZZZZZZZZZZFFFFFFFFFFFFFFFFFFFFZZZZZZZZZZZZZZZZZZZZFFFFFFFFFFFFC6;;--;;;;;;;;;;;;;;;;;;;;;;;;;;:::;;:::::::::::::::::::::::::::::::>>>>::::>>::::>>>>>>>>>>>>>>>>>>>>>>>>>>>>>>>>>>>>>>>>>>>>>>>>>>>>>>>>>>>>>>>>>>>>>>>>>>>>>>>>>>>>>>>>>>>>>>>>>>>>>>:::::::>>>>>::::::::::::::::::::::::::::::::;;;;;;;;;;;;;;;;;;;;;;;;;;;;;;--;;;;--------------------==--===================*****************&&&&*&&&&&&&&&&&&&%%&&%%%%%%%%%%%%%%%%%$$$$$$$$$$$$$##############@#@@@@@@@@@@@@@@@@+++++++++++++++OOOOOOOOOOOOOooooooooooXoXXXXXXXXXXXX............  .                                                                                                                       .aFFFFFFFFFFFFZZZZZZZZZZZZZZZZZZZZFFFFFFFFFFFFFFFFFFFFZZZZZZZZZZZZZZZZZZZZFFFFFFFFFFFFFFFFFFFFZZZZZZZZZZZZZZZZZZZZFFFFFFFFFFFFFFFFFFFF",
"FFFFFFFFFFFFFFFFFFFFZZZZZZZZZZZZZZZZZZZZFFFFFFFFFFFFFFFFFFFFZZZZZZZZZZZZZZZZZZZZFFFFFFFFFFFFFFFFFFFFZZZZZZZZZZZZZZZZZZZZFFFFFFFFFFFFFB2;;;;;-;;;;;;;;;;;;;;;;;;;;;;;::::::::;:::::::::::::::::::::::::::::::::::>>>>:::::>>>>>>>>>>>>>>>>>>>>>>>>>>>>>>>>>>>>>>>>>>>>>>>>>>>>>>>>>>>>>>>>>>>>>>>>>>>>>>>>>>>>>>>>>>>::::>>>>::::::::::::::::::::::::::::::::::::::::::;;::::;;;;;;;;;;;;;;;;;;;;;;;;----;;----------------------===================*==******************&&*&&&&&&&&&&&&&&%%%%%%%%%%%%%%%%%%%$$$$$$$$$$$$$$$$################@@@@@@@@@@@@@@@++++++++++++++OOOOOOOOOOOoOooooooooooooooXXXXXXXXXXXX...........                                                                                                                           eDFFFFFFFFFFFFZZZZZZZZZZZZZZZZZZZZFFFFFFFFFFFFFFFFFFFFZZZZZZZZZZZZZZZZZZZZFFFFFFFFFFFFFFFFFFFFZZZZZZZZZZZZZZZZZZZZFFFFFFFFFFFFFFFFFFFF",
"FFFFFFFFFFFFFFFFFFFFZZZZZZZZZZZZZZZZZZZZFFFFFFFFFFFFFFFFFFFFZZZZZZZZZZZZZZZZZZZZFFFFFFFFFFFFFFFFFFFFZZZZZZZZZZZZZZZZZZZZFFFFFFFFFFFFFFn<--;;----;;;;;;;;;;;;;;;;;;;;;;;;;:::;;;;::::::::::::::::::::::::::::::::::::::::::>>>>>::>:>>>>>>>>>>>>>>>>>>>>>>>>>>>>>>>>>>>>>>>>>>>>>>>>>>>>>>>>>>>>>>>>>>>>::::>>>>:>>>>::::>>>::::::::::::::::::::::::::::::::::::;;;:;::;;;;;;;;;;;;;;;;;;;;;;;;;;;;;;---------------------=-----=================*=**=****************&**&&&&&&&&&&&&&&&%%%%%%%%%%%%%%%%%%%%%$$$$$$$$$$$$$$$$###########@###@@@@@@@@@@@++@@++++++++++++++OOOOOOOOOOOoOOooooooooooooXXXXXXXXXXX.............                                                                                                                           8SFFFFFFFFFFFFFZZZZZZZZZZZZZZZZZZZZFFFFFFFFFFFFFFFFFFFFZZZZZZZZZZZZZZZZZZZZFFFFFFFFFFFFFFFFFFFFZZZZZZZZZZZZZZZZZZZZFFFFFFFFFFFFFFFFFFFF",
"FFFFFFFFFFFFFFFFFFFFZZZZZZZZZZZZZZZZZZZZFFFFFFFFFFFFFFFFFFFFZZZZZZZZZZZZZZZZZZZZFFFFFFFFFFFFFFFFFFFFZZZZZZZZZZZZZZZZZZZZFFFFFFFFFFFFFFFc,-----------;;;;;;;;;;;;;;;;;;;;;;;;::;;;;;;;;:::::::::::::::::::::::::::::::::::::::>::::::>>::::::>>>>>>:::>>:>:>>>>>>>>>>>>>>>>>>>>>>>>>>>>::::>>>>>>>>>>::::::>>>>::>>>:::::::::::::::::::::::::::::::::::::::::;;;;;;;;;;;;;;;;;;;;;;;;;;;;;;;;----;;;---------------------=====================*==******************&&**&&&&&&&&&&&&&&&&&&&%%%%%%%%%%%%%%%%%$$$$$$$$$$$$##$$############@@#@@@@@@@@@@@@@++@++++++++++++++OOOOOOOOOOoooooooooooooXXooXXXXXXXXXX............                                                                                                                            3AFFFFFFFFFFFFFFZZZZZZZZZZZZZZZZZZZZFFFFFFFFFFFFFFFFFFFFZZZZZZZZZZZZZZZZZZZZFFFFFFFFFFFFFFFFFFFFZZZZZZZZZZZZZZZZZZZZFFFFFFFFFFFFFFFFFFFF",
"FFFFFFFFFFFFFFFFFFFFZZZZZZZZZZZZZZZZZZZZFFFFFFFFFFFFFFFFFFFFZZZZZZZZZZZZZZZZZZZZFFFFFFFFFFFFFFFFFFFFZZZZZZZZZZZZZZZZZZZZFFFFFFFFFFFFFFFFl>------------;;;;;;;;;;;;;;;;;;;;;;;;;;;;;;;;::::::::::::::::::::::::::::::::::::::::::::::::::::::>>>>>>::::>:>:::::>>::::>>>:>>>:::::::>>:::::::>>>>>>>::::::::::::::::::::::::::::::::::::::::::::::::::::;;::::;;;;;;;;;;;;;;;;;;;;;;;;;;;;;;;;------------------------=---====================*==*****************&&&&&&&&&&&&&&&&&&%%&&&%%%%%%%%%%%%%%%%%$$$$$$$$$$$$#$$#############@@@@@@@@@@@@@@@@@++++++++++++++++OOOOOOOOOOOoooooooooooooXoXXXXXXXXXXXXX...........                                                                                                                            <CFFFFFFFFFFFFFFFZZZZZZZZZZZZZZZZZZZZFFFFFFFFFFFFFFFFFFFFZZZZZZZZZZZZZZZZZZZZFFFFFFFFFFFFFFFFFFFFZZZZZZZZZZZZZZZZZZZZFFFFFFFFFFFFFFFFFFFF",
"FFFFFFFFFFFFFFFFFFFFZZZZZZZZZZZZZZZZZZZZFFFFFFFFFFFFFFFFFFFFZZZZZZZZZZZZZZZZZZZZFFFFFFFFFFFFFFFFFFFFZZZZZZZZZZZZZZZZZZZZFFFFFFFFFFFFFFFFFg:--------;;;--;;-;;;;;;;;;;;;;;;;;;;;;;;;;;:::;;::::;;::::::::::::::::::::::::::::::::::::::::::::::::::::::::::>>>>>::::>>>::>>>>::::::>>>>>>:::::::::::::::::::::::::::::::::::::::::::::::::::::::::;::::;;:::;;;;;;;;;;;;;;;;;;;;;;;;;;-;;;;;;---------------------=========================*===***************&&&&&&&&&&&&&&&&&&&%%&&&%%%%%%%%%%%%%%%%$$$$$$$$$$$$$$###############@#@@@@@@@@@@@@@@@@@+++++++++++++++OOOOOOOOOOooooooooooooooXXXXXXXXXXXXXXXX..........                                                                                                                            -BFFFFFFFFFFFFFFFFZZZZZZZZZZZZZZZZZZZZFFFFFFFFFFFFFFFFFFFFZZZZZZZZZZZZZZZZZZZZFFFFFFFFFFFFFFFFFFFFZZZZZZZZZZZZZZZZZZZZFFFFFFFFFFFFFFFFFFFF",
"FFFFFFFFFFFFFFFFFFFFZZZZZZZZZZZZZZZZZZZZFFFFFFFFFFFFFFFFFFFFZZZZZZZZZZZZZZZZZZZZFFFFFFFFFFFFFFFFFFFFZZZZZZZZZZZZZZZZZZZZFFFFFFFFFFFFFFFFFDs;-----------;;---;;;;;;;;;;;;;;;;;;;;;;;;;;;;;;;:::;;;:;;::::::::::::::::::::::::::::::::::::::::::::::::::::::::::::::::::::::::::::::::::::::::::::::::::::::::::::::::::::::::::::::::::::::;;;;::;;::::;;;;;;;;;;;;;;;;;;;;;;;;;;;;----;;;---------------------========================**===****************&&&&&&&&&&&&&&&&&&&&&%%&%%%%%%%%%%%%%%%%%$$$$$$$$$$$$$################@@#@@@@@@@@@@@@+++@++++++++++++++OOOOOOOOOOOooooooooooooooXXXXXXXXXXXXXXXX..........                                                                                                                            &MFFFFFFFFFFFFFFFFFZZZZZZZZZZZZZZZZZZZZFFFFFFFFFFFFFFFFFFFFZZZZZZZZZZZZZZZZZZZZFFFFFFFFFFFFFFFFFFFFZZZZZZZZZZZZZZZZZZZZFFFFFFFFFFFFFFFFFFFF",
"FFFFFFFFFFFFFFFFFFFFZZZZZZZZZZZZZZZZZZZZFFFFFFFFFFFFFFFFFFFFZZZZZZZZZZZZZZZZZZZZFFFFFFFFFFFFFFFFFFFFZZZZZZZZZZZZZZZZZZZZFFFFFFFFFFFFFFFFFFDu;-----------------;;-;;;;;;;;;;;;;;;;;;;;;;;;;;;;;;;;;;;::::;;;;::::::::::::::::::::::::::::::::::::::::::::::::::::::::::::::::::::::::::::::::::::::::::::::::::::::::::::::::::::::::;;:::;;;;;::;;;;;;;;;;;;;;;;;;;;;;;;;;;;;;--;;;;-----------------------=-----===================***********************&*&&&&&&&&&&&&&&&&&&&%%%%%%%%%%%%%%%%$$%$$$$$$$$$$$$################@@@@@@@@@@@@@@@@@@++++++++++++++++OOOOOOOOOOOoooooooooooooooXoXXXXXXXXXX.X...........                                                                                                                            #bFFFFFFFFFFFFFFFFFFZZZZZZZZZZZZZZZZZZZZFFFFFFFFFFFFFFFFFFFFZZZZZZZZZZZZZZZZZZZZFFFFFFFFFFFFFFFFFFFFZZZZZZZZZZZZZZZZZZZZFFFFFFFFFFFFFFFFFFFF",
"FFFFFFFFFFFFFFFFFFFFZZZZZZZZZZZZZZZZZZZZFFFFFFFFFFFFFFFFFFFFZZZZZZZZZZZZZZZZZZZZFFFFFFFFFFFFFFFFFFFFZZZZZZZZZZZZZZZZZZZZFFFFFFFFFFFFFFFFFFFSw-----------------;;;;----;;;;;;;;;;;;;;;;;;;;;;;;;;;;;;;;::;;;;:::;;::::::::::::::::::::::::::::::::::::::::::::::::::::::::::::::::::::::::::::::::::::::::::::::::::::::::::::::;::;;;;:::::;;;;;;;;;;;;;;;;;;;;;;;;;;;;;;;-;----;;----------------------====---=====================**********************&&&&&&&&&&&&&&&&%%%&&%%%%%%%%%%%%%%%%%$$$$$$$$$$$$$$$################@@@@@@@@@@@@@@@@@@++++++++++++++OOOOOOOOOOOoOooooooooooooooXXXXXXXXXXX.XX.............                                                                                                                          +zFFFFFFFFFFFFFFFFFFFZZZZZZZZZZZZZZZZZZZZFFFFFFFFFFFFFFFFFFFFZZZZZZZZZZZZZZZZZZZZFFFFFFFFFFFFFFFFFFFFZZZZZZZZZZZZZZZZZZZZFFFFFFFFFFFFFFFFFFFF",
"FFFFFFFFFFFFFFFFFFFFZZZZZZZZZZZZZZZZZZZZFFFFFFFFFFFFFFFFFFFFZZZZZZZZZZZZZZZZZZZZFFFFFFFFFFFFFFFFFFFFZZZZZZZZZZZZZZZZZZZZFFFFFFFFFFFFFFFFFFFFB0----------------------;;;;;;;;;;;;;;;;;;;;;;;;;;;;;;;;;;;;;;;:::;;;;::::;;;;::::::::::::::::::::::::::::::::::::::::::::::::::::::::::::::::::::::::::::::::::::::::::::;;;;::::;;;;;;:;;;;;;;;;;;;;;;;;;;;;;;;;;;;;;;;;;;;;;;--------------------------====--==================**====********************&&&&&&&&&&&&&&&&&%%%&%%%%%%%%%%%%%%%$$$$$$$$$$$$$$$$$$##############@#@@@@@@@@@@@@@@@@++++++++++++++++OOOOOOOOOOOOOOoooooooooooXXXXXXXXXXXXX................                                                                                                                          ofFFFFFFFFFFFFFFFFFFFFZZZZZZZZZZZZZZZZZZZZFFFFFFFFFFFFFFFFFFFFZZZZZZZZZZZZZZZZZZZZFFFFFFFFFFFFFFFFFFFFZZZZZZZZZZZZZZZZZZZZFFFFFFFFFFFFFFFFFFFF",
"FFFFFFFFFFFFFFFFFFFFZZZZZZZZZZZZZZZZZZZZFFFFFFFFFFFFFFFFFFFFZZZZZZZZZZZZZZZZZZZZFFFFFFFFFFFFFFFFFFFFZZZZZZZZZZZZZZZZZZZZFFFFFFFFFFFFFFFFFFFFZN8-----------------------;;-;;;---;;;;;;;;;;;;;;;;;;;;;;;;;;;;;;;;;;;:;::;;;;:;::;;:::::::::::::::::::::::::::::::::::::::::::::::::::::::::::::::::::::::::::;;;;;;;:;::;;;;:;::;;;;;;;;;;;;;;;;;;;;;;;;;;;;;;;;;;;--;--;;;;-------------------------=--======================****=*****************&&***&&&&&&&&&&&&&&&&&%%%%%%%%%%%%%%%%%%%%$$$$$$$$$$$$$$$#$$################@@@@@@@@@@@@@@@@+++++++++++++++OOOOOOOOOOOOOOooooooooooooXXXXXXXXXXXX.X..............                                                                                                                          osCFFFFFFFFFFFFFFFFFFFFZZZZZZZZZZZZZZZZZZZZFFFFFFFFFFFFFFFFFFFFZZZZZZZZZZZZZZZZZZZZFFFFFFFFFFFFFFFFFFFFZZZZZZZZZZZZZZZZZZZZFFFFFFFFFFFFFFFFFFFF",
"FFFFFFFFFFFFFFFFFFFFZZZZZZZZZZZZZZZZZZZZFFFFFFFFFFFFFFFFFFFFZZZZZZZZZZZZZZZZZZZZFFFFFFFFFFFFFFFFFFFFZZZZZZZZZZZZZZZZZZZZFFFFFFFFFFFFFFFFFFFFZZN7==------------------------;-;;-----;;;;;;;;;;;;;;;;;;;;;;;;;;;;;;;;;;;;;;;;;:::;::;;;;;;;;;:::;;;;:::::::::::::::::::::::::::::::::::::::::::;:::;;;:::;:;;;::::;;;;::;;;;;;;;;;;;;;;;;;;;;;;;;;;;;;;;;;;;;;;;;;--------------------------------====-=====================***==*****************&&&&*&&&&&&&&&&&&&&&&&&&&%%%%%%%%%%%%%%%%%%$$$$$$$$$$$$$#################@@@#@@@@@@@@@@@+++@+++++++++++++++OOOOOOOOOOOooOooooooooooooooXXXXXXXXXXXXXX.......... ..                                                                                                                          XpCZFFFFFFFFFFFFFFFFFFFFZZZZZZZZZZZZZZZZZZZZFFFFFFFFFFFFFFFFFFFFZZZZZZZZZZZZZZZZZZZZFFFFFFFFFFFFFFFFFFFFZZZZZZZZZZZZZZZZZZZZFFFFFFFFFFFFFFFFFFFF",
"FFFFFFFFFFFFFFFFFFFFZZZZZZZZZZZZZZZZZZZZFFFFFFFFFFFFFFFFFFFFZZZZZZZZZZZZZZZZZZZZFFFFFFFFFFFFFFFFFFFFZZZZZZZZZZZZZZZZZZZZFFFFFFFFFFFFFFFFFFFFZZZM5====------------------------------;----;;;;;;;;;;;;;;;;;;;;;;;;;;;;;;;;;;;;;;;;;;;;;;;;;;;:::;;;;;:;;;:::;;;;;;;;;;:;;;;::;;;;:::;;;;;;;;;;;;:;:;;;:::;:;;;;;;;;;;;;;;;;;;;;;;;;;;;;;;;;;;;;;;;;;;;;;;;-;;-;;-----------------------------=---=======================**==********************&&&&&&&&&&&&&&&&&&&&%%&%&%%%%%%%%%%%%%%%%%%$$$$$$$$$$$$$##################@@@@@@@@@@@@@@@@++++++++++++++++++OOOOOOOOOOooooooooooooooooooXXXXXXXXXXXXXX.......... ..                                                                                                                          .uCZZFFFFFFFFFFFFFFFFFFFFZZZZZZZZZZZZZZZZZZZZFFFFFFFFFFFFFFFFFFFFZZZZZZZZZZZZZZZZZZZZFFFFFFFFFFFFFFFFFFFFZZZZZZZZZZZZZZZZZZZZFFFFFFFFFFFFFFFFFFFF",
"FFFFFFFFFFFFFFFFFFFFZZZZZZZZZZZZZZZZZZZZFFFFFFFFFFFFFFFFFFFFZZZZZZZZZZZZZZZZZZZZFFFFFFFFFFFFFFFFFFFFZZZZZZZZZZZZZZZZZZZZFFFFFFFFFFFFFFFFFFFFZZZZm4--=------------------------------;;;;;-;;;;;;;;;;;;;;;;;;;;;;;;;;;;;;;;;;;;;;;;;;;;;;;;;;;;;;;;:::;;;:::;;;:::;;::::;;;:::;;;:::;;;:::;;;:::;;;;;;;;;;;;;;;;;;;;;;;;;;;;;;;;;;;;;;;;;;;;;;;;;;;;;;-;;;;;------------------------------=-----======================****=********************&&*&&&&&&&&&&&&&&&&&&&&&%%%%%%%%%%%%%%%%$$$$$$$$$$$$$$$$$################@@@@@@@@@@@@@@@@@@@+++++++++++++OOOOOOOOOOOOOooooooooooooooXXooXXXXXXXXXX.................                                                                                                                          .tCZZZFFFFFFFFFFFFFFFFFFFFZZZZZZZZZZZZZZZZZZZZFFFFFFFFFFFFFFFFFFFFZZZZZZZZZZZZZZZZZZZZFFFFFFFFFFFFFFFFFFFFZZZZZZZZZZZZZZZZZZZZFFFFFFFFFFFFFFFFFFFF",
"FFFFFFFFFFFFFFFFFFFFZZZZZZZZZZZZZZZZZZZZFFFFFFFFFFFFFFFFFFFFZZZZZZZZZZZZZZZZZZZZFFFFFFFFFFFFFFFFFFFFZZZZZZZZZZZZZZZZZZZZFFFFFFFFFFFFFFFFFFFFZZZZZn3===----==---------------------------;--;;;;--;;-;;;;;;;;;;;;;;;;;;;;;;;;;;;;;;;;;;;;;;;;;;;;;;;;;;;;;;;;;;;;;;;;;;;;;;;;;;;;;;;;;;;;;;;;;;;;;;;;;;;;;;;;;;;;;;;;;;;;;;;;;;;;;;;;;;;;;;;;;;---;;;;--;;----------------------------=---==-=====================*====*********************&*&&&&&&&&&&&&&&&&&%%%&&%%%%%%%%%%%%%%%$$%%$$$$$$$$$$$$$$$$$$################@@@@@@@@@@@@@@@@++++++++++++++++OOOOOOOOOOOooooooooooooooXXoXXXXXXXXXXX.............                                                                                                                              .eCZZZZFFFFFFFFFFFFFFFFFFFFZZZZZZZZZZZZZZZZZZZZFFFFFFFFFFFFFFFFFFFFZZZZZZZZZZZZZZZZZZZZFFFFFFFFFFFFFFFFFFFFZZZZZZZZZZZZZZZZZZZZFFFFFFFFFFFFFFFFFFFF",
"FFFFFFFFFFFFFFFFFFFFZZZZZZZZZZZZZZZZZZZZFFFFFFFFFFFFFFFFFFFFZZZZZZZZZZZZZZZZZZZZFFFFFFFFFFFFFFFFFFFFZZZZZZZZZZZZZZZZZZZZFFFFFFFFFFFFFFFFFFFFZZZZZZb1====--====-------------------------------;--;;----;;-;;;;;;;;;;;;;;;;;;;;;;;;;;;;;;;;;;;;;;;;;;;;;;;;;;;;;;;;;;;;;;;;;;;;;;;;;;;;;;;;;;;;;;;;;;;;;;;;;;;;;;;;;;;;;;;;;;;;;;;;;;;;;;-;;;;------;-----------------------------======--=====================*======******************&&**&&&&&&&&&&&&&&&&&%%%%&%%%%%%%%%%%%%%%%%%%$$$$$$$$$$$$$$#$$##################@@@@@@@@@@@@@@@@+++++++++++++++OOOOOOOOOOOOOooooooooooooXXoXXXXXXXXXXX..............                                                                                                                              .qCZZZZZFFFFFFFFFFFFFFFFFFFFZZZZZZZZZZZZZZZZZZZZFFFFFFFFFFFFFFFFFFFFZZZZZZZZZZZZZZZZZZZZFFFFFFFFFFFFFFFFFFFFZZZZZZZZZZZZZZZZZZZZFFFFFFFFFFFFFFFFFFFF",
"FFFFFFFFFFFFFFFFFFFFZZZZZZZZZZZZZZZZZZZZFFFFFFFFFFFFFFFFFFFFZZZZZZZZZZZZZZZZZZZZFFFFFFFFFFFFFFFFFFFFZZZZZZZZZZZZZZZZZZZZFFFFFFFFFFFFFFFFFFFFZZZZZZZv1==========---------------------------------------;;;;----;;;;;;;;;;;;;;;;;;;;;;;;;;;;;;;;;;;;;;;;;;;;;;;;;;;;;;;;;;;;;;;;;;;;;;;;;;;;;;;;;;;;;;;;;;;;;;;;;;;;;;;;;;;;;;;;;;;;;-----;;;;------------------------------------==========================****==*******************&&&&&*&&&&&&&&&&&&&&&&&&%%%%%%%%%%%%%%%%%%%%%%$$$$$$$$$$$$$$$##$#############@@##@@@@@@@@@@@@+@@@++++++++++++++++OOOOOOOOOOOOOOoooooooooooXoXoXXXXXXXXXX.............                                                                                                                               .0VZZZZZZFFFFFFFFFFFFFFFFFFFFZZZZZZZZZZZZZZZZZZZZFFFFFFFFFFFFFFFFFFFFZZZZZZZZZZZZZZZZZZZZFFFFFFFFFFFFFFFFFFFFZZZZZZZZZZZZZZZZZZZZFFFFFFFFFFFFFFFFFFFF",
"ZZZZZZZZZZZZZZZZZZZZFFFFFFFFFFFFFFFFFFFFZZZZZZZZZZZZZZZZZZZZFFFFFFFFFFFFFFFFFFFFZZZZZZZZZZZZZZZZZZZZFFFFFFFFFFFFFFFFFFFFZZZZZZZZZZZZZZZZZZZZFFFFFFFFM2==========-----===--------------------------------------;;----;;;;;;;;;;;;;;;;;;;;;;;;;;;;;;;;;;;;;;;;;;;;;;;;;;;;;;;;;;;;;;;;;;;;;;;;;;;;;;;;;;;;;;;;;;;;;;;;;;;;------;;;;;;------------------------------------==----==========================****=***********************&&&&&&&&&&&&&&&&&&&&&&&&%%%%%%%%%%%%%%%%$$%$$$$$$$$$$$$$$$$$################@@@@@@@@@@@@@@@+++++++++++++++++++OOOOOOOOOOOOOOoooooooooooooooXXXXXXXXXXXXX............                                                                                                                              .wSFFFFFFFZZZZZZZZZZZZZZZZZZZZFFFFFFFFFFFFFFFFFFFFZZZZZZZZZZZZZZZZZZZZFFFFFFFFFFFFFFFFFFFFZZZZZZZZZZZZZZZZZZZZFFFFFFFFFFFFFFFFFFFFZZZZZZZZZZZZZZZZZZZZ",
"ZZZZZZZZZZZZZZZZZZZZFFFFFFFFFFFFFFFFFFFFZZZZZZZZZZZZZZZZZZZZFFFFFFFFFFFFFFFFFFFFZZZZZZZZZZZZZZZZZZZZFFFFFFFFFFFFFFFFFFFFZZZZZZZZZZZZZZZZZZZZFFFFFFFFFM2============--=======-----------------------------------;----;;;;-;--;;;;;;;;;;;;;;;;;;;;;;;;;;;;;;;;;;;;;;;;;;;;;;;;;;;;;;;;;;;;;;;;;;;;;;;;;;;;;;;;;;;--;-;;;--------;;---------------------------------------===-=============================***********************&****&&&&&&&&&&&&&&&&%%%%&%%%%%%%%%%%%%%%%%%%$$$$$$$$$$$$$$$$$$$$############@###@@@@@@@@@@@@@@@@++++++++++++++++OOOOOOOOOOOOooOooooooooooooXXoXXXXXXXXXXXXXX.......... ..                                                                                                                            .wSFFFFFFFFZZZZZZZZZZZZZZZZZZZZFFFFFFFFFFFFFFFFFFFFZZZZZZZZZZZZZZZZZZZZFFFFFFFFFFFFFFFFFFFFZZZZZZZZZZZZZZZZZZZZFFFFFFFFFFFFFFFFFFFFZZZZZZZZZZZZZZZZZZZZ",
"ZZZZZZZZZZZZZZZZZZZZFFFFFFFFFFFFFFFFFFFFZZZZZZZZZZZZZZZZZZZZFFFFFFFFFFFFFFFFFFFFZZZZZZZZZZZZZZZZZZZZFFFFFFFFFFFFFFFFFFFFZZZZZZZZZZZZZZZZZZZZFFFFFFFFFFM2====================-------------------------------------------;----;;-;;;-;---------;;;;;;;;;;;;;;;;;;;;;;;;;;;;;;;;;;;;;;;;;;;;;;;;;;;;;;;;;----;;;;;;----;;;;;---------------------------------------==----==========================**=====********************&*****&&&&&&&&&&&&&&&&&&%%&&%%%%%%%%%%%%%%%%%%%%$$$$$$$$$$$$$$######################@@@@@@@@@@@@@@@@@+++++++++++++++OOOOOOOOOOOOOoooooooooooooXooXXXXXXXXXXX.XX........... ..                                                                                                                            .wSFFFFFFFFFZZZZZZZZZZZZZZZZZZZZFFFFFFFFFFFFFFFFFFFFZZZZZZZZZZZZZZZZZZZZFFFFFFFFFFFFFFFFFFFFZZZZZZZZZZZZZZZZZZZZFFFFFFFFFFFFFFFFFFFFZZZZZZZZZZZZZZZZZZZZ",
"ZZZZZZZZZZZZZZZZZZZZFFFFFFFFFFFFFFFFFFFFZZZZZZZZZZZZZZZZZZZZFFFFFFFFFFFFFFFFFFFFZZZZZZZZZZZZZZZZZZZZFFFFFFFFFFFFFFFFFFFFZZZZZZZZZZZZZZZZZZZZFFFFFFFFFFFM1===================------====------------------------------------------;;------------;;;;;;----;----;;;------;;;;;;----;----;;;------;;---;--------;;;;------------------------------------------===---===-=========================*==************************&**&**&&&&&&&&&&&&&&&&&&&&%%%%%%%%%%%%%%%%%%$%%%%$$$$$$$$$$$$$$$#################@@##@@@@@@@@@@@@@@@@@+@@++++++++++++OOOOOOOOOOOOoooooooooooooooXXoXXXXXXXXXX...X..........   .                                                                                                                             wSFFFFFFFFFFZZZZZZZZZZZZZZZZZZZZFFFFFFFFFFFFFFFFFFFFZZZZZZZZZZZZZZZZZZZZFFFFFFFFFFFFFFFFFFFFZZZZZZZZZZZZZZZZZZZZFFFFFFFFFFFFFFFFFFFFZZZZZZZZZZZZZZZZZZZZ",
"ZZZZZZZZZZZZZZZZZZZZFFFFFFFFFFFFFFFFFFFFZZZZZZZZZZZZZZZZZZZZFFFFFFFFFFFFFFFFFFFFZZZZZZZZZZZZZZZZZZZZFFFFFFFFFFFFFFFFFFFFZZZZZZZZZZZZZZZZZZZZFFFFFFFFFFFFM1============================---------------------------------------------------------;;;;;------;;;;;;---;;;--;;;;-----------;;;;;---;--;---------------------------------------------------====-----==========================******=************************&&&&&&&&&&&&&&&&&&&&&&&&&&%%%%%%%%%%%%%%%%%%%%$$$$$$$$$$$$$$$$$$$$#############@@@#@@@@@@@@@@@@@@@@@++++++++++++OOO+OOOOOOOOOOOoOooooooooooooooooXXXXXXXXXXXXX...............                                                                                                                              wSFFFFFFFFFFFZZZZZZZZZZZZZZZZZZZZFFFFFFFFFFFFFFFFFFFFZZZZZZZZZZZZZZZZZZZZFFFFFFFFFFFFFFFFFFFFZZZZZZZZZZZZZZZZZZZZFFFFFFFFFFFFFFFFFFFFZZZZZZZZZZZZZZZZZZZZ",
"ZZZZZZZZZZZZZZZZZZZZFFFFFFFFFFFFFFFFFFFFZZZZZZZZZZZZZZZZZZZZFFFFFFFFFFFFFFFFFFFFZZZZZZZZZZZZZZZZZZZZFFFFFFFFFFFFFFFFFFFFZZZZZZZZZZZZZZZZZZZZFFFFFFFFFFFFFM1===========================---------------------------------------------------------------------------------------------------------------------------------------------------------=-==----================================*********************************&&&&&&&&&&&&&&&&&&%%&&&&%%%%%%%%%%%%%%%%%%%%$$$$$$$$$$$$$$$$##$$#############@@@@@@@@@@@@@@@@@++@@++++++++++++++OOOOOOOOOOOOOOooOoooooooooooXXooXXXXXXXXXXXXXX............                                                                                                                                wSFFFFFFFFFFFFZZZZZZZZZZZZZZZZZZZZFFFFFFFFFFFFFFFFFFFFZZZZZZZZZZZZZZZZZZZZFFFFFFFFFFFFFFFFFFFFZZZZZZZZZZZZZZZZZZZZFFFFFFFFFFFFFFFFFFFFZZZZZZZZZZZZZZZZZZZZ",
"ZZZZZZZZZZZZZZZZZZZZFFFFFFFFFFFFFFFFFFFFZZZZZZZZZZZZZZZZZZZZFFFFFFFFFFFFFFFFFFFFZZZZZZZZZZZZZZZZZZZZFFFFFFFFFFFFFFFFFFFFZZZZZZZZZZZZZZZZZZZZFFFFFFFFFFFFFFM2**===============================-==-=====-----------------------------------------------------------------------------------------------------------------------------------===--------======================================*********************&&&&&&&&&&&&&&&&&&&&&&&&&%%%%&%%%%%%%%%%%%%%%%%%%%%$$$$$$$$$$$$$$$#$#################@@@@@@@@@@@@@@@@@+++@+++++++++++++++OOOOOOOOOOOOoooooooooooooooooXoXXXXXXXXXX.XX........... ..                                                                                                                              .eSFFFFFFFFFFFFFZZZZZZZZZZZZZZZZZZZZFFFFFFFFFFFFFFFFFFFFZZZZZZZZZZZZZZZZZZZZFFFFFFFFFFFFFFFFFFFFZZZZZZZZZZZZZZZZZZZZFFFFFFFFFFFFFFFFFFFFZZZZZZZZZZZZZZZZZZZZ",
"ZZZZZZZZZZZZZZZZZZZZFFFFFFFFFFFFFFFFFFFFZZZZZZZZZZZZZZZZZZZZFFFFFFFFFFFFFFFFFFFFZZZZZZZZZZZZZZZZZZZZFFFFFFFFFFFFFFFFFFFFZZZZZZZZZZZZZZZZZZZZFFFFFFFFFFFFFFFN3***================================-=======----=--------------------------------------------------------------------------------------------------------------------------=====----================================**====**********************&&&&&&&&&&&&&&&&&&&&&&&&&&&&%%%%%%%%%%%%%%%%%%%%%%%%$$$$$$$$$$$$$$$$####################@@@@@@@@@@@@@@@@+++++++++++++++++++OOOOOOOOOOOOOoooooooooooooooooXXXXXXXXXXX..X...........  .                                                                                                                              .tSFFFFFFFFFFFFFFZZZZZZZZZZZZZZZZZZZZFFFFFFFFFFFFFFFFFFFFZZZZZZZZZZZZZZZZZZZZFFFFFFFFFFFFFFFFFFFFZZZZZZZZZZZZZZZZZZZZFFFFFFFFFFFFFFFFFFFFZZZZZZZZZZZZZZZZZZZZ",
"ZZZZZZZZZZZZZZZZZZZZFFFFFFFFFFFFFFFFFFFFZZZZZZZZZZZZZZZZZZZZFFFFFFFFFFFFFFFFFFFFZZZZZZZZZZZZZZZZZZZZFFFFFFFFFFFFFFFFFFFFZZZZZZZZZZZZZZZZZZZZFFFFFFFFFFFFFFFFB5*=*======================================------===---------------------------------------------------------------------------------------------------------------===----====================================*****=********************************&&&&&&&&&&&&&&&&&&&&&&%%%%%%%%%%%%%%%%%%%%%%%$$$$$$$$$$$$$$$$$$$####################@@@@@@@@@@@@@@@@@++++++++++++++++OOOOOOOOOOOOOOOooooooooooooXXooXXXXXXXXXXX..............                                                                                                                                 XuDFFFFFFFFFFFFFFFZZZZZZZZZZZZZZZZZZZZFFFFFFFFFFFFFFFFFFFFZZZZZZZZZZZZZZZZZZZZFFFFFFFFFFFFFFFFFFFFZZZZZZZZZZZZZZZZZZZZFFFFFFFFFFFFFFFFFFFFZZZZZZZZZZZZZZZZZZZZ",
"ZZZZZZZZZZZZZZZZZZZZFFFFFFFFFFFFFFFFFFFFZZZZZZZZZZZZZZZZZZZZFFFFFFFFFFFFFFFFFFFFZZZZZZZZZZZZZZZZZZZZFFFFFFFFFFFFFFFFFFFFZZZZZZZZZZZZZZZZZZZZFFFFFFFFFFFFFFFFFV6***==========================================-===----========------------------------------------------------------------------------------------------====-----===-=====================================******************************&&&&***&&&&&&&&&&&&&&&&&&&%%&&&&%%%%%%%%%%%%%%%%%%%%%%$$$$$$$$$$$$$$$$$$$$#############@@@##@@@@@@@@@@@@@@@@@+++@+++++++++++++OOOOOOOOOOOoOOOoooooooooooooXXXXXXXXXXXXX...............  .                                                                                                                              XaDFFFFFFFFFFFFFFFFZZZZZZZZZZZZZZZZZZZZFFFFFFFFFFFFFFFFFFFFZZZZZZZZZZZZZZZZZZZZFFFFFFFFFFFFFFFFFFFFZZZZZZZZZZZZZZZZZZZZFFFFFFFFFFFFFFFFFFFFZZZZZZZZZZZZZZZZZZZZ",
"ZZZZZZZZZZZZZZZZZZZZFFFFFFFFFFFFFFFFFFFFZZZZZZZZZZZZZZZZZZZZFFFFFFFFFFFFFFFFFFFFZZZZZZZZZZZZZZZZZZZZFFFFFFFFFFFFFFFFFFFFZZZZZZZZZZZZZZZZZZZZFFFFFFFFFFFFFFFFFFC8*****=******=======================================-=======---==-===---=----------------------------------------------------------------===-====--=-======--=====================================***=*===***************************&&&&&&&&&&&&&&&&&&&&&&&&&&&&%%%%%%%%%%%%%%%%%%%%$$$%%$$$$$$$$$$$$$$$$###$###############@@@@@@@@@@@@@@@@@@@@@+++++++++++++++++OOOOOOOOOOOOooOOoooooooooooXooXXXXXXXXXXXX..X..............                                                                                                                               odDFFFFFFFFFFFFFFFFFZZZZZZZZZZZZZZZZZZZZFFFFFFFFFFFFFFFFFFFFZZZZZZZZZZZZZZZZZZZZFFFFFFFFFFFFFFFFFFFFZZZZZZZZZZZZZZZZZZZZFFFFFFFFFFFFFFFFFFFFZZZZZZZZZZZZZZZZZZZZ",
"ZZZZZZZZZZZZZZZZZZZZFFFFFFFFFFFFFFFFFFFFZZZZZZZZZZZZZZZZZZZZFFFFFFFFFFFFFFFFFFFFZZZZZZZZZZZZZZZZZZZZFFFFFFFFFFFFFFFFFFFFZZZZZZZZZZZZZZZZZZZZFFFFFFFFFFFFFFFFFFFZ8***********=======*========================================--==-===---=---======--========-------------------------====---=====--=====-===--===--==========================================***********************************&&**&&&&&&&&&&&&&&&&&&&&&&&%%%%&&%%%%%%%%%%%%%%%%%%%%$$$$$$$$$$$$$$$$$$####################@@@@@@@@@@@@@@@@@++@@@++@+++++++++++++OOOOOOOOOOOOOOoOoooooooooooXXXoXXXXXXXXXXX..............  ..                                                                                                                               OgFFFFFFFFFFFFFFFFFFFZZZZZZZZZZZZZZZZZZZZFFFFFFFFFFFFFFFFFFFFZZZZZZZZZZZZZZZZZZZZFFFFFFFFFFFFFFFFFFFFZZZZZZZZZZZZZZZZZZZZFFFFFFFFFFFFFFFFFFFFZZZZZZZZZZZZZZZZZZZZ",
"ZZZZZZZZZZZZZZZZZZZZFFFFFFFFFFFFFFFFFFFFZZZZZZZZZZZZZZZZZZZZFFFFFFFFFFFFFFFFFFFFZZZZZZZZZZZZZZZZZZZZFFFFFFFFFFFFFFFFFFFFZZZZZZZZZZZZZZZZZZZZFFFFFFFFFFFFFFFFFFFFN0*************=**====**================================================----===========---===---=-----===---==------====----===========-==================================================***===****************************&*&&&&&&&&&&&&&&&&&&&&&&&&&&&&&&&&%%%%%%%%%%%%%%%%%%%%%%%$$$$$$$$$$$$$$$##$$$###################@@@@@@@@@@@@@+@@@@++++++++++++++OOOOOOOOOOOOOOOoOOooooooooooooXXXXXXXXXXXXXXXXXX...........   .                                                                                                                               +fFFFFFFFFFFFFFFFFFFFFZZZZZZZZZZZZZZZZZZZZFFFFFFFFFFFFFFFFFFFFZZZZZZZZZZZZZZZZZZZZFFFFFFFFFFFFFFFFFFFFZZZZZZZZZZZZZZZZZZZZFFFFFFFFFFFFFFFFFFFFZZZZZZZZZZZZZZZZZZZZ",
"ZZZZZZZZZZZZZZZZZZZZFFFFFFFFFFFFFFFFFFFFZZZZZZZZZZZZZZZZZZZZFFFFFFFFFFFFFFFFFFFFZZZZZZZZZZZZZZZZZZZZFFFFFFFFFFFFFFFFFFFFZZZZZZZZZZZZZZZZZZZZFFFFFFFFFFFFFFFFFFFFZBe=***************==***==***============================================================-=-----==----===---==-------============================================================***====*=******************************&&&***&&&&&&&&&&&&&&&&&&&&&&%%&%&&&%%%%%%%%%%%%%%%%%%%%%%%$$$$$$$$$$$$$$$$####$###################@@@@@@@@@@@@@@++@@@+++++++++++++++OOOOOOOOOOOOOoooOoooooooooooXXXXXXXXXXXXXXXXXXX...........                                                                                                                                   #jZFFFFFFFFFFFFFFFFFFFFZZZZZZZZZZZZZZZZZZZZFFFFFFFFFFFFFFFFFFFFZZZZZZZZZZZZZZZZZZZZFFFFFFFFFFFFFFFFFFFFZZZZZZZZZZZZZZZZZZZZFFFFFFFFFFFFFFFFFFFFZZZZZZZZZZZZZZZZZZZZ",
"ZZZZZZZZZZZZZZZZZZZZFFFFFFFFFFFFFFFFFFFFZZZZZZZZZZZZZZZZZZZZFFFFFFFFFFFFFFFFFFFFZZZZZZZZZZZZZZZZZZZZFFFFFFFFFFFFFFFFFFFFZZZZZZZZZZZZZZZZZZZZFFFFFFFFFFFFFFFFFFFFZZVy=*******************==****==**=========================================================================================================================================***===****=******************************&&******&&&&&&&&&&&&&&&&&&&&&&&&%%%%%%%%%%%%%%%%%%%%%%$$%$%%$$$$$$$$$$$$$$$$$$$$###############@@@##@@@@@@@@@@@@@@@@+++++++++++++++++++OOOOOOOOOOOOOoooooooooooooooXoXXXXXXXXXXXXXXXX...............                                                                                                                                &zZZFFFFFFFFFFFFFFFFFFFFZZZZZZZZZZZZZZZZZZZZFFFFFFFFFFFFFFFFFFFFZZZZZZZZZZZZZZZZZZZZFFFFFFFFFFFFFFFFFFFFZZZZZZZZZZZZZZZZZZZZFFFFFFFFFFFFFFFFFFFFZZZZZZZZZZZZZZZZZZZZ",
"ZZZZZZZZZZZZZZZZZZZZFFFFFFFFFFFFFFFFFFFFZZZZZZZZZZZZZZZZZZZZFFFFFFFFFFFFFFFFFFFFZZZZZZZZZZZZZZZZZZZZFFFFFFFFFFFFFFFFFFFFZZZZZZZZZZZZZZZZZZZZFFFFFFFFFFFFFFFFFFFFZZZCp-************************==***====***===========================================================================================================================*====****==**********************************&&&&**&&&&&&&&&&&&&&&&&&&&&&%%&&&&%%%%%%%%%%%%%%%%%%%%%%$$%$$$$$$$$$$$$$$$$###$$$###############@@@@@@@@@@@@@@@@@@@@@@+++++++++++++++++OOOOOOOOOOOOOoOoooooooooooooXoooXXXXXXXXXXX..XX..............                                                                                                                                 -vZZZFFFFFFFFFFFFFFFFFFFFZZZZZZZZZZZZZZZZZZZZFFFFFFFFFFFFFFFFFFFFZZZZZZZZZZZZZZZZZZZZFFFFFFFFFFFFFFFFFFFFZZZZZZZZZZZZZZZZZZZZFFFFFFFFFFFFFFFFFFFFZZZZZZZZZZZZZZZZZZZZ",
"ZZZZZZZZZZZZZZZZZZZZFFFFFFFFFFFFFFFFFFFFZZZZZZZZZZZZZZZZZZZZFFFFFFFFFFFFFFFFFFFFZZZZZZZZZZZZZZZZZZZZFFFFFFFFFFFFFFFFFFFFZZZZZZZZZZZZZZZZZZZZFFFFFFFFFFFFFFFFFFFFZZZZCf;****************************===**====******============================================================================================================******=====***********************************&&**&&&&&&&&&&&&&&&&&&&&&&&&&&&&%%%%&&%%%%%%%%%%%%%%%%%%%%%%%%$$$$$$$$$$$$$$$$$$###################@#@@@@@@@@@@@@@@@@@@@@@++++++++++++++OOOOOOOOOOOOOOOOoooOooooooooooooXXXXXXXXXXXXXXX.............. ...                                                                                                                                 ,mZZZZFFFFFFFFFFFFFFFFFFFFZZZZZZZZZZZZZZZZZZZZFFFFFFFFFFFFFFFFFFFFZZZZZZZZZZZZZZZZZZZZFFFFFFFFFFFFFFFFFFFFZZZZZZZZZZZZZZZZZZZZFFFFFFFFFFFFFFFFFFFFZZZZZZZZZZZZZZZZZZZZ",
"ZZZZZZZZZZZZZZZZZZZZFFFFFFFFFFFFFFFFFFFFZZZZZZZZZZZZZZZZZZZZFFFFFFFFFFFFFFFFFFFFZZZZZZZZZZZZZZZZZZZZFFFFFFFFFFFFFFFFFFFFZZZZZZZZZZZZZZZZZZZZFFFFFFFFFFFFFFFFFFFFZZZZZZj:**********************************==******=====*==================================================================================================**==******==************************************&&****&&&&&&&&&&&&&&&&&&&&&&&&&&&&%%&%%%%%%%%%%%%%%%%%%%%%%%%%$$$$$$$$$$$$$$$$$$$$#################@@@@@@@@@@@@@@@@@@@++@@+@++++++++++++++OOOOOOOOOOOOOOoOOOooooooooooooXXXXXXXXXXXXXXX...............  ..                                                                                                                                 3MZZZZZFFFFFFFFFFFFFFFFFFFFZZZZZZZZZZZZZZZZZZZZFFFFFFFFFFFFFFFFFFFFZZZZZZZZZZZZZZZZZZZZFFFFFFFFFFFFFFFFFFFFZZZZZZZZZZZZZZZZZZZZFFFFFFFFFFFFFFFFFFFFZZZZZZZZZZZZZZZZZZZZ",
"ZZZZZZZZZZZZZZZZZZZZFFFFFFFFFFFFFFFFFFFFZZZZZZZZZZZZZZZZZZZZFFFFFFFFFFFFFFFFFFFFZZZZZZZZZZZZZZZZZZZZFFFFFFFFFFFFFFFFFFFFZZZZZZZZZZZZZZZZZZZZFFFFFFFFFFFFFFFFFFFFZZZZZZZz,*&&**************************************====**=***===***=========================================================================***=*****====****==*************************************&&&**&&&&&&&&&&&&&&&&&&&&&&&&&&&&%%%%&&&&%%%%%%%%%%%%%%%%%%%%%%%%%$$$$$$$$$$$$$$$$$##$$$$###############@@##@@@@@@@@@@@@@@@@@++++++++++++++++++++OOOOOOOOOOOOOoooOoooooooooooooooXXXXXXXXXXXX................                                                                                                                                    7BZZZZZZFFFFFFFFFFFFFFFFFFFFZZZZZZZZZZZZZZZZZZZZFFFFFFFFFFFFFFFFFFFFZZZZZZZZZZZZZZZZZZZZFFFFFFFFFFFFFFFFFFFFZZZZZZZZZZZZZZZZZZZZFFFFFFFFFFFFFFFFFFFFZZZZZZZZZZZZZZZZZZZZ",
"ZZZZZZZZZZZZZZZZZZZZFFFFFFFFFFFFFFFFFFFFZZZZZZZZZZZZZZZZZZZZFFFFFFFFFFFFFFFFFFFFZZZZZZZZZZZZZZZZZZZZFFFFFFFFFFFFFFFFFFFFZZZZZZZZZZZZZZZZZZZZFFFFFFFFFFFFFFFFFFFFZZZZZZZZv2&&&&*&&*******************************************===****=*****==*===*===============================================*===*****==******************************************************&&&&&&**&&&&&&&&&&&&&&&&&&&&&&&&&&&&%%%%%%%%%%%%%%%%%%%%%%%%%%%%%%$$$$$$$$$$$$$$$$$$######################@@@@@@@@@@@@@@@@@@@@@@++++++++++++++++++OOOOOOOOOOOOOOoooooooooooooooooooXXXXXXXXXXX..X...............                                                                                                                                  .qVZZZZZZZFFFFFFFFFFFFFFFFFFFFZZZZZZZZZZZZZZZZZZZZFFFFFFFFFFFFFFFFFFFFZZZZZZZZZZZZZZZZZZZZFFFFFFFFFFFFFFFFFFFFZZZZZZZZZZZZZZZZZZZZFFFFFFFFFFFFFFFFFFFFZZZZZZZZZZZZZZZZZZZZ",
"FFFFFFFFFFFFFFFFFFFFZZZZZZZZZZZZZZZZZZZZFFFFFFFFFFFFFFFFFFFFZZZZZZZZZZZZZZZZZZZZFFFFFFFFFFFFFFFFFFFFZZZZZZZZZZZZZZZZZZZZFFFFFFFFFFFFFFFFFFFFZZZZZZZZZZZZZZZZZZZZFFFFFFFFFB6&****&&*************************************************=====***===**====******======**====**====******======**====**====****=************************************************&******&&&&&&&&&&&&&&&&&&&&&&&&&&&&&%&&&&&&&%%%%%%%%%%%%%%%%%%%%%%%$$$$$$$$$$$$$$$$$$$$$$$$##################@@###@@@@@@@@@@@@@@@@@@@@+++++++++++++++++OOOOOOOOOOOOOOOOoooooooooooooXXXXXXXXXXXXXXXXX..............  .                                                                                                                                  oaDFFFFFFFFZZZZZZZZZZZZZZZZZZZZFFFFFFFFFFFFFFFFFFFFZZZZZZZZZZZZZZZZZZZZFFFFFFFFFFFFFFFFFFFFZZZZZZZZZZZZZZZZZZZZFFFFFFFFFFFFFFFFFFFFZZZZZZZZZZZZZZZZZZZZFFFFFFFFFFFFFFFFFFFF",
"FFFFFFFFFFFFFFFFFFFFZZZZZZZZZZZZZZZZZZZZFFFFFFFFFFFFFFFFFFFFZZZZZZZZZZZZZZZZZZZZFFFFFFFFFFFFFFFFFFFFZZZZZZZZZZZZZZZZZZZZFFFFFFFFFFFFFFFFFFFFZZZZZZZZZZZZZZZZZZZZFFFFFFFFFFZw*&&&&&****&***&*******************************************************===*****=*====**====**=====*****====****===**********************************************************&&&&&***&&&&&&&&&&&&&&&&&&&&&&&&&&&&&%%&&&%%%%%%%%%%%%%%%%%%%%%$%%%%%$$$$$$$$$$$$$$$$$$$#$$$$################@@@@#@@@@@@@@@@@@@@@@@@@++++++++++++++++++OOOOOOOOOOOOOoOOOoooooooooooooXXXXXXXXXXXXXXXXXX............                                                                                                                                      @jFFFFFFFFFFZZZZZZZZZZZZZZZZZZZZFFFFFFFFFFFFFFFFFFFFZZZZZZZZZZZZZZZZZZZZFFFFFFFFFFFFFFFFFFFFZZZZZZZZZZZZZZZZZZZZFFFFFFFFFFFFFFFFFFFFZZZZZZZZZZZZZZZZZZZZFFFFFFFFFFFFFFFFFFFF",
"FFFFFFFFFFFFFFFFFFFFZZZZZZZZZZZZZZZZZZZZFFFFFFFFFFFFFFFFFFFFZZZZZZZZZZZZZZZZZZZZFFFFFFFFFFFFFFFFFFFFZZZZZZZZZZZZZZZZZZZZFFFFFFFFFFFFFFFFFFFFZZZZZZZZZZZZZZZZZZZZFFFFFFFFFFFAi=&&&&&&&&&&****&&&&&*********************************************************************************************************************************************&&&&*&**&&&&&&&&&&&&&&&&&&&&&&&&&&&&&&&&%%&&&&%%%%%%%%%%%%%%%%%%%%%%%%$%%%%%$$$$$$$$$$$$$$$$$$####$$##################@@@@@@@@@@@@@@@@@@++@@+++++++++++++++++++OOOOOOOOOOOOOoooooooooooooooooXoXXXXXXXXXXXXXXXX...............                                                                                                                                   *vFFFFFFFFFFFZZZZZZZZZZZZZZZZZZZZFFFFFFFFFFFFFFFFFFFFZZZZZZZZZZZZZZZZZZZZFFFFFFFFFFFFFFFFFFFFZZZZZZZZZZZZZZZZZZZZFFFFFFFFFFFFFFFFFFFFZZZZZZZZZZZZZZZZZZZZFFFFFFFFFFFFFFFFFFFF",
"FFFFFFFFFFFFFFFFFFFFZZZZZZZZZZZZZZZZZZZZFFFFFFFFFFFFFFFFFFFFZZZZZZZZZZZZZZZZZZZZFFFFFFFFFFFFFFFFFFFFZZZZZZZZZZZZZZZZZZZZFFFFFFFFFFFFFFFFFFFFZZZZZZZZZZZZZZZZZZZZFFFFFFFFFFFFDf-&&&&&&&&&&&&*&&&&**&&&&*********************************************************************************************************************************&****&&&&&&**&&&&&&&&&&&&&&&&&&&&&&&&&&&&&&&&%%%%&&%%%%%%%%%%%%%%%%%%%%%%%%%%$%%$$$$$$$$$$$$$$$$$$$$$########################@@@@@@@@@@@@@@@@++++@@+++++++++++++++++OOOOOOOOOOOOOOOoOoooooooooooooooXXXXXXXXXXXXX..XX...............                                                                                                                                   >MFFFFFFFFFFFFZZZZZZZZZZZZZZZZZZZZFFFFFFFFFFFFFFFFFFFFZZZZZZZZZZZZZZZZZZZZFFFFFFFFFFFFFFFFFFFFZZZZZZZZZZZZZZZZZZZZFFFFFFFFFFFFFFFFFFFFZZZZZZZZZZZZZZZZZZZZFFFFFFFFFFFFFFFFFFFF",
"FFFFFFFFFFFFFFFFFFFFZZZZZZZZZZZZZZZZZZZZFFFFFFFFFFFFFFFFFFFFZZZZZZZZZZZZZZZZZZZZFFFFFFFFFFFFFFFFFFFFZZZZZZZZZZZZZZZZZZZZFFFFFFFFFFFFFFFFFFFFZZZZZZZZZZZZZZZZZZZZFFFFFFFFFFFFFFl:&&&&&&&&&&&&&&&&&&&&********&&&*********************************************************************************************************************&&&&******&&&&&&&&&&&&&&&&&&&&&&&&&&&&&&&&&&&&&&%%%%%%%%%%%%%%%%%%%%%%%%%%%%%%%%$$$$$$$$$$$$$$$$$$$#$$$$#################@@@##@@@@@@@@@@@@@@@@@@+@++++++++++++++++++OOOOOOOOOOOOOOOOOoooooooooooooooXXXXXXXXXXXXXXXX..............                                                                                                                                       4CFFFFFFFFFFFFFZZZZZZZZZZZZZZZZZZZZFFFFFFFFFFFFFFFFFFFFZZZZZZZZZZZZZZZZZZZZFFFFFFFFFFFFFFFFFFFFZZZZZZZZZZZZZZZZZZZZFFFFFFFFFFFFFFFFFFFFZZZZZZZZZZZZZZZZZZZZFFFFFFFFFFFFFFFFFFFF",
"FFFFFFFFFFFFFFFFFFFFZZZZZZZZZZZZZZZZZZZZFFFFFFFFFFFFFFFFFFFFZZZZZZZZZZZZZZZZZZZZFFFFFFFFFFFFFFFFFFFFZZZZZZZZZZZZZZZZZZZZFFFFFFFFFFFFFFFFFFFFZZZZZZZZZZZZZZZZZZZZFFFFFFFFFFFFFFFb<&&&&&&&&&&&&&&&&&&&&&&*****&&&&&&***&&*************************************************************************************************&*&*&&******&&&&&&&&&&&&&&&&&&&&&&&&&&&&&&&&&&&&&&%%&&&&&&%%%%%%%%%%%%%%%%%%%%%%%%%$%%%%%$$$$$$$$$$$$$$$$$$$####$$##################@@@@@@@@@@@@@@@@@@@@@@@@+++++++++++++++++++OOOOOOOOOOOOOOOOOoooooooooooooooooXXXXXXXXXXXXXXX............                                                                                                                                       .qAFFFFFFFFFFFFFFZZZZZZZZZZZZZZZZZZZZFFFFFFFFFFFFFFFFFFFFZZZZZZZZZZZZZZZZZZZZFFFFFFFFFFFFFFFFFFFFZZZZZZZZZZZZZZZZZZZZFFFFFFFFFFFFFFFFFFFFZZZZZZZZZZZZZZZZZZZZFFFFFFFFFFFFFFFFFFFF",
"FFFFFFFFFFFFFFFFFFFFZZZZZZZZZZZZZZZZZZZZFFFFFFFFFFFFFFFFFFFFZZZZZZZZZZZZZZZZZZZZFFFFFFFFFFFFFFFFFFFFZZZZZZZZZZZZZZZZZZZZFFFFFFFFFFFFFFFFFFFFZZZZZZZZZZZZZZZZZZZZFFFFFFFFFFFFFFFFB6&&&&&&&&&&&&&&&&&&&&&&&&&&&&&&&*****&&&&**&&&&********************************************************************************&&&&**&&&&&&&&&&*&&&&&&&&&&&&&&&&&&&&&&&&&&&&&&&&&&&&&&&%%%%&&%%%%%%%%%%%%%%%%%%%%%%%%%%%%$$%%$$$$$$$$$$$$$$$$$$$#$$$$##################@@####@@@@@@@@@@@@@@@+@@@@++++@++++++++++++++OOOOOOOOOOOOOooOOoooooooooooooooooXXXXXXXXXXXX.XXX...............                                                                                                                                    opDFFFFFFFFFFFFFFFZZZZZZZZZZZZZZZZZZZZFFFFFFFFFFFFFFFFFFFFZZZZZZZZZZZZZZZZZZZZFFFFFFFFFFFFFFFFFFFFZZZZZZZZZZZZZZZZZZZZFFFFFFFFFFFFFFFFFFFFZZZZZZZZZZZZZZZZZZZZFFFFFFFFFFFFFFFFFFFF",
"FFFFFFFFFFFFFFFFFFFFZZZZZZZZZZZZZZZZZZZZFFFFFFFFFFFFFFFFFFFFZZZZZZZZZZZZZZZZZZZZFFFFFFFFFFFFFFFFFFFFZZZZZZZZZZZZZZZZZZZZFFFFFFFFFFFFFFFFFFFFZZZZZZZZZZZZZZZZZZZZFFFFFFFFFFFFFFFFFZe*&&&&&&&&&&&&&&&&&&&&&&&&&&&&&&&&&&&&&&&*&&&&**&&&&&&&&&&&&*****************************************************&&&&&*&&&&***&&&****&&&&&&&&&&&&&&&&&&&&&&&&&&&&&&&&&&&&&&&&&%%%%&&&%%%%%%%%%%%%%%%%%%%%%%%%%%%%%$%%%%%$$$$$$$$$$$$$$$$$$$$####$$$#################@@@@#@@@@@@@@@@@@@@@@++++@+++++++++++++++++++OOOOOOOOOOOOOooooOooooooooooooXoooXXXXXXXXXXXX................ ...                                                                                                                                    $lFFFFFFFFFFFFFFFFFZZZZZZZZZZZZZZZZZZZZFFFFFFFFFFFFFFFFFFFFZZZZZZZZZZZZZZZZZZZZFFFFFFFFFFFFFFFFFFFFZZZZZZZZZZZZZZZZZZZZFFFFFFFFFFFFFFFFFFFFZZZZZZZZZZZZZZZZZZZZFFFFFFFFFFFFFFFFFFFF",
"FFFFFFFFFFFFFFFFFFFFZZZZZZZZZZZZZZZZZZZZFFFFFFFFFFFFFFFFFFFFZZZZZZZZZZZZZZZZZZZZFFFFFFFFFFFFFFFFFFFFZZZZZZZZZZZZZZZZZZZZFFFFFFFFFFFFFFFFFFFFZZZZZZZZZZZZZZZZZZZZFFFFFFFFFFFFFFFFFFSs=&&&&&&&&&&&&&&&&&&&&&&&&&&&&&&&&&&&&&&&&&&*******&&&***&&****&&&***&&****&&&&******&&****&&&***&&****&&&***&*****&&&****&&&&&&&&&&&&&&&&&&&&&&&&&&&&&&&&&&&&&&&&&&&&&&&&&&&&&%%&&%%%%%%%%%%%%%%%%%%%%%%%%%$$%%%%%$$$$$$$$$$$$$$$$$$$$$$$$###$##################@@###@@@@@@@@@@@@@@@@@@@@@++++++++++++++++++OOOOOOOOOOOOOOOOOoooooooooooooooXXooXXXXXXXXXXXX.XXX...........                                                                                                                                         ;nFFFFFFFFFFFFFFFFFFZZZZZZZZZZZZZZZZZZZZFFFFFFFFFFFFFFFFFFFFZZZZZZZZZZZZZZZZZZZZFFFFFFFFFFFFFFFFFFFFZZZZZZZZZZZZZZZZZZZZFFFFFFFFFFFFFFFFFFFFZZZZZZZZZZZZZZZZZZZZFFFFFFFFFFFFFFFFFFFF",
"FFFFFFFFFFFFFFFFFFFFZZZZZZZZZZZZZZZZZZZZFFFFFFFFFFFFFFFFFFFFZZZZZZZZZZZZZZZZZZZZFFFFFFFFFFFFFFFFFFFFZZZZZZZZZZZZZZZZZZZZFFFFFFFFFFFFFFFFFFFFZZZZZZZZZZZZZZZZZZZZFFFFFFFFFFFFFFFFFFFFh:&&&&&&&&&&&&&&&&&&&&&&&&&&&&&&&&&&&&&&&&&&&&&&&&&&&&&&&&****&&&***&&****&&*****&**&&****&&&***&&****&&&***&&*&&&&&&&&&&&&&&&&&&&&&&&&&&&&&&&&&&&&&&&&&&&&&&&&&&&%%&&&&&&&&&%%%%%%%%%%%%%%%%%%%%%%%%%%%$%$$$$%%$$$$$$$$$$$$$$$$$$$$$$$$######################@@@@@@@@@@@@@@@@@@@@++@@@@+++++++++++++++++++OOOOOOOOOOOOOOoOOooooooooooooooXXXXXXXXXXXXXXXX..XX............                                                                                                                                         3VFFFFFFFFFFFFFFFFFFFZZZZZZZZZZZZZZZZZZZZFFFFFFFFFFFFFFFFFFFFZZZZZZZZZZZZZZZZZZZZFFFFFFFFFFFFFFFFFFFFZZZZZZZZZZZZZZZZZZZZFFFFFFFFFFFFFFFFFFFFZZZZZZZZZZZZZZZZZZZZFFFFFFFFFFFFFFFFFFFF",
"FFFFFFFFFFFFFFFFFFFFZZZZZZZZZZZZZZZZZZZZFFFFFFFFFFFFFFFFFFFFZZZZZZZZZZZZZZZZZZZZFFFFFFFFFFFFFFFFFFFFZZZZZZZZZZZZZZZZZZZZFFFFFFFFFFFFFFFFFFFFZZZZZZZZZZZZZZZZZZZZFFFFFFFFFFFFFFFFFFFFZc1&%%%%&&&&&&&&&&&&&&&&&&&&&&&&&&&&&&&&&&&&&&&&&&&&&&&&&&&&&&&&&&&&&&&&&&&&&&&&&&&&&&&&&&&&&&&&&&&&&&&&&&&&&&&&&&&&&&&&&&&&&&&&&&&&&&&&&&&&&&&&&&&&&&&&&&&&&&&&%%%%%%&&%%%%%%%%%%%%%%%%%%%%%%%%%%%%$%%%%%$$$$$$$$$$$$$$$$$$$$$$$###$$####################@@###@@@@@@@@@@@@@@@@@++++@++++++++++++++++++++OOOOOOOOOOOOOOoOoOoooooooooooooXXXXXXXXXXXXXXXX................                                                                                                                                         .qBFFFFFFFFFFFFFFFFFFFFZZZZZZZZZZZZZZZZZZZZFFFFFFFFFFFFFFFFFFFFZZZZZZZZZZZZZZZZZZZZFFFFFFFFFFFFFFFFFFFFZZZZZZZZZZZZZZZZZZZZFFFFFFFFFFFFFFFFFFFFZZZZZZZZZZZZZZZZZZZZFFFFFFFFFFFFFFFFFFFF",
"FFFFFFFFFFFFFFFFFFFFZZZZZZZZZZZZZZZZZZZZFFFFFFFFFFFFFFFFFFFFZZZZZZZZZZZZZZZZZZZZFFFFFFFFFFFFFFFFFFFFZZZZZZZZZZZZZZZZZZZZFFFFFFFFFFFFFFFFFFFFZZZZZZZZZZZZZZZZZZZZFFFFFFFFFFFFFFFFFFFFZZm7&%%%&&&&%%%%%&&&&&&&&&&&&&&&&&&&&&&&&&&&&&&&&&&&&&&&&&&&&&&&&&&&&&&&&&&&&&&&&&&&&&&&&&&&&&&&&&&&&&&&&&&&&&&&&&&&&&&&&&&&&&&&&&&&&&&&&&&&&&&&&&&&&&&%%%%%&&&&%%%%%%%%%%%%%%%%%%%%%%%%%%%%%%%%%%%%$%%%$$$$$$$$$$$$$$$$$$$$$$$$####$###################@@@@#@@@@@@@@@@@@@@@@@@@+++++++++++++++++++++++OOOOOOOOOOOOOOoooOoooooooooooooXoXXXXXXXXXXXXXXXX................                                                                                                                                        +aCZFFFFFFFFFFFFFFFFFFFFZZZZZZZZZZZZZZZZZZZZFFFFFFFFFFFFFFFFFFFFZZZZZZZZZZZZZZZZZZZZFFFFFFFFFFFFFFFFFFFFZZZZZZZZZZZZZZZZZZZZFFFFFFFFFFFFFFFFFFFFZZZZZZZZZZZZZZZZZZZZFFFFFFFFFFFFFFFFFFFF",
"FFFFFFFFFFFFFFFFFFFFZZZZZZZZZZZZZZZZZZZZFFFFFFFFFFFFFFFFFFFFZZZZZZZZZZZZZZZZZZZZFFFFFFFFFFFFFFFFFFFFZZZZZZZZZZZZZZZZZZZZFFFFFFFFFFFFFFFFFFFFZZZZZZZZZZZZZZZZZZZZFFFFFFFFFFFFFFFFFFFFZZZBt*%%%%&&&&&&%%%%&&&&&&&&&&&&&&&&&&&&&&&&&&&&&&&&&&&&&&&&&&&&&&&&&&&&&&&&&&&&&&&&&&&&&&&&&&&&&&&&&&&&&&&&&&&&&&&&&&&&&&&&&&&&&&&&&&&&&&&&&&&&&&%%&&&&%%%&&%%%%%%%%%%%%%%%%%%%%%%%%%%%%%%%%%%%$%%%$$$$$$$$$$$$$$$$$$$$$$$#$$$$########################@@@@@@@@@@@@@@@@@@@@@@@@@+++++++++++++++++++OOOOOOOOOOOOOOOOooOoooooooooooooooooXXXXXXXXXXXXXXXX................                                                                                                                                       *lCZZFFFFFFFFFFFFFFFFFFFFZZZZZZZZZZZZZZZZZZZZFFFFFFFFFFFFFFFFFFFFZZZZZZZZZZZZZZZZZZZZFFFFFFFFFFFFFFFFFFFFZZZZZZZZZZZZZZZZZZZZFFFFFFFFFFFFFFFFFFFFZZZZZZZZZZZZZZZZZZZZFFFFFFFFFFFFFFFFFFFF",
"FFFFFFFFFFFFFFFFFFFFZZZZZZZZZZZZZZZZZZZZFFFFFFFFFFFFFFFFFFFFZZZZZZZZZZZZZZZZZZZZFFFFFFFFFFFFFFFFFFFFZZZZZZZZZZZZZZZZZZZZFFFFFFFFFFFFFFFFFFFFZZZZZZZZZZZZZZZZZZZZFFFFFFFFFFFFFFFFFFFFZZZZCg;%%%%%%%%%%%%%%%&&&&&&&&%&&&&&&&&&&&&&&&&&&&&&&&&&&&&&&&&&&&&&&&&&&&&&&&&&&&&&&&&&&&&&&&&&&&&&&&&&&&&&&&&&&&&&&&&&&&&&&&&&&&&&&&&&&&&&%%&&&&%%&&&%%%%%%%%%%%%%%%%%%%%%%%%%%%%%%%%%%%%%%%%%%$$$$$$$$$$$$$$$$$$$$$$$####$$$###################@@####@@@@@@@@@@@@@@@@@+++@@++++@@+++++++++++++++OOOOOOOOOOOOOOOOOoooooooooooooooXooXXXXXXXXXXXXX.XXX............ ...                                                                                                                                       2nZZZZFFFFFFFFFFFFFFFFFFFFZZZZZZZZZZZZZZZZZZZZFFFFFFFFFFFFFFFFFFFFZZZZZZZZZZZZZZZZZZZZFFFFFFFFFFFFFFFFFFFFZZZZZZZZZZZZZZZZZZZZFFFFFFFFFFFFFFFFFFFFZZZZZZZZZZZZZZZZZZZZFFFFFFFFFFFFFFFFFFFF",
"FFFFFFFFFFFFFFFFFFFFZZZZZZZZZZZZZZZZZZZZFFFFFFFFFFFFFFFFFFFFZZZZZZZZZZZZZZZZZZZZFFFFFFFFFFFFFFFFFFFFZZZZZZZZZZZZZZZZZZZZFFFFFFFFFFFFFFFFFFFFZZZZZZZZZZZZZZZZZZZZFFFFFFFFFFFFFFFFFFFFZZZZZZc1%%%%%%%%%%%%%%%%&&&&%%%%&&&&&&&&%&&&&&&&&&&&&&&&&&&&&&&&&&&&&&&&&&&&&&&&&&&&&&&&&&&&&&&&&&&&&&&&&&&&&&&&&&&&&&&&&&&&&&%&%%&%%%%%&&&&%%%&%%%%%%%%%%%%%%%%%%%%%%%%%%%%%%%%%%%%%$$$%$%%$$$$$$$$$$$$$$$$$$$$$$$$$$###$$#####################@@@@#@@@@@@@@@@@@@@@@@@++@@@++++++++++++++++++++OOOOOOOOOOOOOOOoOOOooooooooooooooXXXoXXXXXXXXXXXXX..XX...........   .                                                                                                                                       XwBZZZZZFFFFFFFFFFFFFFFFFFFFZZZZZZZZZZZZZZZZZZZZFFFFFFFFFFFFFFFFFFFFZZZZZZZZZZZZZZZZZZZZFFFFFFFFFFFFFFFFFFFFZZZZZZZZZZZZZZZZZZZZFFFFFFFFFFFFFFFFFFFFZZZZZZZZZZZZZZZZZZZZFFFFFFFFFFFFFFFFFFFF",
"FFFFFFFFFFFFFFFFFFFFZZZZZZZZZZZZZZZZZZZZFFFFFFFFFFFFFFFFFFFFZZZZZZZZZZZZZZZZZZZZFFFFFFFFFFFFFFFFFFFFZZZZZZZZZZZZZZZZZZZZFFFFFFFFFFFFFFFFFFFFZZZZZZZZZZZZZZZZZZZZFFFFFFFFFFFFFFFFFFFFZZZZZZZM9&%%%%%%%%%%%%%%%%%%%%%%&&&&&&%%%%%%%%%%%%&&&&&&&&&&&&&&&&&&&&&&&&&&&&&&&&&&&&&&&&&&&&&&&&&&&&&&&&&&&&&&&&&%&&&&%%%%&&%%%%%%%%%%%%%%%%%%%%%%%%%%%%%%%%%%%%%%%%%%%%%%%%%%%%%%%$$$$$$$$$$$$$$$$$$$$$$$$$$$$#$$$$##########################@@@@@@@@@@@@@@@@@@@@@@+++@++++++++++++++++++++OOOOOOOOOOOOOOOooooooooooooooooooXXXXXXXXXXXXXXXXX................                                                                                                                                           @dCZZZZZZFFFFFFFFFFFFFFFFFFFFZZZZZZZZZZZZZZZZZZZZFFFFFFFFFFFFFFFFFFFFZZZZZZZZZZZZZZZZZZZZFFFFFFFFFFFFFFFFFFFFZZZZZZZZZZZZZZZZZZZZFFFFFFFFFFFFFFFFFFFFZZZZZZZZZZZZZZZZZZZZFFFFFFFFFFFFFFFFFFFF",
"FFFFFFFFFFFFFFFFFFFFZZZZZZZZZZZZZZZZZZZZFFFFFFFFFFFFFFFFFFFFZZZZZZZZZZZZZZZZZZZZFFFFFFFFFFFFFFFFFFFFZZZZZZZZZZZZZZZZZZZZFFFFFFFFFFFFFFFFFFFFZZZZZZZZZZZZZZZZZZZZFFFFFFFFFFFFFFFFFFFFZZZZZZZZVi=%%%%%%%%%%%%%%%%%%%%%%%%%%%%%&&&&&&&&&&&&&&%%&&&&%%%%&&&&&&&&&&&&&&&&&&&&&&&&&&&&&&%%&&&&%%&&&&&&&&&&&&%%&&&&&&&&&%%%%%%%%%%%%%%%%%%%%%%%%%%%%%%%%%%%%%%%%%%%%%%$$%%%$$$%$$$$$$$$$$$$$$$$$$$$$$$$$$#$$#$$$###########################@@@@@@@@@@@@@@@@@@@@@@@@++++++++++++++++OO++OOOOOOOOOOOOOOOooooooooooooooooooXXXoXXXXXXXXXXXXX.X................                                                                                                                                          ;cZZZZZZZZFFFFFFFFFFFFFFFFFFFFZZZZZZZZZZZZZZZZZZZZFFFFFFFFFFFFFFFFFFFFZZZZZZZZZZZZZZZZZZZZFFFFFFFFFFFFFFFFFFFFZZZZZZZZZZZZZZZZZZZZFFFFFFFFFFFFFFFFFFFFZZZZZZZZZZZZZZZZZZZZFFFFFFFFFFFFFFFFFFFF",
"FFFFFFFFFFFFFFFFFFFFZZZZZZZZZZZZZZZZZZZZFFFFFFFFFFFFFFFFFFFFZZZZZZZZZZZZZZZZZZZZFFFFFFFFFFFFFFFFFFFFZZZZZZZZZZZZZZZZZZZZFFFFFFFFFFFFFFFFFFFFZZZZZZZZZZZZZZZZZZZZFFFFFFFFFFFFFFFFFFFFZZZZZZZZZCj>%%%%%%%%%%%%%%%%%%%%%%%%%%%%%%%%%%%%%%%&&%%%&&&&%%%%&&&&&&%%&&&&%%%%&&&&%%%%&&&&&%%%&&&&%%&&&&&&&&&&&&%%%%%%%%%%%%%%%%%%%%%%%%%%%%%%%%%%%%%%%%%%%%%%%%%%$$$%%%%$%%%$$$$$$$$$$$$$$$$$$$$$$$$$$$##$$#########################@@@###@@@@@@@@@@@@@@@@@@@++@@@@+@++++++++++++++++OOOOOOOOOOOOOOOOOoooooooooooooooooooXXXXXXXXXXXXXXXX..XX................                                                                                                                                        .6MZZZZZZZZZFFFFFFFFFFFFFFFFFFFFZZZZZZZZZZZZZZZZZZZZFFFFFFFFFFFFFFFFFFFFZZZZZZZZZZZZZZZZZZZZFFFFFFFFFFFFFFFFFFFFZZZZZZZZZZZZZZZZZZZZFFFFFFFFFFFFFFFFFFFFZZZZZZZZZZZZZZZZZZZZFFFFFFFFFFFFFFFFFFFF",
"FFFFFFFFFFFFFFFFFFFFZZZZZZZZZZZZZZZZZZZZFFFFFFFFFFFFFFFFFFFFZZZZZZZZZZZZZZZZZZZZFFFFFFFFFFFFFFFFFFFFZZZZZZZZZZZZZZZZZZZZFFFFFFFFFFFFFFFFFFFFZZZZZZZZZZZZZZZZZZZZFFFFFFFFFFFFFFFFFFFFZZZZZZZZZZZn6%%%%%%%%%%%%%%%%%%%%%%%%%%%%%%%%%%%%%%%%%%%%%%%%%%%%%%%%%%%&&&&&%%%&&&&&%%%&&&&&&&%%%%%%%%%%%%%%%%%%%%%%%%%%%%%%%%%%%%%%%%%%%%%%%%%%%%%%%%%%%%%%%%%$%%%%%%%%%$$$$$$$$$$$$$$$$$$$$$$$$$$$$$#####$$######################@@@@@#@@@@@@@@@@@@@@@@@@@@@@++++++++++++++++++++++++OOOOOOOOOOOOOOOooooooooooooooooooXoooXXXXXXXXXXXXXXX............... . .                                                                                                                                        OiVZZZZZZZZZZFFFFFFFFFFFFFFFFFFFFZZZZZZZZZZZZZZZZZZZZFFFFFFFFFFFFFFFFFFFFZZZZZZZZZZZZZZZZZZZZFFFFFFFFFFFFFFFFFFFFZZZZZZZZZZZZZZZZZZZZFFFFFFFFFFFFFFFFFFFFZZZZZZZZZZZZZZZZZZZZFFFFFFFFFFFFFFFFFFFF",
"FFFFFFFFFFFFFFFFFFFFZZZZZZZZZZZZZZZZZZZZFFFFFFFFFFFFFFFFFFFFZZZZZZZZZZZZZZZZZZZZFFFFFFFFFFFFFFFFFFFFZZZZZZZZZZZZZZZZZZZZFFFFFFFFFFFFFFFFFFFFZZZZZZZZZZZZZZZZZZZZFFFFFFFFFFFFFFFFFFFFZZZZZZZZZZZZBy*%%%%%%%%%%%%%%%%%%%%%%%%%%%%%%%%%%%%%%%%%%%%%%%%%%%%%%%%%%%%%%%%%%%%%%%%%%%%%%%%%%%%%%%%%%%%%%%%%%%%%%%%%%%%%%%%%%%%%%%%%%%%%%%%%%%%%%%%%%%%%%%%%$%%%%$$$$$$$$$$$$$$$$$$$$$$$$$$$$$$$$$$$###########################@@@@@@@@@@@@@@@@@@@@@@@++@@@@+++++++++++++++++++++OOOOOOOOOOOOOOOOOOOoooooooooooooooXXXooXXXXXXXXXXXXXXX................                                                                                                                                           =zZZZZZZZZZZZZFFFFFFFFFFFFFFFFFFFFZZZZZZZZZZZZZZZZZZZZFFFFFFFFFFFFFFFFFFFFZZZZZZZZZZZZZZZZZZZZFFFFFFFFFFFFFFFFFFFFZZZZZZZZZZZZZZZZZZZZFFFFFFFFFFFFFFFFFFFFZZZZZZZZZZZZZZZZZZZZFFFFFFFFFFFFFFFFFFFF",
"ZZZZZZZZZZZZZZZZZZZZFFFFFFFFFFFFFFFFFFFFZZZZZZZZZZZZZZZZZZZZFFFFFFFFFFFFFFFFFFFFZZZZZZZZZZZZZZZZZZZZFFFFFFFFFFFFFFFFFFFFZZZZZZZZZZZZZZZZZZZZFFFFFFFFFFFFFFFFFFFFZZZZZZZZZZZZZZZZZZZZFFFFFFFFFFFFFFz>%%%%%%%%%%%%%%%%%%%%%%%%%%%%%%%%%%%%%%%%%%%%%%%%%%%%%%%%%%%%%%%%%%%%%%%%%%%%%%%%%%%%%%%%%%%%%%%%%%%%%%%%%%%%%%%%%%%%%%%%%%%%%%%%%%%%%%%%%%%%%%%$$$$$$$$$$$$$$$$$$$$$$$$$$$$$$$##$$$$$$$######################@####@@@@@@@@@@@@@@@@@@@@@@++++@++++++++++++++++++++++OOOOOOOOOOOOOOOOOOOOooooooooooooooXXXXXXXXXXXXXXXXXXXXX................                                                                                                                                          .7VFFFFFFFFFFFFFZZZZZZZZZZZZZZZZZZZZFFFFFFFFFFFFFFFFFFFFZZZZZZZZZZZZZZZZZZZZFFFFFFFFFFFFFFFFFFFFZZZZZZZZZZZZZZZZZZZZFFFFFFFFFFFFFFFFFFFFZZZZZZZZZZZZZZZZZZZZFFFFFFFFFFFFFFFFFFFFZZZZZZZZZZZZZZZZZZZZ",
"ZZZZZZZZZZZZZZZZZZZZFFFFFFFFFFFFFFFFFFFFZZZZZZZZZZZZZZZZZZZZFFFFFFFFFFFFFFFFFFFFZZZZZZZZZZZZZZZZZZZZFFFFFFFFFFFFFFFFFFFFZZZZZZZZZZZZZZZZZZZZFFFFFFFFFFFFFFFFFFFFZZZZZZZZZZZZZZZZZZZZFFFFFFFFFFFFFFFB7%%$%%%%$$%$%%%%%%%%%%%%%%%%%%%%%%%%%%%%%%%%%%%%%%%%%%%%%%%%%%%%%%%%%%%%%%%%%%%%%%%%%%%%%%%%%%%%%%%%%%%%%%%%%%%%%%%%%%%%%%%%%%%%%$%%%%%%%$$$$$$$$$$$$$$$$$$$$$$$$$$$$$$$$$#######$$#######################@@@@#@#@@@@@@@@@@@@@@@@@@@@@@@++++@++++++++++++++++++++OOOOOOOOOOOOOOOooOOOoooooooooooooooXXXXXXXXXXXXXXXXX.X.X.............. ..                                                                                                                                         +sSFFFFFFFFFFFFFFZZZZZZZZZZZZZZZZZZZZFFFFFFFFFFFFFFFFFFFFZZZZZZZZZZZZZZZZZZZZFFFFFFFFFFFFFFFFFFFFZZZZZZZZZZZZZZZZZZZZFFFFFFFFFFFFFFFFFFFFZZZZZZZZZZZZZZZZZZZZFFFFFFFFFFFFFFFFFFFFZZZZZZZZZZZZZZZZZZZZ",
"ZZZZZZZZZZZZZZZZZZZZFFFFFFFFFFFFFFFFFFFFZZZZZZZZZZZZZZZZZZZZFFFFFFFFFFFFFFFFFFFFZZZZZZZZZZZZZZZZZZZZFFFFFFFFFFFFFFFFFFFFZZZZZZZZZZZZZZZZZZZZFFFFFFFFFFFFFFFFFFFFZZZZZZZZZZZZZZZZZZZZFFFFFFFFFFFFFFFFAp*$%%%%%$$$%%%%%%%%$%%%%%%%%%%%%%%%%%%%%%%%%%%%%%%%%%%%%%%%%%%%%%%%%%%%%%%%%%%%%%%%%%%%%%%%%%%%%%%%%%%%%%%%%%%%%%%%%%%%$$$%%%%%$$$$$$$$$$$$$$$$$$$$$$$$$$$$$$$$$$$$$$$#####################################@@@@@@@@@@@@@@@@@@@@@+++@@@@++++++++++++++++++++++OOOOOOOOOOOOOOOOOOooOooooooooooooooXoooXXXXXXXXXXXXXX.................                                                                                                                                              ;vFFFFFFFFFFFFFFFFZZZZZZZZZZZZZZZZZZZZFFFFFFFFFFFFFFFFFFFFZZZZZZZZZZZZZZZZZZZZFFFFFFFFFFFFFFFFFFFFZZZZZZZZZZZZZZZZZZZZFFFFFFFFFFFFFFFFFFFFZZZZZZZZZZZZZZZZZZZZFFFFFFFFFFFFFFFFFFFFZZZZZZZZZZZZZZZZZZZZ",
"ZZZZZZZZZZZZZZZZZZZZFFFFFFFFFFFFFFFFFFFFZZZZZZZZZZZZZZZZZZZZFFFFFFFFFFFFFFFFFFFFZZZZZZZZZZZZZZZZZZZZFFFFFFFFFFFFFFFFFFFFZZZZZZZZZZZZZZZZZZZZFFFFFFFFFFFFFFFFFFFFZZZZZZZZZZZZZZZZZZZZFFFFFFFFFFFFFFFFFFx,$$$$$$$%%%%%%%%$$$%%%%%%%%%%%%%%%%%%%%%%%%%%%%%%%%%%%%%%%%%%%%%%%%%%%%%%%%%%%%%%%%%%%%%%%%%%%%%%%%%%%%%%%%%%$%%%%%%%$$$$$$$$$$$$$$$$$$$$$$$$$$$$$$$$$$$$$$$$$###$$$############################@@@#@##@@@@@@@@@@@@@@@@@@@@@+++++++@@++++++++++++++++++++OOOOOOOOOOOOOOOOoooOoooooooooooooooXXXoXXXXXXXXXXXXXX.................                                                                                                                                              .8CFFFFFFFFFFFFFFFFFZZZZZZZZZZZZZZZZZZZZFFFFFFFFFFFFFFFFFFFFZZZZZZZZZZZZZZZZZZZZFFFFFFFFFFFFFFFFFFFFZZZZZZZZZZZZZZZZZZZZFFFFFFFFFFFFFFFFFFFFZZZZZZZZZZZZZZZZZZZZFFFFFFFFFFFFFFFFFFFFZZZZZZZZZZZZZZZZZZZZ",
"ZZZZZZZZZZZZZZZZZZZZFFFFFFFFFFFFFFFFFFFFZZZZZZZZZZZZZZZZZZZZFFFFFFFFFFFFFFFFFFFFZZZZZZZZZZZZZZZZZZZZFFFFFFFFFFFFFFFFFFFFZZZZZZZZZZZZZZZZZZZZFFFFFFFFFFFFFFFFFFFFZZZZZZZZZZZZZZZZZZZZFFFFFFFFFFFFFFFFFFFV9%$$$$$$$$$$$$$$$%%%%%%%$$$%%%$$%%%%$%%%%%$$%%%%%%%%%%%%%%%%%%%%%%%%%%%%%%%%%%%%%%%%%%%%$%%%%%$$%%%%$$$%%%%%%$$$$$$$$$$$$$$$$$$$$$$$$$$$$$$$$$$$$$$$$$$$$$$$####$$############################@@###@@@@@@@@@@@@@@@@@@@@@++@@@@+++++++++++++++++++OO++OOOOOOOOOOOOOOOOOOOooooooooooooooooooXooXXXXXXXXXXXXXXXXX...............                                                                                                                                              #gDFFFFFFFFFFFFFFFFFFZZZZZZZZZZZZZZZZZZZZFFFFFFFFFFFFFFFFFFFFZZZZZZZZZZZZZZZZZZZZFFFFFFFFFFFFFFFFFFFFZZZZZZZZZZZZZZZZZZZZFFFFFFFFFFFFFFFFFFFFZZZZZZZZZZZZZZZZZZZZFFFFFFFFFFFFFFFFFFFFZZZZZZZZZZZZZZZZZZZZ",
"ZZZZZZZZZZZZZZZZZZZZFFFFFFFFFFFFFFFFFFFFZZZZZZZZZZZZZZZZZZZZFFFFFFFFFFFFFFFFFFFFZZZZZZZZZZZZZZZZZZZZFFFFFFFFFFFFFFFFFFFFZZZZZZZZZZZZZZZZZZZZFFFFFFFFFFFFFFFFFFFFZZZZZZZZZZZZZZZZZZZZFFFFFFFFFFFFFFFFFFFFVs-$$$$$$$$$$$$$$$$$$$$$$$$%%%$%%%%%$$%%$$$%%%%$$$$$%%%%$$$%%%%$$$$$%%%%%%%%%%%%%%$$%%%%$$%%%%$$%%%$$$$$$$$$$$$$$$$$$$$$$$$$$$$$$$$$$$$$$$$$$$$$$$####$$$$$$################################@@@@@@@@@@@@@@@@@@@@@@@@@@@@++@+@@+++++++++++++++++++O+OOOOOOOOOOOOOOOOoOOOOooooooooooooooXXoooXXXXXXXXXXXXXX..XX...............                                                                                                                                              1vFFFFFFFFFFFFFFFFFFFFZZZZZZZZZZZZZZZZZZZZFFFFFFFFFFFFFFFFFFFFZZZZZZZZZZZZZZZZZZZZFFFFFFFFFFFFFFFFFFFFZZZZZZZZZZZZZZZZZZZZFFFFFFFFFFFFFFFFFFFFZZZZZZZZZZZZZZZZZZZZFFFFFFFFFFFFFFFFFFFFZZZZZZZZZZZZZZZZZZZZ",
"ZZZZZZZZZZZZZZZZZZZZFFFFFFFFFFFFFFFFFFFFZZZZZZZZZZZZZZZZZZZZFFFFFFFFFFFFFFFFFFFFZZZZZZZZZZZZZZZZZZZZFFFFFFFFFFFFFFFFFFFFZZZZZZZZZZZZZZZZZZZZFFFFFFFFFFFFFFFFFFFFZZZZZZZZZZZZZZZZZZZZFFFFFFFFFFFFFFFFFFFFZCv4$$$$$$$$$$$$$$$$$$$$$$$$$$$$$$$$$$$$$$%%%%$$%%%%%%$$%%%%%%$$%%%%%%$$%%%%$$$$%$$$$$$$$$$$$$$$$$$$$$$$$$$$$$$$$$$$$$$$$$$$$$$$$$$$$$$$$$$$$###$$$$###$############################@@@@##@@@@@@@@@@@@@@@@@@@@@@@@++@@@@++++++++++++++++++++++++OOOOOOOOOOOOOOOOOOooooooooooooooooooXXXXXXXXXXXXXXXXXXX.XXX.............. ...                                                                                                                                           OtBZFFFFFFFFFFFFFFFFFFFFZZZZZZZZZZZZZZZZZZZZFFFFFFFFFFFFFFFFFFFFZZZZZZZZZZZZZZZZZZZZFFFFFFFFFFFFFFFFFFFFZZZZZZZZZZZZZZZZZZZZFFFFFFFFFFFFFFFFFFFFZZZZZZZZZZZZZZZZZZZZFFFFFFFFFFFFFFFFFFFFZZZZZZZZZZZZZZZZZZZZ",
"ZZZZZZZZZZZZZZZZZZZZFFFFFFFFFFFFFFFFFFFFZZZZZZZZZZZZZZZZZZZZFFFFFFFFFFFFFFFFFFFFZZZZZZZZZZZZZZZZZZZZFFFFFFFFFFFFFFFFFFFFZZZZZZZZZZZZZZZZZZZZFFFFFFFFFFFFFFFFFFFFZZZZZZZZZZZZZZZZZZZZFFFFFFFFFFFFFFFFFFFFZZZBt&$$$$$$$$$$$$$$$$$$$$$$$$$$$$$$$$$$$$$$$$$$$$$$$$$$$$$$$$$$$$$$$$$$$$$$$$$$$$$$$$$$$$$$$$$$$$$$$$$$$$$$$$$$$$$$$$$$$$$$$$$$$$$$$$$#########$$$#############################@@@@@@@@@@@@@@@@@@@@@@@@@@@@@@@@@@+@@+++++++++++++++++++++++++OOOOOOOOOOOOOOOOOOOOooooooooooooooooooXXXXXXXXXXXXXXXXXXX.XX..............  .                                                                                                                                            -lZZZFFFFFFFFFFFFFFFFFFFFZZZZZZZZZZZZZZZZZZZZFFFFFFFFFFFFFFFFFFFFZZZZZZZZZZZZZZZZZZZZFFFFFFFFFFFFFFFFFFFFZZZZZZZZZZZZZZZZZZZZFFFFFFFFFFFFFFFFFFFFZZZZZZZZZZZZZZZZZZZZFFFFFFFFFFFFFFFFFFFFZZZZZZZZZZZZZZZZZZZZ",
"ZZZZZZZZZZZZZZZZZZZZFFFFFFFFFFFFFFFFFFFFZZZZZZZZZZZZZZZZZZZZFFFFFFFFFFFFFFFFFFFFZZZZZZZZZZZZZZZZZZZZFFFFFFFFFFFFFFFFFFFFZZZZZZZZZZZZZZZZZZZZFFFFFFFFFFFFFFFFFFFFZZZZZZZZZZZZZZZZZZZZFFFFFFFFFFFFFFFFFFFFZZZZCl,$$$$$$$$$$$$$$$$$$$$$$$$$$$$$$$$$$$$$$$$$$$$$$$$$$$$$$$$$$$$$$$$$$$$$$$$$$$$$$$$$$$$$$$$$$$$$$$$$$$$$$$$$$$$$$$$$$$$$$$$$$$$$$$##$$$$################################@@######@@@@@@@@@@@@@@@@@@@@@@@+@@@@@+++++++++++++++++++++++O++OOOOOOOOOOOOOOOOoOOOOOoooooooooooooooooooXXXXXXXXXXXXXXXXXX..................                                                                                                                                             .8MZZZZFFFFFFFFFFFFFFFFFFFFZZZZZZZZZZZZZZZZZZZZFFFFFFFFFFFFFFFFFFFFZZZZZZZZZZZZZZZZZZZZFFFFFFFFFFFFFFFFFFFFZZZZZZZZZZZZZZZZZZZZFFFFFFFFFFFFFFFFFFFFZZZZZZZZZZZZZZZZZZZZFFFFFFFFFFFFFFFFFFFFZZZZZZZZZZZZZZZZZZZZ",
"ZZZZZZZZZZZZZZZZZZZZFFFFFFFFFFFFFFFFFFFFZZZZZZZZZZZZZZZZZZZZFFFFFFFFFFFFFFFFFFFFZZZZZZZZZZZZZZZZZZZZFFFFFFFFFFFFFFFFFFFFZZZZZZZZZZZZZZZZZZZZFFFFFFFFFFFFFFFFFFFFZZZZZZZZZZZZZZZZZZZZFFFFFFFFFFFFFFFFFFFFZZZZZZMq%$$$$$$$$$$$$$$$$$$$$$$$$$$$$$$$$$$$$$$$$$$$$$$$$$$$$$$$$$$$$$$$$$$$$$$$$$$$$$$$$$$$$$$$$$$$$$$$$$$$$$$$$$$$$$$$$$$$#$####$$$$$###################################@@#@###@@@@@@@@@@@@@@@@@@@@@@@++@+@@@++++++++++++++++++++++++OOOOOOOOOOOOOOOOOOoooooooooooooooooooooXXoooXXXXXXXXXXXXXX.X.XX..............  .                                                                                                                                             %fCZZZZZFFFFFFFFFFFFFFFFFFFFZZZZZZZZZZZZZZZZZZZZFFFFFFFFFFFFFFFFFFFFZZZZZZZZZZZZZZZZZZZZFFFFFFFFFFFFFFFFFFFFZZZZZZZZZZZZZZZZZZZZFFFFFFFFFFFFFFFFFFFFZZZZZZZZZZZZZZZZZZZZFFFFFFFFFFFFFFFFFFFFZZZZZZZZZZZZZZZZZZZZ",
"ZZZZZZZZZZZZZZZZZZZZFFFFFFFFFFFFFFFFFFFFZZZZZZZZZZZZZZZZZZZZFFFFFFFFFFFFFFFFFFFFZZZZZZZZZZZZZZZZZZZZFFFFFFFFFFFFFFFFFFFFZZZZZZZZZZZZZZZZZZZZFFFFFFFFFFFFFFFFFFFFZZZZZZZZZZZZZZZZZZZZFFFFFFFFFFFFFFFFFFFFZZZZZZZCh:#$$$$$$$$$$$$$$$$$$$$$$$$$$$$$$$$$$$$$$$$$$$$$$$$$$$$$$$$$$$$$$$$$$$$$$$$$$$$$$$$$$$$$$$$$$$$$$$$$$$$$##$$$$$$$$#$#######################################@#####@@@#@@@@@@@@@@@@@@@@@@@@@@@@+++@@@@+++@++++++++++++++++++++++OOOOOOOOOOOOOOOOOOooooooooooooooooooooXXXXoXXXXXXXXXXXXXXX................. .                                                                                                                                               .5mZZZZZZZFFFFFFFFFFFFFFFFFFFFZZZZZZZZZZZZZZZZZZZZFFFFFFFFFFFFFFFFFFFFZZZZZZZZZZZZZZZZZZZZFFFFFFFFFFFFFFFFFFFFZZZZZZZZZZZZZZZZZZZZFFFFFFFFFFFFFFFFFFFFZZZZZZZZZZZZZZZZZZZZFFFFFFFFFFFFFFFFFFFFZZZZZZZZZZZZZZZZZZZZ",
"ZZZZZZZZZZZZZZZZZZZZFFFFFFFFFFFFFFFFFFFFZZZZZZZZZZZZZZZZZZZZFFFFFFFFFFFFFFFFFFFFZZZZZZZZZZZZZZZZZZZZFFFFFFFFFFFFFFFFFFFFZZZZZZZZZZZZZZZZZZZZFFFFFFFFFFFFFFFFFFFFZZZZZZZZZZZZZZZZZZZZFFFFFFFFFFFFFFFFFFFFZZZZZZZZZm9%$$##$$####$$$$$$$$$$$$$$$$$$$$$$$$$$$$$$$$$$$$$$$$$$$$$$$$$$$$$$$$$$$$$$$$$$$$$$$$$$$$$$$$###$$$#######$$$$$#$#####################################@@##@####@@@@@@@@@@@@@@@@@@@@@@@@@@@@++++@+++++++++++++++++++++++++OOOOOOOOOOOOOOOOOOooOOOoooooooooooooooooooXXXXXXXXXXXXXXXXX.XX...............                                                                                                                                                  $dVZZZZZZZZFFFFFFFFFFFFFFFFFFFFZZZZZZZZZZZZZZZZZZZZFFFFFFFFFFFFFFFFFFFFZZZZZZZZZZZZZZZZZZZZFFFFFFFFFFFFFFFFFFFFZZZZZZZZZZZZZZZZZZZZFFFFFFFFFFFFFFFFFFFFZZZZZZZZZZZZZZZZZZZZFFFFFFFFFFFFFFFFFFFFZZZZZZZZZZZZZZZZZZZZ",
"ZZZZZZZZZZZZZZZZZZZZFFFFFFFFFFFFFFFFFFFFZZZZZZZZZZZZZZZZZZZZFFFFFFFFFFFFFFFFFFFFZZZZZZZZZZZZZZZZZZZZFFFFFFFFFFFFFFFFFFFFZZZZZZZZZZZZZZZZZZZZFFFFFFFFFFFFFFFFFFFFZZZZZZZZZZZZZZZZZZZZFFFFFFFFFFFFFFFFFFFFZZZZZZZZZZVg:$$$##$$$$$$##$$$$######$$$$$$$$$$$$$$$$$$$$$$$$$$$$$$$$$$$$$$$$$$$$$$$$$$$$$$$$$$##$$$$######$$$$$#################################################@@@#@@@@@@@@@@@@@@@@@@@@@@@@@@@@@@@@@+++++++++++++++++++++++OOO+OOOOOOOOOOOOOOOOOooooooooooooooooooooooXooooXXXXXXXXXXXXXXXXX...................                                                                                                                                               .5nZZZZZZZZZZFFFFFFFFFFFFFFFFFFFFZZZZZZZZZZZZZZZZZZZZFFFFFFFFFFFFFFFFFFFFZZZZZZZZZZZZZZZZZZZZFFFFFFFFFFFFFFFFFFFFZZZZZZZZZZZZZZZZZZZZFFFFFFFFFFFFFFFFFFFFZZZZZZZZZZZZZZZZZZZZFFFFFFFFFFFFFFFFFFFFZZZZZZZZZZZZZZZZZZZZ",
"ZZZZZZZZZZZZZZZZZZZZFFFFFFFFFFFFFFFFFFFFZZZZZZZZZZZZZZZZZZZZFFFFFFFFFFFFFFFFFFFFZZZZZZZZZZZZZZZZZZZZFFFFFFFFFFFFFFFFFFFFZZZZZZZZZZZZZZZZZZZZFFFFFFFFFFFFFFFFFFFFZZZZZZZZZZZZZZZZZZZZFFFFFFFFFFFFFFFFFFFFZZZZZZZZZZZZm9$########$##$$$$######$$$#$$####$$$$$$####$$####$$$$$$########$$$#$$####$$$$$$#$##$$$$$################################################@##@@@@###@@@@@@@@@@@@@@@@@@@@@@@@@@@@@++@@@@+@+++++++++++++++++++++++++OOOOOOOOOOOOOOOOOOooooooooooooooooooooooXXXooXXXXXXXXXXXXXXXXXX............... ....                                                                                                                                              $sVZZZZZZZZZZZFFFFFFFFFFFFFFFFFFFFZZZZZZZZZZZZZZZZZZZZFFFFFFFFFFFFFFFFFFFFZZZZZZZZZZZZZZZZZZZZFFFFFFFFFFFFFFFFFFFFZZZZZZZZZZZZZZZZZZZZFFFFFFFFFFFFFFFFFFFFZZZZZZZZZZZZZZZZZZZZFFFFFFFFFFFFFFFFFFFFZZZZZZZZZZZZZZZZZZZZ",
"ZZZZZZZZZZZZZZZZZZZZFFFFFFFFFFFFFFFFFFFFZZZZZZZZZZZZZZZZZZZZFFFFFFFFFFFFFFFFFFFFZZZZZZZZZZZZZZZZZZZZFFFFFFFFFFFFFFFFFFFFZZZZZZZZZZZZZZZZZZZZFFFFFFFFFFFFFFFFFFFFZZZZZZZZZZZZZZZZZZZZFFFFFFFFFFFFFFFFFFFFZZZZZZZZZZZZZCf:####################$$##$#####$$$$######$#####$$$$#######$$#$$##$#####$$########################################################@@@@@@##@@@@@@@@@@@@@@@@@@@@@@@@@@@@@@@@@@@@+++++++@++++++++++++++++++++++OOOOOOOOOOOOOOOOOOOOOOOOooooooooooooooooooXXXXXXXXXXXXXXXXXXX.XX...............                                                                                                                                                   .4nZZZZZZZZZZZZZFFFFFFFFFFFFFFFFFFFFZZZZZZZZZZZZZZZZZZZZFFFFFFFFFFFFFFFFFFFFZZZZZZZZZZZZZZZZZZZZFFFFFFFFFFFFFFFFFFFFZZZZZZZZZZZZZZZZZZZZFFFFFFFFFFFFFFFFFFFFZZZZZZZZZZZZZZZZZZZZFFFFFFFFFFFFFFFFFFFFZZZZZZZZZZZZZZZZZZZZ",
"ZZZZZZZZZZZZZZZZZZZZFFFFFFFFFFFFFFFFFFFFZZZZZZZZZZZZZZZZZZZZFFFFFFFFFFFFFFFFFFFFZZZZZZZZZZZZZZZZZZZZFFFFFFFFFFFFFFFFFFFFZZZZZZZZZZZZZZZZZZZZFFFFFFFFFFFFFFFFFFFFZZZZZZZZZZZZZZZZZZZZFFFFFFFFFFFFFFFFFFFFZZZZZZZZZZZZZZZm0$#########################################################################################################################@###@@@@@#@@@@@@@@@@@@@@@@@@@@@@@@@@@@@+++++@@@@++++++++++++++++++++++++++++OOOOOOOOOOOOOOOOOOOOOOOOoooooooooooooooooooooXXXXXXXXXXXXXXXX....X...............                                                                                                                                                   %dVZZZZZZZZZZZZZZFFFFFFFFFFFFFFFFFFFFZZZZZZZZZZZZZZZZZZZZFFFFFFFFFFFFFFFFFFFFZZZZZZZZZZZZZZZZZZZZFFFFFFFFFFFFFFFFFFFFZZZZZZZZZZZZZZZZZZZZFFFFFFFFFFFFFFFFFFFFZZZZZZZZZZZZZZZZZZZZFFFFFFFFFFFFFFFFFFFFZZZZZZZZZZZZZZZZZZZZ",
"ZZZZZZZZZZZZZZZZZZZZFFFFFFFFFFFFFFFFFFFFZZZZZZZZZZZZZZZZZZZZFFFFFFFFFFFFFFFFFFFFZZZZZZZZZZZZZZZZZZZZFFFFFFFFFFFFFFFFFFFFZZZZZZZZZZZZZZZZZZZZFFFFFFFFFFFFFFFFFFFFZZZZZZZZZZZZZZZZZZZZFFFFFFFFFFFFFFFFFFFFZZZZZZZZZZZZZZZZCj,###################################################################################################################@@@@####@@@@@@@@@@@@@@@@@@@@@@@@@@@@@@@@@@@@@@++++++++++++++++++++++++++++++++OOOOOOOOOOOOOOOOOOOoooOOOoooooooooooooooooXXooXXXXXXXXXXXXXXXXXX....................                                                                                                                                                 X8MZZZZZZZZZZZZZZZZFFFFFFFFFFFFFFFFFFFFZZZZZZZZZZZZZZZZZZZZFFFFFFFFFFFFFFFFFFFFZZZZZZZZZZZZZZZZZZZZFFFFFFFFFFFFFFFFFFFFZZZZZZZZZZZZZZZZZZZZFFFFFFFFFFFFFFFFFFFFZZZZZZZZZZZZZZZZZZZZFFFFFFFFFFFFFFFFFFFFZZZZZZZZZZZZZZZZZZZZ",
"ZZZZZZZZZZZZZZZZZZZZFFFFFFFFFFFFFFFFFFFFZZZZZZZZZZZZZZZZZZZZFFFFFFFFFFFFFFFFFFFFZZZZZZZZZZZZZZZZZZZZFFFFFFFFFFFFFFFFFFFFZZZZZZZZZZZZZZZZZZZZFFFFFFFFFFFFFFFFFFFFZZZZZZZZZZZZZZZZZZZZFFFFFFFFFFFFFFFFFFFFZZZZZZZZZZZZZZZZZZMr&#########################################################################################################@@@@#@##@@@@@@@@@@@@@@@@@@@@@@@@@@@@@@@@@@@@+@@@@@@@@++++++++++++++++++++++++++++++OOOOOOOOOOOOOOOOOOOooooooooooooooooooooooooXXXXoXXXXXXXXXXXXXXXXXXX....................                                                                                                                                                -jCZZZZZZZZZZZZZZZZZFFFFFFFFFFFFFFFFFFFFZZZZZZZZZZZZZZZZZZZZFFFFFFFFFFFFFFFFFFFFZZZZZZZZZZZZZZZZZZZZFFFFFFFFFFFFFFFFFFFFZZZZZZZZZZZZZZZZZZZZFFFFFFFFFFFFFFFFFFFFZZZZZZZZZZZZZZZZZZZZFFFFFFFFFFFFFFFFFFFFZZZZZZZZZZZZZZZZZZZZ",
"ZZZZZZZZZZZZZZZZZZZZFFFFFFFFFFFFFFFFFFFFZZZZZZZZZZZZZZZZZZZZFFFFFFFFFFFFFFFFFFFFZZZZZZZZZZZZZZZZZZZZFFFFFFFFFFFFFFFFFFFFZZZZZZZZZZZZZZZZZZZZFFFFFFFFFFFFFFFFFFFFZZZZZZZZZZZZZZZZZZZZFFFFFFFFFFFFFFFFFFFFZZZZZZZZZZZZZZZZZZZCb3#############################################################################################@@@##@@@@###@@@@@@@@@@@@@@@@@@@@@@@@@@@@@@@@@@@@@@@@@+++@@@++++@@+++++++++++++++++++++++++OOOOOOOOOOOOOOOOOOOOOoooOOooooooooooooooooooXooooXXXXXXXXXXXXXXXX..XXX.............. . ..                                                                                                                                                OtNZZZZZZZZZZZZZZZZZZZFFFFFFFFFFFFFFFFFFFFZZZZZZZZZZZZZZZZZZZZFFFFFFFFFFFFFFFFFFFFZZZZZZZZZZZZZZZZZZZZFFFFFFFFFFFFFFFFFFFFZZZZZZZZZZZZZZZZZZZZFFFFFFFFFFFFFFFFFFFFZZZZZZZZZZZZZZZZZZZZFFFFFFFFFFFFFFFFFFFFZZZZZZZZZZZZZZZZZZZZ",
"ZZZZZZZZZZZZZZZZZZZZFFFFFFFFFFFFFFFFFFFFZZZZZZZZZZZZZZZZZZZZFFFFFFFFFFFFFFFFFFFFZZZZZZZZZZZZZZZZZZZZFFFFFFFFFFFFFFFFFFFFZZZZZZZZZZZZZZZZZZZZFFFFFFFFFFFFFFFFFFFFZZZZZZZZZZZZZZZZZZZZFFFFFFFFFFFFFFFFFFFFZZZZZZZZZZZZZZZZZZZZFAa=##################################################################################@@@@@@@@@@@@##@@@@@@@@@@@@@@@@@@@@@@@@@@@@@@@@@@@@@@@@@++@@@++++++++++++@+++++++++++++++++++++++OOOOOOOOOOOOOOOOOOOOooOOooooooooooooooooooooXXXXooXXXXXXXXXXXXXXXX...................                                                                                                                                                      <bDZZZZZZZZZZZZZZZZZZZZFFFFFFFFFFFFFFFFFFFFZZZZZZZZZZZZZZZZZZZZFFFFFFFFFFFFFFFFFFFFZZZZZZZZZZZZZZZZZZZZFFFFFFFFFFFFFFFFFFFFZZZZZZZZZZZZZZZZZZZZFFFFFFFFFFFFFFFFFFFFZZZZZZZZZZZZZZZZZZZZFFFFFFFFFFFFFFFFFFFFZZZZZZZZZZZZZZZZZZZZ",
"FFFFFFFFFFFFFFFFFFFFZZZZZZZZZZZZZZZZZZZZFFFFFFFFFFFFFFFFFFFFZZZZZZZZZZZZZZZZZZZZFFFFFFFFFFFFFFFFFFFFZZZZZZZZZZZZZZZZZZZZFFFFFFFFFFFFFFFFFFFFZZZZZZZZZZZZZZZZZZZZFFFFFFFFFFFFFFFFFFFFZZZZZZZZZZZZZZZZZZZZFFFFFFFFFFFFFFFFFFFFZZZb7$#####@##################################################################@@@#########@@@###@@@@@@@@@@@@@@@@@@@@@@@@@@@@@@@@@@@@@@@@@@@@@@@@@@+++@++++++++++++++++++++++++++OOOOOOOOOOOOOOOOOOOOOOOOooooOOoooooooooooooooooooooXXXXXXXXXXXXXXXXXXX.XXX....................                                                                                                                                                 #pBZZFFFFFFFFFFFFFFFFFFFFZZZZZZZZZZZZZZZZZZZZFFFFFFFFFFFFFFFFFFFFZZZZZZZZZZZZZZZZZZZZFFFFFFFFFFFFFFFFFFFFZZZZZZZZZZZZZZZZZZZZFFFFFFFFFFFFFFFFFFFFZZZZZZZZZZZZZZZZZZZZFFFFFFFFFFFFFFFFFFFFZZZZZZZZZZZZZZZZZZZZFFFFFFFFFFFFFFFFFFFF",
"FFFFFFFFFFFFFFFFFFFFZZZZZZZZZZZZZZZZZZZZFFFFFFFFFFFFFFFFFFFFZZZZZZZZZZZZZZZZZZZZFFFFFFFFFFFFFFFFFFFFZZZZZZZZZZZZZZZZZZZZFFFFFFFFFFFFFFFFFFFFZZZZZZZZZZZZZZZZZZZZFFFFFFFFFFFFFFFFFFFFZZZZZZZZZZZZZZZZZZZZFFFFFFFFFFFFFFFFFFFFZZZZCh,#####@@@@########@@@@######@@@#@########@@######@@@#@##########@@@#####@@@@##@@#@@@@@@@@@@@@@@@@@@@@@@@@@@@@@@@@@@@@@@@@@@@@@++@@@@++@++++++++@+++++++++++++++++++++++++OOOOOOOOOOOOOOOOOOOOOoOOOOooooooooooooooooooooXXXXooXXXXXXXXXXXXXXXX.XXXX...............   ..                                                                                                                                                 X7nZZZZFFFFFFFFFFFFFFFFFFFFZZZZZZZZZZZZZZZZZZZZFFFFFFFFFFFFFFFFFFFFZZZZZZZZZZZZZZZZZZZZFFFFFFFFFFFFFFFFFFFFZZZZZZZZZZZZZZZZZZZZFFFFFFFFFFFFFFFFFFFFZZZZZZZZZZZZZZZZZZZZFFFFFFFFFFFFFFFFFFFFZZZZZZZZZZZZZZZZZZZZFFFFFFFFFFFFFFFFFFFF",
"FFFFFFFFFFFFFFFFFFFFZZZZZZZZZZZZZZZZZZZZFFFFFFFFFFFFFFFFFFFFZZZZZZZZZZZZZZZZZZZZFFFFFFFFFFFFFFFFFFFFZZZZZZZZZZZZZZZZZZZZFFFFFFFFFFFFFFFFFFFFZZZZZZZZZZZZZZZZZZZZFFFFFFFFFFFFFFFFFFFFZZZZZZZZZZZZZZZZZZZZFFFFFFFFFFFFFFFFFFFFZZZZZZNt&@@#@@@@@@####@@@@@@@@######@@@@####@@@@@@######@@@@@@##@@@@@@@@@@@@@@@@@@@@@@@@@@@@@@@@@@@@@@@@@@@@@@@@@@@@@@@@@@@@@@++@@@@+@@@++++++++++++++++++++++++++++++++++++OOOOOOOOOOOOOOOOOOOOOoooOOOOoooooooooooooooooooooooXXXXXXXXXXXXXXXXXX....................                                                                                                                                                       :kCZZZZZFFFFFFFFFFFFFFFFFFFFZZZZZZZZZZZZZZZZZZZZFFFFFFFFFFFFFFFFFFFFZZZZZZZZZZZZZZZZZZZZFFFFFFFFFFFFFFFFFFFFZZZZZZZZZZZZZZZZZZZZFFFFFFFFFFFFFFFFFFFFZZZZZZZZZZZZZZZZZZZZFFFFFFFFFFFFFFFFFFFFZZZZZZZZZZZZZZZZZZZZFFFFFFFFFFFFFFFFFFFF",
"FFFFFFFFFFFFFFFFFFFFZZZZZZZZZZZZZZZZZZZZFFFFFFFFFFFFFFFFFFFFZZZZZZZZZZZZZZZZZZZZFFFFFFFFFFFFFFFFFFFFZZZZZZZZZZZZZZZZZZZZFFFFFFFFFFFFFFFFFFFFZZZZZZZZZZZZZZZZZZZZFFFFFFFFFFFFFFFFFFFFZZZZZZZZZZZZZZZZZZZZFFFFFFFFFFFFFFFFFFFFZZZZZZZZv6#@@@@@@@@@@@@@@@@@@@@@@###@@@@####@@@@@@@#@@@@@@@@@@@@@@@@@@@@@@@@@@@@@@@@@@@@@@@@@@@@@@@@@@@@@@@@@@@@@@@@@@@@++@@@@++@@@+++++++++++++++++++++++++++++++++++++OOOOOOOOOOOOOOOOOOOOOOOOooooooooooooooooooooooooXXoooXXXXXXXXXXXXXXXXXXX...................                                                                                                                                                       #iBZZZZZZZFFFFFFFFFFFFFFFFFFFFZZZZZZZZZZZZZZZZZZZZFFFFFFFFFFFFFFFFFFFFZZZZZZZZZZZZZZZZZZZZFFFFFFFFFFFFFFFFFFFFZZZZZZZZZZZZZZZZZZZZFFFFFFFFFFFFFFFFFFFFZZZZZZZZZZZZZZZZZZZZFFFFFFFFFFFFFFFFFFFFZZZZZZZZZZZZZZZZZZZZFFFFFFFFFFFFFFFFFFFF",
"FFFFFFFFFFFFFFFFFFFFZZZZZZZZZZZZZZZZZZZZFFFFFFFFFFFFFFFFFFFFZZZZZZZZZZZZZZZZZZZZFFFFFFFFFFFFFFFFFFFFZZZZZZZZZZZZZZZZZZZZFFFFFFFFFFFFFFFFFFFFZZZZZZZZZZZZZZZZZZZZFFFFFFFFFFFFFFFFFFFFZZZZZZZZZZZZZZZZZZZZFFFFFFFFFFFFFFFFFFFFZZZZZZZZZCg>@@@@@@@@@@@@@@@@@@@@@@@@@@@@@@@@@@@@@@@@@@@@@@@@@@@@@@@@@@@@@@@@@@@@@@@@@@@@@@@@@@@@@@@@@@@@@@@@@@@@@@@@+++@@@@@@+++++++++++++++++++++++++++++++++++++++OOOOOOOOOOOOOOOOOOOOOOOoOOOOoooooooooooooooooooooXXXXooXXXXXXXXXXXXXXXXXXXXX..................                                                                                                                                                      X6nZZZZZZZZZFFFFFFFFFFFFFFFFFFFFZZZZZZZZZZZZZZZZZZZZFFFFFFFFFFFFFFFFFFFFZZZZZZZZZZZZZZZZZZZZFFFFFFFFFFFFFFFFFFFFZZZZZZZZZZZZZZZZZZZZFFFFFFFFFFFFFFFFFFFFZZZZZZZZZZZZZZZZZZZZFFFFFFFFFFFFFFFFFFFFZZZZZZZZZZZZZZZZZZZZFFFFFFFFFFFFFFFFFFFF",
"FFFFFFFFFFFFFFFFFFFFZZZZZZZZZZZZZZZZZZZZFFFFFFFFFFFFFFFFFFFFZZZZZZZZZZZZZZZZZZZZFFFFFFFFFFFFFFFFFFFFZZZZZZZZZZZZZZZZZZZZFFFFFFFFFFFFFFFFFFFFZZZZZZZZZZZZZZZZZZZZFFFFFFFFFFFFFFFFFFFFZZZZZZZZZZZZZZZZZZZZFFFFFFFFFFFFFFFFFFFFZZZZZZZZZZZNy*@@@@@@@@@@@@@@@@@@@@@@@@@@@@@@@@@@@@@@@@@@@@@@@@@@@@@@@@@@@@@@@@@@@@@@@@@@@@@@@@@@@@@@@@@@@@@@+@+@@@@@++@@++@@++++++++++++++++++++++++++++++++++++OOOOOOOOOOOOOOOOOOOOOOOOOoooOOOoooooooooooooooooooXXXXXXXXXXXXXXXXXXXXXXX...XXX...............  ..                                                                                                                                                     >lCZZZZZZZZZZFFFFFFFFFFFFFFFFFFFFZZZZZZZZZZZZZZZZZZZZFFFFFFFFFFFFFFFFFFFFZZZZZZZZZZZZZZZZZZZZFFFFFFFFFFFFFFFFFFFFZZZZZZZZZZZZZZZZZZZZFFFFFFFFFFFFFFFFFFFFZZZZZZZZZZZZZZZZZZZZFFFFFFFFFFFFFFFFFFFFZZZZZZZZZZZZZZZZZZZZFFFFFFFFFFFFFFFFFFFF",
"FFFFFFFFFFFFFFFFFFFFZZZZZZZZZZZZZZZZZZZZFFFFFFFFFFFFFFFFFFFFZZZZZZZZZZZZZZZZZZZZFFFFFFFFFFFFFFFFFFFFZZZZZZZZZZZZZZZZZZZZFFFFFFFFFFFFFFFFFFFFZZZZZZZZZZZZZZZZZZZZFFFFFFFFFFFFFFFFFFFFZZZZZZZZZZZZZZZZZZZZFFFFFFFFFFFFFFFFFFFFZZZZZZZZZZZZZn9$@@@@@@@@@@@@@@@@@@@@@@@@@@@@@@@@@@@@@@@@@@@@@@@@@@@@@@@@@@@@@@@@@@@@@@@@@@@@@@@@@@++++@@@@@@++++@@++++++++++++++++++++++++++++++++++++++++++OOOOOOOOOOOOOOOOOOOOOOOOOoOOoooooooooooooooooooooooXoooooXXXXXXXXXXXXXXXXXXX.....................   .                                                                                                                                                    &sBZZZZZZZZZZZZFFFFFFFFFFFFFFFFFFFFZZZZZZZZZZZZZZZZZZZZFFFFFFFFFFFFFFFFFFFFZZZZZZZZZZZZZZZZZZZZFFFFFFFFFFFFFFFFFFFFZZZZZZZZZZZZZZZZZZZZFFFFFFFFFFFFFFFFFFFFZZZZZZZZZZZZZZZZZZZZFFFFFFFFFFFFFFFFFFFFZZZZZZZZZZZZZZZZZZZZFFFFFFFFFFFFFFFFFFFF",
"FFFFFFFFFFFFFFFFFFFFZZZZZZZZZZZZZZZZZZZZFFFFFFFFFFFFFFFFFFFFZZZZZZZZZZZZZZZZZZZZFFFFFFFFFFFFFFFFFFFFZZZZZZZZZZZZZZZZZZZZFFFFFFFFFFFFFFFFFFFFZZZZZZZZZZZZZZZZZZZZFFFFFFFFFFFFFFFFFFFFZZZZZZZZZZZZZZZZZZZZFFFFFFFFFFFFFFFFFFFFZZZZZZZZZZZZZZCz2@@@@@@@@@@@@@@@@@@@@@@@@@@@@@@@@@@@@@@@@@@@@@@@@@@@@@@@@@@@@@@@@@@@@@@@@+@@@@@@++++++++@@@+++++++++++++++++++++++++++++++++++++++++++++OOOOOOOOOOOOOOOOOOOOOOOOOoooooOOooooooooooooooooooooXooXoooXXXXXXXXXXXXXXXXXXXXX....................                                                                                                                                                       +eMZZZZZZZZZZZZZZFFFFFFFFFFFFFFFFFFFFZZZZZZZZZZZZZZZZZZZZFFFFFFFFFFFFFFFFFFFFZZZZZZZZZZZZZZZZZZZZFFFFFFFFFFFFFFFFFFFFZZZZZZZZZZZZZZZZZZZZFFFFFFFFFFFFFFFFFFFFZZZZZZZZZZZZZZZZZZZZFFFFFFFFFFFFFFFFFFFFZZZZZZZZZZZZZZZZZZZZFFFFFFFFFFFFFFFFFFFF",
"FFFFFFFFFFFFFFFFFFFFZZZZZZZZZZZZZZZZZZZZFFFFFFFFFFFFFFFFFFFFZZZZZZZZZZZZZZZZZZZZFFFFFFFFFFFFFFFFFFFFZZZZZZZZZZZZZZZZZZZZFFFFFFFFFFFFFFFFFFFFZZZZZZZZZZZZZZZZZZZZFFFFFFFFFFFFFFFFFFFFZZZZZZZZZZZZZZZZZZZZFFFFFFFFFFFFFFFFFFFFZZZZZZZZZZZZZZZZVf:@@@@@@@@@@@@@@@@@@@@@@@@@@@@@@@@@@@@@@@@@@@@@@@@@@@@@@@@@@@@@@@@@@@@@@@@@@@@@@@@+++@+++++++++++++++++++++++++++++++++++++++++OOO+OOOOOOOOOOOOOOOOOOOOOOOOOOOOooooooooooooooooooooooooooooXXXoXXXXXXXXXXXXXXXXXXX.XXX..................  .                                                                                                                                                     .5bZZZZZZZZZZZZZZZZFFFFFFFFFFFFFFFFFFFFZZZZZZZZZZZZZZZZZZZZFFFFFFFFFFFFFFFFFFFFZZZZZZZZZZZZZZZZZZZZFFFFFFFFFFFFFFFFFFFFZZZZZZZZZZZZZZZZZZZZFFFFFFFFFFFFFFFFFFFFZZZZZZZZZZZZZZZZZZZZFFFFFFFFFFFFFFFFFFFFZZZZZZZZZZZZZZZZZZZZFFFFFFFFFFFFFFFFFFFF",
"FFFFFFFFFFFFFFFFFFFFZZZZZZZZZZZZZZZZZZZZFFFFFFFFFFFFFFFFFFFFZZZZZZZZZZZZZZZZZZZZFFFFFFFFFFFFFFFFFFFFZZZZZZZZZZZZZZZZZZZZFFFFFFFFFFFFFFFFFFFFZZZZZZZZZZZZZZZZZZZZFFFFFFFFFFFFFFFFFFFFZZZZZZZZZZZZZZZZZZZZFFFFFFFFFFFFFFFFFFFFZZZZZZZZZZZZZZZZZZNy*@@@+@@@@@@@@@@@@@@@@@@@@@@@@@@@@@@@@@@@@@++@@@@@@@+@@@@++@@@@@@@@@@@@++@+++++++++@@++++++++++++++++++++++++++++++++OO+++++OOOOOOOOOOOOOOOOOOOOOOOOOOOooOOOOooooooooooooooooooooooooooooXXXXXXXXXXXXXXXXXXX.....X................. .                                                                                                                                                        >kCZZZZZZZZZZZZZZZZZFFFFFFFFFFFFFFFFFFFFZZZZZZZZZZZZZZZZZZZZFFFFFFFFFFFFFFFFFFFFZZZZZZZZZZZZZZZZZZZZFFFFFFFFFFFFFFFFFFFFZZZZZZZZZZZZZZZZZZZZFFFFFFFFFFFFFFFFFFFFZZZZZZZZZZZZZZZZZZZZFFFFFFFFFFFFFFFFFFFFZZZZZZZZZZZZZZZZZZZZFFFFFFFFFFFFFFFFFFFF",
"FFFFFFFFFFFFFFFFFFFFZZZZZZZZZZZZZZZZZZZZFFFFFFFFFFFFFFFFFFFFZZZZZZZZZZZZZZZZZZZZFFFFFFFFFFFFFFFFFFFFZZZZZZZZZZZZZZZZZZZZFFFFFFFFFFFFFFFFFFFFZZZZZZZZZZZZZZZZZZZZFFFFFFFFFFFFFFFFFFFFZZZZZZZZZZZZZZZZZZZZFFFFFFFFFFFFFFFFFFFFZZZZZZZZZZZZZZZZZZZZBe%@+++++@++@@@@@@++@@@@@@@++++@@@@@++++@@++@@@@@@++@@@@++++++++++++++++++++++++++++++++++++++++++++++++++++++++++++OOOOOOOOOOOOOOOOOOOOOOOOOOOOOOOOooooOOooooooooooooooooooooooXXXXXXXXXXXXXXXXXXXXXXXXXXXX................... ..                                                                                                                                                        -hVZZZZZZZZZZZZZZZZZZZFFFFFFFFFFFFFFFFFFFFZZZZZZZZZZZZZZZZZZZZFFFFFFFFFFFFFFFFFFFFZZZZZZZZZZZZZZZZZZZZFFFFFFFFFFFFFFFFFFFFZZZZZZZZZZZZZZZZZZZZFFFFFFFFFFFFFFFFFFFFZZZZZZZZZZZZZZZZZZZZFFFFFFFFFFFFFFFFFFFFZZZZZZZZZZZZZZZZZZZZFFFFFFFFFFFFFFFFFFFF",
"FFFFFFFFFFFFFFFFFFFFZZZZZZZZZZZZZZZZZZZZFFFFFFFFFFFFFFFFFFFFZZZZZZZZZZZZZZZZZZZZFFFFFFFFFFFFFFFFFFFFZZZZZZZZZZZZZZZZZZZZFFFFFFFFFFFFFFFFFFFFZZZZZZZZZZZZZZZZZZZZFFFFFFFFFFFFFFFFFFFFZZZZZZZZZZZZZZZZZZZZFFFFFFFFFFFFFFFFFFFFZZZZZZZZZZZZZZZZZZZZFFM9#+++@@++@@@@@@+++@@@@@@++++@@@@@++++@@+++++++++++++++++++++++++++++++++++++++++++++++++++++++++++++++++++++++OOOOOOOOOOOOOOOOOOOOOOOOOOOOOooOOOOoooooooooooooooooooooooooooXXXXXXXXXXXXXXXXXXXXXXX..XXXX................    ..                                                                                                                                                      %sAFZZZZZZZZZZZZZZZZZZZZFFFFFFFFFFFFFFFFFFFFZZZZZZZZZZZZZZZZZZZZFFFFFFFFFFFFFFFFFFFFZZZZZZZZZZZZZZZZZZZZFFFFFFFFFFFFFFFFFFFFZZZZZZZZZZZZZZZZZZZZFFFFFFFFFFFFFFFFFFFFZZZZZZZZZZZZZZZZZZZZFFFFFFFFFFFFFFFFFFFFZZZZZZZZZZZZZZZZZZZZFFFFFFFFFFFFFFFFFFFF",
"FFFFFFFFFFFFFFFFFFFFZZZZZZZZZZZZZZZZZZZZFFFFFFFFFFFFFFFFFFFFZZZZZZZZZZZZZZZZZZZZFFFFFFFFFFFFFFFFFFFFZZZZZZZZZZZZZZZZZZZZFFFFFFFFFFFFFFFFFFFFZZZZZZZZZZZZZZZZZZZZFFFFFFFFFFFFFFFFFFFFZZZZZZZZZZZZZZZZZZZZFFFFFFFFFFFFFFFFFFFFZZZZZZZZZZZZZZZZZZZZFFFDv5@+++++++++++++@+++++@@++++@@++++++++++++++++++++++++++++++++++++++++++++++++++++++++++++++++++++++++++OOOOOOOOOOOOOOOOOOOOOOOOOOOOOOOOooooOOoooooooooooooooooooooooXooooXXXXXXXXXXXXXXXXXXXXXX....X...................                                                                                                                                                          @yCFFFZZZZZZZZZZZZZZZZZZZZFFFFFFFFFFFFFFFFFFFFZZZZZZZZZZZZZZZZZZZZFFFFFFFFFFFFFFFFFFFFZZZZZZZZZZZZZZZZZZZZFFFFFFFFFFFFFFFFFFFFZZZZZZZZZZZZZZZZZZZZFFFFFFFFFFFFFFFFFFFFZZZZZZZZZZZZZZZZZZZZFFFFFFFFFFFFFFFFFFFFZZZZZZZZZZZZZZZZZZZZFFFFFFFFFFFFFFFFFFFF",
"FFFFFFFFFFFFFFFFFFFFZZZZZZZZZZZZZZZZZZZZFFFFFFFFFFFFFFFFFFFFZZZZZZZZZZZZZZZZZZZZFFFFFFFFFFFFFFFFFFFFZZZZZZZZZZZZZZZZZZZZFFFFFFFFFFFFFFFFFFFFZZZZZZZZZZZZZZZZZZZZFFFFFFFFFFFFFFFFFFFFZZZZZZZZZZZZZZZZZZZZFFFFFFFFFFFFFFFFFFFFZZZZZZZZZZZZZZZZZZZZFFFFFDz1@+++++++++++@@+++++@++++@@++++++++++++++++++++++++++++++++++++++++++++++++++++++++++++++++++++OOOOOOOOOOOOOOOOOOOOOOOOOOOOOOOOOOOOOOooooooooooooooooooooooooooXXXXoXoXXXXXXXXXXXXXXXXXXXXXXX........................                                                                                                                                                        OqBFFFFFZZZZZZZZZZZZZZZZZZZZFFFFFFFFFFFFFFFFFFFFZZZZZZZZZZZZZZZZZZZZFFFFFFFFFFFFFFFFFFFFZZZZZZZZZZZZZZZZZZZZFFFFFFFFFFFFFFFFFFFFZZZZZZZZZZZZZZZZZZZZFFFFFFFFFFFFFFFFFFFFZZZZZZZZZZZZZZZZZZZZFFFFFFFFFFFFFFFFFFFFZZZZZZZZZZZZZZZZZZZZFFFFFFFFFFFFFFFFFFFF",
"FFFFFFFFFFFFFFFFFFFFZZZZZZZZZZZZZZZZZZZZFFFFFFFFFFFFFFFFFFFFZZZZZZZZZZZZZZZZZZZZFFFFFFFFFFFFFFFFFFFFZZZZZZZZZZZZZZZZZZZZFFFFFFFFFFFFFFFFFFFFZZZZZZZZZZZZZZZZZZZZFFFFFFFFFFFFFFFFFFFFZZZZZZZZZZZZZZZZZZZZFFFFFFFFFFFFFFFFFFFFZZZZZZZZZZZZZZZZZZZZFFFFFFFSh,++++++++++++++++++++++++++++++++++++++++++++++++++++++++++++++++++++++++++++++++++++++OOOOOOOOOOOOOOOOOOOOOOOOOOOOOOOOOoOOooooOOooooooooooooooooooooooooXoXXXXXXXXXXXXXXXXXXXXXXXXXX..XXXX.................   ...                                                                                                                                                       o8MDFFFFFFZZZZZZZZZZZZZZZZZZZZFFFFFFFFFFFFFFFFFFFFZZZZZZZZZZZZZZZZZZZZFFFFFFFFFFFFFFFFFFFFZZZZZZZZZZZZZZZZZZZZFFFFFFFFFFFFFFFFFFFFZZZZZZZZZZZZZZZZZZZZFFFFFFFFFFFFFFFFFFFFZZZZZZZZZZZZZZZZZZZZFFFFFFFFFFFFFFFFFFFFZZZZZZZZZZZZZZZZZZZZFFFFFFFFFFFFFFFFFFFF",
"FFFFFFFFFFFFFFFFFFFFZZZZZZZZZZZZZZZZZZZZFFFFFFFFFFFFFFFFFFFFZZZZZZZZZZZZZZZZZZZZFFFFFFFFFFFFFFFFFFFFZZZZZZZZZZZZZZZZZZZZFFFFFFFFFFFFFFFFFFFFZZZZZZZZZZZZZZZZZZZZFFFFFFFFFFFFFFFFFFFFZZZZZZZZZZZZZZZZZZZZFFFFFFFFFFFFFFFFFFFFZZZZZZZZZZZZZZZZZZZZFFFFFFFFFAg>+++++++++++++++++++++++++++++++++++++++++++++++++++++++++++++++++++++++++++++OOOOOOOOOOOOOOOOOOOOOOOOOOOOOOOOOOOOooooooOoooooooooooooooooooooooooooooooXXXXXXXXXXXXXXXXXXXXXXX.XXX....................                                                                                                                                                              X7mDFFFFFFFFZZZZZZZZZZZZZZZZZZZZFFFFFFFFFFFFFFFFFFFFZZZZZZZZZZZZZZZZZZZZFFFFFFFFFFFFFFFFFFFFZZZZZZZZZZZZZZZZZZZZFFFFFFFFFFFFFFFFFFFFZZZZZZZZZZZZZZZZZZZZFFFFFFFFFFFFFFFFFFFFZZZZZZZZZZZZZZZZZZZZFFFFFFFFFFFFFFFFFFFFZZZZZZZZZZZZZZZZZZZZFFFFFFFFFFFFFFFFFFFF",
"FFFFFFFFFFFFFFFFFFFFZZZZZZZZZZZZZZZZZZZZFFFFFFFFFFFFFFFFFFFFZZZZZZZZZZZZZZZZZZZZFFFFFFFFFFFFFFFFFFFFZZZZZZZZZZZZZZZZZZZZFFFFFFFFFFFFFFFFFFFFZZZZZZZZZZZZZZZZZZZZFFFFFFFFFFFFFFFFFFFFZZZZZZZZZZZZZZZZZZZZFFFFFFFFFFFFFFFFFFFFZZZZZZZZZZZZZZZZZZZZFFFFFFFFFFFAf:++++++++++++++++++++++++++++++++++++++++++++++++++++++++++OOO++++++OOOOOOOOOOOOOOOOOOOOOOOOOOOOOOOOOOOOOOOOoOOOOooooooooooooooooooooooooooooooXooooooXXXXXXXXXXXXXXXXXXXXX...XXX..................  ....                                                                                                                                                        X6nDFFFFFFFFFFZZZZZZZZZZZZZZZZZZZZFFFFFFFFFFFFFFFFFFFFZZZZZZZZZZZZZZZZZZZZFFFFFFFFFFFFFFFFFFFFZZZZZZZZZZZZZZZZZZZZFFFFFFFFFFFFFFFFFFFFZZZZZZZZZZZZZZZZZZZZFFFFFFFFFFFFFFFFFFFFZZZZZZZZZZZZZZZZZZZZFFFFFFFFFFFFFFFFFFFFZZZZZZZZZZZZZZZZZZZZFFFFFFFFFFFFFFFFFFFF",
"FFFFFFFFFFFFFFFFFFFFZZZZZZZZZZZZZZZZZZZZFFFFFFFFFFFFFFFFFFFFZZZZZZZZZZZZZZZZZZZZFFFFFFFFFFFFFFFFFFFFZZZZZZZZZZZZZZZZZZZZFFFFFFFFFFFFFFFFFFFFZZZZZZZZZZZZZZZZZZZZFFFFFFFFFFFFFFFFFFFFZZZZZZZZZZZZZZZZZZZZFFFFFFFFFFFFFFFFFFFFZZZZZZZZZZZZZZZZZZZZFFFFFFFFFFFFFAd;++++++++++++++++++++++++++++++++++++++++++++++++++++++++OOOOOOOOOOOOOOOOOOOOOOOOOOOOOOOOOOOOOOOOOOOoOOOoOOOOooooooooooooooooooooooooooooXoooXXoXXXXXXXXXXXXXXXXXXXXX..XXXX...................     .                                                                                                                                                         X5nDFFFFFFFFFFFFZZZZZZZZZZZZZZZZZZZZFFFFFFFFFFFFFFFFFFFFZZZZZZZZZZZZZZZZZZZZFFFFFFFFFFFFFFFFFFFFZZZZZZZZZZZZZZZZZZZZFFFFFFFFFFFFFFFFFFFFZZZZZZZZZZZZZZZZZZZZFFFFFFFFFFFFFFFFFFFFZZZZZZZZZZZZZZZZZZZZFFFFFFFFFFFFFFFFFFFFZZZZZZZZZZZZZZZZZZZZFFFFFFFFFFFFFFFFFFFF",
"FFFFFFFFFFFFFFFFFFFFZZZZZZZZZZZZZZZZZZZZFFFFFFFFFFFFFFFFFFFFZZZZZZZZZZZZZZZZZZZZFFFFFFFFFFFFFFFFFFFFZZZZZZZZZZZZZZZZZZZZFFFFFFFFFFFFFFFFFFFFZZZZZZZZZZZZZZZZZZZZFFFFFFFFFFFFFFFFFFFFZZZZZZZZZZZZZZZZZZZZFFFFFFFFFFFFFFFFFFFFZZZZZZZZZZZZZZZZZZZZFFFFFFFFFFFFFFFZs;++++++++++++++++++++++++++++++++++++++++OO++OOOOOOOOOOOOOOOOOOOOOOOOOOOOOOOOOOOOOOOOOOOOOOOOOOooOoOOooooooooooooooooooooooooooooooXXXXXXooXXXXXXXXXXXXXXXXXXXXX.XX..XX................... . ..                                                                                                                                                          X4bDFFFFFFFFFFFFFFZZZZZZZZZZZZZZZZZZZZFFFFFFFFFFFFFFFFFFFFZZZZZZZZZZZZZZZZZZZZFFFFFFFFFFFFFFFFFFFFZZZZZZZZZZZZZZZZZZZZFFFFFFFFFFFFFFFFFFFFZZZZZZZZZZZZZZZZZZZZFFFFFFFFFFFFFFFFFFFFZZZZZZZZZZZZZZZZZZZZFFFFFFFFFFFFFFFFFFFFZZZZZZZZZZZZZZZZZZZZFFFFFFFFFFFFFFFFFFFF",
"FFFFFFFFFFFFFFFFFFFFZZZZZZZZZZZZZZZZZZZZFFFFFFFFFFFFFFFFFFFFZZZZZZZZZZZZZZZZZZZZFFFFFFFFFFFFFFFFFFFFZZZZZZZZZZZZZZZZZZZZFFFFFFFFFFFFFFFFFFFFZZZZZZZZZZZZZZZZZZZZFFFFFFFFFFFFFFFFFFFFZZZZZZZZZZZZZZZZZZZZFFFFFFFFFFFFFFFFFFFFZZZZZZZZZZZZZZZZZZZZFFFFFFFFFFFFFFFFFAf>++++++++++++++++++++++++++++OOOOOOOOOOOOOOOOOOOOOOOOOOOOOOOOOOOOOOOOOOOOOOOOOOOOOOOOooooOOOooOOoooooooooooooooooooooooooooooooooXXXXXXXXXXXXXXXXXXXXXXXXXXXX....X...................    ..                                                                                                                                                          o6nDFFFFFFFFFFFFFFFFZZZZZZZZZZZZZZZZZZZZFFFFFFFFFFFFFFFFFFFFZZZZZZZZZZZZZZZZZZZZFFFFFFFFFFFFFFFFFFFFZZZZZZZZZZZZZZZZZZZZFFFFFFFFFFFFFFFFFFFFZZZZZZZZZZZZZZZZZZZZFFFFFFFFFFFFFFFFFFFFZZZZZZZZZZZZZZZZZZZZFFFFFFFFFFFFFFFFFFFFZZZZZZZZZZZZZZZZZZZZFFFFFFFFFFFFFFFFFFFF",
"ZZZZZZZZZZZZZZZZZZZZFFFFFFFFFFFFFFFFFFFFZZZZZZZZZZZZZZZZZZZZFFFFFFFFFFFFFFFFFFFFZZZZZZZZZZZZZZZZZZZZFFFFFFFFFFFFFFFFFFFFZZZZZZZZZZZZZZZZZZZZFFFFFFFFFFFFFFFFFFFFZZZZZZZZZZZZZZZZZZZZFFFFFFFFFFFFFFFFFFFFZZZZZZZZZZZZZZZZZZZZFFFFFFFFFFFFFFFFFFFFZZZZZZZZZZZZZZZZZZZBh,+OOOOOOOOOOOOOOOOOOOOOOOOOOOOOOOOOOOOOOOOOOOOOOOOOOOOOOOOOOOOOOOOOOOOOOOOOOOOOooooooOOOOooooooooooooooooooooooooooooooXXXXooooXXXXXXXXXXXXXXXXXXXXXXX...XX.....................     .                                                                                                                                                           O9vCZZZZZZZZZZZZZZZZZZFFFFFFFFFFFFFFFFFFFFZZZZZZZZZZZZZZZZZZZZFFFFFFFFFFFFFFFFFFFFZZZZZZZZZZZZZZZZZZZZFFFFFFFFFFFFFFFFFFFFZZZZZZZZZZZZZZZZZZZZFFFFFFFFFFFFFFFFFFFFZZZZZZZZZZZZZZZZZZZZFFFFFFFFFFFFFFFFFFFFZZZZZZZZZZZZZZZZZZZZFFFFFFFFFFFFFFFFFFFFZZZZZZZZZZZZZZZZZZZZ",
"ZZZZZZZZZZZZZZZZZZZZFFFFFFFFFFFFFFFFFFFFZZZZZZZZZZZZZZZZZZZZFFFFFFFFFFFFFFFFFFFFZZZZZZZZZZZZZZZZZZZZFFFFFFFFFFFFFFFFFFFFZZZZZZZZZZZZZZZZZZZZFFFFFFFFFFFFFFFFFFFFZZZZZZZZZZZZZZZZZZZZFFFFFFFFFFFFFFFFFFFFZZZZZZZZZZZZZZZZZZZZFFFFFFFFFFFFFFFFFFFFZZZZZZZZZZZZZZZZZZZZFSl1+OOOOOOOOOOOOOOOOOOOOOOOOOOOOOOOOOOOOOOOOOOOOOOOOOOOOOOOOOOOOOOOOOOOOOooOOOOOoooooooooooooooooooooooooooooooooooooooXXXXXXXXXXXXXXXXXXXXXXXXXXXX......X...................  .                                                                                                                                                               +wNFZZZZZZZZZZZZZZZZZZZZFFFFFFFFFFFFFFFFFFFFZZZZZZZZZZZZZZZZZZZZFFFFFFFFFFFFFFFFFFFFZZZZZZZZZZZZZZZZZZZZFFFFFFFFFFFFFFFFFFFFZZZZZZZZZZZZZZZZZZZZFFFFFFFFFFFFFFFFFFFFZZZZZZZZZZZZZZZZZZZZFFFFFFFFFFFFFFFFFFFFZZZZZZZZZZZZZZZZZZZZFFFFFFFFFFFFFFFFFFFFZZZZZZZZZZZZZZZZZZZZ",
"ZZZZZZZZZZZZZZZZZZZZFFFFFFFFFFFFFFFFFFFFZZZZZZZZZZZZZZZZZZZZFFFFFFFFFFFFFFFFFFFFZZZZZZZZZZZZZZZZZZZZFFFFFFFFFFFFFFFFFFFFZZZZZZZZZZZZZZZZZZZZFFFFFFFFFFFFFFFFFFFFZZZZZZZZZZZZZZZZZZZZFFFFFFFFFFFFFFFFFFFFZZZZZZZZZZZZZZZZZZZZFFFFFFFFFFFFFFFFFFFFZZZZZZZZZZZZZZZZZZZZFFFDx4+OOOOOOOOOOOOOOOOOOOOOOOOOOOOOOOOOOOOOOOOOOOOOOOOOOOOOOOOOooooOOoOooooOOooooooooooooooooooooooooooooooooooXXXXooooXXXXXXXXXXXXXXXXXXXXXXXXXXXX...X..........................                                                                                                                                                            #rVFFFZZZZZZZZZZZZZZZZZZZZFFFFFFFFFFFFFFFFFFFFZZZZZZZZZZZZZZZZZZZZFFFFFFFFFFFFFFFFFFFFZZZZZZZZZZZZZZZZZZZZFFFFFFFFFFFFFFFFFFFFZZZZZZZZZZZZZZZZZZZZFFFFFFFFFFFFFFFFFFFFZZZZZZZZZZZZZZZZZZZZFFFFFFFFFFFFFFFFFFFFZZZZZZZZZZZZZZZZZZZZFFFFFFFFFFFFFFFFFFFFZZZZZZZZZZZZZZZZZZZZ",
"ZZZZZZZZZZZZZZZZZZZZFFFFFFFFFFFFFFFFFFFFZZZZZZZZZZZZZZZZZZZZFFFFFFFFFFFFFFFFFFFFZZZZZZZZZZZZZZZZZZZZFFFFFFFFFFFFFFFFFFFFZZZZZZZZZZZZZZZZZZZZFFFFFFFFFFFFFFFFFFFFZZZZZZZZZZZZZZZZZZZZFFFFFFFFFFFFFFFFFFFFZZZZZZZZZZZZZZZZZZZZFFFFFFFFFFFFFFFFFFFFZZZZZZZZZZZZZZZZZZZZFFFFFDb8#OOOOOOOOOOOOOOOOOOOOOOOOOOOOOOOOOOOOOOOOOOOOOOoooOOOOOOooooOOoooooooooooooooooooooooooooooooooooooXooooXXXXXXXXXXXXXXXXXXXXXXXXXXXXXXX.XXXX..................... .....                                                                                                                                                             =pZFFFFFZZZZZZZZZZZZZZZZZZZZFFFFFFFFFFFFFFFFFFFFZZZZZZZZZZZZZZZZZZZZFFFFFFFFFFFFFFFFFFFFZZZZZZZZZZZZZZZZZZZZFFFFFFFFFFFFFFFFFFFFZZZZZZZZZZZZZZZZZZZZFFFFFFFFFFFFFFFFFFFFZZZZZZZZZZZZZZZZZZZZFFFFFFFFFFFFFFFFFFFFZZZZZZZZZZZZZZZZZZZZFFFFFFFFFFFFFFFFFFFFZZZZZZZZZZZZZZZZZZZZ",
"ZZZZZZZZZZZZZZZZZZZZFFFFFFFFFFFFFFFFFFFFZZZZZZZZZZZZZZZZZZZZFFFFFFFFFFFFFFFFFFFFZZZZZZZZZZZZZZZZZZZZFFFFFFFFFFFFFFFFFFFFZZZZZZZZZZZZZZZZZZZZFFFFFFFFFFFFFFFFFFFFZZZZZZZZZZZZZZZZZZZZFFFFFFFFFFFFFFFFFFFFZZZZZZZZZZZZZZZZZZZZFFFFFFFFFFFFFFFFFFFFZZZZZZZZZZZZZZZZZZZZFFFFFFFDNr&OOOOOOOOOOOOOOOOOOOOOOOOOOOOOOOOOOooooOOOOOOOoooOOOOOooooooooooooooooooooooooooooooooooooooooooXXooooXXXXXXXXXXXXXXXXXXXXXXXXXXX...XXX..................... .....                                                                                                                                                              ,jAFFFFFFFZZZZZZZZZZZZZZZZZZZZFFFFFFFFFFFFFFFFFFFFZZZZZZZZZZZZZZZZZZZZFFFFFFFFFFFFFFFFFFFFZZZZZZZZZZZZZZZZZZZZFFFFFFFFFFFFFFFFFFFFZZZZZZZZZZZZZZZZZZZZFFFFFFFFFFFFFFFFFFFFZZZZZZZZZZZZZZZZZZZZFFFFFFFFFFFFFFFFFFFFZZZZZZZZZZZZZZZZZZZZFFFFFFFFFFFFFFFFFFFFZZZZZZZZZZZZZZZZZZZZ",
"ZZZZZZZZZZZZZZZZZZZZFFFFFFFFFFFFFFFFFFFFZZZZZZZZZZZZZZZZZZZZFFFFFFFFFFFFFFFFFFFFZZZZZZZZZZZZZZZZZZZZFFFFFFFFFFFFFFFFFFFFZZZZZZZZZZZZZZZZZZZZFFFFFFFFFFFFFFFFFFFFZZZZZZZZZZZZZZZZZZZZFFFFFFFFFFFFFFFFFFFFZZZZZZZZZZZZZZZZZZZZFFFFFFFFFFFFFFFFFFFFZZZZZZZZZZZZZZZZZZZZFFFFFFFFFFCa;OOOOOOOOOOOOOOOOOOOoOOoooooOOOOooooooOOOOoOoooooooooooooooooooooooooooooooooooooooooXooooooXoXXXXXXXXXXXXXXXXXXXXXXXXXXXX..XXX.........................    .                                                                                                                                                              X5cDFFFFFFFFFZZZZZZZZZZZZZZZZZZZZFFFFFFFFFFFFFFFFFFFFZZZZZZZZZZZZZZZZZZZZFFFFFFFFFFFFFFFFFFFFZZZZZZZZZZZZZZZZZZZZFFFFFFFFFFFFFFFFFFFFZZZZZZZZZZZZZZZZZZZZFFFFFFFFFFFFFFFFFFFFZZZZZZZZZZZZZZZZZZZZFFFFFFFFFFFFFFFFFFFFZZZZZZZZZZZZZZZZZZZZFFFFFFFFFFFFFFFFFFFFZZZZZZZZZZZZZZZZZZZZ",
"ZZZZZZZZZZZZZZZZZZZZFFFFFFFFFFFFFFFFFFFFZZZZZZZZZZZZZZZZZZZZFFFFFFFFFFFFFFFFFFFFZZZZZZZZZZZZZZZZZZZZFFFFFFFFFFFFFFFFFFFFZZZZZZZZZZZZZZZZZZZZFFFFFFFFFFFFFFFFFFFFZZZZZZZZZZZZZZZZZZZZFFFFFFFFFFFFFFFFFFFFZZZZZZZZZZZZZZZZZZZZFFFFFFFFFFFFFFFFFFFFZZZZZZZZZZZZZZZZZZZZFFFFFFFFFFFFAj1+OOOOooooOOOOooOOOOOOOooooOooOooooooooooooooooooooooooooooooooooooooooooooooooXXXXXooXoXXXXXXXXXXXXXXXXXXXXXXXXXXXX..XXXX.......................   ..                                                                                                                                                                 +qMDFFFFFFFFFFFZZZZZZZZZZZZZZZZZZZZFFFFFFFFFFFFFFFFFFFFZZZZZZZZZZZZZZZZZZZZFFFFFFFFFFFFFFFFFFFFZZZZZZZZZZZZZZZZZZZZFFFFFFFFFFFFFFFFFFFFZZZZZZZZZZZZZZZZZZZZFFFFFFFFFFFFFFFFFFFFZZZZZZZZZZZZZZZZZZZZFFFFFFFFFFFFFFFFFFFFZZZZZZZZZZZZZZZZZZZZFFFFFFFFFFFFFFFFFFFFZZZZZZZZZZZZZZZZZZZZ",
"ZZZZZZZZZZZZZZZZZZZZFFFFFFFFFFFFFFFFFFFFZZZZZZZZZZZZZZZZZZZZFFFFFFFFFFFFFFFFFFFFZZZZZZZZZZZZZZZZZZZZFFFFFFFFFFFFFFFFFFFFZZZZZZZZZZZZZZZZZZZZFFFFFFFFFFFFFFFFFFFFZZZZZZZZZZZZZZZZZZZZFFFFFFFFFFFFFFFFFFFFZZZZZZZZZZZZZZZZZZZZFFFFFFFFFFFFFFFFFFFFZZZZZZZZZZZZZZZZZZZZFFFFFFFFFFFFFFSb0$OOooooOOOOooooOoooooooooooooooooooooooooooooooooooooooooooooooooooooXXXXooooXXXXXXXXXXXXXXXXXXXXXXXXXXXXXXXXXX.....X........................    .                                                                                                                                                                -aCFFFFFFFFFFFFFFZZZZZZZZZZZZZZZZZZZZFFFFFFFFFFFFFFFFFFFFZZZZZZZZZZZZZZZZZZZZFFFFFFFFFFFFFFFFFFFFZZZZZZZZZZZZZZZZZZZZFFFFFFFFFFFFFFFFFFFFZZZZZZZZZZZZZZZZZZZZFFFFFFFFFFFFFFFFFFFFZZZZZZZZZZZZZZZZZZZZFFFFFFFFFFFFFFFFFFFFZZZZZZZZZZZZZZZZZZZZFFFFFFFFFFFFFFFFFFFFZZZZZZZZZZZZZZZZZZZZ",
"ZZZZZZZZZZZZZZZZZZZZFFFFFFFFFFFFFFFFFFFFZZZZZZZZZZZZZZZZZZZZFFFFFFFFFFFFFFFFFFFFZZZZZZZZZZZZZZZZZZZZFFFFFFFFFFFFFFFFFFFFZZZZZZZZZZZZZZZZZZZZFFFFFFFFFFFFFFFFFFFFZZZZZZZZZZZZZZZZZZZZFFFFFFFFFFFFFFFFFFFFZZZZZZZZZZZZZZZZZZZZFFFFFFFFFFFFFFFFFFFFZZZZZZZZZZZZZZZZZZZZFFFFFFFFFFFFFFFFFCp;ooooooooooooooooooooooooooooooooooooooooooooooooooooooooooooooooXXXXooooXXXXXXXXXXXXXXXXXXXXXXXXXXXXXX..XXXX.............................                                                                                                                                                                   o4xSFFFFFFFFFFFFFFFFZZZZZZZZZZZZZZZZZZZZFFFFFFFFFFFFFFFFFFFFZZZZZZZZZZZZZZZZZZZZFFFFFFFFFFFFFFFFFFFFZZZZZZZZZZZZZZZZZZZZFFFFFFFFFFFFFFFFFFFFZZZZZZZZZZZZZZZZZZZZFFFFFFFFFFFFFFFFFFFFZZZZZZZZZZZZZZZZZZZZFFFFFFFFFFFFFFFFFFFFZZZZZZZZZZZZZZZZZZZZFFFFFFFFFFFFFFFFFFFFZZZZZZZZZZZZZZZZZZZZ",
"ZZZZZZZZZZZZZZZZZZZZFFFFFFFFFFFFFFFFFFFFZZZZZZZZZZZZZZZZZZZZFFFFFFFFFFFFFFFFFFFFZZZZZZZZZZZZZZZZZZZZFFFFFFFFFFFFFFFFFFFFZZZZZZZZZZZZZZZZZZZZFFFFFFFFFFFFFFFFFFFFZZZZZZZZZZZZZZZZZZZZFFFFFFFFFFFFFFFFFFFFZZZZZZZZZZZZZZZZZZZZFFFFFFFFFFFFFFFFFFFFZZZZZZZZZZZZZZZZZZZZFFFFFFFFFFFFFFFFFFFSh3+oooooooooooooooooooooooooooooooooooooooooooooooooooXXXXooooooXXXXXXXXXXXXXXXXXXXXXXXXXXXXXXXXXXXX....XX..............................                                                                                                                                                                  $wBFFFFFFFFFFFFFFFFFFFZZZZZZZZZZZZZZZZZZZZFFFFFFFFFFFFFFFFFFFFZZZZZZZZZZZZZZZZZZZZFFFFFFFFFFFFFFFFFFFFZZZZZZZZZZZZZZZZZZZZFFFFFFFFFFFFFFFFFFFFZZZZZZZZZZZZZZZZZZZZFFFFFFFFFFFFFFFFFFFFZZZZZZZZZZZZZZZZZZZZFFFFFFFFFFFFFFFFFFFFZZZZZZZZZZZZZZZZZZZZFFFFFFFFFFFFFFFFFFFFZZZZZZZZZZZZZZZZZZZZ",
"ZZZZZZZZZZZZZZZZZZZZFFFFFFFFFFFFFFFFFFFFZZZZZZZZZZZZZZZZZZZZFFFFFFFFFFFFFFFFFFFFZZZZZZZZZZZZZZZZZZZZFFFFFFFFFFFFFFFFFFFFZZZZZZZZZZZZZZZZZZZZFFFFFFFFFFFFFFFFFFFFZZZZZZZZZZZZZZZZZZZZFFFFFFFFFFFFFFFFFFFFZZZZZZZZZZZZZZZZZZZZFFFFFFFFFFFFFFFFFFFFZZZZZZZZZZZZZZZZZZZZFFFFFFFFFFFFFFFFFFFFZCbq&oooooooooooooooooooooooooooooooooooooooooXXooXoXXXXXXXXoXXXXXXXXXXXXXXXXXXXXXXXXXXXXXXXX.....XXXX........................      ..                                                                                                                                                                 .>dBZFFFFFFFFFFFFFFFFFFFFZZZZZZZZZZZZZZZZZZZZFFFFFFFFFFFFFFFFFFFFZZZZZZZZZZZZZZZZZZZZFFFFFFFFFFFFFFFFFFFFZZZZZZZZZZZZZZZZZZZZFFFFFFFFFFFFFFFFFFFFZZZZZZZZZZZZZZZZZZZZFFFFFFFFFFFFFFFFFFFFZZZZZZZZZZZZZZZZZZZZFFFFFFFFFFFFFFFFFFFFZZZZZZZZZZZZZZZZZZZZFFFFFFFFFFFFFFFFFFFFZZZZZZZZZZZZZZZZZZZZ",
"ZZZZZZZZZZZZZZZZZZZZFFFFFFFFFFFFFFFFFFFFZZZZZZZZZZZZZZZZZZZZFFFFFFFFFFFFFFFFFFFFZZZZZZZZZZZZZZZZZZZZFFFFFFFFFFFFFFFFFFFFZZZZZZZZZZZZZZZZZZZZFFFFFFFFFFFFFFFFFFFFZZZZZZZZZZZZZZZZZZZZFFFFFFFFFFFFFFFFFFFFZZZZZZZZZZZZZZZZZZZZFFFFFFFFFFFFFFFFFFFFZZZZZZZZZZZZZZZZZZZZFFFFFFFFFFFFFFFFFFFFZZZZBf2+ooooooooooooooooooooooooooooooXXXooXXXXoooXXXXXXXXXXXXXXXXXXXXXXXXXXXXXXXXXXXXXXXXX................................                                                                                                                                                                          $qvCZZZFFFFFFFFFFFFFFFFFFFFZZZZZZZZZZZZZZZZZZZZFFFFFFFFFFFFFFFFFFFFZZZZZZZZZZZZZZZZZZZZFFFFFFFFFFFFFFFFFFFFZZZZZZZZZZZZZZZZZZZZFFFFFFFFFFFFFFFFFFFFZZZZZZZZZZZZZZZZZZZZFFFFFFFFFFFFFFFFFFFFZZZZZZZZZZZZZZZZZZZZFFFFFFFFFFFFFFFFFFFFZZZZZZZZZZZZZZZZZZZZFFFFFFFFFFFFFFFFFFFFZZZZZZZZZZZZZZZZZZZZ",
"ZZZZZZZZZZZZZZZZZZZZFFFFFFFFFFFFFFFFFFFFZZZZZZZZZZZZZZZZZZZZFFFFFFFFFFFFFFFFFFFFZZZZZZZZZZZZZZZZZZZZFFFFFFFFFFFFFFFFFFFFZZZZZZZZZZZZZZZZZZZZFFFFFFFFFFFFFFFFFFFFZZZZZZZZZZZZZZZZZZZZFFFFFFFFFFFFFFFFFFFFZZZZZZZZZZZZZZZZZZZZFFFFFFFFFFFFFFFFFFFFZZZZZZZZZZZZZZZZZZZZFFFFFFFFFFFFFFFFFFFFZZZZZZCne=ooooooooooooooooooooXooXXXooXXXXXXXXXXXXXXXXXXXXXXXXXXXXXXXXXXXXXXXXXXXXXXXX..XXXX............................   ....                                                                                                                                                                   X1gBZZZZZZFFFFFFFFFFFFFFFFFFFFZZZZZZZZZZZZZZZZZZZZFFFFFFFFFFFFFFFFFFFFZZZZZZZZZZZZZZZZZZZZFFFFFFFFFFFFFFFFFFFFZZZZZZZZZZZZZZZZZZZZFFFFFFFFFFFFFFFFFFFFZZZZZZZZZZZZZZZZZZZZFFFFFFFFFFFFFFFFFFFFZZZZZZZZZZZZZZZZZZZZFFFFFFFFFFFFFFFFFFFFZZZZZZZZZZZZZZZZZZZZFFFFFFFFFFFFFFFFFFFFZZZZZZZZZZZZZZZZZZZZ",
"ZZZZZZZZZZZZZZZZZZZZFFFFFFFFFFFFFFFFFFFFZZZZZZZZZZZZZZZZZZZZFFFFFFFFFFFFFFFFFFFFZZZZZZZZZZZZZZZZZZZZFFFFFFFFFFFFFFFFFFFFZZZZZZZZZZZZZZZZZZZZFFFFFFFFFFFFFFFFFFFFZZZZZZZZZZZZZZZZZZZZFFFFFFFFFFFFFFFFFFFFZZZZZZZZZZZZZZZZZZZZFFFFFFFFFFFFFFFFFFFFZZZZZZZZZZZZZZZZZZZZFFFFFFFFFFFFFFFFFFFFZZZZZZZZZVj4@ooooXXXoooooXXXooXooXXooooXXXXXXXXXXXXXXXXXXXXXXXXXXXXXXXXXXXXXXXXXXXXX....X...........................  ....                                                                                                                                                                      *rnCZZZZZZZZFFFFFFFFFFFFFFFFFFFFZZZZZZZZZZZZZZZZZZZZFFFFFFFFFFFFFFFFFFFFZZZZZZZZZZZZZZZZZZZZFFFFFFFFFFFFFFFFFFFFZZZZZZZZZZZZZZZZZZZZFFFFFFFFFFFFFFFFFFFFZZZZZZZZZZZZZZZZZZZZFFFFFFFFFFFFFFFFFFFFZZZZZZZZZZZZZZZZZZZZFFFFFFFFFFFFFFFFFFFFZZZZZZZZZZZZZZZZZZZZFFFFFFFFFFFFFFFFFFFFZZZZZZZZZZZZZZZZZZZZ",
"ZZZZZZZZZZZZZZZZZZZZFFFFFFFFFFFFFFFFFFFFZZZZZZZZZZZZZZZZZZZZFFFFFFFFFFFFFFFFFFFFZZZZZZZZZZZZZZZZZZZZFFFFFFFFFFFFFFFFFFFFZZZZZZZZZZZZZZZZZZZZFFFFFFFFFFFFFFFFFFFFZZZZZZZZZZZZZZZZZZZZFFFFFFFFFFFFFFFFFFFFZZZZZZZZZZZZZZZZZZZZFFFFFFFFFFFFFFFFFFFFZZZZZZZZZZZZZZZZZZZZFFFFFFFFFFFFFFFFFFFFZZZZZZZZZZZCMi>OooXXoXooooXXXXXXXXXXXXXXXXXXXXXXXXXXXXXXXXXXXXXXXXXXXXXXXX....XXXX..............................     ...                                                                                                                                                                     @6kVZZZZZZZZZZZFFFFFFFFFFFFFFFFFFFFZZZZZZZZZZZZZZZZZZZZFFFFFFFFFFFFFFFFFFFFZZZZZZZZZZZZZZZZZZZZFFFFFFFFFFFFFFFFFFFFZZZZZZZZZZZZZZZZZZZZFFFFFFFFFFFFFFFFFFFFZZZZZZZZZZZZZZZZZZZZFFFFFFFFFFFFFFFFFFFFZZZZZZZZZZZZZZZZZZZZFFFFFFFFFFFFFFFFFFFFZZZZZZZZZZZZZZZZZZZZFFFFFFFFFFFFFFFFFFFFZZZZZZZZZZZZZZZZZZZZ",
"ZZZZZZZZZZZZZZZZZZZZFFFFFFFFFFFFFFFFFFFFZZZZZZZZZZZZZZZZZZZZFFFFFFFFFFFFFFFFFFFFZZZZZZZZZZZZZZZZZZZZFFFFFFFFFFFFFFFFFFFFZZZZZZZZZZZZZZZZZZZZFFFFFFFFFFFFFFFFFFFFZZZZZZZZZZZZZZZZZZZZFFFFFFFFFFFFFFFFFFFFZZZZZZZZZZZZZZZZZZZZFFFFFFFFFFFFFFFFFFFFZZZZZZZZZZZZZZZZZZZZFFFFFFFFFFFFFFFFFFFFZZZZZZZZZZZZZZCbe=XXXXXXXXXXXXXXXXXXXXXXXXXXXXXXXXXXXXXXXXXXXXXXXXXXXXX.....................................                                                                                                                                                                              o1dBZZZZZZZZZZZZZZFFFFFFFFFFFFFFFFFFFFZZZZZZZZZZZZZZZZZZZZFFFFFFFFFFFFFFFFFFFFZZZZZZZZZZZZZZZZZZZZFFFFFFFFFFFFFFFFFFFFZZZZZZZZZZZZZZZZZZZZFFFFFFFFFFFFFFFFFFFFZZZZZZZZZZZZZZZZZZZZFFFFFFFFFFFFFFFFFFFFZZZZZZZZZZZZZZZZZZZZFFFFFFFFFFFFFFFFFFFFZZZZZZZZZZZZZZZZZZZZFFFFFFFFFFFFFFFFFFFFZZZZZZZZZZZZZZZZZZZZ",
"ZZZZZZZZZZZZZZZZZZZZFFFFFFFFFFFFFFFFFFFFZZZZZZZZZZZZZZZZZZZZFFFFFFFFFFFFFFFFFFFFZZZZZZZZZZZZZZZZZZZZFFFFFFFFFFFFFFFFFFFFZZZZZZZZZZZZZZZZZZZZFFFFFFFFFFFFFFFFFFFFZZZZZZZZZZZZZZZZZZZZFFFFFFFFFFFFFFFFFFFFZZZZZZZZZZZZZZZZZZZZFFFFFFFFFFFFFFFFFFFFZZZZZZZZZZZZZZZZZZZZFFFFFFFFFFFFFFFFFFFFZZZZZZZZZZZZZZZZZVz8%XXXXXXXXXXXXXXXXXXXXXXXXXXXXXXXXXXXXXXXXX....XXXX..XX..................................                                                                                                                                                                           .:uMCZZZZZZZZZZZZZZZZFFFFFFFFFFFFFFFFFFFFZZZZZZZZZZZZZZZZZZZZFFFFFFFFFFFFFFFFFFFFZZZZZZZZZZZZZZZZZZZZFFFFFFFFFFFFFFFFFFFFZZZZZZZZZZZZZZZZZZZZFFFFFFFFFFFFFFFFFFFFZZZZZZZZZZZZZZZZZZZZFFFFFFFFFFFFFFFFFFFFZZZZZZZZZZZZZZZZZZZZFFFFFFFFFFFFFFFFFFFFZZZZZZZZZZZZZZZZZZZZFFFFFFFFFFFFFFFFFFFFZZZZZZZZZZZZZZZZZZZZ",
"ZZZZZZZZZZZZZZZZZZZZFFFFFFFFFFFFFFFFFFFFZZZZZZZZZZZZZZZZZZZZFFFFFFFFFFFFFFFFFFFFZZZZZZZZZZZZZZZZZZZZFFFFFFFFFFFFFFFFFFFFZZZZZZZZZZZZZZZZZZZZFFFFFFFFFFFFFFFFFFFFZZZZZZZZZZZZZZZZZZZZFFFFFFFFFFFFFFFFFFFFZZZZZZZZZZZZZZZZZZZZFFFFFFFFFFFFFFFFFFFFZZZZZZZZZZZZZZZZZZZZFFFFFFFFFFFFFFFFFFFFZZZZZZZZZZZZZZZZZZZZAk6#XXXXXXXXXXXXXXXXXXXXXXXXXXXXXXXX..XXXXX...X.X.................................  ....                                                                                                                                                                         -tMCZZZZZZZZZZZZZZZZZZZFFFFFFFFFFFFFFFFFFFFZZZZZZZZZZZZZZZZZZZZFFFFFFFFFFFFFFFFFFFFZZZZZZZZZZZZZZZZZZZZFFFFFFFFFFFFFFFFFFFFZZZZZZZZZZZZZZZZZZZZFFFFFFFFFFFFFFFFFFFFZZZZZZZZZZZZZZZZZZZZFFFFFFFFFFFFFFFFFFFFZZZZZZZZZZZZZZZZZZZZFFFFFFFFFFFFFFFFFFFFZZZZZZZZZZZZZZZZZZZZFFFFFFFFFFFFFFFFFFFFZZZZZZZZZZZZZZZZZZZZ",
"ZZZZZZZZZZZZZZZZZZZZFFFFFFFFFFFFFFFFFFFFZZZZZZZZZZZZZZZZZZZZFFFFFFFFFFFFFFFFFFFFZZZZZZZZZZZZZZZZZZZZFFFFFFFFFFFFFFFFFFFFZZZZZZZZZZZZZZZZZZZZFFFFFFFFFFFFFFFFFFFFZZZZZZZZZZZZZZZZZZZZFFFFFFFFFFFFFFFFFFFFZZZZZZZZZZZZZZZZZZZZFFFFFFFFFFFFFFFFFFFFZZZZZZZZZZZZZZZZZZZZFFFFFFFFFFFFFFFFFFFFZZZZZZZZZZZZZZZZZZZZFFFAj6#XXXXXXXXXXXXXXXXXXXXXXX.X......XXXX.................................... .    .                                                                                                                                                                         -tmDFFZZZZZZZZZZZZZZZZZZZZFFFFFFFFFFFFFFFFFFFFZZZZZZZZZZZZZZZZZZZZFFFFFFFFFFFFFFFFFFFFZZZZZZZZZZZZZZZZZZZZFFFFFFFFFFFFFFFFFFFFZZZZZZZZZZZZZZZZZZZZFFFFFFFFFFFFFFFFFFFFZZZZZZZZZZZZZZZZZZZZFFFFFFFFFFFFFFFFFFFFZZZZZZZZZZZZZZZZZZZZFFFFFFFFFFFFFFFFFFFFZZZZZZZZZZZZZZZZZZZZFFFFFFFFFFFFFFFFFFFFZZZZZZZZZZZZZZZZZZZZ",
"ZZZZZZZZZZZZZZZZZZZZFFFFFFFFFFFFFFFFFFFFZZZZZZZZZZZZZZZZZZZZFFFFFFFFFFFFFFFFFFFFZZZZZZZZZZZZZZZZZZZZFFFFFFFFFFFFFFFFFFFFZZZZZZZZZZZZZZZZZZZZFFFFFFFFFFFFFFFFFFFFZZZZZZZZZZZZZZZZZZZZFFFFFFFFFFFFFFFFFFFFZZZZZZZZZZZZZZZZZZZZFFFFFFFFFFFFFFFFFFFFZZZZZZZZZZZZZZZZZZZZFFFFFFFFFFFFFFFFFFFFZZZZZZZZZZZZZZZZZZZZFFFFFFAj6@XXXXXXXXXXXXXX....XX..........................................    ..                                                                                                                                                                             -tmDFFFFFZZZZZZZZZZZZZZZZZZZZFFFFFFFFFFFFFFFFFFFFZZZZZZZZZZZZZZZZZZZZFFFFFFFFFFFFFFFFFFFFZZZZZZZZZZZZZZZZZZZZFFFFFFFFFFFFFFFFFFFFZZZZZZZZZZZZZZZZZZZZFFFFFFFFFFFFFFFFFFFFZZZZZZZZZZZZZZZZZZZZFFFFFFFFFFFFFFFFFFFFZZZZZZZZZZZZZZZZZZZZFFFFFFFFFFFFFFFFFFFFZZZZZZZZZZZZZZZZZZZZFFFFFFFFFFFFFFFFFFFFZZZZZZZZZZZZZZZZZZZZ",
"FFFFFFFFFFFFFFFFFFFFZZZZZZZZZZZZZZZZZZZZFFFFFFFFFFFFFFFFFFFFZZZZZZZZZZZZZZZZZZZZFFFFFFFFFFFFFFFFFFFFZZZZZZZZZZZZZZZZZZZZFFFFFFFFFFFFFFFFFFFFZZZZZZZZZZZZZZZZZZZZFFFFFFFFFFFFFFFFFFFFZZZZZZZZZZZZZZZZZZZZFFFFFFFFFFFFFFFFFFFFZZZZZZZZZZZZZZZZZZZZFFFFFFFFFFFFFFFFFFFFZZZZZZZZZZZZZZZZZZZZFFFFFFFFFFFFFFFFFFFFZZZZZZZZZBf5#XXXXX..X...XXXXX...........................................                                                                                                                                                                               .-evCZZZZZZZZFFFFFFFFFFFFFFFFFFFFZZZZZZZZZZZZZZZZZZZZFFFFFFFFFFFFFFFFFFFFZZZZZZZZZZZZZZZZZZZZFFFFFFFFFFFFFFFFFFFFZZZZZZZZZZZZZZZZZZZZFFFFFFFFFFFFFFFFFFFFZZZZZZZZZZZZZZZZZZZZFFFFFFFFFFFFFFFFFFFFZZZZZZZZZZZZZZZZZZZZFFFFFFFFFFFFFFFFFFFFZZZZZZZZZZZZZZZZZZZZFFFFFFFFFFFFFFFFFFFFZZZZZZZZZZZZZZZZZZZZFFFFFFFFFFFFFFFFFFFF",
"FFFFFFFFFFFFFFFFFFFFZZZZZZZZZZZZZZZZZZZZFFFFFFFFFFFFFFFFFFFFZZZZZZZZZZZZZZZZZZZZFFFFFFFFFFFFFFFFFFFFZZZZZZZZZZZZZZZZZZZZFFFFFFFFFFFFFFFFFFFFZZZZZZZZZZZZZZZZZZZZFFFFFFFFFFFFFFFFFFFFZZZZZZZZZZZZZZZZZZZZFFFFFFFFFFFFFFFFFFFFZZZZZZZZZZZZZZZZZZZZFFFFFFFFFFFFFFFFFFFFZZZZZZZZZZZZZZZZZZZZFFFFFFFFFFFFFFFFFFFFZZZZZZZZZZZZVk0*XX..XX.......................................    .......                                                                                                                                                                            o<unCZZZZZZZZZZZFFFFFFFFFFFFFFFFFFFFZZZZZZZZZZZZZZZZZZZZFFFFFFFFFFFFFFFFFFFFZZZZZZZZZZZZZZZZZZZZFFFFFFFFFFFFFFFFFFFFZZZZZZZZZZZZZZZZZZZZFFFFFFFFFFFFFFFFFFFFZZZZZZZZZZZZZZZZZZZZFFFFFFFFFFFFFFFFFFFFZZZZZZZZZZZZZZZZZZZZFFFFFFFFFFFFFFFFFFFFZZZZZZZZZZZZZZZZZZZZFFFFFFFFFFFFFFFFFFFFZZZZZZZZZZZZZZZZZZZZFFFFFFFFFFFFFFFFFFFF",
"FFFFFFFFFFFFFFFFFFFFZZZZZZZZZZZZZZZZZZZZFFFFFFFFFFFFFFFFFFFFZZZZZZZZZZZZZZZZZZZZFFFFFFFFFFFFFFFFFFFFZZZZZZZZZZZZZZZZZZZZFFFFFFFFFFFFFFFFFFFFZZZZZZZZZZZZZZZZZZZZFFFFFFFFFFFFFFFFFFFFZZZZZZZZZZZZZZZZZZZZFFFFFFFFFFFFFFFFFFFFZZZZZZZZZZZZZZZZZZZZFFFFFFFFFFFFFFFFFFFFZZZZZZZZZZZZZZZZZZZZFFFFFFFFFFFFFFFFFFFFZZZZZZZZZZZZZZZCvr:o....................................  ..     .                                                                                                                                                                               @5dNCZZZZZZZZZZZZZZFFFFFFFFFFFFFFFFFFFFZZZZZZZZZZZZZZZZZZZZFFFFFFFFFFFFFFFFFFFFZZZZZZZZZZZZZZZZZZZZFFFFFFFFFFFFFFFFFFFFZZZZZZZZZZZZZZZZZZZZFFFFFFFFFFFFFFFFFFFFZZZZZZZZZZZZZZZZZZZZFFFFFFFFFFFFFFFFFFFFZZZZZZZZZZZZZZZZZZZZFFFFFFFFFFFFFFFFFFFFZZZZZZZZZZZZZZZZZZZZFFFFFFFFFFFFFFFFFFFFZZZZZZZZZZZZZZZZZZZZFFFFFFFFFFFFFFFFFFFF",
"FFFFFFFFFFFFFFFFFFFFZZZZZZZZZZZZZZZZZZZZFFFFFFFFFFFFFFFFFFFFZZZZZZZZZZZZZZZZZZZZFFFFFFFFFFFFFFFFFFFFZZZZZZZZZZZZZZZZZZZZFFFFFFFFFFFFFFFFFFFFZZZZZZZZZZZZZZZZZZZZFFFFFFFFFFFFFFFFFFFFZZZZZZZZZZZZZZZZZZZZFFFFFFFFFFFFFFFFFFFFZZZZZZZZZZZZZZZZZZZZFFFFFFFFFFFFFFFFFFFFZZZZZZZZZZZZZZZZZZZZFFFFFFFFFFFFFFFFFFFFZZZZZZZZZZZZZZZZZZCmd5#............................. ..  ...                                                                                                                                                                                 .-wlVZZZZZZZZZZZZZZZZZZFFFFFFFFFFFFFFFFFFFFZZZZZZZZZZZZZZZZZZZZFFFFFFFFFFFFFFFFFFFFZZZZZZZZZZZZZZZZZZZZFFFFFFFFFFFFFFFFFFFFZZZZZZZZZZZZZZZZZZZZFFFFFFFFFFFFFFFFFFFFZZZZZZZZZZZZZZZZZZZZFFFFFFFFFFFFFFFFFFFFZZZZZZZZZZZZZZZZZZZZFFFFFFFFFFFFFFFFFFFFZZZZZZZZZZZZZZZZZZZZFFFFFFFFFFFFFFFFFFFFZZZZZZZZZZZZZZZZZZZZFFFFFFFFFFFFFFFFFFFF",
"FFFFFFFFFFFFFFFFFFFFZZZZZZZZZZZZZZZZZZZZFFFFFFFFFFFFFFFFFFFFZZZZZZZZZZZZZZZZZZZZFFFFFFFFFFFFFFFFFFFFZZZZZZZZZZZZZZZZZZZZFFFFFFFFFFFFFFFFFFFFZZZZZZZZZZZZZZZZZZZZFFFFFFFFFFFFFFFFFFFFZZZZZZZZZZZZZZZZZZZZFFFFFFFFFFFFFFFFFFFFZZZZZZZZZZZZZZZZZZZZFFFFFFFFFFFFFFFFFFFFZZZZZZZZZZZZZZZZZZZZFFFFFFFFFFFFFFFFFFFFZZZZZZZZZZZZZZZZZZZZFFSvt>o..................    ...  ...                                                                                                                                                                                 #5fVDFZZZZZZZZZZZZZZZZZZZZFFFFFFFFFFFFFFFFFFFFZZZZZZZZZZZZZZZZZZZZFFFFFFFFFFFFFFFFFFFFZZZZZZZZZZZZZZZZZZZZFFFFFFFFFFFFFFFFFFFFZZZZZZZZZZZZZZZZZZZZFFFFFFFFFFFFFFFFFFFFZZZZZZZZZZZZZZZZZZZZFFFFFFFFFFFFFFFFFFFFZZZZZZZZZZZZZZZZZZZZFFFFFFFFFFFFFFFFFFFFZZZZZZZZZZZZZZZZZZZZFFFFFFFFFFFFFFFFFFFFZZZZZZZZZZZZZZZZZZZZFFFFFFFFFFFFFFFFFFFF",
"FFFFFFFFFFFFFFFFFFFFZZZZZZZZZZZZZZZZZZZZFFFFFFFFFFFFFFFFFFFFZZZZZZZZZZZZZZZZZZZZFFFFFFFFFFFFFFFFFFFFZZZZZZZZZZZZZZZZZZZZFFFFFFFFFFFFFFFFFFFFZZZZZZZZZZZZZZZZZZZZFFFFFFFFFFFFFFFFFFFFZZZZZZZZZZZZZZZZZZZZFFFFFFFFFFFFFFFFFFFFZZZZZZZZZZZZZZZZZZZZFFFFFFFFFFFFFFFFFFFFZZZZZZZZZZZZZZZZZZZZFFFFFFFFFFFFFFFFFFFFZZZZZZZZZZZZZZZZZZZZFFFFFFCh8&..............      .                                                                                                                                                                                   X,ybSFFFFFZZZZZZZZZZZZZZZZZZZZFFFFFFFFFFFFFFFFFFFFZZZZZZZZZZZZZZZZZZZZFFFFFFFFFFFFFFFFFFFFZZZZZZZZZZZZZZZZZZZZFFFFFFFFFFFFFFFFFFFFZZZZZZZZZZZZZZZZZZZZFFFFFFFFFFFFFFFFFFFFZZZZZZZZZZZZZZZZZZZZFFFFFFFFFFFFFFFFFFFFZZZZZZZZZZZZZZZZZZZZFFFFFFFFFFFFFFFFFFFFZZZZZZZZZZZZZZZZZZZZFFFFFFFFFFFFFFFFFFFFZZZZZZZZZZZZZZZZZZZZFFFFFFFFFFFFFFFFFFFF",
"FFFFFFFFFFFFFFFFFFFFZZZZZZZZZZZZZZZZZZZZFFFFFFFFFFFFFFFFFFFFZZZZZZZZZZZZZZZZZZZZFFFFFFFFFFFFFFFFFFFFZZZZZZZZZZZZZZZZZZZZFFFFFFFFFFFFFFFFFFFFZZZZZZZZZZZZZZZZZZZZFFFFFFFFFFFFFFFFFFFFZZZZZZZZZZZZZZZZZZZZFFFFFFFFFFFFFFFFFFFFZZZZZZZZZZZZZZZZZZZZFFFFFFFFFFFFFFFFFFFFZZZZZZZZZZZZZZZZZZZZFFFFFFFFFFFFFFFFFFFFZZZZZZZZZZZZZZZZZZZZFFFFFFFFFDMa5$.       ...                                                                                                                                                                                     X;wlAFFFFFFFFFZZZZZZZZZZZZZZZZZZZZFFFFFFFFFFFFFFFFFFFFZZZZZZZZZZZZZZZZZZZZFFFFFFFFFFFFFFFFFFFFZZZZZZZZZZZZZZZZZZZZFFFFFFFFFFFFFFFFFFFFZZZZZZZZZZZZZZZZZZZZFFFFFFFFFFFFFFFFFFFFZZZZZZZZZZZZZZZZZZZZFFFFFFFFFFFFFFFFFFFFZZZZZZZZZZZZZZZZZZZZFFFFFFFFFFFFFFFFFFFFZZZZZZZZZZZZZZZZZZZZFFFFFFFFFFFFFFFFFFFFZZZZZZZZZZZZZZZZZZZZFFFFFFFFFFFFFFFFFFFF",
"FFFFFFFFFFFFFFFFFFFFZZZZZZZZZZZZZZZZZZZZFFFFFFFFFFFFFFFFFFFFZZZZZZZZZZZZZZZZZZZZFFFFFFFFFFFFFFFFFFFFZZZZZZZZZZZZZZZZZZZZFFFFFFFFFFFFFFFFFFFFZZZZZZZZZZZZZZZZZZZZFFFFFFFFFFFFFFFFFFFFZZZZZZZZZZZZZZZZZZZZFFFFFFFFFFFFFFFFFFFFZZZZZZZZZZZZZZZZZZZZFFFFFFFFFFFFFFFFFFFFZZZZZZZZZZZZZZZZZZZZFFFFFFFFFFFFFFFFFFFFZZZZZZZZZZZZZZZZZZZZFFFFFFFFFFFFFDma5$.                                                                                                                                                                                       X:wlZDFFFFFFFFFFFFZZZZZZZZZZZZZZZZZZZZFFFFFFFFFFFFFFFFFFFFZZZZZZZZZZZZZZZZZZZZFFFFFFFFFFFFFFFFFFFFZZZZZZZZZZZZZZZZZZZZFFFFFFFFFFFFFFFFFFFFZZZZZZZZZZZZZZZZZZZZFFFFFFFFFFFFFFFFFFFFZZZZZZZZZZZZZZZZZZZZFFFFFFFFFFFFFFFFFFFFZZZZZZZZZZZZZZZZZZZZFFFFFFFFFFFFFFFFFFFFZZZZZZZZZZZZZZZZZZZZFFFFFFFFFFFFFFFFFFFFZZZZZZZZZZZZZZZZZZZZFFFFFFFFFFFFFFFFFFFF",
"FFFFFFFFFFFFFFFFFFFFZZZZZZZZZZZZZZZZZZZZFFFFFFFFFFFFFFFFFFFFZZZZZZZZZZZZZZZZZZZZFFFFFFFFFFFFFFFFFFFFZZZZZZZZZZZZZZZZZZZZFFFFFFFFFFFFFFFFFFFFZZZZZZZZZZZZZZZZZZZZFFFFFFFFFFFFFFFFFFFFZZZZZZZZZZZZZZZZZZZZFFFFFFFFFFFFFFFFFFFFZZZZZZZZZZZZZZZZZZZZFFFFFFFFFFFFFFFFFFFFZZZZZZZZZZZZZZZZZZZZFFFFFFFFFFFFFFFFFFFFZZZZZZZZZZZZZZZZZZZZFFFFFFFFFFFFFFFFFDMa4%.                                                                                                                                                                               o:wlAFFFFFFFFFFFFFFFFFZZZZZZZZZZZZZZZZZZZZFFFFFFFFFFFFFFFFFFFFZZZZZZZZZZZZZZZZZZZZFFFFFFFFFFFFFFFFFFFFZZZZZZZZZZZZZZZZZZZZFFFFFFFFFFFFFFFFFFFFZZZZZZZZZZZZZZZZZZZZFFFFFFFFFFFFFFFFFFFFZZZZZZZZZZZZZZZZZZZZFFFFFFFFFFFFFFFFFFFFZZZZZZZZZZZZZZZZZZZZFFFFFFFFFFFFFFFFFFFFZZZZZZZZZZZZZZZZZZZZFFFFFFFFFFFFFFFFFFFFZZZZZZZZZZZZZZZZZZZZFFFFFFFFFFFFFFFFFFFF",
"FFFFFFFFFFFFFFFFFFFFZZZZZZZZZZZZZZZZZZZZFFFFFFFFFFFFFFFFFFFFZZZZZZZZZZZZZZZZZZZZFFFFFFFFFFFFFFFFFFFFZZZZZZZZZZZZZZZZZZZZFFFFFFFFFFFFFFFFFFFFZZZZZZZZZZZZZZZZZZZZFFFFFFFFFFFFFFFFFFFFZZZZZZZZZZZZZZZZZZZZFFFFFFFFFFFFFFFFFFFFZZZZZZZZZZZZZZZZZZZZFFFFFFFFFFFFFFFFFFFFZZZZZZZZZZZZZZZZZZZZFFFFFFFFFFFFFFFFFFFFZZZZZZZZZZZZZZZZZZZZFFFFFFFFFFFFFFFFFFFFZCMf0:O                                                                                                                                                                       $3yxVZFFFFFFFFFFFFFFFFFFFFZZZZZZZZZZZZZZZZZZZZFFFFFFFFFFFFFFFFFFFFZZZZZZZZZZZZZZZZZZZZFFFFFFFFFFFFFFFFFFFFZZZZZZZZZZZZZZZZZZZZFFFFFFFFFFFFFFFFFFFFZZZZZZZZZZZZZZZZZZZZFFFFFFFFFFFFFFFFFFFFZZZZZZZZZZZZZZZZZZZZFFFFFFFFFFFFFFFFFFFFZZZZZZZZZZZZZZZZZZZZFFFFFFFFFFFFFFFFFFFFZZZZZZZZZZZZZZZZZZZZFFFFFFFFFFFFFFFFFFFFZZZZZZZZZZZZZZZZZZZZFFFFFFFFFFFFFFFFFFFF",
"FFFFFFFFFFFFFFFFFFFFZZZZZZZZZZZZZZZZZZZZFFFFFFFFFFFFFFFFFFFFZZZZZZZZZZZZZZZZZZZZFFFFFFFFFFFFFFFFFFFFZZZZZZZZZZZZZZZZZZZZFFFFFFFFFFFFFFFFFFFFZZZZZZZZZZZZZZZZZZZZFFFFFFFFFFFFFFFFFFFFZZZZZZZZZZZZZZZZZZZZFFFFFFFFFFFFFFFFFFFFZZZZZZZZZZZZZZZZZZZZFFFFFFFFFFFFFFFFFFFFZZZZZZZZZZZZZZZZZZZZFFFFFFFFFFFFFFFFFFFFZZZZZZZZZZZZZZZZZZZZFFFFFFFFFFFFFFFFFFFFZZZZZZVzy4&.                                                                                                                                                             O:0fmCZZZZZFFFFFFFFFFFFFFFFFFFFZZZZZZZZZZZZZZZZZZZZFFFFFFFFFFFFFFFFFFFFZZZZZZZZZZZZZZZZZZZZFFFFFFFFFFFFFFFFFFFFZZZZZZZZZZZZZZZZZZZZFFFFFFFFFFFFFFFFFFFFZZZZZZZZZZZZZZZZZZZZFFFFFFFFFFFFFFFFFFFFZZZZZZZZZZZZZZZZZZZZFFFFFFFFFFFFFFFFFFFFZZZZZZZZZZZZZZZZZZZZFFFFFFFFFFFFFFFFFFFFZZZZZZZZZZZZZZZZZZZZFFFFFFFFFFFFFFFFFFFFZZZZZZZZZZZZZZZZZZZZFFFFFFFFFFFFFFFFFFFF",
"FFFFFFFFFFFFFFFFFFFFZZZZZZZZZZZZZZZZZZZZFFFFFFFFFFFFFFFFFFFFZZZZZZZZZZZZZZZZZZZZFFFFFFFFFFFFFFFFFFFFZZZZZZZZZZZZZZZZZZZZFFFFFFFFFFFFFFFFFFFFZZZZZZZZZZZZZZZZZZZZFFFFFFFFFFFFFFFFFFFFZZZZZZZZZZZZZZZZZZZZFFFFFFFFFFFFFFFFFFFFZZZZZZZZZZZZZZZZZZZZFFFFFFFFFFFFFFFFFFFFZZZZZZZZZZZZZZZZZZZZFFFFFFFFFFFFFFFFFFFFZZZZZZZZZZZZZZZZZZZZFFFFFFFFFFFFFFFFFFFFZZZZZZZZZZZBkt4&.                                                                                                                                                   +>9sbCZZZZZZZZZZFFFFFFFFFFFFFFFFFFFFZZZZZZZZZZZZZZZZZZZZFFFFFFFFFFFFFFFFFFFFZZZZZZZZZZZZZZZZZZZZFFFFFFFFFFFFFFFFFFFFZZZZZZZZZZZZZZZZZZZZFFFFFFFFFFFFFFFFFFFFZZZZZZZZZZZZZZZZZZZZFFFFFFFFFFFFFFFFFFFFZZZZZZZZZZZZZZZZZZZZFFFFFFFFFFFFFFFFFFFFZZZZZZZZZZZZZZZZZZZZFFFFFFFFFFFFFFFFFFFFZZZZZZZZZZZZZZZZZZZZFFFFFFFFFFFFFFFFFFFFZZZZZZZZZZZZZZZZZZZZFFFFFFFFFFFFFFFFFFFF",
"FFFFFFFFFFFFFFFFFFFFZZZZZZZZZZZZZZZZZZZZFFFFFFFFFFFFFFFFFFFFZZZZZZZZZZZZZZZZZZZZFFFFFFFFFFFFFFFFFFFFZZZZZZZZZZZZZZZZZZZZFFFFFFFFFFFFFFFFFFFFZZZZZZZZZZZZZZZZZZZZFFFFFFFFFFFFFFFFFFFFZZZZZZZZZZZZZZZZZZZZFFFFFFFFFFFFFFFFFFFFZZZZZZZZZZZZZZZZZZZZFFFFFFFFFFFFFFFFFFFFZZZZZZZZZZZZZZZZZZZZFFFFFFFFFFFFFFFFFFFFZZZZZZZZZZZZZZZZZZZZFFFFFFFFFFFFFFFFFFFFZZZZZZZZZZZZZZZCVlu5;O                                                                                                                                        .%<qfnCZZZZZZZZZZZZZZZFFFFFFFFFFFFFFFFFFFFZZZZZZZZZZZZZZZZZZZZFFFFFFFFFFFFFFFFFFFFZZZZZZZZZZZZZZZZZZZZFFFFFFFFFFFFFFFFFFFFZZZZZZZZZZZZZZZZZZZZFFFFFFFFFFFFFFFFFFFFZZZZZZZZZZZZZZZZZZZZFFFFFFFFFFFFFFFFFFFFZZZZZZZZZZZZZZZZZZZZFFFFFFFFFFFFFFFFFFFFZZZZZZZZZZZZZZZZZZZZFFFFFFFFFFFFFFFFFFFFZZZZZZZZZZZZZZZZZZZZFFFFFFFFFFFFFFFFFFFFZZZZZZZZZZZZZZZZZZZZFFFFFFFFFFFFFFFFFFFF",
"FFFFFFFFFFFFFFFFFFFFZZZZZZZZZZZZZZZZZZZZFFFFFFFFFFFFFFFFFFFFZZZZZZZZZZZZZZZZZZZZFFFFFFFFFFFFFFFFFFFFZZZZZZZZZZZZZZZZZZZZFFFFFFFFFFFFFFFFFFFFZZZZZZZZZZZZZZZZZZZZFFFFFFFFFFFFFFFFFFFFZZZZZZZZZZZZZZZZZZZZFFFFFFFFFFFFFFFFFFFFZZZZZZZZZZZZZZZZZZZZFFFFFFFFFFFFFFFFFFFFZZZZZZZZZZZZZZZZZZZZFFFFFFFFFFFFFFFFFFFFZZZZZZZZZZZZZZZZZZZZFFFFFFFFFFFFFFFFFFFFZZZZZZZZZZZZZZZZZZZZFDBky6-o                                                                                                                             $<qdbAFZZZZZZZZZZZZZZZZZZZZFFFFFFFFFFFFFFFFFFFFZZZZZZZZZZZZZZZZZZZZFFFFFFFFFFFFFFFFFFFFZZZZZZZZZZZZZZZZZZZZFFFFFFFFFFFFFFFFFFFFZZZZZZZZZZZZZZZZZZZZFFFFFFFFFFFFFFFFFFFFZZZZZZZZZZZZZZZZZZZZFFFFFFFFFFFFFFFFFFFFZZZZZZZZZZZZZZZZZZZZFFFFFFFFFFFFFFFFFFFFZZZZZZZZZZZZZZZZZZZZFFFFFFFFFFFFFFFFFFFFZZZZZZZZZZZZZZZZZZZZFFFFFFFFFFFFFFFFFFFFZZZZZZZZZZZZZZZZZZZZFFFFFFFFFFFFFFFFFFFF",
"FFFFFFFFFFFFFFFFFFFFZZZZZZZZZZZZZZZZZZZZFFFFFFFFFFFFFFFFFFFFZZZZZZZZZZZZZZZZZZZZFFFFFFFFFFFFFFFFFFFFZZZZZZZZZZZZZZZZZZZZFFFFFFFFFFFFFFFFFFFFZZZZZZZZZZZZZZZZZZZZFFFFFFFFFFFFFFFFFFFFZZZZZZZZZZZZZZZZZZZZFFFFFFFFFFFFFFFFFFFFZZZZZZZZZZZZZZZZZZZZFFFFFFFFFFFFFFFFFFFFZZZZZZZZZZZZZZZZZZZZFFFFFFFFFFFFFFFFFFFFZZZZZZZZZZZZZZZZZZZZFFFFFFFFFFFFFFFFFFFFZZZZZZZZZZZZZZZZZZZZFFFFFFFDNju8,$.                                                                                                               O=4edcZFFFFFFFZZZZZZZZZZZZZZZZZZZZFFFFFFFFFFFFFFFFFFFFZZZZZZZZZZZZZZZZZZZZFFFFFFFFFFFFFFFFFFFFZZZZZZZZZZZZZZZZZZZZFFFFFFFFFFFFFFFFFFFFZZZZZZZZZZZZZZZZZZZZFFFFFFFFFFFFFFFFFFFFZZZZZZZZZZZZZZZZZZZZFFFFFFFFFFFFFFFFFFFFZZZZZZZZZZZZZZZZZZZZFFFFFFFFFFFFFFFFFFFFZZZZZZZZZZZZZZZZZZZZFFFFFFFFFFFFFFFFFFFFZZZZZZZZZZZZZZZZZZZZFFFFFFFFFFFFFFFFFFFFZZZZZZZZZZZZZZZZZZZZFFFFFFFFFFFFFFFFFFFF",
"FFFFFFFFFFFFFFFFFFFFZZZZZZZZZZZZZZZZZZZZFFFFFFFFFFFFFFFFFFFFZZZZZZZZZZZZZZZZZZZZFFFFFFFFFFFFFFFFFFFFZZZZZZZZZZZZZZZZZZZZFFFFFFFFFFFFFFFFFFFFZZZZZZZZZZZZZZZZZZZZFFFFFFFFFFFFFFFFFFFFZZZZZZZZZZZZZZZZZZZZFFFFFFFFFFFFFFFFFFFFZZZZZZZZZZZZZZZZZZZZFFFFFFFFFFFFFFFFFFFFZZZZZZZZZZZZZZZZZZZZFFFFFFFFFFFFFFFFFFFFZZZZZZZZZZZZZZZZZZZZFFFFFFFFFFFFFFFFFFFFZZZZZZZZZZZZZZZZZZZZFFFFFFFFFFFFFFSmju8,%X                                                                                                 +-3wscCFFFFFFFFFFFFFFZZZZZZZZZZZZZZZZZZZZFFFFFFFFFFFFFFFFFFFFZZZZZZZZZZZZZZZZZZZZFFFFFFFFFFFFFFFFFFFFZZZZZZZZZZZZZZZZZZZZFFFFFFFFFFFFFFFFFFFFZZZZZZZZZZZZZZZZZZZZFFFFFFFFFFFFFFFFFFFFZZZZZZZZZZZZZZZZZZZZFFFFFFFFFFFFFFFFFFFFZZZZZZZZZZZZZZZZZZZZFFFFFFFFFFFFFFFFFFFFZZZZZZZZZZZZZZZZZZZZFFFFFFFFFFFFFFFFFFFFZZZZZZZZZZZZZZZZZZZZFFFFFFFFFFFFFFFFFFFFZZZZZZZZZZZZZZZZZZZZFFFFFFFFFFFFFFFFFFFF",
"FFFFFFFFFFFFFFFFFFFFZZZZZZZZZZZZZZZZZZZZFFFFFFFFFFFFFFFFFFFFZZZZZZZZZZZZZZZZZZZZFFFFFFFFFFFFFFFFFFFFZZZZZZZZZZZZZZZZZZZZFFFFFFFFFFFFFFFFFFFFZZZZZZZZZZZZZZZZZZZZFFFFFFFFFFFFFFFFFFFFZZZZZZZZZZZZZZZZZZZZFFFFFFFFFFFFFFFFFFFFZZZZZZZZZZZZZZZZZZZZFFFFFFFFFFFFFFFFFFFFZZZZZZZZZZZZZZZZZZZZFFFFFFFFFFFFFFFFFFFFZZZZZZZZZZZZZZZZZZZZFFFFFFFFFFFFFFFFFFFFZZZZZZZZZZZZZZZZZZZZFFFFFFFFFFFFFFFFFFFFZZMzdt82-@.                                                                               o%>5wpjbVZFFFFFFFFFFFFFFFFFFFFZZZZZZZZZZZZZZZZZZZZFFFFFFFFFFFFFFFFFFFFZZZZZZZZZZZZZZZZZZZZFFFFFFFFFFFFFFFFFFFFZZZZZZZZZZZZZZZZZZZZFFFFFFFFFFFFFFFFFFFFZZZZZZZZZZZZZZZZZZZZFFFFFFFFFFFFFFFFFFFFZZZZZZZZZZZZZZZZZZZZFFFFFFFFFFFFFFFFFFFFZZZZZZZZZZZZZZZZZZZZFFFFFFFFFFFFFFFFFFFFZZZZZZZZZZZZZZZZZZZZFFFFFFFFFFFFFFFFFFFFZZZZZZZZZZZZZZZZZZZZFFFFFFFFFFFFFFFFFFFFZZZZZZZZZZZZZZZZZZZZFFFFFFFFFFFFFFFFFFFF",
"FFFFFFFFFFFFFFFFFFFFZZZZZZZZZZZZZZZZZZZZFFFFFFFFFFFFFFFFFFFFZZZZZZZZZZZZZZZZZZZZFFFFFFFFFFFFFFFFFFFFZZZZZZZZZZZZZZZZZZZZFFFFFFFFFFFFFFFFFFFFZZZZZZZZZZZZZZZZZZZZFFFFFFFFFFFFFFFFFFFFZZZZZZZZZZZZZZZZZZZZFFFFFFFFFFFFFFFFFFFFZZZZZZZZZZZZZZZZZZZZFFFFFFFFFFFFFFFFFFFFZZZZZZZZZZZZZZZZZZZZFFFFFFFFFFFFFFFFFFFFZZZZZZZZZZZZZZZZZZZZFFFFFFFFFFFFFFFFFFFFZZZZZZZZZZZZZZZZZZZZFFFFFFFFFFFFFFFFFFFFZZZZZZZZZZCMcjat04,=$O                                                        X@%;17wifznVZZZZZZZZZZFFFFFFFFFFFFFFFFFFFFZZZZZZZZZZZZZZZZZZZZFFFFFFFFFFFFFFFFFFFFZZZZZZZZZZZZZZZZZZZZFFFFFFFFFFFFFFFFFFFFZZZZZZZZZZZZZZZZZZZZFFFFFFFFFFFFFFFFFFFFZZZZZZZZZZZZZZZZZZZZFFFFFFFFFFFFFFFFFFFFZZZZZZZZZZZZZZZZZZZZFFFFFFFFFFFFFFFFFFFFZZZZZZZZZZZZZZZZZZZZFFFFFFFFFFFFFFFFFFFFZZZZZZZZZZZZZZZZZZZZFFFFFFFFFFFFFFFFFFFFZZZZZZZZZZZZZZZZZZZZFFFFFFFFFFFFFFFFFFFFZZZZZZZZZZZZZZZZZZZZFFFFFFFFFFFFFFFFFFFF",
"FFFFFFFFFFFFFFFFFFFFZZZZZZZZZZZZZZZZZZZZFFFFFFFFFFFFFFFFFFFFZZZZZZZZZZZZZZZZZZZZFFFFFFFFFFFFFFFFFFFFZZZZZZZZZZZZZZZZZZZZFFFFFFFFFFFFFFFFFFFFZZZZZZZZZZZZZZZZZZZZFFFFFFFFFFFFFFFFFFFFZZZZZZZZZZZZZZZZZZZZFFFFFFFFFFFFFFFFFFFFZZZZZZZZZZZZZZZZZZZZFFFFFFFFFFFFFFFFFFFFZZZZZZZZZZZZZZZZZZZZFFFFFFFFFFFFFFFFFFFFZZZZZZZZZZZZZZZZZZZZFFFFFFFFFFFFFFFFFFFFZZZZZZZZZZZZZZZZZZZZFFFFFFFFFFFFFFFFFFFFZZZZZZZZZZZZZZZZZZZZFFFZNbzgsurq8631>;=%$@++ooX..  ...ooO+@#$&-:<3570wtifkcmVSFFZZZZZZZZZZZZZZZZZZZZFFFFFFFFFFFFFFFFFFFFZZZZZZZZZZZZZZZZZZZZFFFFFFFFFFFFFFFFFFFFZZZZZZZZZZZZZZZZZZZZFFFFFFFFFFFFFFFFFFFFZZZZZZZZZZZZZZZZZZZZFFFFFFFFFFFFFFFFFFFFZZZZZZZZZZZZZZZZZZZZFFFFFFFFFFFFFFFFFFFFZZZZZZZZZZZZZZZZZZZZFFFFFFFFFFFFFFFFFFFFZZZZZZZZZZZZZZZZZZZZFFFFFFFFFFFFFFFFFFFFZZZZZZZZZZZZZZZZZZZZFFFFFFFFFFFFFFFFFFFFZZZZZZZZZZZZZZZZZZZZFFFFFFFFFFFFFFFFFFFFZZZZZZZZZZZZZZZZZZZZFFFFFFFFFFFFFFFFFFFF",
"FFFFFFFFFFFFFFFFFFFFZZZZZZZZZZZZZZZZZZZZFFFFFFFFFFFFFFFFFFFFZZZZZZZZZZZZZZZZZZZZFFFFFFFFFFFFFFFFFFFFZZZZZZZZZZZZZZZZZZZZFFFFFFFFFFFFFFFFFFFFZZZZZZZZZZZZZZZZZZZZFFFFFFFFFFFFFFFFFFFFZZZZZZZZZZZZZZZZZZZZFFFFFFFFFFFFFFFFFFFFZZZZZZZZZZZZZZZZZZZZFFFFFFFFFFFFFFFFFFFFZZZZZZZZZZZZZZZZZZZZFFFFFFFFFFFFFFFFFFFFZZZZZZZZZZZZZZZZZZZZFFFFFFFFFFFFFFFFFFFFZZZZZZZZZZZZZZZZZZZZFFFFFFFFFFFFFFFFFFFFZZZZZZZZZZZZZZZZZZZZFFFFFFFFFFFFFFFFFFFFZZZZZZZZZZZZZZZZZZZZFFFFFFFFFFFFFFFFFFFFZZZZZZZZZZZZZZZZZZZZFFFFFFFFFFFFFFFFFFFFZZZZZZZZZZZZZZZZZZZZFFFFFFFFFFFFFFFFFFFFZZZZZZZZZZZZZZZZZZZZFFFFFFFFFFFFFFFFFFFFZZZZZZZZZZZZZZZZZZZZFFFFFFFFFFFFFFFFFFFFZZZZZZZZZZZZZZZZZZZZFFFFFFFFFFFFFFFFFFFFZZZZZZZZZZZZZZZZZZZZFFFFFFFFFFFFFFFFFFFFZZZZZZZZZZZZZZZZZZZZFFFFFFFFFFFFFFFFFFFFZZZZZZZZZZZZZZZZZZZZFFFFFFFFFFFFFFFFFFFFZZZZZZZZZZZZZZZZZZZZFFFFFFFFFFFFFFFFFFFFZZZZZZZZZZZZZZZZZZZZFFFFFFFFFFFFFFFFFFFF",
"ZZZZZZZZZZZZZZZZZZZZFFFFFFFFFFFFFFFFFFFFZZZZZZZZZZZZZZZZZZZZFFFFFFFFFFFFFFFFFFFFZZZZZZZZZZZZZZZZZZZZFFFFFFFFFFFFFFFFFFFFZZZZZZZZZZZZZZZZZZZZFFFFFFFFFFFFFFFFFFFFZZZZZZZZZZZZZZZZZZZZFFFFFFFFFFFFFFFFFFFFZZZZZZZZZZZZZZZZZZZZFFFFFFFFFFFFFFFFFFFFZZZZZZZZZZZZZZZZZZZZFFFFFFFFFFFFFFFFFFFFZZZZZZZZZZZZZZZZZZZZFFFFFFFFFFFFFFFFFFFFZZZZZZZZZZZZZZZZZZZZFFFFFFFFFFFFFFFFFFFFZZZZZZZZZZZZZZZZZZZZFFFFFFFFFFFFFFFFFFFFZZZZZZZZZZZZZZZZZZZZFFFFFFFFFFFFFFFFFFFFZZZZZZZZZZZZZZZZZZZZFFFFFFFFFFFFFFFFFFFFZZZZZZZZZZZZZZZZZZZZFFFFFFFFFFFFFFFFFFFFZZZZZZZZZZZZZZZZZZZZFFFFFFFFFFFFFFFFFFFFZZZZZZZZZZZZZZZZZZZZFFFFFFFFFFFFFFFFFFFFZZZZZZZZZZZZZZZZZZZZFFFFFFFFFFFFFFFFFFFFZZZZZZZZZZZZZZZZZZZZFFFFFFFFFFFFFFFFFFFFZZZZZZZZZZZZZZZZZZZZFFFFFFFFFFFFFFFFFFFFZZZZZZZZZZZZZZZZZZZZFFFFFFFFFFFFFFFFFFFFZZZZZZZZZZZZZZZZZZZZFFFFFFFFFFFFFFFFFFFFZZZZZZZZZZZZZZZZZZZZFFFFFFFFFFFFFFFFFFFFZZZZZZZZZZZZZZZZZZZZ",
"ZZZZZZZZZZZZZZZZZZZZFFFFFFFFFFFFFFFFFFFFZZZZZZZZZZZZZZZZZZZZFFFFFFFFFFFFFFFFFFFFZZZZZZZZZZZZZZZZZZZZFFFFFFFFFFFFFFFFFFFFZZZZZZZZZZZZZZZZZZZZFFFFFFFFFFFFFFFFFFFFZZZZZZZZZZZZZZZZZZZZFFFFFFFFFFFFFFFFFFFFZZZZZZZZZZZZZZZZZZZZFFFFFFFFFFFFFFFFFFFFZZZZZZZZZZZZZZZZZZZZFFFFFFFFFFFFFFFFFFFFZZZZZZZZZZZZZZZZZZZZFFFFFFFFFFFFFFFFFFFFZZZZZZZZZZZZZZZZZZZZFFFFFFFFFFFFFFFFFFFFZZZZZZZZZZZZZZZZZZZZFFFFFFFFFFFFFFFFFFFFZZZZZZZZZZZZZZZZZZZZFFFFFFFFFFFFFFFFFFFFZZZZZZZZZZZZZZZZZZZZFFFFFFFFFFFFFFFFFFFFZZZZZZZZZZZZZZZZZZZZFFFFFFFFFFFFFFFFFFFFZZZZZZZZZZZZZZZZZZZZFFFFFFFFFFFFFFFFFFFFZZZZZZZZZZZZZZZZZZZZFFFFFFFFFFFFFFFFFFFFZZZZZZZZZZZZZZZZZZZZFFFFFFFFFFFFFFFFFFFFZZZZZZZZZZZZZZZZZZZZFFFFFFFFFFFFFFFFFFFFZZZZZZZZZZZZZZZZZZZZFFFFFFFFFFFFFFFFFFFFZZZZZZZZZZZZZZZZZZZZFFFFFFFFFFFFFFFFFFFFZZZZZZZZZZZZZZZZZZZZFFFFFFFFFFFFFFFFFFFFZZZZZZZZZZZZZZZZZZZZFFFFFFFFFFFFFFFFFFFFZZZZZZZZZZZZZZZZZZZZ",
"ZZZZZZZZZZZZZZZZZZZZFFFFFFFFFFFFFFFFFFFFZZZZZZZZZZZZZZZZZZZZFFFFFFFFFFFFFFFFFFFFZZZZZZZZZZZZZZZZZZZZFFFFFFFFFFFFFFFFFFFFZZZZZZZZZZZZZZZZZZZZFFFFFFFFFFFFFFFFFFFFZZZZZZZZZZZZZZZZZZZZFFFFFFFFFFFFFFFFFFFFZZZZZZZZZZZZZZZZZZZZFFFFFFFFFFFFFFFFFFFFZZZZZZZZZZZZZZZZZZZZFFFFFFFFFFFFFFFFFFFFZZZZZZZZZZZZZZZZZZZZFFFFFFFFFFFFFFFFFFFFZZZZZZZZZZZZZZZZZZZZFFFFFFFFFFFFFFFFFFFFZZZZZZZZZZZZZZZZZZZZFFFFFFFFFFFFFFFFFFFFZZZZZZZZZZZZZZZZZZZZFFFFFFFFFFFFFFFFFFFFZZZZZZZZZZZZZZZZZZZZFFFFFFFFFFFFFFFFFFFFZZZZZZZZZZZZZZZZZZZZFFFFFFFFFFFFFFFFFFFFZZZZZZZZZZZZZZZZZZZZFFFFFFFFFFFFFFFFFFFFZZZZZZZZZZZZZZZZZZZZFFFFFFFFFFFFFFFFFFFFZZZZZZZZZZZZZZZZZZZZFFFFFFFFFFFFFFFFFFFFZZZZZZZZZZZZZZZZZZZZFFFFFFFFFFFFFFFFFFFFZZZZZZZZZZZZZZZZZZZZFFFFFFFFFFFFFFFFFFFFZZZZZZZZZZZZZZZZZZZZFFFFFFFFFFFFFFFFFFFFZZZZZZZZZZZZZZZZZZZZFFFFFFFFFFFFFFFFFFFFZZZZZZZZZZZZZZZZZZZZFFFFFFFFFFFFFFFFFFFFZZZZZZZZZZZZZZZZZZZZ",
"ZZZZZZZZZZZZZZZZZZZZFFFFFFFFFFFFFFFFFFFFZZZZZZZZZZZZZZZZZZZZFFFFFFFFFFFFFFFFFFFFZZZZZZZZZZZZZZZZZZZZFFFFFFFFFFFFFFFFFFFFZZZZZZZZZZZZZZZZZZZZFFFFFFFFFFFFFFFFFFFFZZZZZZZZZZZZZZZZZZZZFFFFFFFFFFFFFFFFFFFFZZZZZZZZZZZZZZZZZZZZFFFFFFFFFFFFFFFFFFFFZZZZZZZZZZZZZZZZZZZZFFFFFFFFFFFFFFFFFFFFZZZZZZZZZZZZZZZZZZZZFFFFFFFFFFFFFFFFFFFFZZZZZZZZZZZZZZZZZZZZFFFFFFFFFFFFFFFFFFFFZZZZZZZZZZZZZZZZZZZZFFFFFFFFFFFFFFFFFFFFZZZZZZZZZZZZZZZZZZZZFFFFFFFFFFFFFFFFFFFFZZZZZZZZZZZZZZZZZZZZFFFFFFFFFFFFFFFFFFFFZZZZZZZZZZZZZZZZZZZZFFFFFFFFFFFFFFFFFFFFZZZZZZZZZZZZZZZZZZZZFFFFFFFFFFFFFFFFFFFFZZZZZZZZZZZZZZZZZZZZFFFFFFFFFFFFFFFFFFFFZZZZZZZZZZZZZZZZZZZZFFFFFFFFFFFFFFFFFFFFZZZZZZZZZZZZZZZZZZZZFFFFFFFFFFFFFFFFFFFFZZZZZZZZZZZZZZZZZZZZFFFFFFFFFFFFFFFFFFFFZZZZZZZZZZZZZZZZZZZZFFFFFFFFFFFFFFFFFFFFZZZZZZZZZZZZZZZZZZZZFFFFFFFFFFFFFFFFFFFFZZZZZZZZZZZZZZZZZZZZFFFFFFFFFFFFFFFFFFFFZZZZZZZZZZZZZZZZZZZZ",
"ZZZZZZZZZZZZZZZZZZZZFFFFFFFFFFFFFFFFFFFFZZZZZZZZZZZZZZZZZZZZFFFFFFFFFFFFFFFFFFFFZZZZZZZZZZZZZZZZZZZZFFFFFFFFFFFFFFFFFFFFZZZZZZZZZZZZZZZZZZZZFFFFFFFFFFFFFFFFFFFFZZZZZZZZZZZZZZZZZZZZFFFFFFFFFFFFFFFFFFFFZZZZZZZZZZZZZZZZZZZZFFFFFFFFFFFFFFFFFFFFZZZZZZZZZZZZZZZZZZZZFFFFFFFFFFFFFFFFFFFFZZZZZZZZZZZZZZZZZZZZFFFFFFFFFFFFFFFFFFFFZZZZZZZZZZZZZZZZZZZZFFFFFFFFFFFFFFFFFFFFZZZZZZZZZZZZZZZZZZZZFFFFFFFFFFFFFFFFFFFFZZZZZZZZZZZZZZZZZZZZFFFFFFFFFFFFFFFFFFFFZZZZZZZZZZZZZZZZZZZZFFFFFFFFFFFFFFFFFFFFZZZZZZZZZZZZZZZZZZZZFFFFFFFFFFFFFFFFFFFFZZZZZZZZZZZZZZZZZZZZFFFFFFFFFFFFFFFFFFFFZZZZZZZZZZZZZZZZZZZZFFFFFFFFFFFFFFFFFFFFZZZZZZZZZZZZZZZZZZZZFFFFFFFFFFFFFFFFFFFFZZZZZZZZZZZZZZZZZZZZFFFFFFFFFFFFFFFFFFFFZZZZZZZZZZZZZZZZZZZZFFFFFFFFFFFFFFFFFFFFZZZZZZZZZZZZZZZZZZZZFFFFFFFFFFFFFFFFFFFFZZZZZZZZZZZZZZZZZZZZFFFFFFFFFFFFFFFFFFFFZZZZZZZZZZZZZZZZZZZZFFFFFFFFFFFFFFFFFFFFZZZZZZZZZZZZZZZZZZZZ",
"ZZZZZZZZZZZZZZZZZZZZFFFFFFFFFFFFFFFFFFFFZZZZZZZZZZZZZZZZZZZZFFFFFFFFFFFFFFFFFFFFZZZZZZZZZZZZZZZZZZZZFFFFFFFFFFFFFFFFFFFFZZZZZZZZZZZZZZZZZZZZFFFFFFFFFFFFFFFFFFFFZZZZZZZZZZZZZZZZZZZZFFFFFFFFFFFFFFFFFFFFZZZZZZZZZZZZZZZZZZZZFFFFFFFFFFFFFFFFFFFFZZZZZZZZZZZZZZZZZZZZFFFFFFFFFFFFFFFFFFFFZZZZZZZZZZZZZZZZZZZZFFFFFFFFFFFFFFFFFFFFZZZZZZZZZZZZZZZZZZZZFFFFFFFFFFFFFFFFFFFFZZZZZZZZZZZZZZZZZZZZFFFFFFFFFFFFFFFFFFFFZZZZZZZZZZZZZZZZZZZZFFFFFFFFFFFFFFFFFFFFZZZZZZZZZZZZZZZZZZZZFFFFFFFFFFFFFFFFFFFFZZZZZZZZZZZZZZZZZZZZFFFFFFFFFFFFFFFFFFFFZZZZZZZZZZZZZZZZZZZZFFFFFFFFFFFFFFFFFFFFZZZZZZZZZZZZZZZZZZZZFFFFFFFFFFFFFFFFFFFFZZZZZZZZZZZZZZZZZZZZFFFFFFFFFFFFFFFFFFFFZZZZZZZZZZZZZZZZZZZZFFFFFFFFFFFFFFFFFFFFZZZZZZZZZZZZZZZZZZZZFFFFFFFFFFFFFFFFFFFFZZZZZZZZZZZZZZZZZZZZFFFFFFFFFFFFFFFFFFFFZZZZZZZZZZZZZZZZZZZZFFFFFFFFFFFFFFFFFFFFZZZZZZZZZZZZZZZZZZZZFFFFFFFFFFFFFFFFFFFFZZZZZZZZZZZZZZZZZZZZ",
"ZZZZZZZZZZZZZZZZZZZZFFFFFFFFFFFFFFFFFFFFZZZZZZZZZZZZZZZZZZZZFFFFFFFFFFFFFFFFFFFFZZZZZZZZZZZZZZZZZZZZFFFFFFFFFFFFFFFFFFFFZZZZZZZZZZZZZZZZZZZZFFFFFFFFFFFFFFFFFFFFZZZZZZZZZZZZZZZZZZZZFFFFFFFFFFFFFFFFFFFFZZZZZZZZZZZZZZZZZZZZFFFFFFFFFFFFFFFFFFFFZZZZZZZZZZZZZZZZZZZZFFFFFFFFFFFFFFFFFFFFZZZZZZZZZZZZZZZZZZZZFFFFFFFFFFFFFFFFFFFFZZZZZZZZZZZZZZZZZZZZFFFFFFFFFFFFFFFFFFFFZZZZZZZZZZZZZZZZZZZZFFFFFFFFFFFFFFFFFFFFZZZZZZZZZZZZZZZZZZZZFFFFFFFFFFFFFFFFFFFFZZZZZZZZZZZZZZZZZZZZFFFFFFFFFFFFFFFFFFFFZZZZZZZZZZZZZZZZZZZZFFFFFFFFFFFFFFFFFFFFZZZZZZZZZZZZZZZZZZZZFFFFFFFFFFFFFFFFFFFFZZZZZZZZZZZZZZZZZZZZFFFFFFFFFFFFFFFFFFFFZZZZZZZZZZZZZZZZZZZZFFFFFFFFFFFFFFFFFFFFZZZZZZZZZZZZZZZZZZZZFFFFFFFFFFFFFFFFFFFFZZZZZZZZZZZZZZZZZZZZFFFFFFFFFFFFFFFFFFFFZZZZZZZZZZZZZZZZZZZZFFFFFFFFFFFFFFFFFFFFZZZZZZZZZZZZZZZZZZZZFFFFFFFFFFFFFFFFFFFFZZZZZZZZZZZZZZZZZZZZFFFFFFFFFFFFFFFFFFFFZZZZZZZZZZZZZZZZZZZZ",
"ZZZZZZZZZZZZZZZZZZZZFFFFFFFFFFFFFFFFFFFFZZZZZZZZZZZZZZZZZZZZFFFFFFFFFFFFFFFFFFFFZZZZZZZZZZZZZZZZZZZZFFFFFFFFFFFFFFFFFFFFZZZZZZZZZZZZZZZZZZZZFFFFFFFFFFFFFFFFFFFFZZZZZZZZZZZZZZZZZZZZFFFFFFFFFFFFFFFFFFFFZZZZZZZZZZZZZZZZZZZZFFFFFFFFFFFFFFFFFFFFZZZZZZZZZZZZZZZZZZZZFFFFFFFFFFFFFFFFFFFFZZZZZZZZZZZZZZZZZZZZFFFFFFFFFFFFFFFFFFFFZZZZZZZZZZZZZZZZZZZZFFFFFFFFFFFFFFFFFFFFZZZZZZZZZZZZZZZZZZZZFFFFFFFFFFFFFFFFFFFFZZZZZZZZZZZZZZZZZZZZFFFFFFFFFFFFFFFFFFFFZZZZZZZZZZZZZZZZZZZZFFFFFFFFFFFFFFFFFFFFZZZZZZZZZZZZZZZZZZZZFFFFFFFFFFFFFFFFFFFFZZZZZZZZZZZZZZZZZZZZFFFFFFFFFFFFFFFFFFFFZZZZZZZZZZZZZZZZZZZZFFFFFFFFFFFFFFFFFFFFZZZZZZZZZZZZZZZZZZZZFFFFFFFFFFFFFFFFFFFFZZZZZZZZZZZZZZZZZZZZFFFFFFFFFFFFFFFFFFFFZZZZZZZZZZZZZZZZZZZZFFFFFFFFFFFFFFFFFFFFZZZZZZZZZZZZZZZZZZZZFFFFFFFFFFFFFFFFFFFFZZZZZZZZZZZZZZZZZZZZFFFFFFFFFFFFFFFFFFFFZZZZZZZZZZZZZZZZZZZZFFFFFFFFFFFFFFFFFFFFZZZZZZZZZZZZZZZZZZZZ",
"ZZZZZZZZZZZZZZZZZZZZFFFFFFFFFFFFFFFFFFFFZZZZZZZZZZZZZZZZZZZZFFFFFFFFFFFFFFFFFFFFZZZZZZZZZZZZZZZZZZZZFFFFFFFFFFFFFFFFFFFFZZZZZZZZZZZZZZZZZZZZFFFFFFFFFFFFFFFFFFFFZZZZZZZZZZZZZZZZZZZZFFFFFFFFFFFFFFFFFFFFZZZZZZZZZZZZZZZZZZZZFFFFFFFFFFFFFFFFFFFFZZZZZZZZZZZZZZZZZZZZFFFFFFFFFFFFFFFFFFFFZZZZZZZZZZZZZZZZZZZZFFFFFFFFFFFFFFFFFFFFZZZZZZZZZZZZZZZZZZZZFFFFFFFFFFFFFFFFFFFFZZZZZZZZZZZZZZZZZZZZFFFFFFFFFFFFFFFFFFFFZZZZZZZZZZZZZZZZZZZZFFFFFFFFFFFFFFFFFFFFZZZZZZZZZZZZZZZZZZZZFFFFFFFFFFFFFFFFFFFFZZZZZZZZZZZZZZZZZZZZFFFFFFFFFFFFFFFFFFFFZZZZZZZZZZZZZZZZZZZZFFFFFFFFFFFFFFFFFFFFZZZZZZZZZZZZZZZZZZZZFFFFFFFFFFFFFFFFFFFFZZZZZZZZZZZZZZZZZZZZFFFFFFFFFFFFFFFFFFFFZZZZZZZZZZZZZZZZZZZZFFFFFFFFFFFFFFFFFFFFZZZZZZZZZZZZZZZZZZZZFFFFFFFFFFFFFFFFFFFFZZZZZZZZZZZZZZZZZZZZFFFFFFFFFFFFFFFFFFFFZZZZZZZZZZZZZZZZZZZZFFFFFFFFFFFFFFFFFFFFZZZZZZZZZZZZZZZZZZZZFFFFFFFFFFFFFFFFFFFFZZZZZZZZZZZZZZZZZZZZ",
"ZZZZZZZZZZZZZZZZZZZZFFFFFFFFFFFFFFFFFFFFZZZZZZZZZZZZZZZZZZZZFFFFFFFFFFFFFFFFFFFFZZZZZZZZZZZZZZZZZZZZFFFFFFFFFFFFFFFFFFFFZZZZZZZZZZZZZZZZZZZZFFFFFFFFFFFFFFFFFFFFZZZZZZZZZZZZZZZZZZZZFFFFFFFFFFFFFFFFFFFFZZZZZZZZZZZZZZZZZZZZFFFFFFFFFFFFFFFFFFFFZZZZZZZZZZZZZZZZZZZZFFFFFFFFFFFFFFFFFFFFZZZZZZZZZZZZZZZZZZZZFFFFFFFFFFFFFFFFFFFFZZZZZZZZZZZZZZZZZZZZFFFFFFFFFFFFFFFFFFFFZZZZZZZZZZZZZZZZZZZZFFFFFFFFFFFFFFFFFFFFZZZZZZZZZZZZZZZZZZZZFFFFFFFFFFFFFFFFFFFFZZZZZZZZZZZZZZZZZZZZFFFFFFFFFFFFFFFFFFFFZZZZZZZZZZZZZZZZZZZZFFFFFFFFFFFFFFFFFFFFZZZZZZZZZZZZZZZZZZZZFFFFFFFFFFFFFFFFFFFFZZZZZZZZZZZZZZZZZZZZFFFFFFFFFFFFFFFFFFFFZZZZZZZZZZZZZZZZZZZZFFFFFFFFFFFFFFFFFFFFZZZZZZZZZZZZZZZZZZZZFFFFFFFFFFFFFFFFFFFFZZZZZZZZZZZZZZZZZZZZFFFFFFFFFFFFFFFFFFFFZZZZZZZZZZZZZZZZZZZZFFFFFFFFFFFFFFFFFFFFZZZZZZZZZZZZZZZZZZZZFFFFFFFFFFFFFFFFFFFFZZZZZZZZZZZZZZZZZZZZFFFFFFFFFFFFFFFFFFFFZZZZZZZZZZZZZZZZZZZZ",
"ZZZZZZZZZZZZZZZZZZZZFFFFFFFFFFFFFFFFFFFFZZZZZZZZZZZZZZZZZZZZFFFFFFFFFFFFFFFFFFFFZZZZZZZZZZZZZZZZZZZZFFFFFFFFFFFFFFFFFFFFZZZZZZZZZZZZZZZZZZZZFFFFFFFFFFFFFFFFFFFFZZZZZZZZZZZZZZZZZZZZFFFFFFFFFFFFFFFFFFFFZZZZZZZZZZZZZZZZZZZZFFFFFFFFFFFFFFFFFFFFZZZZZZZZZZZZZZZZZZZZFFFFFFFFFFFFFFFFFFFFZZZZZZZZZZZZZZZZZZZZFFFFFFFFFFFFFFFFFFFFZZZZZZZZZZZZZZZZZZZZFFFFFFFFFFFFFFFFFFFFZZZZZZZZZZZZZZZZZZZZFFFFFFFFFFFFFFFFFFFFZZZZZZZZZZZZZZZZZZZZFFFFFFFFFFFFFFFFFFFFZZZZZZZZZZZZZZZZZZZZFFFFFFFFFFFFFFFFFFFFZZZZZZZZZZZZZZZZZZZZFFFFFFFFFFFFFFFFFFFFZZZZZZZZZZZZZZZZZZZZFFFFFFFFFFFFFFFFFFFFZZZZZZZZZZZZZZZZZZZZFFFFFFFFFFFFFFFFFFFFZZZZZZZZZZZZZZZZZZZZFFFFFFFFFFFFFFFFFFFFZZZZZZZZZZZZZZZZZZZZFFFFFFFFFFFFFFFFFFFFZZZZZZZZZZZZZZZZZZZZFFFFFFFFFFFFFFFFFFFFZZZZZZZZZZZZZZZZZZZZFFFFFFFFFFFFFFFFFFFFZZZZZZZZZZZZZZZZZZZZFFFFFFFFFFFFFFFFFFFFZZZZZZZZZZZZZZZZZZZZFFFFFFFFFFFFFFFFFFFFZZZZZZZZZZZZZZZZZZZZ",
"ZZZZZZZZZZZZZZZZZZZZFFFFFFFFFFFFFFFFFFFFZZZZZZZZZZZZZZZZZZZZFFFFFFFFFFFFFFFFFFFFZZZZZZZZZZZZZZZZZZZZFFFFFFFFFFFFFFFFFFFFZZZZZZZZZZZZZZZZZZZZFFFFFFFFFFFFFFFFFFFFZZZZZZZZZZZZZZZZZZZZFFFFFFFFFFFFFFFFFFFFZZZZZZZZZZZZZZZZZZZZFFFFFFFFFFFFFFFFFFFFZZZZZZZZZZZZZZZZZZZZFFFFFFFFFFFFFFFFFFFFZZZZZZZZZZZZZZZZZZZZFFFFFFFFFFFFFFFFFFFFZZZZZZZZZZZZZZZZZZZZFFFFFFFFFFFFFFFFFFFFZZZZZZZZZZZZZZZZZZZZFFFFFFFFFFFFFFFFFFFFZZZZZZZZZZZZZZZZZZZZFFFFFFFFFFFFFFFFFFFFZZZZZZZZZZZZZZZZZZZZFFFFFFFFFFFFFFFFFFFFZZZZZZZZZZZZZZZZZZZZFFFFFFFFFFFFFFFFFFFFZZZZZZZZZZZZZZZZZZZZFFFFFFFFFFFFFFFFFFFFZZZZZZZZZZZZZZZZZZZZFFFFFFFFFFFFFFFFFFFFZZZZZZZZZZZZZZZZZZZZFFFFFFFFFFFFFFFFFFFFZZZZZZZZZZZZZZZZZZZZFFFFFFFFFFFFFFFFFFFFZZZZZZZZZZZZZZZZZZZZFFFFFFFFFFFFFFFFFFFFZZZZZZZZZZZZZZZZZZZZFFFFFFFFFFFFFFFFFFFFZZZZZZZZZZZZZZZZZZZZFFFFFFFFFFFFFFFFFFFFZZZZZZZZZZZZZZZZZZZZFFFFFFFFFFFFFFFFFFFFZZZZZZZZZZZZZZZZZZZZ",
"ZZZZZZZZZZZZZZZZZZZZFFFFFFFFFFFFFFFFFFFFZZZZZZZZZZZZZZZZZZZZFFFFFFFFFFFFFFFFFFFFZZZZZZZZZZZZZZZZZZZZFFFFFFFFFFFFFFFFFFFFZZZZZZZZZZZZZZZZZZZZFFFFFFFFFFFFFFFFFFFFZZZZZZZZZZZZZZZZZZZZFFFFFFFFFFFFFFFFFFFFZZZZZZZZZZZZZZZZZZZZFFFFFFFFFFFFFFFFFFFFZZZZZZZZZZZZZZZZZZZZFFFFFFFFFFFFFFFFFFFFZZZZZZZZZZZZZZZZZZZZFFFFFFFFFFFFFFFFFFFFZZZZZZZZZZZZZZZZZZZZFFFFFFFFFFFFFFFFFFFFZZZZZZZZZZZZZZZZZZZZFFFFFFFFFFFFFFFFFFFFZZZZZZZZZZZZZZZZZZZZFFFFFFFFFFFFFFFFFFFFZZZZZZZZZZZZZZZZZZZZFFFFFFFFFFFFFFFFFFFFZZZZZZZZZZZZZZZZZZZZFFFFFFFFFFFFFFFFFFFFZZZZZZZZZZZZZZZZZZZZFFFFFFFFFFFFFFFFFFFFZZZZZZZZZZZZZZZZZZZZFFFFFFFFFFFFFFFFFFFFZZZZZZZZZZZZZZZZZZZZFFFFFFFFFFFFFFFFFFFFZZZZZZZZZZZZZZZZZZZZFFFFFFFFFFFFFFFFFFFFZZZZZZZZZZZZZZZZZZZZFFFFFFFFFFFFFFFFFFFFZZZZZZZZZZZZZZZZZZZZFFFFFFFFFFFFFFFFFFFFZZZZZZZZZZZZZZZZZZZZFFFFFFFFFFFFFFFFFFFFZZZZZZZZZZZZZZZZZZZZFFFFFFFFFFFFFFFFFFFFZZZZZZZZZZZZZZZZZZZZ",
"ZZZZZZZZZZZZZZZZZZZZFFFFFFFFFFFFFFFFFFFFZZZZZZZZZZZZZZZZZZZZFFFFFFFFFFFFFFFFFFFFZZZZZZZZZZZZZZZZZZZZFFFFFFFFFFFFFFFFFFFFZZZZZZZZZZZZZZZZZZZZFFFFFFFFFFFFFFFFFFFFZZZZZZZZZZZZZZZZZZZZFFFFFFFFFFFFFFFFFFFFZZZZZZZZZZZZZZZZZZZZFFFFFFFFFFFFFFFFFFFFZZZZZZZZZZZZZZZZZZZZFFFFFFFFFFFFFFFFFFFFZZZZZZZZZZZZZZZZZZZZFFFFFFFFFFFFFFFFFFFFZZZZZZZZZZZZZZZZZZZZFFFFFFFFFFFFFFFFFFFFZZZZZZZZZZZZZZZZZZZZFFFFFFFFFFFFFFFFFFFFZZZZZZZZZZZZZZZZZZZZFFFFFFFFFFFFFFFFFFFFZZZZZZZZZZZZZZZZZZZZFFFFFFFFFFFFFFFFFFFFZZZZZZZZZZZZZZZZZZZZFFFFFFFFFFFFFFFFFFFFZZZZZZZZZZZZZZZZZZZZFFFFFFFFFFFFFFFFFFFFZZZZZZZZZZZZZZZZZZZZFFFFFFFFFFFFFFFFFFFFZZZZZZZZZZZZZZZZZZZZFFFFFFFFFFFFFFFFFFFFZZZZZZZZZZZZZZZZZZZZFFFFFFFFFFFFFFFFFFFFZZZZZZZZZZZZZZZZZZZZFFFFFFFFFFFFFFFFFFFFZZZZZZZZZZZZZZZZZZZZFFFFFFFFFFFFFFFFFFFFZZZZZZZZZZZZZZZZZZZZFFFFFFFFFFFFFFFFFFFFZZZZZZZZZZZZZZZZZZZZFFFFFFFFFFFFFFFFFFFFZZZZZZZZZZZZZZZZZZZZ",
"ZZZZZZZZZZZZZZZZZZZZFFFFFFFFFFFFFFFFFFFFZZZZZZZZZZZZZZZZZZZZFFFFFFFFFFFFFFFFFFFFZZZZZZZZZZZZZZZZZZZZFFFFFFFFFFFFFFFFFFFFZZZZZZZZZZZZZZZZZZZZFFFFFFFFFFFFFFFFFFFFZZZZZZZZZZZZZZZZZZZZFFFFFFFFFFFFFFFFFFFFZZZZZZZZZZZZZZZZZZZZFFFFFFFFFFFFFFFFFFFFZZZZZZZZZZZZZZZZZZZZFFFFFFFFFFFFFFFFFFFFZZZZZZZZZZZZZZZZZZZZFFFFFFFFFFFFFFFFFFFFZZZZZZZZZZZZZZZZZZZZFFFFFFFFFFFFFFFFFFFFZZZZZZZZZZZZZZZZZZZZFFFFFFFFFFFFFFFFFFFFZZZZZZZZZZZZZZZZZZZZFFFFFFFFFFFFFFFFFFFFZZZZZZZZZZZZZZZZZZZZFFFFFFFFFFFFFFFFFFFFZZZZZZZZZZZZZZZZZZZZFFFFFFFFFFFFFFFFFFFFZZZZZZZZZZZZZZZZZZZZFFFFFFFFFFFFFFFFFFFFZZZZZZZZZZZZZZZZZZZZFFFFFFFFFFFFFFFFFFFFZZZZZZZZZZZZZZZZZZZZFFFFFFFFFFFFFFFFFFFFZZZZZZZZZZZZZZZZZZZZFFFFFFFFFFFFFFFFFFFFZZZZZZZZZZZZZZZZZZZZFFFFFFFFFFFFFFFFFFFFZZZZZZZZZZZZZZZZZZZZFFFFFFFFFFFFFFFFFFFFZZZZZZZZZZZZZZZZZZZZFFFFFFFFFFFFFFFFFFFFZZZZZZZZZZZZZZZZZZZZFFFFFFFFFFFFFFFFFFFFZZZZZZZZZZZZZZZZZZZZ",
"ZZZZZZZZZZZZZZZZZZZZFFFFFFFFFFFFFFFFFFFFZZZZZZZZZZZZZZZZZZZZFFFFFFFFFFFFFFFFFFFFZZZZZZZZZZZZZZZZZZZZFFFFFFFFFFFFFFFFFFFFZZZZZZZZZZZZZZZZZZZZFFFFFFFFFFFFFFFFFFFFZZZZZZZZZZZZZZZZZZZZFFFFFFFFFFFFFFFFFFFFZZZZZZZZZZZZZZZZZZZZFFFFFFFFFFFFFFFFFFFFZZZZZZZZZZZZZZZZZZZZFFFFFFFFFFFFFFFFFFFFZZZZZZZZZZZZZZZZZZZZFFFFFFFFFFFFFFFFFFFFZZZZZZZZZZZZZZZZZZZZFFFFFFFFFFFFFFFFFFFFZZZZZZZZZZZZZZZZZZZZFFFFFFFFFFFFFFFFFFFFZZZZZZZZZZZZZZZZZZZZFFFFFFFFFFFFFFFFFFFFZZZZZZZZZZZZZZZZZZZZFFFFFFFFFFFFFFFFFFFFZZZZZZZZZZZZZZZZZZZZFFFFFFFFFFFFFFFFFFFFZZZZZZZZZZZZZZZZZZZZFFFFFFFFFFFFFFFFFFFFZZZZZZZZZZZZZZZZZZZZFFFFFFFFFFFFFFFFFFFFZZZZZZZZZZZZZZZZZZZZFFFFFFFFFFFFFFFFFFFFZZZZZZZZZZZZZZZZZZZZFFFFFFFFFFFFFFFFFFFFZZZZZZZZZZZZZZZZZZZZFFFFFFFFFFFFFFFFFFFFZZZZZZZZZZZZZZZZZZZZFFFFFFFFFFFFFFFFFFFFZZZZZZZZZZZZZZZZZZZZFFFFFFFFFFFFFFFFFFFFZZZZZZZZZZZZZZZZZZZZFFFFFFFFFFFFFFFFFFFFZZZZZZZZZZZZZZZZZZZZ",
"ZZZZZZZZZZZZZZZZZZZZFFFFFFFFFFFFFFFFFFFFZZZZZZZZZZZZZZZZZZZZFFFFFFFFFFFFFFFFFFFFZZZZZZZZZZZZZZZZZZZZFFFFFFFFFFFFFFFFFFFFZZZZZZZZZZZZZZZZZZZZFFFFFFFFFFFFFFFFFFFFZZZZZZZZZZZZZZZZZZZZFFFFFFFFFFFFFFFFFFFFZZZZZZZZZZZZZZZZZZZZFFFFFFFFFFFFFFFFFFFFZZZZZZZZZZZZZZZZZZZZFFFFFFFFFFFFFFFFFFFFZZZZZZZZZZZZZZZZZZZZFFFFFFFFFFFFFFFFFFFFZZZZZZZZZZZZZZZZZZZZFFFFFFFFFFFFFFFFFFFFZZZZZZZZZZZZZZZZZZZZFFFFFFFFFFFFFFFFFFFFZZZZZZZZZZZZZZZZZZZZFFFFFFFFFFFFFFFFFFFFZZZZZZZZZZZZZZZZZZZZFFFFFFFFFFFFFFFFFFFFZZZZZZZZZZZZZZZZZZZZFFFFFFFFFFFFFFFFFFFFZZZZZZZZZZZZZZZZZZZZFFFFFFFFFFFFFFFFFFFFZZZZZZZZZZZZZZZZZZZZFFFFFFFFFFFFFFFFFFFFZZZZZZZZZZZZZZZZZZZZFFFFFFFFFFFFFFFFFFFFZZZZZZZZZZZZZZZZZZZZFFFFFFFFFFFFFFFFFFFFZZZZZZZZZZZZZZZZZZZZFFFFFFFFFFFFFFFFFFFFZZZZZZZZZZZZZZZZZZZZFFFFFFFFFFFFFFFFFFFFZZZZZZZZZZZZZZZZZZZZFFFFFFFFFFFFFFFFFFFFZZZZZZZZZZZZZZZZZZZZFFFFFFFFFFFFFFFFFFFFZZZZZZZZZZZZZZZZZZZZ",
"ZZZZZZZZZZZZZZZZZZZZFFFFFFFFFFFFFFFFFFFFZZZZZZZZZZZZZZZZZZZZFFFFFFFFFFFFFFFFFFFFZZZZZZZZZZZZZZZZZZZZFFFFFFFFFFFFFFFFFFFFZZZZZZZZZZZZZZZZZZZZFFFFFFFFFFFFFFFFFFFFZZZZZZZZZZZZZZZZZZZZFFFFFFFFFFFFFFFFFFFFZZZZZZZZZZZZZZZZZZZZFFFFFFFFFFFFFFFFFFFFZZZZZZZZZZZZZZZZZZZZFFFFFFFFFFFFFFFFFFFFZZZZZZZZZZZZZZZZZZZZFFFFFFFFFFFFFFFFFFFFZZZZZZZZZZZZZZZZZZZZFFFFFFFFFFFFFFFFFFFFZZZZZZZZZZZZZZZZZZZZFFFFFFFFFFFFFFFFFFFFZZZZZZZZZZZZZZZZZZZZFFFFFFFFFFFFFFFFFFFFZZZZZZZZZZZZZZZZZZZZFFFFFFFFFFFFFFFFFFFFZZZZZZZZZZZZZZZZZZZZFFFFFFFFFFFFFFFFFFFFZZZZZZZZZZZZZZZZZZZZFFFFFFFFFFFFFFFFFFFFZZZZZZZZZZZZZZZZZZZZFFFFFFFFFFFFFFFFFFFFZZZZZZZZZZZZZZZZZZZZFFFFFFFFFFFFFFFFFFFFZZZZZZZZZZZZZZZZZZZZFFFFFFFFFFFFFFFFFFFFZZZZZZZZZZZZZZZZZZZZFFFFFFFFFFFFFFFFFFFFZZZZZZZZZZZZZZZZZZZZFFFFFFFFFFFFFFFFFFFFZZZZZZZZZZZZZZZZZZZZFFFFFFFFFFFFFFFFFFFFZZZZZZZZZZZZZZZZZZZZFFFFFFFFFFFFFFFFFFFFZZZZZZZZZZZZZZZZZZZZ",
"ZZZZZZZZZZZZZZZZZZZZFFFFFFFFFFFFFFFFFFFFZZZZZZZZZZZZZZZZZZZZFFFFFFFFFFFFFFFFFFFFZZZZZZZZZZZZZZZZZZZZFFFFFFFFFFFFFFFFFFFFZZZZZZZZZZZZZZZZZZZZFFFFFFFFFFFFFFFFFFFFZZZZZZZZZZZZZZZZZZZZFFFFFFFFFFFFFFFFFFFFZZZZZZZZZZZZZZZZZZZZFFFFFFFFFFFFFFFFFFFFZZZZZZZZZZZZZZZZZZZZFFFFFFFFFFFFFFFFFFFFZZZZZZZZZZZZZZZZZZZZFFFFFFFFFFFFFFFFFFFFZZZZZZZZZZZZZZZZZZZZFFFFFFFFFFFFFFFFFFFFZZZZZZZZZZZZZZZZZZZZFFFFFFFFFFFFFFFFFFFFZZZZZZZZZZZZZZZZZZZZFFFFFFFFFFFFFFFFFFFFZZZZZZZZZZZZZZZZZZZZFFFFFFFFFFFFFFFFFFFFZZZZZZZZZZZZZZZZZZZZFFFFFFFFFFFFFFFFFFFFZZZZZZZZZZZZZZZZZZZZFFFFFFFFFFFFFFFFFFFFZZZZZZZZZZZZZZZZZZZZFFFFFFFFFFFFFFFFFFFFZZZZZZZZZZZZZZZZZZZZFFFFFFFFFFFFFFFFFFFFZZZZZZZZZZZZZZZZZZZZFFFFFFFFFFFFFFFFFFFFZZZZZZZZZZZZZZZZZZZZFFFFFFFFFFFFFFFFFFFFZZZZZZZZZZZZZZZZZZZZFFFFFFFFFFFFFFFFFFFFZZZZZZZZZZZZZZZZZZZZFFFFFFFFFFFFFFFFFFFFZZZZZZZZZZZZZZZZZZZZFFFFFFFFFFFFFFFFFFFFZZZZZZZZZZZZZZZZZZZZ",
"ZZZZZZZZZZZZZZZZZZZZFFFFFFFFFFFFFFFFFFFFZZZZZZZZZZZZZZZZZZZZFFFFFFFFFFFFFFFFFFFFZZZZZZZZZZZZZZZZZZZZFFFFFFFFFFFFFFFFFFFFZZZZZZZZZZZZZZZZZZZZFFFFFFFFFFFFFFFFFFFFZZZZZZZZZZZZZZZZZZZZFFFFFFFFFFFFFFFFFFFFZZZZZZZZZZZZZZZZZZZZFFFFFFFFFFFFFFFFFFFFZZZZZZZZZZZZZZZZZZZZFFFFFFFFFFFFFFFFFFFFZZZZZZZZZZZZZZZZZZZZFFFFFFFFFFFFFFFFFFFFZZZZZZZZZZZZZZZZZZZZFFFFFFFFFFFFFFFFFFFFZZZZZZZZZZZZZZZZZZZZFFFFFFFFFFFFFFFFFFFFZZZZZZZZZZZZZZZZZZZZFFFFFFFFFFFFFFFFFFFFZZZZZZZZZZZZZZZZZZZZFFFFFFFFFFFFFFFFFFFFZZZZZZZZZZZZZZZZZZZZFFFFFFFFFFFFFFFFFFFFZZZZZZZZZZZZZZZZZZZZFFFFFFFFFFFFFFFFFFFFZZZZZZZZZZZZZZZZZZZZFFFFFFFFFFFFFFFFFFFFZZZZZZZZZZZZZZZZZZZZFFFFFFFFFFFFFFFFFFFFZZZZZZZZZZZZZZZZZZZZFFFFFFFFFFFFFFFFFFFFZZZZZZZZZZZZZZZZZZZZFFFFFFFFFFFFFFFFFFFFZZZZZZZZZZZZZZZZZZZZFFFFFFFFFFFFFFFFFFFFZZZZZZZZZZZZZZZZZZZZFFFFFFFFFFFFFFFFFFFFZZZZZZZZZZZZZZZZZZZZFFFFFFFFFFFFFFFFFFFFZZZZZZZZZZZZZZZZZZZZ",
"FFFFFFFFFFFFFFFFFFFFZZZZZZZZZZZZZZZZZZZZFFFFFFFFFFFFFFFFFFFFZZZZZZZZZZZZZZZZZZZZFFFFFFFFFFFFFFFFFFFFZZZZZZZZZZZZZZZZZZZZFFFFFFFFFFFFFFFFFFFFZZZZZZZZZZZZZZZZZZZZFFFFFFFFFFFFFFFFFFFFZZZZZZZZZZZZZZZZZZZZFFFFFFFFFFFFFFFFFFFFZZZZZZZZZZZZZZZZZZZZFFFFFFFFFFFFFFFFFFFFZZZZZZZZZZZZZZZZZZZZFFFFFFFFFFFFFFFFFFFFZZZZZZZZZZZZZZZZZZZZFFFFFFFFFFFFFFFFFFFFZZZZZZZZZZZZZZZZZZZZFFFFFFFFFFFFFFFFFFFFZZZZZZZZZZZZZZZZZZZZFFFFFFFFFFFFFFFFFFFFZZZZZZZZZZZZZZZZZZZZFFFFFFFFFFFFFFFFFFFFZZZZZZZZZZZZZZZZZZZZFFFFFFFFFFFFFFFFFFFFZZZZZZZZZZZZZZZZZZZZFFFFFFFFFFFFFFFFFFFFZZZZZZZZZZZZZZZZZZZZFFFFFFFFFFFFFFFFFFFFZZZZZZZZZZZZZZZZZZZZFFFFFFFFFFFFFFFFFFFFZZZZZZZZZZZZZZZZZZZZFFFFFFFFFFFFFFFFFFFFZZZZZZZZZZZZZZZZZZZZFFFFFFFFFFFFFFFFFFFFZZZZZZZZZZZZZZZZZZZZFFFFFFFFFFFFFFFFFFFFZZZZZZZZZZZZZZZZZZZZFFFFFFFFFFFFFFFFFFFFZZZZZZZZZZZZZZZZZZZZFFFFFFFFFFFFFFFFFFFFZZZZZZZZZZZZZZZZZZZZFFFFFFFFFFFFFFFFFFFF",
"FFFFFFFFFFFFFFFFFFFFZZZZZZZZZZZZZZZZZZZZFFFFFFFFFFFFFFFFFFFFZZZZZZZZZZZZZZZZZZZZFFFFFFFFFFFFFFFFFFFFZZZZZZZZZZZZZZZZZZZZFFFFFFFFFFFFFFFFFFFFZZZZZZZZZZZZZZZZZZZZFFFFFFFFFFFFFFFFFFFFZZZZZZZZZZZZZZZZZZZZFFFFFFFFFFFFFFFFFFFFZZZZZZZZZZZZZZZZZZZZFFFFFFFFFFFFFFFFFFFFZZZZZZZZZZZZZZZZZZZZFFFFFFFFFFFFFFFFFFFFZZZZZZZZZZZZZZZZZZZZFFFFFFFFFFFFFFFFFFFFZZZZZZZZZZZZZZZZZZZZFFFFFFFFFFFFFFFFFFFFZZZZZZZZZZZZZZZZZZZZFFFFFFFFFFFFFFFFFFFFZZZZZZZZZZZZZZZZZZZZFFFFFFFFFFFFFFFFFFFFZZZZZZZZZZZZZZZZZZZZFFFFFFFFFFFFFFFFFFFFZZZZZZZZZZZZZZZZZZZZFFFFFFFFFFFFFFFFFFFFZZZZZZZZZZZZZZZZZZZZFFFFFFFFFFFFFFFFFFFFZZZZZZZZZZZZZZZZZZZZFFFFFFFFFFFFFFFFFFFFZZZZZZZZZZZZZZZZZZZZFFFFFFFFFFFFFFFFFFFFZZZZZZZZZZZZZZZZZZZZFFFFFFFFFFFFFFFFFFFFZZZZZZZZZZZZZZZZZZZZFFFFFFFFFFFFFFFFFFFFZZZZZZZZZZZZZZZZZZZZFFFFFFFFFFFFFFFFFFFFZZZZZZZZZZZZZZZZZZZZFFFFFFFFFFFFFFFFFFFFZZZZZZZZZZZZZZZZZZZZFFFFFFFFFFFFFFFFFFFF",
"FFFFFFFFFFFFFFFFFFFFZZZZZZZZZZZZZZZZZZZZFFFFFFFFFFFFFFFFFFFFZZZZZZZZZZZZZZZZZZZZFFFFFFFFFFFFFFFFFFFFZZZZZZZZZZZZZZZZZZZZFFFFFFFFFFFFFFFFFFFFZZZZZZZZZZZZZZZZZZZZFFFFFFFFFFFFFFFFFFFFZZZZZZZZZZZZZZZZZZZZFFFFFFFFFFFFFFFFFFFFZZZZZZZZZZZZZZZZZZZZFFFFFFFFFFFFFFFFFFFFZZZZZZZZZZZZZZZZZZZZFFFFFFFFFFFFFFFFFFFFZZZZZZZZZZZZZZZZZZZZFFFFFFFFFFFFFFFFFFFFZZZZZZZZZZZZZZZZZZZZFFFFFFFFFFFFFFFFFFFFZZZZZZZZZZZZZZZZZZZZFFFFFFFFFFFFFFFFFFFFZZZZZZZZZZZZZZZZZZZZFFFFFFFFFFFFFFFFFFFFZZZZZZZZZZZZZZZZZZZZFFFFFFFFFFFFFFFFFFFFZZZZZZZZZZZZZZZZZZZZFFFFFFFFFFFFFFFFFFFFZZZZZZZZZZZZZZZZZZZZFFFFFFFFFFFFFFFFFFFFZZZZZZZZZZZZZZZZZZZZFFFFFFFFFFFFFFFFFFFFZZZZZZZZZZZZZZZZZZZZFFFFFFFFFFFFFFFFFFFFZZZZZZZZZZZZZZZZZZZZFFFFFFFFFFFFFFFFFFFFZZZZZZZZZZZZZZZZZZZZFFFFFFFFFFFFFFFFFFFFZZZZZZZZZZZZZZZZZZZZFFFFFFFFFFFFFFFFFFFFZZZZZZZZZZZZZZZZZZZZFFFFFFFFFFFFFFFFFFFFZZZZZZZZZZZZZZZZZZZZFFFFFFFFFFFFFFFFFFFF",
"FFFFFFFFFFFFFFFFFFFFZZZZZZZZZZZZZZZZZZZZFFFFFFFFFFFFFFFFFFFFZZZZZZZZZZZZZZZZZZZZFFFFFFFFFFFFFFFFFFFFZZZZZZZZZZZZZZZZZZZZFFFFFFFFFFFFFFFFFFFFZZZZZZZZZZZZZZZZZZZZFFFFFFFFFFFFFFFFFFFFZZZZZZZZZZZZZZZZZZZZFFFFFFFFFFFFFFFFFFFFZZZZZZZZZZZZZZZZZZZZFFFFFFFFFFFFFFFFFFFFZZZZZZZZZZZZZZZZZZZZFFFFFFFFFFFFFFFFFFFFZZZZZZZZZZZZZZZZZZZZFFFFFFFFFFFFFFFFFFFFZZZZZZZZZZZZZZZZZZZZFFFFFFFFFFFFFFFFFFFFZZZZZZZZZZZZZZZZZZZZFFFFFFFFFFFFFFFFFFFFZZZZZZZZZZZZZZZZZZZZFFFFFFFFFFFFFFFFFFFFZZZZZZZZZZZZZZZZZZZZFFFFFFFFFFFFFFFFFFFFZZZZZZZZZZZZZZZZZZZZFFFFFFFFFFFFFFFFFFFFZZZZZZZZZZZZZZZZZZZZFFFFFFFFFFFFFFFFFFFFZZZZZZZZZZZZZZZZZZZZFFFFFFFFFFFFFFFFFFFFZZZZZZZZZZZZZZZZZZZZFFFFFFFFFFFFFFFFFFFFZZZZZZZZZZZZZZZZZZZZFFFFFFFFFFFFFFFFFFFFZZZZZZZZZZZZZZZZZZZZFFFFFFFFFFFFFFFFFFFFZZZZZZZZZZZZZZZZZZZZFFFFFFFFFFFFFFFFFFFFZZZZZZZZZZZZZZZZZZZZFFFFFFFFFFFFFFFFFFFFZZZZZZZZZZZZZZZZZZZZFFFFFFFFFFFFFFFFFFFF",
"FFFFFFFFFFFFFFFFFFFFZZZZZZZZZZZZZZZZZZZZFFFFFFFFFFFFFFFFFFFFZZZZZZZZZZZZZZZZZZZZFFFFFFFFFFFFFFFFFFFFZZZZZZZZZZZZZZZZZZZZFFFFFFFFFFFFFFFFFFFFZZZZZZZZZZZZZZZZZZZZFFFFFFFFFFFFFFFFFFFFZZZZZZZZZZZZZZZZZZZZFFFFFFFFFFFFFFFFFFFFZZZZZZZZZZZZZZZZZZZZFFFFFFFFFFFFFFFFFFFFZZZZZZZZZZZZZZZZZZZZFFFFFFFFFFFFFFFFFFFFZZZZZZZZZZZZZZZZZZZZFFFFFFFFFFFFFFFFFFFFZZZZZZZZZZZZZZZZZZZZFFFFFFFFFFFFFFFFFFFFZZZZZZZZZZZZZZZZZZZZFFFFFFFFFFFFFFFFFFFFZZZZZZZZZZZZZZZZZZZZFFFFFFFFFFFFFFFFFFFFZZZZZZZZZZZZZZZZZZZZFFFFFFFFFFFFFFFFFFFFZZZZZZZZZZZZZZZZZZZZFFFFFFFFFFFFFFFFFFFFZZZZZZZZZZZZZZZZZZZZFFFFFFFFFFFFFFFFFFFFZZZZZZZZZZZZZZZZZZZZFFFFFFFFFFFFFFFFFFFFZZZZZZZZZZZZZZZZZZZZFFFFFFFFFFFFFFFFFFFFZZZZZZZZZZZZZZZZZZZZFFFFFFFFFFFFFFFFFFFFZZZZZZZZZZZZZZZZZZZZFFFFFFFFFFFFFFFFFFFFZZZZZZZZZZZZZZZZZZZZFFFFFFFFFFFFFFFFFFFFZZZZZZZZZZZZZZZZZZZZFFFFFFFFFFFFFFFFFFFFZZZZZZZZZZZZZZZZZZZZFFFFFFFFFFFFFFFFFFFF",
"FFFFFFFFFFFFFFFFFFFFZZZZZZZZZZZZZZZZZZZZFFFFFFFFFFFFFFFFFFFFZZZZZZZZZZZZZZZZZZZZFFFFFFFFFFFFFFFFFFFFZZZZZZZZZZZZZZZZZZZZFFFFFFFFFFFFFFFFFFFFZZZZZZZZZZZZZZZZZZZZFFFFFFFFFFFFFFFFFFFFZZZZZZZZZZZZZZZZZZZZFFFFFFFFFFFFFFFFFFFFZZZZZZZZZZZZZZZZZZZZFFFFFFFFFFFFFFFFFFFFZZZZZZZZZZZZZZZZZZZZFFFFFFFFFFFFFFFFFFFFZZZZZZZZZZZZZZZZZZZZFFFFFFFFFFFFFFFFFFFFZZZZZZZZZZZZZZZZZZZZFFFFFFFFFFFFFFFFFFFFZZZZZZZZZZZZZZZZZZZZFFFFFFFFFFFFFFFFFFFFZZZZZZZZZZZZZZZZZZZZFFFFFFFFFFFFFFFFFFFFZZZZZZZZZZZZZZZZZZZZFFFFFFFFFFFFFFFFFFFFZZZZZZZZZZZZZZZZZZZZFFFFFFFFFFFFFFFFFFFFZZZZZZZZZZZZZZZZZZZZFFFFFFFFFFFFFFFFFFFFZZZZZZZZZZZZZZZZZZZZFFFFFFFFFFFFFFFFFFFFZZZZZZZZZZZZZZZZZZZZFFFFFFFFFFFFFFFFFFFFZZZZZZZZZZZZZZZZZZZZFFFFFFFFFFFFFFFFFFFFZZZZZZZZZZZZZZZZZZZZFFFFFFFFFFFFFFFFFFFFZZZZZZZZZZZZZZZZZZZZFFFFFFFFFFFFFFFFFFFFZZZZZZZZZZZZZZZZZZZZFFFFFFFFFFFFFFFFFFFFZZZZZZZZZZZZZZZZZZZZFFFFFFFFFFFFFFFFFFFF",
"FFFFFFFFFFFFFFFFFFFFZZZZZZZZZZZZZZZZZZZZFFFFFFFFFFFFFFFFFFFFZZZZZZZZZZZZZZZZZZZZFFFFFFFFFFFFFFFFFFFFZZZZZZZZZZZZZZZZZZZZFFFFFFFFFFFFFFFFFFFFZZZZZZZZZZZZZZZZZZZZFFFFFFFFFFFFFFFFFFFFZZZZZZZZZZZZZZZZZZZZFFFFFFFFFFFFFFFFFFFFZZZZZZZZZZZZZZZZZZZZFFFFFFFFFFFFFFFFFFFFZZZZZZZZZZZZZZZZZZZZFFFFFFFFFFFFFFFFFFFFZZZZZZZZZZZZZZZZZZZZFFFFFFFFFFFFFFFFFFFFZZZZZZZZZZZZZZZZZZZZFFFFFFFFFFFFFFFFFFFFZZZZZZZZZZZZZZZZZZZZFFFFFFFFFFFFFFFFFFFFZZZZZZZZZZZZZZZZZZZZFFFFFFFFFFFFFFFFFFFFZZZZZZZZZZZZZZZZZZZZFFFFFFFFFFFFFFFFFFFFZZZZZZZZZZZZZZZZZZZZFFFFFFFFFFFFFFFFFFFFZZZZZZZZZZZZZZZZZZZZFFFFFFFFFFFFFFFFFFFFZZZZZZZZZZZZZZZZZZZZFFFFFFFFFFFFFFFFFFFFZZZZZZZZZZZZZZZZZZZZFFFFFFFFFFFFFFFFFFFFZZZZZZZZZZZZZZZZZZZZFFFFFFFFFFFFFFFFFFFFZZZZZZZZZZZZZZZZZZZZFFFFFFFFFFFFFFFFFFFFZZZZZZZZZZZZZZZZZZZZFFFFFFFFFFFFFFFFFFFFZZZZZZZZZZZZZZZZZZZZFFFFFFFFFFFFFFFFFFFFZZZZZZZZZZZZZZZZZZZZFFFFFFFFFFFFFFFFFFFF",
"FFFFFFFFFFFFFFFFFFFFZZZZZZZZZZZZZZZZZZZZFFFFFFFFFFFFFFFFFFFFZZZZZZZZZZZZZZZZZZZZFFFFFFFFFFFFFFFFFFFFZZZZZZZZZZZZZZZZZZZZFFFFFFFFFFFFFFFFFFFFZZZZZZZZZZZZZZZZZZZZFFFFFFFFFFFFFFFFFFFFZZZZZZZZZZZZZZZZZZZZFFFFFFFFFFFFFFFFFFFFZZZZZZZZZZZZZZZZZZZZFFFFFFFFFFFFFFFFFFFFZZZZZZZZZZZZZZZZZZZZFFFFFFFFFFFFFFFFFFFFZZZZZZZZZZZZZZZZZZZZFFFFFFFFFFFFFFFFFFFFZZZZZZZZZZZZZZZZZZZZFFFFFFFFFFFFFFFFFFFFZZZZZZZZZZZZZZZZZZZZFFFFFFFFFFFFFFFFFFFFZZZZZZZZZZZZZZZZZZZZFFFFFFFFFFFFFFFFFFFFZZZZZZZZZZZZZZZZZZZZFFFFFFFFFFFFFFFFFFFFZZZZZZZZZZZZZZZZZZZZFFFFFFFFFFFFFFFFFFFFZZZZZZZZZZZZZZZZZZZZFFFFFFFFFFFFFFFFFFFFZZZZZZZZZZZZZZZZZZZZFFFFFFFFFFFFFFFFFFFFZZZZZZZZZZZZZZZZZZZZFFFFFFFFFFFFFFFFFFFFZZZZZZZZZZZZZZZZZZZZFFFFFFFFFFFFFFFFFFFFZZZZZZZZZZZZZZZZZZZZFFFFFFFFFFFFFFFFFFFFZZZZZZZZZZZZZZZZZZZZFFFFFFFFFFFFFFFFFFFFZZZZZZZZZZZZZZZZZZZZFFFFFFFFFFFFFFFFFFFFZZZZZZZZZZZZZZZZZZZZFFFFFFFFFFFFFFFFFFFF",
"FFFFFFFFFFFFFFFFFFFFZZZZZZZZZZZZZZZZZZZZFFFFFFFFFFFFFFFFFFFFZZZZZZZZZZZZZZZZZZZZFFFFFFFFFFFFFFFFFFFFZZZZZZZZZZZZZZZZZZZZFFFFFFFFFFFFFFFFFFFFZZZZZZZZZZZZZZZZZZZZFFFFFFFFFFFFFFFFFFFFZZZZZZZZZZZZZZZZZZZZFFFFFFFFFFFFFFFFFFFFZZZZZZZZZZZZZZZZZZZZFFFFFFFFFFFFFFFFFFFFZZZZZZZZZZZZZZZZZZZZFFFFFFFFFFFFFFFFFFFFZZZZZZZZZZZZZZZZZZZZFFFFFFFFFFFFFFFFFFFFZZZZZZZZZZZZZZZZZZZZFFFFFFFFFFFFFFFFFFFFZZZZZZZZZZZZZZZZZZZZFFFFFFFFFFFFFFFFFFFFZZZZZZZZZZZZZZZZZZZZFFFFFFFFFFFFFFFFFFFFZZZZZZZZZZZZZZZZZZZZFFFFFFFFFFFFFFFFFFFFZZZZZZZZZZZZZZZZZZZZFFFFFFFFFFFFFFFFFFFFZZZZZZZZZZZZZZZZZZZZFFFFFFFFFFFFFFFFFFFFZZZZZZZZZZZZZZZZZZZZFFFFFFFFFFFFFFFFFFFFZZZZZZZZZZZZZZZZZZZZFFFFFFFFFFFFFFFFFFFFZZZZZZZZZZZZZZZZZZZZFFFFFFFFFFFFFFFFFFFFZZZZZZZZZZZZZZZZZZZZFFFFFFFFFFFFFFFFFFFFZZZZZZZZZZZZZZZZZZZZFFFFFFFFFFFFFFFFFFFFZZZZZZZZZZZZZZZZZZZZFFFFFFFFFFFFFFFFFFFFZZZZZZZZZZZZZZZZZZZZFFFFFFFFFFFFFFFFFFFF",
"FFFFFFFFFFFFFFFFFFFFZZZZZZZZZZZZZZZZZZZZFFFFFFFFFFFFFFFFFFFFZZZZZZZZZZZZZZZZZZZZFFFFFFFFFFFFFFFFFFFFZZZZZZZZZZZZZZZZZZZZFFFFFFFFFFFFFFFFFFFFZZZZZZZZZZZZZZZZZZZZFFFFFFFFFFFFFFFFFFFFZZZZZZZZZZZZZZZZZZZZFFFFFFFFFFFFFFFFFFFFZZZZZZZZZZZZZZZZZZZZFFFFFFFFFFFFFFFFFFFFZZZZZZZZZZZZZZZZZZZZFFFFFFFFFFFFFFFFFFFFZZZZZZZZZZZZZZZZZZZZFFFFFFFFFFFFFFFFFFFFZZZZZZZZZZZZZZZZZZZZFFFFFFFFFFFFFFFFFFFFZZZZZZZZZZZZZZZZZZZZFFFFFFFFFFFFFFFFFFFFZZZZZZZZZZZZZZZZZZZZFFFFFFFFFFFFFFFFFFFFZZZZZZZZZZZZZZZZZZZZFFFFFFFFFFFFFFFFFFFFZZZZZZZZZZZZZZZZZZZZFFFFFFFFFFFFFFFFFFFFZZZZZZZZZZZZZZZZZZZZFFFFFFFFFFFFFFFFFFFFZZZZZZZZZZZZZZZZZZZZFFFFFFFFFFFFFFFFFFFFZZZZZZZZZZZZZZZZZZZZFFFFFFFFFFFFFFFFFFFFZZZZZZZZZZZZZZZZZZZZFFFFFFFFFFFFFFFFFFFFZZZZZZZZZZZZZZZZZZZZFFFFFFFFFFFFFFFFFFFFZZZZZZZZZZZZZZZZZZZZFFFFFFFFFFFFFFFFFFFFZZZZZZZZZZZZZZZZZZZZFFFFFFFFFFFFFFFFFFFFZZZZZZZZZZZZZZZZZZZZFFFFFFFFFFFFFFFFFFFF",
"FFFFFFFFFFFFFFFFFFFFZZZZZZZZZZZZZZZZZZZZFFFFFFFFFFFFFFFFFFFFZZZZZZZZZZZZZZZZZZZZFFFFFFFFFFFFFFFFFFFFZZZZZZZZZZZZZZZZZZZZFFFFFFFFFFFFFFFFFFFFZZZZZZZZZZZZZZZZZZZZFFFFFFFFFFFFFFFFFFFFZZZZZZZZZZZZZZZZZZZZFFFFFFFFFFFFFFFFFFFFZZZZZZZZZZZZZZZZZZZZFFFFFFFFFFFFFFFFFFFFZZZZZZZZZZZZZZZZZZZZFFFFFFFFFFFFFFFFFFFFZZZZZZZZZZZZZZZZZZZZFFFFFFFFFFFFFFFFFFFFZZZZZZZZZZZZZZZZZZZZFFFFFFFFFFFFFFFFFFFFZZZZZZZZZZZZZZZZZZZZFFFFFFFFFFFFFFFFFFFFZZZZZZZZZZZZZZZZZZZZFFFFFFFFFFFFFFFFFFFFZZZZZZZZZZZZZZZZZZZZFFFFFFFFFFFFFFFFFFFFZZZZZZZZZZZZZZZZZZZZFFFFFFFFFFFFFFFFFFFFZZZZZZZZZZZZZZZZZZZZFFFFFFFFFFFFFFFFFFFFZZZZZZZZZZZZZZZZZZZZFFFFFFFFFFFFFFFFFFFFZZZZZZZZZZZZZZZZZZZZFFFFFFFFFFFFFFFFFFFFZZZZZZZZZZZZZZZZZZZZFFFFFFFFFFFFFFFFFFFFZZZZZZZZZZZZZZZZZZZZFFFFFFFFFFFFFFFFFFFFZZZZZZZZZZZZZZZZZZZZFFFFFFFFFFFFFFFFFFFFZZZZZZZZZZZZZZZZZZZZFFFFFFFFFFFFFFFFFFFFZZZZZZZZZZZZZZZZZZZZFFFFFFFFFFFFFFFFFFFF",
"FFFFFFFFFFFFFFFFFFFFZZZZZZZZZZZZZZZZZZZZFFFFFFFFFFFFFFFFFFFFZZZZZZZZZZZZZZZZZZZZFFFFFFFFFFFFFFFFFFFFZZZZZZZZZZZZZZZZZZZZFFFFFFFFFFFFFFFFFFFFZZZZZZZZZZZZZZZZZZZZFFFFFFFFFFFFFFFFFFFFZZZZZZZZZZZZZZZZZZZZFFFFFFFFFFFFFFFFFFFFZZZZZZZZZZZZZZZZZZZZFFFFFFFFFFFFFFFFFFFFZZZZZZZZZZZZZZZZZZZZFFFFFFFFFFFFFFFFFFFFZZZZZZZZZZZZZZZZZZZZFFFFFFFFFFFFFFFFFFFFZZZZZZZZZZZZZZZZZZZZFFFFFFFFFFFFFFFFFFFFZZZZZZZZZZZZZZZZZZZZFFFFFFFFFFFFFFFFFFFFZZZZZZZZZZZZZZZZZZZZFFFFFFFFFFFFFFFFFFFFZZZZZZZZZZZZZZZZZZZZFFFFFFFFFFFFFFFFFFFFZZZZZZZZZZZZZZZZZZZZFFFFFFFFFFFFFFFFFFFFZZZZZZZZZZZZZZZZZZZZFFFFFFFFFFFFFFFFFFFFZZZZZZZZZZZZZZZZZZZZFFFFFFFFFFFFFFFFFFFFZZZZZZZZZZZZZZZZZZZZFFFFFFFFFFFFFFFFFFFFZZZZZZZZZZZZZZZZZZZZFFFFFFFFFFFFFFFFFFFFZZZZZZZZZZZZZZZZZZZZFFFFFFFFFFFFFFFFFFFFZZZZZZZZZZZZZZZZZZZZFFFFFFFFFFFFFFFFFFFFZZZZZZZZZZZZZZZZZZZZFFFFFFFFFFFFFFFFFFFFZZZZZZZZZZZZZZZZZZZZFFFFFFFFFFFFFFFFFFFF",
"FFFFFFFFFFFFFFFFFFFFZZZZZZZZZZZZZZZZZZZZFFFFFFFFFFFFFFFFFFFFZZZZZZZZZZZZZZZZZZZZFFFFFFFFFFFFFFFFFFFFZZZZZZZZZZZZZZZZZZZZFFFFFFFFFFFFFFFFFFFFZZZZZZZZZZZZZZZZZZZZFFFFFFFFFFFFFFFFFFFFZZZZZZZZZZZZZZZZZZZZFFFFFFFFFFFFFFFFFFFFZZZZZZZZZZZZZZZZZZZZFFFFFFFFFFFFFFFFFFFFZZZZZZZZZZZZZZZZZZZZFFFFFFFFFFFFFFFFFFFFZZZZZZZZZZZZZZZZZZZZFFFFFFFFFFFFFFFFFFFFZZZZZZZZZZZZZZZZZZZZFFFFFFFFFFFFFFFFFFFFZZZZZZZZZZZZZZZZZZZZFFFFFFFFFFFFFFFFFFFFZZZZZZZZZZZZZZZZZZZZFFFFFFFFFFFFFFFFFFFFZZZZZZZZZZZZZZZZZZZZFFFFFFFFFFFFFFFFFFFFZZZZZZZZZZZZZZZZZZZZFFFFFFFFFFFFFFFFFFFFZZZZZZZZZZZZZZZZZZZZFFFFFFFFFFFFFFFFFFFFZZZZZZZZZZZZZZZZZZZZFFFFFFFFFFFFFFFFFFFFZZZZZZZZZZZZZZZZZZZZFFFFFFFFFFFFFFFFFFFFZZZZZZZZZZZZZZZZZZZZFFFFFFFFFFFFFFFFFFFFZZZZZZZZZZZZZZZZZZZZFFFFFFFFFFFFFFFFFFFFZZZZZZZZZZZZZZZZZZZZFFFFFFFFFFFFFFFFFFFFZZZZZZZZZZZZZZZZZZZZFFFFFFFFFFFFFFFFFFFFZZZZZZZZZZZZZZZZZZZZFFFFFFFFFFFFFFFFFFFF",
"FFFFFFFFFFFFFFFFFFFFZZZZZZZZZZZZZZZZZZZZFFFFFFFFFFFFFFFFFFFFZZZZZZZZZZZZZZZZZZZZFFFFFFFFFFFFFFFFFFFFZZZZZZZZZZZZZZZZZZZZFFFFFFFFFFFFFFFFFFFFZZZZZZZZZZZZZZZZZZZZFFFFFFFFFFFFFFFFFFFFZZZZZZZZZZZZZZZZZZZZFFFFFFFFFFFFFFFFFFFFZZZZZZZZZZZZZZZZZZZZFFFFFFFFFFFFFFFFFFFFZZZZZZZZZZZZZZZZZZZZFFFFFFFFFFFFFFFFFFFFZZZZZZZZZZZZZZZZZZZZFFFFFFFFFFFFFFFFFFFFZZZZZZZZZZZZZZZZZZZZFFFFFFFFFFFFFFFFFFFFZZZZZZZZZZZZZZZZZZZZFFFFFFFFFFFFFFFFFFFFZZZZZZZZZZZZZZZZZZZZFFFFFFFFFFFFFFFFFFFFZZZZZZZZZZZZZZZZZZZZFFFFFFFFFFFFFFFFFFFFZZZZZZZZZZZZZZZZZZZZFFFFFFFFFFFFFFFFFFFFZZZZZZZZZZZZZZZZZZZZFFFFFFFFFFFFFFFFFFFFZZZZZZZZZZZZZZZZZZZZFFFFFFFFFFFFFFFFFFFFZZZZZZZZZZZZZZZZZZZZFFFFFFFFFFFFFFFFFFFFZZZZZZZZZZZZZZZZZZZZFFFFFFFFFFFFFFFFFFFFZZZZZZZZZZZZZZZZZZZZFFFFFFFFFFFFFFFFFFFFZZZZZZZZZZZZZZZZZZZZFFFFFFFFFFFFFFFFFFFFZZZZZZZZZZZZZZZZZZZZFFFFFFFFFFFFFFFFFFFFZZZZZZZZZZZZZZZZZZZZFFFFFFFFFFFFFFFFFFFF",
"FFFFFFFFFFFFFFFFFFFFZZZZZZZZZZZZZZZZZZZZFFFFFFFFFFFFFFFFFFFFZZZZZZZZZZZZZZZZZZZZFFFFFFFFFFFFFFFFFFFFZZZZZZZZZZZZZZZZZZZZFFFFFFFFFFFFFFFFFFFFZZZZZZZZZZZZZZZZZZZZFFFFFFFFFFFFFFFFFFFFZZZZZZZZZZZZZZZZZZZZFFFFFFFFFFFFFFFFFFFFZZZZZZZZZZZZZZZZZZZZFFFFFFFFFFFFFFFFFFFFZZZZZZZZZZZZZZZZZZZZFFFFFFFFFFFFFFFFFFFFZZZZZZZZZZZZZZZZZZZZFFFFFFFFFFFFFFFFFFFFZZZZZZZZZZZZZZZZZZZZFFFFFFFFFFFFFFFFFFFFZZZZZZZZZZZZZZZZZZZZFFFFFFFFFFFFFFFFFFFFZZZZZZZZZZZZZZZZZZZZFFFFFFFFFFFFFFFFFFFFZZZZZZZZZZZZZZZZZZZZFFFFFFFFFFFFFFFFFFFFZZZZZZZZZZZZZZZZZZZZFFFFFFFFFFFFFFFFFFFFZZZZZZZZZZZZZZZZZZZZFFFFFFFFFFFFFFFFFFFFZZZZZZZZZZZZZZZZZZZZFFFFFFFFFFFFFFFFFFFFZZZZZZZZZZZZZZZZZZZZFFFFFFFFFFFFFFFFFFFFZZZZZZZZZZZZZZZZZZZZFFFFFFFFFFFFFFFFFFFFZZZZZZZZZZZZZZZZZZZZFFFFFFFFFFFFFFFFFFFFZZZZZZZZZZZZZZZZZZZZFFFFFFFFFFFFFFFFFFFFZZZZZZZZZZZZZZZZZZZZFFFFFFFFFFFFFFFFFFFFZZZZZZZZZZZZZZZZZZZZFFFFFFFFFFFFFFFFFFFF",
"FFFFFFFFFFFFFFFFFFFFZZZZZZZZZZZZZZZZZZZZFFFFFFFFFFFFFFFFFFFFZZZZZZZZZZZZZZZZZZZZFFFFFFFFFFFFFFFFFFFFZZZZZZZZZZZZZZZZZZZZFFFFFFFFFFFFFFFFFFFFZZZZZZZZZZZZZZZZZZZZFFFFFFFFFFFFFFFFFFFFZZZZZZZZZZZZZZZZZZZZFFFFFFFFFFFFFFFFFFFFZZZZZZZZZZZZZZZZZZZZFFFFFFFFFFFFFFFFFFFFZZZZZZZZZZZZZZZZZZZZFFFFFFFFFFFFFFFFFFFFZZZZZZZZZZZZZZZZZZZZFFFFFFFFFFFFFFFFFFFFZZZZZZZZZZZZZZZZZZZZFFFFFFFFFFFFFFFFFFFFZZZZZZZZZZZZZZZZZZZZFFFFFFFFFFFFFFFFFFFFZZZZZZZZZZZZZZZZZZZZFFFFFFFFFFFFFFFFFFFFZZZZZZZZZZZZZZZZZZZZFFFFFFFFFFFFFFFFFFFFZZZZZZZZZZZZZZZZZZZZFFFFFFFFFFFFFFFFFFFFZZZZZZZZZZZZZZZZZZZZFFFFFFFFFFFFFFFFFFFFZZZZZZZZZZZZZZZZZZZZFFFFFFFFFFFFFFFFFFFFZZZZZZZZZZZZZZZZZZZZFFFFFFFFFFFFFFFFFFFFZZZZZZZZZZZZZZZZZZZZFFFFFFFFFFFFFFFFFFFFZZZZZZZZZZZZZZZZZZZZFFFFFFFFFFFFFFFFFFFFZZZZZZZZZZZZZZZZZZZZFFFFFFFFFFFFFFFFFFFFZZZZZZZZZZZZZZZZZZZZFFFFFFFFFFFFFFFFFFFFZZZZZZZZZZZZZZZZZZZZFFFFFFFFFFFFFFFFFFFF",
"FFFFFFFFFFFFFFFFFFFFZZZZZZZZZZZZZZZZZZZZFFFFFFFFFFFFFFFFFFFFZZZZZZZZZZZZZZZZZZZZFFFFFFFFFFFFFFFFFFFFZZZZZZZZZZZZZZZZZZZZFFFFFFFFFFFFFFFFFFFFZZZZZZZZZZZZZZZZZZZZFFFFFFFFFFFFFFFFFFFFZZZZZZZZZZZZZZZZZZZZFFFFFFFFFFFFFFFFFFFFZZZZZZZZZZZZZZZZZZZZFFFFFFFFFFFFFFFFFFFFZZZZZZZZZZZZZZZZZZZZFFFFFFFFFFFFFFFFFFFFZZZZZZZZZZZZZZZZZZZZFFFFFFFFFFFFFFFFFFFFZZZZZZZZZZZZZZZZZZZZFFFFFFFFFFFFFFFFFFFFZZZZZZZZZZZZZZZZZZZZFFFFFFFFFFFFFFFFFFFFZZZZZZZZZZZZZZZZZZZZFFFFFFFFFFFFFFFFFFFFZZZZZZZZZZZZZZZZZZZZFFFFFFFFFFFFFFFFFFFFZZZZZZZZZZZZZZZZZZZZFFFFFFFFFFFFFFFFFFFFZZZZZZZZZZZZZZZZZZZZFFFFFFFFFFFFFFFFFFFFZZZZZZZZZZZZZZZZZZZZFFFFFFFFFFFFFFFFFFFFZZZZZZZZZZZZZZZZZZZZFFFFFFFFFFFFFFFFFFFFZZZZZZZZZZZZZZZZZZZZFFFFFFFFFFFFFFFFFFFFZZZZZZZZZZZZZZZZZZZZFFFFFFFFFFFFFFFFFFFFZZZZZZZZZZZZZZZZZZZZFFFFFFFFFFFFFFFFFFFFZZZZZZZZZZZZZZZZZZZZFFFFFFFFFFFFFFFFFFFFZZZZZZZZZZZZZZZZZZZZFFFFFFFFFFFFFFFFFFFF",
"FFFFFFFFFFFFFFFFFFFFZZZZZZZZZZZZZZZZZZZZFFFFFFFFFFFFFFFFFFFFZZZZZZZZZZZZZZZZZZZZFFFFFFFFFFFFFFFFFFFFZZZZZZZZZZZZZZZZZZZZFFFFFFFFFFFFFFFFFFFFZZZZZZZZZZZZZZZZZZZZFFFFFFFFFFFFFFFFFFFFZZZZZZZZZZZZZZZZZZZZFFFFFFFFFFFFFFFFFFFFZZZZZZZZZZZZZZZZZZZZFFFFFFFFFFFFFFFFFFFFZZZZZZZZZZZZZZZZZZZZFFFFFFFFFFFFFFFFFFFFZZZZZZZZZZZZZZZZZZZZFFFFFFFFFFFFFFFFFFFFZZZZZZZZZZZZZZZZZZZZFFFFFFFFFFFFFFFFFFFFZZZZZZZZZZZZZZZZZZZZFFFFFFFFFFFFFFFFFFFFZZZZZZZZZZZZZZZZZZZZFFFFFFFFFFFFFFFFFFFFZZZZZZZZZZZZZZZZZZZZFFFFFFFFFFFFFFFFFFFFZZZZZZZZZZZZZZZZZZZZFFFFFFFFFFFFFFFFFFFFZZZZZZZZZZZZZZZZZZZZFFFFFFFFFFFFFFFFFFFFZZZZZZZZZZZZZZZZZZZZFFFFFFFFFFFFFFFFFFFFZZZZZZZZZZZZZZZZZZZZFFFFFFFFFFFFFFFFFFFFZZZZZZZZZZZZZZZZZZZZFFFFFFFFFFFFFFFFFFFFZZZZZZZZZZZZZZZZZZZZFFFFFFFFFFFFFFFFFFFFZZZZZZZZZZZZZZZZZZZZFFFFFFFFFFFFFFFFFFFFZZZZZZZZZZZZZZZZZZZZFFFFFFFFFFFFFFFFFFFFZZZZZZZZZZZZZZZZZZZZFFFFFFFFFFFFFFFFFFFF",
"FFFFFFFFFFFFFFFFFFFFZZZZZZZZZZZZZZZZZZZZFFFFFFFFFFFFFFFFFFFFZZZZZZZZZZZZZZZZZZZZFFFFFFFFFFFFFFFFFFFFZZZZZZZZZZZZZZZZZZZZFFFFFFFFFFFFFFFFFFFFZZZZZZZZZZZZZZZZZZZZFFFFFFFFFFFFFFFFFFFFZZZZZZZZZZZZZZZZZZZZFFFFFFFFFFFFFFFFFFFFZZZZZZZZZZZZZZZZZZZZFFFFFFFFFFFFFFFFFFFFZZZZZZZZZZZZZZZZZZZZFFFFFFFFFFFFFFFFFFFFZZZZZZZZZZZZZZZZZZZZFFFFFFFFFFFFFFFFFFFFZZZZZZZZZZZZZZZZZZZZFFFFFFFFFFFFFFFFFFFFZZZZZZZZZZZZZZZZZZZZFFFFFFFFFFFFFFFFFFFFZZZZZZZZZZZZZZZZZZZZFFFFFFFFFFFFFFFFFFFFZZZZZZZZZZZZZZZZZZZZFFFFFFFFFFFFFFFFFFFFZZZZZZZZZZZZZZZZZZZZFFFFFFFFFFFFFFFFFFFFZZZZZZZZZZZZZZZZZZZZFFFFFFFFFFFFFFFFFFFFZZZZZZZZZZZZZZZZZZZZFFFFFFFFFFFFFFFFFFFFZZZZZZZZZZZZZZZZZZZZFFFFFFFFFFFFFFFFFFFFZZZZZZZZZZZZZZZZZZZZFFFFFFFFFFFFFFFFFFFFZZZZZZZZZZZZZZZZZZZZFFFFFFFFFFFFFFFFFFFFZZZZZZZZZZZZZZZZZZZZFFFFFFFFFFFFFFFFFFFFZZZZZZZZZZZZZZZZZZZZFFFFFFFFFFFFFFFFFFFFZZZZZZZZZZZZZZZZZZZZFFFFFFFFFFFFFFFFFFFF",
"FFFFFFFFFFFFFFFFFFFFZZZZZZZZZZZZZZZZZZZZFFFFFFFFFFFFFFFFFFFFZZZZZZZZZZZZZZZZZZZZFFFFFFFFFFFFFFFFFFFFZZZZZZZZZZZZZZZZZZZZFFFFFFFFFFFFFFFFFFFFZZZZZZZZZZZZZZZZZZZZFFFFFFFFFFFFFFFFFFFFZZZZZZZZZZZZZZZZZZZZFFFFFFFFFFFFFFFFFFFFZZZZZZZZZZZZZZZZZZZZFFFFFFFFFFFFFFFFFFFFZZZZZZZZZZZZZZZZZZZZFFFFFFFFFFFFFFFFFFFFZZZZZZZZZZZZZZZZZZZZFFFFFFFFFFFFFFFFFFFFZZZZZZZZZZZZZZZZZZZZFFFFFFFFFFFFFFFFFFFFZZZZZZZZZZZZZZZZZZZZFFFFFFFFFFFFFFFFFFFFZZZZZZZZZZZZZZZZZZZZFFFFFFFFFFFFFFFFFFFFZZZZZZZZZZZZZZZZZZZZFFFFFFFFFFFFFFFFFFFFZZZZZZZZZZZZZZZZZZZZFFFFFFFFFFFFFFFFFFFFZZZZZZZZZZZZZZZZZZZZFFFFFFFFFFFFFFFFFFFFZZZZZZZZZZZZZZZZZZZZFFFFFFFFFFFFFFFFFFFFZZZZZZZZZZZZZZZZZZZZFFFFFFFFFFFFFFFFFFFFZZZZZZZZZZZZZZZZZZZZFFFFFFFFFFFFFFFFFFFFZZZZZZZZZZZZZZZZZZZZFFFFFFFFFFFFFFFFFFFFZZZZZZZZZZZZZZZZZZZZFFFFFFFFFFFFFFFFFFFFZZZZZZZZZZZZZZZZZZZZFFFFFFFFFFFFFFFFFFFFZZZZZZZZZZZZZZZZZZZZFFFFFFFFFFFFFFFFFFFF",
"ZZZZZZZZZZZZZZZZZZZZFFFFFFFFFFFFFFFFFFFFZZZZZZZZZZZZZZZZZZZZFFFFFFFFFFFFFFFFFFFFZZZZZZZZZZZZZZZZZZZZFFFFFFFFFFFFFFFFFFFFZZZZZZZZZZZZZZZZZZZZFFFFFFFFFFFFFFFFFFFFZZZZZZZZZZZZZZZZZZZZFFFFFFFFFFFFFFFFFFFFZZZZZZZZZZZZZZZZZZZZFFFFFFFFFFFFFFFFFFFFZZZZZZZZZZZZZZZZZZZZFFFFFFFFFFFFFFFFFFFFZZZZZZZZZZZZZZZZZZZZFFFFFFFFFFFFFFFFFFFFZZZZZZZZZZZZZZZZZZZZFFFFFFFFFFFFFFFFFFFFZZZZZZZZZZZZZZZZZZZZFFFFFFFFFFFFFFFFFFFFZZZZZZZZZZZZZZZZZZZZFFFFFFFFFFFFFFFFFFFFZZZZZZZZZZZZZZZZZZZZFFFFFFFFFFFFFFFFFFFFZZZZZZZZZZZZZZZZZZZZFFFFFFFFFFFFFFFFFFFFZZZZZZZZZZZZZZZZZZZZFFFFFFFFFFFFFFFFFFFFZZZZZZZZZZZZZZZZZZZZFFFFFFFFFFFFFFFFFFFFZZZZZZZZZZZZZZZZZZZZFFFFFFFFFFFFFFFFFFFFZZZZZZZZZZZZZZZZZZZZFFFFFFFFFFFFFFFFFFFFZZZZZZZZZZZZZZZZZZZZFFFFFFFFFFFFFFFFFFFFZZZZZZZZZZZZZZZZZZZZFFFFFFFFFFFFFFFFFFFFZZZZZZZZZZZZZZZZZZZZFFFFFFFFFFFFFFFFFFFFZZZZZZZZZZZZZZZZZZZZFFFFFFFFFFFFFFFFFFFFZZZZZZZZZZZZZZZZZZZZ",
"ZZZZZZZZZZZZZZZZZZZZFFFFFFFFFFFFFFFFFFFFZZZZZZZZZZZZZZZZZZZZFFFFFFFFFFFFFFFFFFFFZZZZZZZZZZZZZZZZZZZZFFFFFFFFFFFFFFFFFFFFZZZZZZZZZZZZZZZZZZZZFFFFFFFFFFFFFFFFFFFFZZZZZZZZZZZZZZZZZZZZFFFFFFFFFFFFFFFFFFFFZZZZZZZZZZZZZZZZZZZZFFFFFFFFFFFFFFFFFFFFZZZZZZZZZZZZZZZZZZZZFFFFFFFFFFFFFFFFFFFFZZZZZZZZZZZZZZZZZZZZFFFFFFFFFFFFFFFFFFFFZZZZZZZZZZZZZZZZZZZZFFFFFFFFFFFFFFFFFFFFZZZZZZZZZZZZZZZZZZZZFFFFFFFFFFFFFFFFFFFFZZZZZZZZZZZZZZZZZZZZFFFFFFFFFFFFFFFFFFFFZZZZZZZZZZZZZZZZZZZZFFFFFFFFFFFFFFFFFFFFZZZZZZZZZZZZZZZZZZZZFFFFFFFFFFFFFFFFFFFFZZZZZZZZZZZZZZZZZZZZFFFFFFFFFFFFFFFFFFFFZZZZZZZZZZZZZZZZZZZZFFFFFFFFFFFFFFFFFFFFZZZZZZZZZZZZZZZZZZZZFFFFFFFFFFFFFFFFFFFFZZZZZZZZZZZZZZZZZZZZFFFFFFFFFFFFFFFFFFFFZZZZZZZZZZZZZZZZZZZZFFFFFFFFFFFFFFFFFFFFZZZZZZZZZZZZZZZZZZZZFFFFFFFFFFFFFFFFFFFFZZZZZZZZZZZZZZZZZZZZFFFFFFFFFFFFFFFFFFFFZZZZZZZZZZZZZZZZZZZZFFFFFFFFFFFFFFFFFFFFZZZZZZZZZZZZZZZZZZZZ",
"ZZZZZZZZZZZZZZZZZZZZFFFFFFFFFFFFFFFFFFFFZZZZZZZZZZZZZZZZZZZZFFFFFFFFFFFFFFFFFFFFZZZZZZZZZZZZZZZZZZZZFFFFFFFFFFFFFFFFFFFFZZZZZZZZZZZZZZZZZZZZFFFFFFFFFFFFFFFFFFFFZZZZZZZZZZZZZZZZZZZZFFFFFFFFFFFFFFFFFFFFZZZZZZZZZZZZZZZZZZZZFFFFFFFFFFFFFFFFFFFFZZZZZZZZZZZZZZZZZZZZFFFFFFFFFFFFFFFFFFFFZZZZZZZZZZZZZZZZZZZZFFFFFFFFFFFFFFFFFFFFZZZZZZZZZZZZZZZZZZZZFFFFFFFFFFFFFFFFFFFFZZZZZZZZZZZZZZZZZZZZFFFFFFFFFFFFFFFFFFFFZZZZZZZZZZZZZZZZZZZZFFFFFFFFFFFFFFFFFFFFZZZZZZZZZZZZZZZZZZZZFFFFFFFFFFFFFFFFFFFFZZZZZZZZZZZZZZZZZZZZFFFFFFFFFFFFFFFFFFFFZZZZZZZZZZZZZZZZZZZZFFFFFFFFFFFFFFFFFFFFZZZZZZZZZZZZZZZZZZZZFFFFFFFFFFFFFFFFFFFFZZZZZZZZZZZZZZZZZZZZFFFFFFFFFFFFFFFFFFFFZZZZZZZZZZZZZZZZZZZZFFFFFFFFFFFFFFFFFFFFZZZZZZZZZZZZZZZZZZZZFFFFFFFFFFFFFFFFFFFFZZZZZZZZZZZZZZZZZZZZFFFFFFFFFFFFFFFFFFFFZZZZZZZZZZZZZZZZZZZZFFFFFFFFFFFFFFFFFFFFZZZZZZZZZZZZZZZZZZZZFFFFFFFFFFFFFFFFFFFFZZZZZZZZZZZZZZZZZZZZ",
"ZZZZZZZZZZZZZZZZZZZZFFFFFFFFFFFFFFFFFFFFZZZZZZZZZZZZZZZZZZZZFFFFFFFFFFFFFFFFFFFFZZZZZZZZZZZZZZZZZZZZFFFFFFFFFFFFFFFFFFFFZZZZZZZZZZZZZZZZZZZZFFFFFFFFFFFFFFFFFFFFZZZZZZZZZZZZZZZZZZZZFFFFFFFFFFFFFFFFFFFFZZZZZZZZZZZZZZZZZZZZFFFFFFFFFFFFFFFFFFFFZZZZZZZZZZZZZZZZZZZZFFFFFFFFFFFFFFFFFFFFZZZZZZZZZZZZZZZZZZZZFFFFFFFFFFFFFFFFFFFFZZZZZZZZZZZZZZZZZZZZFFFFFFFFFFFFFFFFFFFFZZZZZZZZZZZZZZZZZZZZFFFFFFFFFFFFFFFFFFFFZZZZZZZZZZZZZZZZZZZZFFFFFFFFFFFFFFFFFFFFZZZZZZZZZZZZZZZZZZZZFFFFFFFFFFFFFFFFFFFFZZZZZZZZZZZZZZZZZZZZFFFFFFFFFFFFFFFFFFFFZZZZZZZZZZZZZZZZZZZZFFFFFFFFFFFFFFFFFFFFZZZZZZZZZZZZZZZZZZZZFFFFFFFFFFFFFFFFFFFFZZZZZZZZZZZZZZZZZZZZFFFFFFFFFFFFFFFFFFFFZZZZZZZZZZZZZZZZZZZZFFFFFFFFFFFFFFFFFFFFZZZZZZZZZZZZZZZZZZZZFFFFFFFFFFFFFFFFFFFFZZZZZZZZZZZZZZZZZZZZFFFFFFFFFFFFFFFFFFFFZZZZZZZZZZZZZZZZZZZZFFFFFFFFFFFFFFFFFFFFZZZZZZZZZZZZZZZZZZZZFFFFFFFFFFFFFFFFFFFFZZZZZZZZZZZZZZZZZZZZ",
"ZZZZZZZZZZZZZZZZZZZZFFFFFFFFFFFFFFFFFFFFZZZZZZZZZZZZZZZZZZZZFFFFFFFFFFFFFFFFFFFFZZZZZZZZZZZZZZZZZZZZFFFFFFFFFFFFFFFFFFFFZZZZZZZZZZZZZZZZZZZZFFFFFFFFFFFFFFFFFFFFZZZZZZZZZZZZZZZZZZZZFFFFFFFFFFFFFFFFFFFFZZZZZZZZZZZZZZZZZZZZFFFFFFFFFFFFFFFFFFFFZZZZZZZZZZZZZZZZZZZZFFFFFFFFFFFFFFFFFFFFZZZZZZZZZZZZZZZZZZZZFFFFFFFFFFFFFFFFFFFFZZZZZZZZZZZZZZZZZZZZFFFFFFFFFFFFFFFFFFFFZZZZZZZZZZZZZZZZZZZZFFFFFFFFFFFFFFFFFFFFZZZZZZZZZZZZZZZZZZZZFFFFFFFFFFFFFFFFFFFFZZZZZZZZZZZZZZZZZZZZFFFFFFFFFFFFFFFFFFFFZZZZZZZZZZZZZZZZZZZZFFFFFFFFFFFFFFFFFFFFZZZZZZZZZZZZZZZZZZZZFFFFFFFFFFFFFFFFFFFFZZZZZZZZZZZZZZZZZZZZFFFFFFFFFFFFFFFFFFFFZZZZZZZZZZZZZZZZZZZZFFFFFFFFFFFFFFFFFFFFZZZZZZZZZZZZZZZZZZZZFFFFFFFFFFFFFFFFFFFFZZZZZZZZZZZZZZZZZZZZFFFFFFFFFFFFFFFFFFFFZZZZZZZZZZZZZZZZZZZZFFFFFFFFFFFFFFFFFFFFZZZZZZZZZZZZZZZZZZZZFFFFFFFFFFFFFFFFFFFFZZZZZZZZZZZZZZZZZZZZFFFFFFFFFFFFFFFFFFFFZZZZZZZZZZZZZZZZZZZZ",
"ZZZZZZZZZZZZZZZZZZZZFFFFFFFFFFFFFFFFFFFFZZZZZZZZZZZZZZZZZZZZFFFFFFFFFFFFFFFFFFFFZZZZZZZZZZZZZZZZZZZZFFFFFFFFFFFFFFFFFFFFZZZZZZZZZZZZZZZZZZZZFFFFFFFFFFFFFFFFFFFFZZZZZZZZZZZZZZZZZZZZFFFFFFFFFFFFFFFFFFFFZZZZZZZZZZZZZZZZZZZZFFFFFFFFFFFFFFFFFFFFZZZZZZZZZZZZZZZZZZZZFFFFFFFFFFFFFFFFFFFFZZZZZZZZZZZZZZZZZZZZFFFFFFFFFFFFFFFFFFFFZZZZZZZZZZZZZZZZZZZZFFFFFFFFFFFFFFFFFFFFZZZZZZZZZZZZZZZZZZZZFFFFFFFFFFFFFFFFFFFFZZZZZZZZZZZZZZZZZZZZFFFFFFFFFFFFFFFFFFFFZZZZZZZZZZZZZZZZZZZZFFFFFFFFFFFFFFFFFFFFZZZZZZZZZZZZZZZZZZZZFFFFFFFFFFFFFFFFFFFFZZZZZZZZZZZZZZZZZZZZFFFFFFFFFFFFFFFFFFFFZZZZZZZZZZZZZZZZZZZZFFFFFFFFFFFFFFFFFFFFZZZZZZZZZZZZZZZZZZZZFFFFFFFFFFFFFFFFFFFFZZZZZZZZZZZZZZZZZZZZFFFFFFFFFFFFFFFFFFFFZZZZZZZZZZZZZZZZZZZZFFFFFFFFFFFFFFFFFFFFZZZZZZZZZZZZZZZZZZZZFFFFFFFFFFFFFFFFFFFFZZZZZZZZZZZZZZZZZZZZFFFFFFFFFFFFFFFFFFFFZZZZZZZZZZZZZZZZZZZZFFFFFFFFFFFFFFFFFFFFZZZZZZZZZZZZZZZZZZZZ",
"ZZZZZZZZZZZZZZZZZZZZFFFFFFFFFFFFFFFFFFFFZZZZZZZZZZZZZZZZZZZZFFFFFFFFFFFFFFFFFFFFZZZZZZZZZZZZZZZZZZZZFFFFFFFFFFFFFFFFFFFFZZZZZZZZZZZZZZZZZZZZFFFFFFFFFFFFFFFFFFFFZZZZZZZZZZZZZZZZZZZZFFFFFFFFFFFFFFFFFFFFZZZZZZZZZZZZZZZZZZZZFFFFFFFFFFFFFFFFFFFFZZZZZZZZZZZZZZZZZZZZFFFFFFFFFFFFFFFFFFFFZZZZZZZZZZZZZZZZZZZZFFFFFFFFFFFFFFFFFFFFZZZZZZZZZZZZZZZZZZZZFFFFFFFFFFFFFFFFFFFFZZZZZZZZZZZZZZZZZZZZFFFFFFFFFFFFFFFFFFFFZZZZZZZZZZZZZZZZZZZZFFFFFFFFFFFFFFFFFFFFZZZZZZZZZZZZZZZZZZZZFFFFFFFFFFFFFFFFFFFFZZZZZZZZZZZZZZZZZZZZFFFFFFFFFFFFFFFFFFFFZZZZZZZZZZZZZZZZZZZZFFFFFFFFFFFFFFFFFFFFZZZZZZZZZZZZZZZZZZZZFFFFFFFFFFFFFFFFFFFFZZZZZZZZZZZZZZZZZZZZFFFFFFFFFFFFFFFFFFFFZZZZZZZZZZZZZZZZZZZZFFFFFFFFFFFFFFFFFFFFZZZZZZZZZZZZZZZZZZZZFFFFFFFFFFFFFFFFFFFFZZZZZZZZZZZZZZZZZZZZFFFFFFFFFFFFFFFFFFFFZZZZZZZZZZZZZZZZZZZZFFFFFFFFFFFFFFFFFFFFZZZZZZZZZZZZZZZZZZZZFFFFFFFFFFFFFFFFFFFFZZZZZZZZZZZZZZZZZZZZ",
"ZZZZZZZZZZZZZZZZZZZZFFFFFFFFFFFFFFFFFFFFZZZZZZZZZZZZZZZZZZZZFFFFFFFFFFFFFFFFFFFFZZZZZZZZZZZZZZZZZZZZFFFFFFFFFFFFFFFFFFFFZZZZZZZZZZZZZZZZZZZZFFFFFFFFFFFFFFFFFFFFZZZZZZZZZZZZZZZZZZZZFFFFFFFFFFFFFFFFFFFFZZZZZZZZZZZZZZZZZZZZFFFFFFFFFFFFFFFFFFFFZZZZZZZZZZZZZZZZZZZZFFFFFFFFFFFFFFFFFFFFZZZZZZZZZZZZZZZZZZZZFFFFFFFFFFFFFFFFFFFFZZZZZZZZZZZZZZZZZZZZFFFFFFFFFFFFFFFFFFFFZZZZZZZZZZZZZZZZZZZZFFFFFFFFFFFFFFFFFFFFZZZZZZZZZZZZZZZZZZZZFFFFFFFFFFFFFFFFFFFFZZZZZZZZZZZZZZZZZZZZFFFFFFFFFFFFFFFFFFFFZZZZZZZZZZZZZZZZZZZZFFFFFFFFFFFFFFFFFFFFZZZZZZZZZZZZZZZZZZZZFFFFFFFFFFFFFFFFFFFFZZZZZZZZZZZZZZZZZZZZFFFFFFFFFFFFFFFFFFFFZZZZZZZZZZZZZZZZZZZZFFFFFFFFFFFFFFFFFFFFZZZZZZZZZZZZZZZZZZZZFFFFFFFFFFFFFFFFFFFFZZZZZZZZZZZZZZZZZZZZFFFFFFFFFFFFFFFFFFFFZZZZZZZZZZZZZZZZZZZZFFFFFFFFFFFFFFFFFFFFZZZZZZZZZZZZZZZZZZZZFFFFFFFFFFFFFFFFFFFFZZZZZZZZZZZZZZZZZZZZFFFFFFFFFFFFFFFFFFFFZZZZZZZZZZZZZZZZZZZZ",
"ZZZZZZZZZZZZZZZZZZZZFFFFFFFFFFFFFFFFFFFFZZZZZZZZZZZZZZZZZZZZFFFFFFFFFFFFFFFFFFFFZZZZZZZZZZZZZZZZZZZZFFFFFFFFFFFFFFFFFFFFZZZZZZZZZZZZZZZZZZZZFFFFFFFFFFFFFFFFFFFFZZZZZZZZZZZZZZZZZZZZFFFFFFFFFFFFFFFFFFFFZZZZZZZZZZZZZZZZZZZZFFFFFFFFFFFFFFFFFFFFZZZZZZZZZZZZZZZZZZZZFFFFFFFFFFFFFFFFFFFFZZZZZZZZZZZZZZZZZZZZFFFFFFFFFFFFFFFFFFFFZZZZZZZZZZZZZZZZZZZZFFFFFFFFFFFFFFFFFFFFZZZZZZZZZZZZZZZZZZZZFFFFFFFFFFFFFFFFFFFFZZZZZZZZZZZZZZZZZZZZFFFFFFFFFFFFFFFFFFFFZZZZZZZZZZZZZZZZZZZZFFFFFFFFFFFFFFFFFFFFZZZZZZZZZZZZZZZZZZZZFFFFFFFFFFFFFFFFFFFFZZZZZZZZZZZZZZZZZZZZFFFFFFFFFFFFFFFFFFFFZZZZZZZZZZZZZZZZZZZZFFFFFFFFFFFFFFFFFFFFZZZZZZZZZZZZZZZZZZZZFFFFFFFFFFFFFFFFFFFFZZZZZZZZZZZZZZZZZZZZFFFFFFFFFFFFFFFFFFFFZZZZZZZZZZZZZZZZZZZZFFFFFFFFFFFFFFFFFFFFZZZZZZZZZZZZZZZZZZZZFFFFFFFFFFFFFFFFFFFFZZZZZZZZZZZZZZZZZZZZFFFFFFFFFFFFFFFFFFFFZZZZZZZZZZZZZZZZZZZZFFFFFFFFFFFFFFFFFFFFZZZZZZZZZZZZZZZZZZZZ",
"ZZZZZZZZZZZZZZZZZZZZFFFFFFFFFFFFFFFFFFFFZZZZZZZZZZZZZZZZZZZZFFFFFFFFFFFFFFFFFFFFZZZZZZZZZZZZZZZZZZZZFFFFFFFFFFFFFFFFFFFFZZZZZZZZZZZZZZZZZZZZFFFFFFFFFFFFFFFFFFFFZZZZZZZZZZZZZZZZZZZZFFFFFFFFFFFFFFFFFFFFZZZZZZZZZZZZZZZZZZZZFFFFFFFFFFFFFFFFFFFFZZZZZZZZZZZZZZZZZZZZFFFFFFFFFFFFFFFFFFFFZZZZZZZZZZZZZZZZZZZZFFFFFFFFFFFFFFFFFFFFZZZZZZZZZZZZZZZZZZZZFFFFFFFFFFFFFFFFFFFFZZZZZZZZZZZZZZZZZZZZFFFFFFFFFFFFFFFFFFFFZZZZZZZZZZZZZZZZZZZZFFFFFFFFFFFFFFFFFFFFZZZZZZZZZZZZZZZZZZZZFFFFFFFFFFFFFFFFFFFFZZZZZZZZZZZZZZZZZZZZFFFFFFFFFFFFFFFFFFFFZZZZZZZZZZZZZZZZZZZZFFFFFFFFFFFFFFFFFFFFZZZZZZZZZZZZZZZZZZZZFFFFFFFFFFFFFFFFFFFFZZZZZZZZZZZZZZZZZZZZFFFFFFFFFFFFFFFFFFFFZZZZZZZZZZZZZZZZZZZZFFFFFFFFFFFFFFFFFFFFZZZZZZZZZZZZZZZZZZZZFFFFFFFFFFFFFFFFFFFFZZZZZZZZZZZZZZZZZZZZFFFFFFFFFFFFFFFFFFFFZZZZZZZZZZZZZZZZZZZZFFFFFFFFFFFFFFFFFFFFZZZZZZZZZZZZZZZZZZZZFFFFFFFFFFFFFFFFFFFFZZZZZZZZZZZZZZZZZZZZ",
"ZZZZZZZZZZZZZZZZZZZZFFFFFFFFFFFFFFFFFFFFZZZZZZZZZZZZZZZZZZZZFFFFFFFFFFFFFFFFFFFFZZZZZZZZZZZZZZZZZZZZFFFFFFFFFFFFFFFFFFFFZZZZZZZZZZZZZZZZZZZZFFFFFFFFFFFFFFFFFFFFZZZZZZZZZZZZZZZZZZZZFFFFFFFFFFFFFFFFFFFFZZZZZZZZZZZZZZZZZZZZFFFFFFFFFFFFFFFFFFFFZZZZZZZZZZZZZZZZZZZZFFFFFFFFFFFFFFFFFFFFZZZZZZZZZZZZZZZZZZZZFFFFFFFFFFFFFFFFFFFFZZZZZZZZZZZZZZZZZZZZFFFFFFFFFFFFFFFFFFFFZZZZZZZZZZZZZZZZZZZZFFFFFFFFFFFFFFFFFFFFZZZZZZZZZZZZZZZZZZZZFFFFFFFFFFFFFFFFFFFFZZZZZZZZZZZZZZZZZZZZFFFFFFFFFFFFFFFFFFFFZZZZZZZZZZZZZZZZZZZZFFFFFFFFFFFFFFFFFFFFZZZZZZZZZZZZZZZZZZZZFFFFFFFFFFFFFFFFFFFFZZZZZZZZZZZZZZZZZZZZFFFFFFFFFFFFFFFFFFFFZZZZZZZZZZZZZZZZZZZZFFFFFFFFFFFFFFFFFFFFZZZZZZZZZZZZZZZZZZZZFFFFFFFFFFFFFFFFFFFFZZZZZZZZZZZZZZZZZZZZFFFFFFFFFFFFFFFFFFFFZZZZZZZZZZZZZZZZZZZZFFFFFFFFFFFFFFFFFFFFZZZZZZZZZZZZZZZZZZZZFFFFFFFFFFFFFFFFFFFFZZZZZZZZZZZZZZZZZZZZFFFFFFFFFFFFFFFFFFFFZZZZZZZZZZZZZZZZZZZZ",
"ZZZZZZZZZZZZZZZZZZZZFFFFFFFFFFFFFFFFFFFFZZZZZZZZZZZZZZZZZZZZFFFFFFFFFFFFFFFFFFFFZZZZZZZZZZZZZZZZZZZZFFFFFFFFFFFFFFFFFFFFZZZZZZZZZZZZZZZZZZZZFFFFFFFFFFFFFFFFFFFFZZZZZZZZZZZZZZZZZZZZFFFFFFFFFFFFFFFFFFFFZZZZZZZZZZZZZZZZZZZZFFFFFFFFFFFFFFFFFFFFZZZZZZZZZZZZZZZZZZZZFFFFFFFFFFFFFFFFFFFFZZZZZZZZZZZZZZZZZZZZFFFFFFFFFFFFFFFFFFFFZZZZZZZZZZZZZZZZZZZZFFFFFFFFFFFFFFFFFFFFZZZZZZZZZZZZZZZZZZZZFFFFFFFFFFFFFFFFFFFFZZZZZZZZZZZZZZZZZZZZFFFFFFFFFFFFFFFFFFFFZZZZZZZZZZZZZZZZZZZZFFFFFFFFFFFFFFFFFFFFZZZZZZZZZZZZZZZZZZZZFFFFFFFFFFFFFFFFFFFFZZZZZZZZZZZZZZZZZZZZFFFFFFFFFFFFFFFFFFFFZZZZZZZZZZZZZZZZZZZZFFFFFFFFFFFFFFFFFFFFZZZZZZZZZZZZZZZZZZZZFFFFFFFFFFFFFFFFFFFFZZZZZZZZZZZZZZZZZZZZFFFFFFFFFFFFFFFFFFFFZZZZZZZZZZZZZZZZZZZZFFFFFFFFFFFFFFFFFFFFZZZZZZZZZZZZZZZZZZZZFFFFFFFFFFFFFFFFFFFFZZZZZZZZZZZZZZZZZZZZFFFFFFFFFFFFFFFFFFFFZZZZZZZZZZZZZZZZZZZZFFFFFFFFFFFFFFFFFFFFZZZZZZZZZZZZZZZZZZZZ",
"ZZZZZZZZZZZZZZZZZZZZFFFFFFFFFFFFFFFFFFFFZZZZZZZZZZZZZZZZZZZZFFFFFFFFFFFFFFFFFFFFZZZZZZZZZZZZZZZZZZZZFFFFFFFFFFFFFFFFFFFFZZZZZZZZZZZZZZZZZZZZFFFFFFFFFFFFFFFFFFFFZZZZZZZZZZZZZZZZZZZZFFFFFFFFFFFFFFFFFFFFZZZZZZZZZZZZZZZZZZZZFFFFFFFFFFFFFFFFFFFFZZZZZZZZZZZZZZZZZZZZFFFFFFFFFFFFFFFFFFFFZZZZZZZZZZZZZZZZZZZZFFFFFFFFFFFFFFFFFFFFZZZZZZZZZZZZZZZZZZZZFFFFFFFFFFFFFFFFFFFFZZZZZZZZZZZZZZZZZZZZFFFFFFFFFFFFFFFFFFFFZZZZZZZZZZZZZZZZZZZZFFFFFFFFFFFFFFFFFFFFZZZZZZZZZZZZZZZZZZZZFFFFFFFFFFFFFFFFFFFFZZZZZZZZZZZZZZZZZZZZFFFFFFFFFFFFFFFFFFFFZZZZZZZZZZZZZZZZZZZZFFFFFFFFFFFFFFFFFFFFZZZZZZZZZZZZZZZZZZZZFFFFFFFFFFFFFFFFFFFFZZZZZZZZZZZZZZZZZZZZFFFFFFFFFFFFFFFFFFFFZZZZZZZZZZZZZZZZZZZZFFFFFFFFFFFFFFFFFFFFZZZZZZZZZZZZZZZZZZZZFFFFFFFFFFFFFFFFFFFFZZZZZZZZZZZZZZZZZZZZFFFFFFFFFFFFFFFFFFFFZZZZZZZZZZZZZZZZZZZZFFFFFFFFFFFFFFFFFFFFZZZZZZZZZZZZZZZZZZZZFFFFFFFFFFFFFFFFFFFFZZZZZZZZZZZZZZZZZZZZ",
"ZZZZZZZZZZZZZZZZZZZZFFFFFFFFFFFFFFFFFFFFZZZZZZZZZZZZZZZZZZZZFFFFFFFFFFFFFFFFFFFFZZZZZZZZZZZZZZZZZZZZFFFFFFFFFFFFFFFFFFFFZZZZZZZZZZZZZZZZZZZZFFFFFFFFFFFFFFFFFFFFZZZZZZZZZZZZZZZZZZZZFFFFFFFFFFFFFFFFFFFFZZZZZZZZZZZZZZZZZZZZFFFFFFFFFFFFFFFFFFFFZZZZZZZZZZZZZZZZZZZZFFFFFFFFFFFFFFFFFFFFZZZZZZZZZZZZZZZZZZZZFFFFFFFFFFFFFFFFFFFFZZZZZZZZZZZZZZZZZZZZFFFFFFFFFFFFFFFFFFFFZZZZZZZZZZZZZZZZZZZZFFFFFFFFFFFFFFFFFFFFZZZZZZZZZZZZZZZZZZZZFFFFFFFFFFFFFFFFFFFFZZZZZZZZZZZZZZZZZZZZFFFFFFFFFFFFFFFFFFFFZZZZZZZZZZZZZZZZZZZZFFFFFFFFFFFFFFFFFFFFZZZZZZZZZZZZZZZZZZZZFFFFFFFFFFFFFFFFFFFFZZZZZZZZZZZZZZZZZZZZFFFFFFFFFFFFFFFFFFFFZZZZZZZZZZZZZZZZZZZZFFFFFFFFFFFFFFFFFFFFZZZZZZZZZZZZZZZZZZZZFFFFFFFFFFFFFFFFFFFFZZZZZZZZZZZZZZZZZZZZFFFFFFFFFFFFFFFFFFFFZZZZZZZZZZZZZZZZZZZZFFFFFFFFFFFFFFFFFFFFZZZZZZZZZZZZZZZZZZZZFFFFFFFFFFFFFFFFFFFFZZZZZZZZZZZZZZZZZZZZFFFFFFFFFFFFFFFFFFFFZZZZZZZZZZZZZZZZZZZZ",
"ZZZZZZZZZZZZZZZZZZZZFFFFFFFFFFFFFFFFFFFFZZZZZZZZZZZZZZZZZZZZFFFFFFFFFFFFFFFFFFFFZZZZZZZZZZZZZZZZZZZZFFFFFFFFFFFFFFFFFFFFZZZZZZZZZZZZZZZZZZZZFFFFFFFFFFFFFFFFFFFFZZZZZZZZZZZZZZZZZZZZFFFFFFFFFFFFFFFFFFFFZZZZZZZZZZZZZZZZZZZZFFFFFFFFFFFFFFFFFFFFZZZZZZZZZZZZZZZZZZZZFFFFFFFFFFFFFFFFFFFFZZZZZZZZZZZZZZZZZZZZFFFFFFFFFFFFFFFFFFFFZZZZZZZZZZZZZZZZZZZZFFFFFFFFFFFFFFFFFFFFZZZZZZZZZZZZZZZZZZZZFFFFFFFFFFFFFFFFFFFFZZZZZZZZZZZZZZZZZZZZFFFFFFFFFFFFFFFFFFFFZZZZZZZZZZZZZZZZZZZZFFFFFFFFFFFFFFFFFFFFZZZZZZZZZZZZZZZZZZZZFFFFFFFFFFFFFFFFFFFFZZZZZZZZZZZZZZZZZZZZFFFFFFFFFFFFFFFFFFFFZZZZZZZZZZZZZZZZZZZZFFFFFFFFFFFFFFFFFFFFZZZZZZZZZZZZZZZZZZZZFFFFFFFFFFFFFFFFFFFFZZZZZZZZZZZZZZZZZZZZFFFFFFFFFFFFFFFFFFFFZZZZZZZZZZZZZZZZZZZZFFFFFFFFFFFFFFFFFFFFZZZZZZZZZZZZZZZZZZZZFFFFFFFFFFFFFFFFFFFFZZZZZZZZZZZZZZZZZZZZFFFFFFFFFFFFFFFFFFFFZZZZZZZZZZZZZZZZZZZZFFFFFFFFFFFFFFFFFFFFZZZZZZZZZZZZZZZZZZZZ",
"ZZZZZZZZZZZZZZZZZZZZFFFFFFFFFFFFFFFFFFFFZZZZZZZZZZZZZZZZZZZZFFFFFFFFFFFFFFFFFFFFZZZZZZZZZZZZZZZZZZZZFFFFFFFFFFFFFFFFFFFFZZZZZZZZZZZZZZZZZZZZFFFFFFFFFFFFFFFFFFFFZZZZZZZZZZZZZZZZZZZZFFFFFFFFFFFFFFFFFFFFZZZZZZZZZZZZZZZZZZZZFFFFFFFFFFFFFFFFFFFFZZZZZZZZZZZZZZZZZZZZFFFFFFFFFFFFFFFFFFFFZZZZZZZZZZZZZZZZZZZZFFFFFFFFFFFFFFFFFFFFZZZZZZZZZZZZZZZZZZZZFFFFFFFFFFFFFFFFFFFFZZZZZZZZZZZZZZZZZZZZFFFFFFFFFFFFFFFFFFFFZZZZZZZZZZZZZZZZZZZZFFFFFFFFFFFFFFFFFFFFZZZZZZZZZZZZZZZZZZZZFFFFFFFFFFFFFFFFFFFFZZZZZZZZZZZZZZZZZZZZFFFFFFFFFFFFFFFFFFFFZZZZZZZZZZZZZZZZZZZZFFFFFFFFFFFFFFFFFFFFZZZZZZZZZZZZZZZZZZZZFFFFFFFFFFFFFFFFFFFFZZZZZZZZZZZZZZZZZZZZFFFFFFFFFFFFFFFFFFFFZZZZZZZZZZZZZZZZZZZZFFFFFFFFFFFFFFFFFFFFZZZZZZZZZZZZZZZZZZZZFFFFFFFFFFFFFFFFFFFFZZZZZZZZZZZZZZZZZZZZFFFFFFFFFFFFFFFFFFFFZZZZZZZZZZZZZZZZZZZZFFFFFFFFFFFFFFFFFFFFZZZZZZZZZZZZZZZZZZZZFFFFFFFFFFFFFFFFFFFFZZZZZZZZZZZZZZZZZZZZ",
"ZZZZZZZZZZZZZZZZZZZZFFFFFFFFFFFFFFFFFFFFZZZZZZZZZZZZZZZZZZZZFFFFFFFFFFFFFFFFFFFFZZZZZZZZZZZZZZZZZZZZFFFFFFFFFFFFFFFFFFFFZZZZZZZZZZZZZZZZZZZZFFFFFFFFFFFFFFFFFFFFZZZZZZZZZZZZZZZZZZZZFFFFFFFFFFFFFFFFFFFFZZZZZZZZZZZZZZZZZZZZFFFFFFFFFFFFFFFFFFFFZZZZZZZZZZZZZZZZZZZZFFFFFFFFFFFFFFFFFFFFZZZZZZZZZZZZZZZZZZZZFFFFFFFFFFFFFFFFFFFFZZZZZZZZZZZZZZZZZZZZFFFFFFFFFFFFFFFFFFFFZZZZZZZZZZZZZZZZZZZZFFFFFFFFFFFFFFFFFFFFZZZZZZZZZZZZZZZZZZZZFFFFFFFFFFFFFFFFFFFFZZZZZZZZZZZZZZZZZZZZFFFFFFFFFFFFFFFFFFFFZZZZZZZZZZZZZZZZZZZZFFFFFFFFFFFFFFFFFFFFZZZZZZZZZZZZZZZZZZZZFFFFFFFFFFFFFFFFFFFFZZZZZZZZZZZZZZZZZZZZFFFFFFFFFFFFFFFFFFFFZZZZZZZZZZZZZZZZZZZZFFFFFFFFFFFFFFFFFFFFZZZZZZZZZZZZZZZZZZZZFFFFFFFFFFFFFFFFFFFFZZZZZZZZZZZZZZZZZZZZFFFFFFFFFFFFFFFFFFFFZZZZZZZZZZZZZZZZZZZZFFFFFFFFFFFFFFFFFFFFZZZZZZZZZZZZZZZZZZZZFFFFFFFFFFFFFFFFFFFFZZZZZZZZZZZZZZZZZZZZFFFFFFFFFFFFFFFFFFFFZZZZZZZZZZZZZZZZZZZZ",
"ZZZZZZZZZZZZZZZZZZZZFFFFFFFFFFFFFFFFFFFFZZZZZZZZZZZZZZZZZZZZFFFFFFFFFFFFFFFFFFFFZZZZZZZZZZZZZZZZZZZZFFFFFFFFFFFFFFFFFFFFZZZZZZZZZZZZZZZZZZZZFFFFFFFFFFFFFFFFFFFFZZZZZZZZZZZZZZZZZZZZFFFFFFFFFFFFFFFFFFFFZZZZZZZZZZZZZZZZZZZZFFFFFFFFFFFFFFFFFFFFZZZZZZZZZZZZZZZZZZZZFFFFFFFFFFFFFFFFFFFFZZZZZZZZZZZZZZZZZZZZFFFFFFFFFFFFFFFFFFFFZZZZZZZZZZZZZZZZZZZZFFFFFFFFFFFFFFFFFFFFZZZZZZZZZZZZZZZZZZZZFFFFFFFFFFFFFFFFFFFFZZZZZZZZZZZZZZZZZZZZFFFFFFFFFFFFFFFFFFFFZZZZZZZZZZZZZZZZZZZZFFFFFFFFFFFFFFFFFFFFZZZZZZZZZZZZZZZZZZZZFFFFFFFFFFFFFFFFFFFFZZZZZZZZZZZZZZZZZZZZFFFFFFFFFFFFFFFFFFFFZZZZZZZZZZZZZZZZZZZZFFFFFFFFFFFFFFFFFFFFZZZZZZZZZZZZZZZZZZZZFFFFFFFFFFFFFFFFFFFFZZZZZZZZZZZZZZZZZZZZFFFFFFFFFFFFFFFFFFFFZZZZZZZZZZZZZZZZZZZZFFFFFFFFFFFFFFFFFFFFZZZZZZZZZZZZZZZZZZZZFFFFFFFFFFFFFFFFFFFFZZZZZZZZZZZZZZZZZZZZFFFFFFFFFFFFFFFFFFFFZZZZZZZZZZZZZZZZZZZZFFFFFFFFFFFFFFFFFFFFZZZZZZZZZZZZZZZZZZZZ",
"ZZZZZZZZZZZZZZZZZZZZFFFFFFFFFFFFFFFFFFFFZZZZZZZZZZZZZZZZZZZZFFFFFFFFFFFFFFFFFFFFZZZZZZZZZZZZZZZZZZZZFFFFFFFFFFFFFFFFFFFFZZZZZZZZZZZZZZZZZZZZFFFFFFFFFFFFFFFFFFFFZZZZZZZZZZZZZZZZZZZZFFFFFFFFFFFFFFFFFFFFZZZZZZZZZZZZZZZZZZZZFFFFFFFFFFFFFFFFFFFFZZZZZZZZZZZZZZZZZZZZFFFFFFFFFFFFFFFFFFFFZZZZZZZZZZZZZZZZZZZZFFFFFFFFFFFFFFFFFFFFZZZZZZZZZZZZZZZZZZZZFFFFFFFFFFFFFFFFFFFFZZZZZZZZZZZZZZZZZZZZFFFFFFFFFFFFFFFFFFFFZZZZZZZZZZZZZZZZZZZZFFFFFFFFFFFFFFFFFFFFZZZZZZZZZZZZZZZZZZZZFFFFFFFFFFFFFFFFFFFFZZZZZZZZZZZZZZZZZZZZFFFFFFFFFFFFFFFFFFFFZZZZZZZZZZZZZZZZZZZZFFFFFFFFFFFFFFFFFFFFZZZZZZZZZZZZZZZZZZZZFFFFFFFFFFFFFFFFFFFFZZZZZZZZZZZZZZZZZZZZFFFFFFFFFFFFFFFFFFFFZZZZZZZZZZZZZZZZZZZZFFFFFFFFFFFFFFFFFFFFZZZZZZZZZZZZZZZZZZZZFFFFFFFFFFFFFFFFFFFFZZZZZZZZZZZZZZZZZZZZFFFFFFFFFFFFFFFFFFFFZZZZZZZZZZZZZZZZZZZZFFFFFFFFFFFFFFFFFFFFZZZZZZZZZZZZZZZZZZZZFFFFFFFFFFFFFFFFFFFFZZZZZZZZZZZZZZZZZZZZ",
"ZZZZZZZZZZZZZZZZZZZZFFFFFFFFFFFFFFFFFFFFZZZZZZZZZZZZZZZZZZZZFFFFFFFFFFFFFFFFFFFFZZZZZZZZZZZZZZZZZZZZFFFFFFFFFFFFFFFFFFFFZZZZZZZZZZZZZZZZZZZZFFFFFFFFFFFFFFFFFFFFZZZZZZZZZZZZZZZZZZZZFFFFFFFFFFFFFFFFFFFFZZZZZZZZZZZZZZZZZZZZFFFFFFFFFFFFFFFFFFFFZZZZZZZZZZZZZZZZZZZZFFFFFFFFFFFFFFFFFFFFZZZZZZZZZZZZZZZZZZZZFFFFFFFFFFFFFFFFFFFFZZZZZZZZZZZZZZZZZZZZFFFFFFFFFFFFFFFFFFFFZZZZZZZZZZZZZZZZZZZZFFFFFFFFFFFFFFFFFFFFZZZZZZZZZZZZZZZZZZZZFFFFFFFFFFFFFFFFFFFFZZZZZZZZZZZZZZZZZZZZFFFFFFFFFFFFFFFFFFFFZZZZZZZZZZZZZZZZZZZZFFFFFFFFFFFFFFFFFFFFZZZZZZZZZZZZZZZZZZZZFFFFFFFFFFFFFFFFFFFFZZZZZZZZZZZZZZZZZZZZFFFFFFFFFFFFFFFFFFFFZZZZZZZZZZZZZZZZZZZZFFFFFFFFFFFFFFFFFFFFZZZZZZZZZZZZZZZZZZZZFFFFFFFFFFFFFFFFFFFFZZZZZZZZZZZZZZZZZZZZFFFFFFFFFFFFFFFFFFFFZZZZZZZZZZZZZZZZZZZZFFFFFFFFFFFFFFFFFFFFZZZZZZZZZZZZZZZZZZZZFFFFFFFFFFFFFFFFFFFFZZZZZZZZZZZZZZZZZZZZFFFFFFFFFFFFFFFFFFFFZZZZZZZZZZZZZZZZZZZZ",
"FFFFFFFFFFFFFFFFFFFFZZZZZZZZZZZZZZZZZZZZFFFFFFFFFFFFFFFFFFFFZZZZZZZZZZZZZZZZZZZZFFFFFFFFFFFFFFFFFFFFZZZZZZZZZZZZZZZZZZZZFFFFFFFFFFFFFFFFFFFFZZZZZZZZZZZZZZZZZZZZFFFFFFFFFFFFFFFFFFFFZZZZZZZZZZZZZZZZZZZZFFFFFFFFFFFFFFFFFFFFZZZZZZZZZZZZZZZZZZZZFFFFFFFFFFFFFFFFFFFFZZZZZZZZZZZZZZZZZZZZFFFFFFFFFFFFFFFFFFFFZZZZZZZZZZZZZZZZZZZZFFFFFFFFFFFFFFFFFFFFZZZZZZZZZZZZZZZZZZZZFFFFFFFFFFFFFFFFFFFFZZZZZZZZZZZZZZZZZZZZFFFFFFFFFFFFFFFFFFFFZZZZZZZZZZZZZZZZZZZZFFFFFFFFFFFFFFFFFFFFZZZZZZZZZZZZZZZZZZZZFFFFFFFFFFFFFFFFFFFFZZZZZZZZZZZZZZZZZZZZFFFFFFFFFFFFFFFFFFFFZZZZZZZZZZZZZZZZZZZZFFFFFFFFFFFFFFFFFFFFZZZZZZZZZZZZZZZZZZZZFFFFFFFFFFFFFFFFFFFFZZZZZZZZZZZZZZZZZZZZFFFFFFFFFFFFFFFFFFFFZZZZZZZZZZZZZZZZZZZZFFFFFFFFFFFFFFFFFFFFZZZZZZZZZZZZZZZZZZZZFFFFFFFFFFFFFFFFFFFFZZZZZZZZZZZZZZZZZZZZFFFFFFFFFFFFFFFFFFFFZZZZZZZZZZZZZZZZZZZZFFFFFFFFFFFFFFFFFFFFZZZZZZZZZZZZZZZZZZZZFFFFFFFFFFFFFFFFFFFF"
};
