/* XPM */
static const char *sphere_small[] = {
/* columns rows colors chars-per-pixel */
"47 50 252 2 ",
"   c #000000",
".  c #010101",
"X  c #020202",
"o  c #030303",
"O  c #040404",
"+  c #050505",
"@  c #060606",
"#  c #070707",
"$  c #080808",
"%  c #090909",
"&  c gray4",
"*  c #0B0B0B",
"=  c #0C0C0C",
"-  c #0D0D0D",
";  c #0E0E0E",
":  c #0F0F0F",
">  c #101010",
",  c #111111",
"<  c #121212",
"1  c #131313",
"2  c #141414",
"3  c #151515",
"4  c #161616",
"5  c #171717",
"6  c #181818",
"7  c #191919",
"8  c #1A1A1A",
"9  c #1B1B1B",
"0  c #1C1C1C",
"q  c #1D1D1D",
"w  c #1E1E1E",
"e  c #1F1F1F",
"r  c #202020",
"t  c #212121",
"y  c #222222",
"u  c #232323",
"i  c #242424",
"p  c #252525",
"a  c #262626",
"s  c #272727",
"d  c #282828",
"f  c #292929",
"g  c #2A2A2A",
"h  c #2B2B2B",
"j  c #2C2C2C",
"k  c #2D2D2D",
"l  c #2E2E2E",
"z  c #2F2F2F",
"x  c #303030",
"c  c #313131",
"v  c #323232",
"b  c #333333",
"n  c #343434",
"m  c #353535",
"M  c #363636",
"N  c #373737",
"B  c gray22",
"V  c #393939",
"C  c #3A3A3A",
"Z  c #3B3B3B",
"A  c #3C3C3C",
"S  c #3D3D3D",
"D  c #3E3E3E",
"F  c #3F3F3F",
"G  c #404040",
"H  c #414141",
"J  c #424242",
"K  c #434343",
"L  c #444444",
"P  c #454545",
"I  c #464646",
"U  c #474747",
"Y  c #484848",
"T  c #494949",
"R  c #4A4A4A",
"E  c #4B4B4B",
"W  c #4C4C4C",
"Q  c #4D4D4D",
"!  c #4E4E4E",
"~  c #4F4F4F",
"^  c #505050",
"/  c #515151",
"(  c #525252",
")  c #535353",
"_  c #545454",
"`  c #555555",
"'  c #565656",
"]  c #575757",
"[  c #585858",
"{  c #595959",
"}  c #5A5A5A",
"|  c #5B5B5B",
" . c #5C5C5C",
".. c #5D5D5D",
"X. c #5E5E5E",
"o. c #5F5F5F",
"O. c #606060",
"+. c #616161",
"@. c #626262",
"#. c #636363",
"$. c #646464",
"%. c #656565",
"&. c #666666",
"*. c #676767",
"=. c #686868",
"-. c #696969",
";. c #6A6A6A",
":. c #6B6B6B",
">. c #6C6C6C",
",. c #6D6D6D",
"<. c #6E6E6E",
"1. c #6F6F6F",
"2. c #707070",
"3. c #717171",
"4. c #727272",
"5. c #737373",
"6. c #747474",
"7. c #757575",
"8. c #767676",
"9. c #777777",
"0. c #787878",
"q. c #797979",
"w. c #7A7A7A",
"e. c #7B7B7B",
"r. c #7C7C7C",
"t. c #7D7D7D",
"y. c #7E7E7E",
"u. c #7F7F7F",
"i. c #808080",
"p. c #818181",
"a. c #828282",
"s. c #838383",
"d. c #848484",
"f. c #858585",
"g. c #868686",
"h. c #878787",
"j. c #888888",
"k. c #898989",
"l. c #8A8A8A",
"z. c #8B8B8B",
"x. c #8C8C8C",
"c. c #8D8D8D",
"v. c #8E8E8E",
"b. c #8F8F8F",
"n. c #909090",
"m. c #919191",
"M. c #939393",
"N. c #949494",
"B. c #959595",
"V. c #969696",
"C. c #979797",
"Z. c #989898",
"A. c #999999",
"S. c #9A9A9A",
"D. c #9B9B9B",
"F. c #9C9C9C",
"G. c #9D9D9D",
"H. c #9E9E9E",
"J. c #9F9F9F",
"K. c #A0A0A0",
"L. c #A1A1A1",
"P. c #A2A2A2",
"I. c #A3A3A3",
"U. c #A4A4A4",
"Y. c #A5A5A5",
"T. c #A6A6A6",
"R. c #A7A7A7",
"E. c #A8A8A8",
"W. c #A9A9A9",
"Q. c #AAAAAA",
"!. c #ABABAB",
"~. c #ACACAC",
"^. c #ADADAD",
"/. c #AEAEAE",
"(. c #AFAFAF",
"). c gray69",
"_. c #B1B1B1",
"`. c #B2B2B2",
"'. c #B3B3B3",
"]. c #B4B4B4",
"[. c #B5B5B5",
"{. c #B6B6B6",
"}. c #B7B7B7",
"|. c #B8B8B8",
" X c #B9B9B9",
".X c #BABABA",
"XX c #BBBBBB",
"oX c #BCBCBC",
"OX c #BDBDBD",
"+X c #BEBEBE",
"@X c #BFBFBF",
"#X c #C0C0C0",
"$X c #C1C1C1",
"%X c #C2C2C2",
"&X c #C3C3C3",
"*X c #C4C4C4",
"=X c #C5C5C5",
"-X c #C6C6C6",
";X c #C7C7C7",
":X c #C8C8C8",
">X c #C9C9C9",
",X c #CACACA",
"<X c #CBCBCB",
"1X c #CCCCCC",
"2X c #CDCDCD",
"3X c #CECECE",
"4X c #CFCFCF",
"5X c #D0D0D0",
"6X c #D1D1D1",
"7X c #D2D2D2",
"8X c #D3D3D3",
"9X c #D4D4D4",
"0X c #D5D5D5",
"qX c #D6D6D6",
"wX c #D7D7D7",
"eX c #D8D8D8",
"rX c #D9D9D9",
"tX c #DADADA",
"yX c #DBDBDB",
"uX c #DDDDDD",
"iX c #DEDEDE",
"pX c #DFDFDF",
"aX c #E0E0E0",
"sX c #E1E1E1",
"dX c #E2E2E2",
"fX c #E3E3E3",
"gX c #E4E4E4",
"hX c #E5E5E5",
"jX c #E6E6E6",
"kX c #E7E7E7",
"lX c #E8E8E8",
"zX c #E9E9E9",
"xX c #EAEAEA",
"cX c #EBEBEB",
"vX c #ECECEC",
"bX c #EDEDED",
"nX c #EEEEEE",
"mX c #EFEFEF",
"MX c #F0F0F0",
"NX c #F1F1F1",
"BX c #F2F2F2",
"VX c #F3F3F3",
"CX c #F4F4F4",
"ZX c gray96",
"AX c #F6F6F6",
"SX c #F7F7F7",
"DX c #F8F8F8",
"FX c #F9F9F9",
"GX c #FAFAFA",
"HX c #FBFBFB",
"JX c #FCFCFC",
"KX c #FDFDFD",
/* pixels */
"JXVXFXCXFXCXCXFXCXFXVXFXVXFXCXFXCXCXFXCXFXVXFXVXFXVXFXCXFXCXCXFXCXFXVXFXVXFXCXFXCXCXFXCXFXVXJX",
"VXFXCXFXCXCXCXCXFXCXFXCXFXCXFXCXFXCXFXFXCXCXvXCXvXCXCXFXFXFXFXCXFXCXFXCXFXCXFXCXCXCXCXFXCXFXVX",
"FXCXFXCXFXCXCXFXCXFXCXFXCXFXCXFXCXlX9X+XW.A.c.z.z.c.A.(.,XkXCXFXCXFXCXFXCXFXCXFXCXCXFXCXFXCXFX",
"CXFXCXFXCXCXCXCXFXCXFXCXFXCXVX9X(.m.p.q.6.4.<.;.&.+.| ' | &.z.$XvXCXFXCXFXCXFXCXCXCXCXFXCXFXCX",
"FXCXFXCXCXCXCXFXCXCXCXFXVX3XY.c.h.h.h.p.u.u.q.6.<.;.&.o.' ^ T T ;.(.lXFXCXFXCXCXCXCXFXCXFXCXFX",
"CXFXCXFXCXCXCXCXCXCXCXiX(.m.m.m.m.m.c.z.z.h.u.q.6.4.;.&.o.' ^ T G F ;.;XCXCXCXCXCXCXCXFXCXFXCX",
"CXCXCXCXCXCXCXCXCXVX3XJ.V.A.A.A.A.A.V.m.m.c.z.p.u.6.4.;.&.o.' ~ T G N G J.vXFXCXCXCXCXCXCXCXCX",
"FXCXFXCXFXCXCXFXVX$XA.J.J.L.L.L.L.L.J.A.A.m.c.z.h.u.6.4.;.+.| ^ ~ P F N b u.kXFXCXCXCXCXFXCXFX",
"CXFXCXFXCXCXFXvX+XJ.L.Y.W.W.W.W.W.W.Y.L.J.A.V.m.z.h.u.6.<.&.+.| ^ T G Z b a <.sXFXCXCXFXCXFXCX",
"FXCXFXCXCXCXVX$XJ.Y.W.(._._.}.}._._.(.W.Y.L.J.V.m.z.p.q.4.<.&.o.' ~ P F N h u <.lXFXCXCXFXCXFX",
"VXFXCXFXCXCX,XL.Y.(._.}..X+X+X+X+X.X}._.(.W.L.A.V.c.h.u.q.4.;.+.' ^ T F N l a q p.CXCXFXCXFXVX",
"FXCXFXCXFXyXY.Y.(.}..X+X$X;X;X;X;X$X+X.X}.(.Y.L.A.m.c.h.q.6.<.+.| ^ T G Z b h q u W.FXCXFXCXFX",
"VXFXCXFXvX(.Y.(.}..X$X;X,X3X3X3X3X,X;X$X.X}.(.Y.J.V.c.h.u.6.<.&.o.' ~ P F b h u 2 Z yXFXCXFXVX",
"FXCXFXCX;XL.W._..X$X;X3X7X9XyXyX9X7X3X;X$X.X_.W.L.A.m.z.p.q.4.;.+.' ~ P F N l u 9 , q.CXFXCXFX",
"VXFXCXlXW.Y.(.}.+X;X3X9XyXiXsXsXiXyX9X3X;X+X}.(.Y.J.V.c.h.q.4.;.+.| ^ T F N l a q , a 3XCXFXVX",
"FXCXFX,XJ.W._..X$X,X7XyXsXkXlXlXkXsXyX7X,X$X.X_.W.J.V.c.h.u.6.<.+.| ^ T G N l a q 2 * q.FXCXFX",
"CXFXvXW.L.W.}.+X;X3X9XiXkXvXVXVXvXkXiX9X3X$X.X_.W.L.A.m.h.u.6.<.&.| ^ T G Z l a q 2 * l iXFXCX",
"FXCXyXJ.L.(.}.+X;X7XyXsXlXVXFXFXVXlXsX9X3X;X+X_.W.L.A.m.z.u.6.<.&.| ^ T G Z l a q 2 * * W.FXFX",
"CXCX$XA.L.(.}.+X;X7XyXsXlXVXFXFXVXlXsX9X3X;X+X_.W.L.A.m.h.u.6.<.&.| ^ T G Z l a q 2 : X <.FXCX",
"CXVX(.A.L.W.}.+X;X3X9XiXkXvXVXVXvXkXiX9X3X$X.X_.W.L.A.m.h.u.6.<.+.| ^ T G N l a q 2 * X F vXCX",
"FXlXJ.A.L.W._..X$X,X7XyXsXkXlXlXkXiXyX7X,X$X.X(.Y.J.V.c.h.u.6.;.+.| ^ T F N l a 9 , * X q 9XFX",
"CXsXV.V.J.Y.(.}.+X;X3X9XyXiXsXsXiXyX7X,X$X+X}.(.L.A.V.c.p.q.4.;.+.' ~ P F N l u 9 , * X : $XCX",
"JX9Xc.V.A.L.W._..X$X,X3X7X9X9X9X9X7X3X;X+X}._.W.L.A.m.z.p.q.<.&.o.' ~ P F b h u 9 , @ X @ W.JX",
"CX7Xz.m.A.J.Y.(.}.+X$X;X,X3X3X3X3X,X;X+X.X_.W.L.J.V.c.h.u.6.<.&.| ^ T G Z b h q 2 : @ X @ L.CX",
"JX3Xh.c.V.A.L.W.(.}..X+X$X;X;X;X$X$X+X.X_.(.Y.J.A.m.z.p.q.4.;.+.' ^ P F N l a q 2 : @ X X A.JX",
"CX7Xp.z.c.V.J.L.W.(._.}..X+X+X+X.X.X}._.W.Y.J.A.m.c.h.u.6.<.&.o.' ~ P F N h u 9 , * @ X @ L.CX",
"JX7Xu.p.z.m.V.J.L.Y.W.(._._._._._.(.(.W.L.J.A.m.c.h.u.q.4.;.+.| ^ T G Z b h u 2 : @ X X @ (.JX",
"CXiXp.u.h.z.m.V.A.J.L.Y.W.W.W.W.W.Y.Y.L.J.A.m.c.h.p.q.4.;.&.| ' ~ P F N l a q 2 : @ X X , ;XCX",
"FXkXh.6.u.h.z.c.V.A.A.J.J.L.L.L.L.J.A.A.V.m.c.h.p.q.6.<.&.o.' ^ T G Z b h u 9 , * X X X u yXFX",
"CXCXV.4.q.u.p.h.c.m.m.V.V.A.A.A.A.V.V.m.c.z.h.u.q.6.<.&.+.| ^ T G F N l a q 2 : @ X X X P VXCX",
"FXCX_.;.4.6.q.u.h.z.z.c.c.m.m.m.m.c.c.z.h.p.u.q.4.<.&.+.| ^ ~ P F N l h u 9 , * X X X X q.FXFX",
"CXFX7X;.;.<.6.q.u.u.p.h.h.h.z.z.h.h.p.p.u.q.6.4.;.&.+.| ' ~ P G Z b h u q 2 : @ X X X : }.FXCX",
"CXFXvXp.+.;.<.4.6.6.q.u.u.u.u.u.u.u.q.q.6.4.<.;.&.o.| ^ ~ P G Z b l a q 2 , * @ X X X N kXFXCX",
"FXCXFX_.| +.&.;.<.<.4.4.6.6.6.6.6.6.4.<.<.;.&.+.o.' ^ ~ P G Z N l a u 9 , * @ X X X X z.FXCXFX",
"CXFXCXkX<.' o.+.&.&.;.;.<.<.<.<.<.;.;.&.&.+.o.| ' ^ T P G Z N l a u 9 , : @ X X X X a 9XCXFXCX",
"FXCXFXCX(.^ ' | | o.+.+.+.&.&.&.+.+.+.o.| | ' ^ ~ T G F Z N l a u 9 2 : @ X X X X @ h.CXFXCXFX",
"VXFXCXFXlX6.T ^ ^ ' ' | | | | | | | ' ' ^ ^ ~ T P G F N b l a u 9 2 : * X X X X X F sXFXCXFXVX",
"FXCXFXCXFX3X' P T ~ ~ ^ ^ ^ ^ ^ ^ ^ ~ ~ T T P G F Z N l h a q 9 2 : * X X X X X 2 .XFXCXFXCXFX",
"VXFXCXFXCXFX(.P G P P T T T T T T T P P G F F Z N b l h u q 9 , : * @ X X X X * m.CXCXFXCXFXVX",
"FXCXFXCXFXCXVXA.F Z F F G G G G G F F Z Z N N b l h a u 9 2 , : @ X X X X X @ 6.VXCXFXCXFXCXFX",
"CXFXCXFXCXFXFXVXm.N N N N Z Z Z N N N b b l h h a u q 9 2 : * @ X X X X X @ 4.vXFXCXCXFXCXFXCX",
"FXCXFXCXFXCXCXFXVXJ.Z h l l l l l l l h h a u u q 9 2 , : * @ X X X X X , h.vXFXCXCXFXCXFXCXFX",
"CXFXCXFXCXCXFXCXFXCX}.T u a a a a a u u q q 9 2 2 , : * @ X X X X X X h W.CXFXCXCXCXCXFXCXFXCX",
"FXCXCXCXCXCXCXFXCXCXFXyX6.l 9 9 q q 9 9 2 2 , : : * @ @ X X X X X , &.9XFXFXCXCXCXCXCXCXCXCXFX",
"CXCXCXCXCXCXCXCXCXCXCXFXCX$X;.h , : , , : : * @ @ X X X X X X 9 o..XVXFXCXCXCXCXCXCXCXCXCXCXCX",
"CXCXCXCXCXCXCXCXCXCXCXCXCXFXCX3Xz.T u : @ X X X X X X * q G p.,XVXFXFXCXFXCXFXCXCXCXCXCXCXFXCX",
"FXCXFXCXFXCXCXCXCXFXCXFXCXFXCXFXFXvX7X(.c.6.&.+.&.6.c.(.7XvXFXFXCXFXCXFXCXFXCXFXCXCXFXCXFXCXFX",
"CXFXCXFXCXCXCXCXFXCXFXCXFXCXFXCXCXCXFXFXFXFXCXFXCXFXFXFXFXCXCXCXFXCXFXCXFXCXFXCXCXCXCXFXCXFXCX",
"FXCXFXCXFXCXCXFXCXFXCXFXCXFXCXFXCXCXCXCXFXCXFXCXFXCXFXCXCXCXCXFXCXFXCXFXCXFXCXFXCXCXFXCXFXCXFX",
"VXFXCXFXCXCXCXCXFXVXFXVXFXVXFXCXFXCXCXFXCXFXVXFXVXFXCXFXCXCXFXCXFXVXFXVXFXVXFXCXCXCXCXFXCXFXVX"
};
