/* XPM */
static char *b9ea834fc71d40f7fbad055ac9f9e564L7Afuk4UllWZRHEc[] = {
/* columns rows colors chars-per-pixel */
"612 408 256 2 ",
"   c black",
".  c #010101",
"X  c #020202",
"o  c gray1",
"O  c #040404",
"+  c gray2",
"@  c #060606",
"#  c #070707",
"$  c gray3",
"%  c #090909",
"&  c gray4",
"*  c #0B0B0B",
"=  c #0C0C0C",
"-  c gray5",
";  c #0E0E0E",
":  c gray6",
">  c #101010",
",  c #111111",
"<  c gray7",
"1  c #131313",
"2  c gray8",
"3  c #151515",
"4  c #161616",
"5  c gray9",
"6  c #181818",
"7  c #191919",
"8  c gray10",
"9  c #1B1B1B",
"0  c gray11",
"q  c #1D1D1D",
"w  c #1E1E1E",
"e  c gray12",
"r  c #202020",
"t  c gray13",
"y  c #222222",
"u  c #232323",
"i  c gray14",
"p  c #252525",
"a  c gray15",
"s  c #272727",
"d  c #282828",
"f  c gray16",
"g  c #2A2A2A",
"h  c gray17",
"j  c #2C2C2C",
"k  c #2D2D2D",
"l  c gray18",
"z  c #2F2F2F",
"x  c gray19",
"c  c #313131",
"v  c #323232",
"b  c gray20",
"n  c #343434",
"m  c #353535",
"M  c gray21",
"N  c #373737",
"B  c gray22",
"V  c #393939",
"C  c #3A3A3A",
"Z  c gray23",
"A  c #3C3C3C",
"S  c gray24",
"D  c #3E3E3E",
"F  c #3F3F3F",
"G  c gray25",
"H  c #414141",
"J  c gray26",
"K  c #434343",
"L  c #444444",
"P  c gray27",
"I  c #464646",
"U  c gray28",
"Y  c #484848",
"T  c #494949",
"R  c gray29",
"E  c #4B4B4B",
"W  c #4C4C4C",
"Q  c gray30",
"!  c #4E4E4E",
"~  c gray31",
"^  c #505050",
"/  c #515151",
"(  c gray32",
")  c #535353",
"_  c gray33",
"`  c #555555",
"'  c #565656",
"]  c gray34",
"[  c #585858",
"{  c gray35",
"}  c #5A5A5A",
"|  c #5B5B5B",
" . c gray36",
".. c #5D5D5D",
"X. c gray37",
"o. c #5F5F5F",
"O. c #606060",
"+. c gray38",
"@. c #626262",
"#. c gray39",
"$. c #646464",
"%. c #656565",
"&. c gray40",
"*. c #676767",
"=. c #686868",
"-. c DimGray",
";. c #6A6A6A",
":. c gray42",
">. c #6C6C6C",
",. c #6D6D6D",
"<. c gray43",
"1. c #6F6F6F",
"2. c gray44",
"3. c #717171",
"4. c #727272",
"5. c gray45",
"6. c #747474",
"7. c gray46",
"8. c #767676",
"9. c #777777",
"0. c gray47",
"q. c #797979",
"w. c gray48",
"e. c #7B7B7B",
"r. c #7C7C7C",
"t. c gray49",
"y. c #7E7E7E",
"u. c gray50",
"i. c #808080",
"p. c #818181",
"a. c gray51",
"s. c #838383",
"d. c #848484",
"f. c gray52",
"g. c #868686",
"h. c gray53",
"j. c #888888",
"k. c #898989",
"l. c gray54",
"z. c #8B8B8B",
"x. c gray55",
"c. c #8D8D8D",
"v. c #8E8E8E",
"b. c gray56",
"n. c #909090",
"m. c gray57",
"M. c #929292",
"N. c #939393",
"B. c gray58",
"V. c #959595",
"C. c gray59",
"Z. c #979797",
"A. c #989898",
"S. c gray60",
"D. c #9A9A9A",
"F. c #9B9B9B",
"G. c gray61",
"H. c #9D9D9D",
"J. c gray62",
"K. c #9F9F9F",
"L. c #A0A0A0",
"P. c gray63",
"I. c #A2A2A2",
"U. c gray64",
"Y. c #A4A4A4",
"T. c #A5A5A5",
"R. c gray65",
"E. c #A7A7A7",
"W. c gray66",
"Q. c #A9A9A9",
"!. c #AAAAAA",
"~. c gray67",
"^. c #ACACAC",
"/. c gray68",
"(. c #AEAEAE",
"). c #AFAFAF",
"_. c gray69",
"`. c #B1B1B1",
"'. c #B2B2B2",
"]. c gray70",
"[. c #B4B4B4",
"{. c gray71",
"}. c #B6B6B6",
"|. c #B7B7B7",
" X c gray72",
".X c #B9B9B9",
"XX c gray73",
"oX c #BBBBBB",
"OX c #BCBCBC",
"+X c gray74",
"@X c gray",
"#X c gray75",
"$X c #C0C0C0",
"%X c #C1C1C1",
"&X c gray76",
"*X c #C3C3C3",
"=X c gray77",
"-X c #C5C5C5",
";X c #C6C6C6",
":X c gray78",
">X c #C8C8C8",
",X c gray79",
"<X c #CACACA",
"1X c #CBCBCB",
"2X c gray80",
"3X c #CDCDCD",
"4X c #CECECE",
"5X c gray81",
"6X c #D0D0D0",
"7X c gray82",
"8X c #D2D2D2",
"9X c LightGray",
"0X c gray83",
"qX c #D5D5D5",
"wX c gray84",
"eX c #D7D7D7",
"rX c #D8D8D8",
"tX c gray85",
"yX c #DADADA",
"uX c gray86",
"iX c gainsboro",
"pX c #DDDDDD",
"aX c gray87",
"sX c #DFDFDF",
"dX c gray88",
"fX c #E1E1E1",
"gX c #E2E2E2",
"hX c gray89",
"jX c #E4E4E4",
"kX c gray90",
"lX c #E6E6E6",
"zX c #E7E7E7",
"xX c gray91",
"cX c #E9E9E9",
"vX c #EAEAEA",
"bX c gray92",
"nX c #ECECEC",
"mX c gray93",
"MX c #EEEEEE",
"NX c #EFEFEF",
"BX c gray94",
"VX c #F1F1F1",
"CX c gray95",
"ZX c #F3F3F3",
"AX c #F4F4F4",
"SX c gray96",
"DX c #F6F6F6",
"FX c gray97",
"GX c #F8F8F8",
"HX c #F9F9F9",
"JX c gray98",
"KX c #FBFBFB",
"LX c gray99",
"PX c #FDFDFD",
"IX c #FEFEFE",
"UX c white",
/* pixels */
" X,XBXQ.;X/.O.+X XhXBX+X8.Y.;Xs.f.8.y./.y.-.I.8.H.H.[.c.j.-.C.M.0.9XC.J j.0.0.Y.Y.Q.3.O.2 $ 9   r J H.Y.8.<. XY.H.eXQ.M.f.+X/.Y./.Q./.Q.I M.'. Xc.D.+XY.eX[.Q.H.M. X4X*XQ.<.I.[.4XM.f.,XH.O.c.H.3.D.j.&.n ] 9 < O q k f.4XC.&.f.9X+Xc.C.H. Xc.tX;XQ.y.D 0.D.c.*Xj.8./.'.O.] <.j.j.y.j.8.C.H.c.3.s.Q.<.0.8.0.T 3.[ I.f.V 3.I.] k ; < O 2 r J M./.O.s.y.) [.c.D.y.eX X&.M.0.'.&.c.D./.3.*X Xy.eX] I y.o.3.T s. X Xf.3.j.y.) I.-.<.s.O.T 3.c.Q I V k ; < $ ] [ n j.o.<.j.[ Q.0.4XI.Y.0.2 y.<.o.c.k 3.o.I n k &.j.] J O.-.j.-.D -.3.3.f.) c.0.[ Q y.O.J I O.O.y.I k V J $   O r D [ y.s.f.j.D T s.3.eX[.&.x n V o.n V J T r r T ] O.I J -.D.D 3.I f.-.8.f c.&.n j.] J j.<.I y.-.O.n s q O < $   D Q 9 ) f.,XQ s.I O.x 3.I x r r r s q $ T o.f k I I 8.T s ) &.) ] D J [ 8.o.0.O.I ) I k 3.[ 2 J n ) x 2 f s O   < f q D &.[ 3.0.s.o.D s 9 9 s r < 9 9 $ q r r ] x x s.) &.s V ) n T ) D.-.D k [ 8.O.I V n D -.D s x s 2 2     9 q q D ] D &.o.f V r k 2 q q ; < q $ $ < < $ < n 9 J n s f x j.O.) J ] Q f O.T ] T o.T D &.V ) x k D k < $ < 9 s k f V f k J D D J 9 s q r r 9 9 2 ; O 2     2 s I T q f k f V o.o.V D n V r Q T V V D Q k J x k r $ q 2 2 q s f x V V M.c.f k f k n k n q 9 k 9   q ; O O ; < < 9 s s J T s ; f I D k f J J J V &.T Q [ x J V < q ; s r q 9 ",
"y.hXxXH.9X*Xs.Y.I.[.[.PX+XM.f.) f.lX/.j.[.'.Y.C.I.'.'.f.D.j.I.-.&./.j.T O.I.H.] &.[.H.c.] k <     2 O.[.C.o.O.'.0.f. X X] I.Q.I.[. XhX) D s.Y.'./.H.hX4X4X/.,XY.3.O.'.tXj.9Xc.H.c.hX8.8.hXM.-.M.M.3.D.s.J f.] ;     $ x M.Y.<.<.,XlXY.0.[.nX;Xj.'.,X] <.I s.3.H.[.3.O.f.Q.) H./. Xs.8.C.D.3.o.D.j. Xy.8.&.o.T ) 8.) f.[ J J O.[ r 9 O   < J 8.s.;Xc.eXJ j.I.Y.+XY.;X<.I./.M.y.0.M.Q.0.'./.Y.*XlXy./.4XD.s.&.8.s.0.s.;XM.) f.M.M.o.<.y.k f.[.0.3.f V 2     8.[ ] <.8.D 0. Xj.) y.y.Y.q &.H.o. X&.3.O.o.Q T <.] Q s.0.y.8.8.V s.c.<.3.-.H.3.) y.y.s.[ ) Q D f.y.V r Q V f     s O.8.o.s.8.I Q Q.8.tX3.k f T f s.&.$ O.H.) s [ Q -.Q -.n 8.O.-.O.[ -.0.q /.8.T o.3.V -.-.&.T ) ] 8.9 k n ;   < s J < D y.s.) f.&.T 8.f.[ D 0.Y.J $ &.T o.o.Q n V Q ] T T -.-.O.3.8.Q D -.T y.&.Q O.J T o.s.n n ) Q Q n D s <     < 2 n ] -.f.&.[ 3.k D T o.T V x n f ) o.r T [ f x Q f.&.y.[ V -.n T -.0.3.V n I 3.] D J T <.o.V J n 9 q ;   $ ; 9 o.x I [ 9 2 -.J n D I n q s f ; < 2 < k k o.n -.n n O.J Q T Q o.8.I k J -.-.&.n V J [ D k -.n T V f 9 ; $ q k x s r V J O.3.I n x r 2 9 2 $ < O ; ; r q x T V ) 9 n f f ] o.I I I n n s V D x n I o.T I x f k q r 2 < < 2 q f V r 0.I r k J f k s r q q q 9 9 s $ 2 s k x n x f s k n x x D D r D o.] D ] D T T Q ] n V ] D 2 < < < < 2 ",
"/./.BX*X9X'.8.9XQ.-.c.eX[.0.;X[.o.Q.Q.'.4X X;X4XM.Y.Y.f.C.j.Q.j.T +XC.f.j.C.-.0.) I 8.O.) s.V ;   < ; o.s.j.V c.0. X+X;Xf.) f.Y.[ f.4X<.'.8.0.I.tX/.'.;XQ.I.,XlXQ.] [.I.Q.3.C.C.s.H.0.-.Y.0.c./.D.0.I.Y.] o.[ s 9   ; ; <.,Xc.-.D.;X*XQ.'.8.I.;Xf.Y.[.M.C.Q y.<.s.0./.[ M.c.j.M.j.8.&.j.M.j.o.s.-.H.M.y.3.<.8.-.o.J f.O.c.J V o.&.r     O 2 k [ I.Y.M.&.J j././.sXI.f.0.Q 0.y.j. X/.3.3.+Xc.BXD.c.-.C.I.O.j.f.j.T <.f.M.y.&.4XC.3.&.[ <.) I.M.c.<.s s ; 2 < o.0.O.[ &.V Q.j.o.k D.M.-.-.O.) 8.O.&.O.3.o.] O.k [ O.8.M.f.3.V f.H.s.) M.'.j.) T 3.j.Q <.M.n J &.r V O.I k ; ; $ O [ c.T &.Q [ ) /.I.O.r 3.O.<.f.D n f.T T J T ] I Q H.O.0.3.o.o.T s.O.J 3.I.I O.8.) -.o.<.J T ) [ O.) x < ; $   q J ; D 8.<.o.J ] -.-.n T 3.] 9 I ] T O.-.c.T f Q T I o.O.o.&.3.y.<.-.] T 0.n 3.&.) ] I c.Q D T f ) I Q r s ;   O ; n I &.8.) n <.) -.I I V O.-.V s ) 3.r [ T V T o.&.O.s.Q ) 0.c.D k &.0.D D J 0.T V J T T ) n I V r k s ; O   < D 9 <.8.x r [ r s D T I x k s q D x r T x ] q T o.[ f.] I -.] ) f.I x x O.<.s.D k O.O.I f 0.) J J D k < O < r s 9 2 s < J &.k D I D r n n q f q k f s f n x k D f n n D ] ) D D I V D n n ] ] ] n ) ] T I x n r s q < $ $ < r n 2 J 9 D Q O.o.x q < q q < q k r f x x f f V J D s x J J x n J I ) 0.<.) O.T I D D ) D k [ ) < r < ; $ $ ",
"-.J 4XxX,X[.I.,XhXnX+XsX;XeX/.hXQ.*X9X[.D.I.,XD./.*XsXQ.'. X[.Q.I.j.[ Q.j./.M.0.y.I.] [ j.&.k $   <   f 0. XV T -.O.I.hX9X0.[.c.s.,X*Xf.Y.C.nXBXQ.[.c.9XQ.j.s.BXeX'.O.Y.I.'.f.j.4XD.j.) M.C.c.C.Y.[.j.M.D.8.-.x q       D I.H.c.[ 8.8.s.;X X XY.c.D s.[ -. Xf.H.D.f.&.O.M.j.I.H.s.M.y.-.f.[.j.3.y.j.'.C.c.s.8.-.I 3.s.n Y.<.n 0.M.J q O       J H.D.-.H./.D I.y. XnXs.c.[ &.[ ] [ 0. Xs.[ O.c.C.j.3.o.s.3.M.o.j.[.f.H.f.c.-.8.8.f.8.C.y.n ) C.&.8.T r k     x [ 8.[ Q Q 0.f.J ) 8.H.o.f.J x 3.[ 8.8.I.M.C.f.) ) C.;X,X;X0.O.<.8.<.-.f M.+X-.&.O.[ f.O.[ 0.y.[ q f I n n 2 ; O   2 [ &.&.Q V V <./.I r O.8.I ) J s j.T 0.<.) D s f.<.&.I.H.C.T <.8.) c.T Y.I s.-.] 3.] [ -.[ O.k 8.3.x r k <     s x V O.V s.T T Q /.J s J I ) ] ) x I I <.x J f.] T &.&.3.f.&.) s.3.s.[ &.I ] <.] T ) j.T ] J s T T Q r n r ; $   x V Q Q ) J [ Q 8.T T q V &.Q D k [ x D k T ) ] I y.&.J O.Q I.3.T ) [ x [ ] J J ] ) o.n D T [ x s V k 9 ;   O O < O.I ) V J D s f k ) T k 2 f V f f D x ) r V [ &.&.[ O.c.O.T 8.Q D ) Q &.s.[ 2 o.3.V x J &.x I T D s 2 $ O $ s s f O q J s n n V r D I s k s I ] < D Q r T V V f Q O.I Q o.J n x V V f o.O.o.D D Q T [ D J x k f q < O $ 9 f n q 2 I ] ] M.D D D D V V T T x J D k q 9 s n D x J ) I k n ) o.[ O.<.-.Q Q [ f n ] Q n J D f D x s 2 O ",
"nX8.Q  X4Xy.[.Y.[.'.H.,X+X;X4X[.eX*XQ. XlXI.f.c.s.C.4Xj.Y.tXD.f.nX'.[ s.o.[.H.) -.O.0.D.I.8.I V <     r [ j.T <.8.f 0.f./.lX[.[.C.I./.H.y.8.4XY.lX;X-.Y.eX,Xs.s.tX9X+X0.I.*X/.8.9X'.[.s.D.[.,X8.8.[.H.s.H.c.-.T D q     2 o.[.sX;X[.s.] &.Y.Y.[.4X/.[ c.T D.I.M.H.c.3.&.j.'.eXY.Q./.I.&.3.f.f.f.0.) Y.M.I.Y.f.D.o.o.-.D I.*Xo.x O.o.Q $   $ $ k n o.&.Q Q.H.,Xy.T I.C.Q.<.,X4Xo.[ -.D.s.'./.C.9XxXH./.'.0.[ f.C.c.H.0.s.C.-.s.H.y.s.I./.n 0.J y.3.8.k r $ O < $ 3.D.8.r -.c.J <.o.'.8.&.&.&.8.3.k J y.O.) T y.-.D.[.I.D.0.C.f.o.) 3.O.j.<.) ] I.Y.&.) f.f.[ -.[ o.I r J s O   ; x 9 D c.j.q 2 C.I.'.[ -.V I.] ] r O.0.&.o.M.f n Q 8.D.c.o.hXj.<.O.&.'.y.3.<.f.8.V [ ] I <.0.] O.D -.o.s k J 2     J I [ q H.o.Q J M.n s V k D o.[ f [ ) ) 9 T j.o.) <.0.D.[.y.I ) c.o.3.3.T <.) J ) o.f.I o.-.T Q Q T s V x 2 $   < f I x [ [ T D o.T -.T k I J [ T Q J k k n I Q f.f.o.[ x V [ s.8.Q J x -.0.n x o.T -.J V o.[ n x D s < 9 $     9 I 9 ) V r D V k s ] ] J 9 s x s D x V ] D D I 0.) O.8.j.y.y.3.T Q <.O.O.3.T f Q D.V x s [ Q I T J V x 2     2 r x k 9 r k q q f 9 x J s s f k D O J o.x ] D n x o.&.J ] 3.] ) n D ] V T I [ ] I [ [ o.V J Q x x f q ; $ < 9 T V 2 r n f 3.I x J k r I Q k r V x x n s 2 q x T T I D I o.o.D Q ) ) ] D T [ k J o.] ] D n [ T T D s < ",
"lXH.O.'.xX-.y.hXhX[. X'.9Xo.lX*Xs.*X Xf.tXhX+XM.f.<.H.0.M.Y.&.C. XsX'.C.-.C.C.y.-.H.V -.,X-.I k f     $ r ) <.H.D.D.j.o.T 4XQ.lXH.'.Y.] +Xy.[ ;XlXnX9X[.4X,XeXf.j.*XsX,XM.D.+Xo.j.4XI.C.;XC.*X'.0.0.*X Xs.<.D O.V r       $ 3.+XlXQ.0.H.D.+Xc.*XD.O.[.y.) 0.<.j.4Xs.Y.f.I.Y.H.D.y.M.*XH.f.-.8.f. X-.Y.M.D.j.[ y.+Xj.-.f [ *X0.I f T I 2 O O $ k 3.D q J s.0.0.M./.0.y.f./.Q.3./.3.<.c.<.Q.f.[.Q.D.D.j.H.j.) T H.<.j.Q.0.8.D.Q f.3.T s.'.0.&.8.8.&.-.Q s D   O $ 3.j.&.) [ j.I f.C.c.'.I 3.j.s.[ O.o.3.] o.0.;XC.I.Q.I.s.j.I.M.Q D.s.D '.8.n [ [ <.y.s.0.<.T Q ) j.8.J V 9 q <     V V T ] &.f ) c.M.3.o.-.&.n J -.) I k Q C.] y.-.0.j./.T c.-.s.M.8.D.y.] f.M.M.o.I Q V T H.f c.&.Q O.r x ] O $ O 2 k &.J -.V &.I 3.O.n D ] J C.n s y.M.<.k D ] 3.&.-.-.s.I.f.[ o.8.&.Q o.y.] <.T o.D -.Q ) j.D Q T J x n D q < $   2 J x J T k J o.I D Q I Q V T 3.D x V Q f T 0.f.&.8.I.) J n ] 8.T I D o.8.] s I x ] [ T [ I Q T Q f < r 2     $ n f Q D f k x k q D D ] x s V f Q f x I J V <.C.Q o.O.O.3.8.M.] Q ] 3.[ -.n [ J '.Q r n x &.J ) I D J f ; ;   $ s n 2 < n s s f r r V V f n D s 9 s V n k D n [ o.Q ) Q Q [ 3.D T <.o.D x O.Q Q 8.0.O.n k T k n n f 9 ; $ $ r ] ; 9 x k n T x T k r Q ) k x x k V J x 9 s I -.] D n T <.&.V I &.I D J I I ) Q [ Q -.Q D <.J n V x r ",
"nX9XD.T Q.'.] M.'.nX'.I.hXH.j.sXlXsXsXD.Q.'.,XQ.Y.c.j.y.s.-.I y.f.c.;X*X-.c.hX/.I.C.O.T H.C.] k r $   $ 2 I 3.f.f.s.'.,Xf 0.*XD.H.3.;X-.s./.*Xf.H.xXnX4XhXnXBXM.] j.C.xX;X/.,XO.'.c.j.'.I.y./.I.'.<.c.tXQ.M.<.O.T x s <   ; D s.9X4XH./.j.'.H.[.Q.3.C.s.y.j.0.]  XeXc.<.H.+X,X<.3.-.Q.*XQ.M.j.j.Q.<.y.f.C.s.&.f.y./.*XO.] H.[ O.T ] n r 9     r c.T k n s.o.'.H.Y.Y.s.<.c.[./.-.*Xs.'.C.o. XM.M.8.-.y.9XQ.D.Q f.O.C.I.c.y.D.j.s.&.&.T Q.T &.'.[ J s.[ J $ 2   O x o.I.x ] -.c.o.C.O.f.o.0.Q '.-.f -.D.<.r n &.f.3.8.y.3.s.I.M.o.f.J &.Q.c.3.J o.3.V ] 8.f.o.Q Q I -.O.Q < q f < ; O j.3.y.y.M.9 y.Y.<.] ] o.O.V 8.O.] O.O.&.0.*XH./.j.f.) c.o.T Y.y.M.Q Q 3.M.H.f.[ T J J I.x <.C.Q D J ) D $ ;   $ s ) Q -.V [ c.f q Q 0.O.r I.k r o.3.o.T ] &.s.0.&.O.-.y.s.[ -.M.o.J O.O.O.c.o.[ J ] I V y.J ] I V J k I r 9 2   $ k V x n f x O.o.r V x T o.I &.f f V ] V [ 8.) O.c. XY.o.x ) 8.) I ) O.I T I J D I -.o.T Q ] ) o.J s f 9 ;     < 9 n J ] 3.x f 2 n r Q J x f q J f r J I Q f.s.o.o.I ) -.I s.-.] [ &.o.&.J ] x f.] k k s I n o.) V J D q < $ $ q r q r k J s s f 9 D ) s n ) V n r f x s T ) -.o.) O.T n ) ] D Q ) [ I V ] D Q 3.8.[ T f V k V J n s 9 ;     n < q x J n V s n f q s k k D k n D D k r D &.<.[ T J I o.O.) J -.Q ) I J J O.T Q T o.] T [ T f V D n ",
"8.4XxXM.H.c.&.D.*XM.+XM.Y.BXC.j.sXtXxXI.'.*X;Xy.Y.9X'.I.*X4X/.s.&.Y.4Xf.Q [ +X+X<.4X XO.c.0.J x D r       r o.C.y.D '.*X] ] <.Q /.f.H.8.j./.eXD.o.xX+X X XtX,X,XD.H./.s.j.'.'.+X8.f.*XH.c.C.8.eX0.M.o.+XQ.'.4X8.I s r     q r ] C.[.M.[.H. X+X X&.] O.0.'.y.Q.J &.D.D.*X4XnXQ.tX,X) I H.D.C.f.C.C.0.O.s.M.-.O.3.) f.'.[ O. X-.I s.M.T 9 2     O j.Q x O.I O.f.0.9XI.f.s.Y.hX&.0.*XM.D.H.Y.I.Q. XM.O.0.y.Y.C.] +X0.0.H.y.) s./.+XQ.-.Q f.O.J <.c.s.s.8.I k ; O   ; [ 8.&.] Q J f.c.n 0.O.y.I <.*X0.3.] V V D.f.'.*XQ.y.M.s. Xs.[ ] ] <.[ C.+XO.T s.j.-.n f.3.I f.I x x -.I q $       [ D D <.y.V 3.&.Q Q y.s y.x <.[ j.[ J O.<.*XM.+X'.0.O.D.[ O.&.j.Y.Q D ] 8.I.<.-.] Q ] j.3.T [ O.k 8.3.s D $   O 2 ] ] j.T &.j.) f ] s.8.x ] f q x J Q O.-.f.0.f.0.j.c.c.f.Q [ y.s.T <.[ I Y.[ T f.&.x f -.s.&.Q V ) r J 9 2 <   $ 2 J D I J I n I J s.x q ] 3.) r V f V J ] O.3.0.&.T I.D.D Q -.I x -.M.I Q O.J ] k ] ] k ] I I O.] n s < ;   < $ 2 k k D 8.Q x r T r J J I D f J D 9 D D [ 0.-.M.M.o.s.H.-.V 3.<.j.[ &.] ) D V O.-.-.x O.V f -.O.n D I r $ $   2 ; r k O V x k D s [ 0.n J q k r k x s V I 3.[ o.3.-.] ) ] D [ -.n ] &.[ Q T Q ] Q D &.I I x J T J x s 2 O <   9 $ < x [ q V V J n 9 r T [ q x J V f f I &.[ T T ] ] ] ) J V T [ 8.V n Q ) I T ) Q ) Q I &.n T ) Q ",
"[.Y.+X,X4XeXY.&.<.Q.sXhX;XI.sX,XhX;XlX4XQ.I.,X*XD.C.Y.O.Q./.*Xy.M.I.+XC.8.y.3.I.o.I.;Xo.Y.eXo.k k 9 O     < ) C.D.] j.H.) f.;X8.f.3.H.3.3.0.M.hXH.M.lX+XQ.D.eXf.,X+XI. Xc.M.Y.'.'.y.M.tXY.'.H.H.f.I O.H.c.J M.s.o.V s   <   r &.O.s./.y.c.Y./.D.Q.) 3.Q.Q.M.'.H.3.j.H.[.4X;X/.'. X Xc.0.3.Q.0.Q.4Xy.3.-.M.3.I.H.y.T I.O.D I.&.q j.8.s.f 9     O x ] O.3.o.3.s.H.O.o.8.C.V -.C.-.s.f.H.'./.,XxXeX+XI.H.[.8.f.c.D.I./.s.Q.c.[ Q././.Q 0.<.o.s.T M.y.J D.3.s f O   O D J T o.M.Q O.3.<.'.c.T 8.V f.I.*XM.O.x Y.M.4XtXM.s.c.&.;XI.<.V ] D.H.] j.f.O.D.8.8.s.) 8.Q <.) ) [ n s x <   O   k [ k [ -.x D 8.Q -.3.0.8.V V -.V s.k &.0.c.C.c.;XH.I '.y.] I.&.D.Q.] D <.M.&.Y.Q J ] [ 3.j.0.T f I <.s T <     ; s n I n M.I f O.x 0.[ I I q s D T ] D T Y.f.j.H.Q c.<.H.3.3.] c.f.] &.I M.O.f M.o.y.x x ] <.-.T J s x q q 9   O O ] x x Q I D Q n <.0.9 J 3.T n O.D T x ] 3.y.Y.D.[ &.8.I 0.[ T T n 3.&.V &.I D.O.o.Q I I n ] n T [ 9 n 2   <   ; s q n J T o.n D o.s J [ V D Q ] k J r 3.0.s./.8.) M.C.&.I Q V 3.<.] ] &.J J V J D n o.y.V [ C.J f I V q O $ O < k 2 k 9 x I I s f q V V V f T s f J s T O.-.f.s.<.T &.&.&.) Q T &.I ) o.) -.) [ O.] [ J x Q Q T k J f O   O < q q s f q n J V r J s n o.T f f 9 q x &.<.Q O.<.O.3.o.V <.3.n T j.T V T o.T T 8.V Q Q [ [ [ T x D ",
"s.H.o.3.hXhX9X+XnX8.C.,XtXhX X+X9X4X/.sXtX*X*X8.4XsX+X[.D.Q.y.<.3.*XI.c.8.O.Q.9Xj.&.y.[ 0.*XM.T f q ;     ; D 3.j.s.3. X8.H.;X*XI.s.I.H.H.'.<.f.[.,XeXsXPX4Xc.0.Y.3.eX Xy.f.4Xf./.Y.c.Y.I./. XQ.[.&.] c.H.O.-.0.-.T D O     f 0.8.) j.I.I M.D.y.j.Q C.,X'.;X Xc.C.*XH.C.4XI.<.-.O.c.j.j.D.o.j.Y.9X&.-.M.D.-.y.<.D.) /.'.I Q 0.V O.V &.9 q 2     o.Q y.c.[ 8.[ &.o.O.o.O. X<.J <.4XY.s.Q.[.tXsX4X9X*XsXsXM.) f.<.<. XH.T M.M.J c.'.&.) ] +XD.I [ Q 0.<.y.f < O     n <.f &.c.-.] T ] Q.s.8.j.3.Q 0.s.c.Q I ,X4XQ.9X X-.y.j.H.f.-.o.Q s.j.Q O.s.D.<.J -.C.c.-.j.x s [ ) 8.o.; f       T J J [ c.Q D [ V o.V T [ ] ] Q ) r ) y.Y.s.Q.H.M.0.-.8.) O.'.y.I /.O.Y.j.&.<./.j.Q J -.Q <.8.O.J &.T ; I ; O   O s T o.n o.3.) 9 x o.Q.s.s s V &.3.x x T &.D.Y.D.&.-.] c.O.T I f.M.[ T V C.O.n f.<.s.&.D n [ [ V &.k f o.2 2       x D s k T J J x T 0.V s ) Q x D V [ 3.8.y.y.I.C.<.&.0.&.3.o.I 8.J I Q D x V f.M.V ) O.x T x x J 8.2 q r ;     r D r k D q q o.n V J q f D D s [ f O.r <.3.j.C.8.[ ) H.s.o.0.V I j.3.V O.] [ ] ] D D V ) &.V 0.o.9 s V k ; $   ; s 2 k r x ] k n I 2 x I V V O.x < T [ ) 3.0.c.3.[ ) &.<.[ T o.I ] Q V T -.&.O.] ] &.&.O.I ) ) ] n V r <     ; 2 2 r k f f x r s Q r 9 O.J f f 2 s I 0.8.<.0.8.&.0.<.J &.C.Q Q 0.] I ] ] J J &.) ] n D I D V s f ",
"Y.9Xc.8.4X+X'.4XhXH.j.Q.sXhXhX9XhX9Xf.[.*X,X+Xf.j.[.s.Y.M.eXc.s.y.[.Q.D.c.[ s.sX+X8.s.H.s.j.8.] k r ;     ; V &.D.D.-.Q.0.I.*XI.M.C.M.0.M.nXc.+XY.sX9XlXlXHX'.c.Y.3.tX XC.T f.'.Y.hXI.Y.3.y. XxXC.I.D.H.-.-.c.-.) n I     $ V C. X'.hXQ.;X) +XC.I.o.&.&.] Q.I.D.s.C.'.*XhX;XeX'.M.y.H.8.Y.y.-.8.+X<.Q /.Y.H.3.y.] Q y.,X/.I -.O.3.o.[ x f O <   ; V &.j.[ <.&.D.) +X XI.'.sX0.s.s.O.D y./. X X Xf.M.I.tXQ.y.Q.C.x Q.4Xo.f.D.C.T ,Xj.J 3.J D.C.[ q 0.o.0.I q O   O s ) [ o.c.[ c.] ) ] J I -.j.I O.o.&.M.f C.I.;X XD.c.o.[ C.0.I 3.o.0.] x J 8.j.8.[ Q T 8.f.] ) Q [ &.&.&.f n $     ; f r o.0.O.&.Q.0.] &.[ x o.3.s.O.V ) y.H.C.,X;X'.D.j.-.8.Q f.y.[ [ Q M.I.x s.y.[ 3.<.<.f ) ) s.J o.] r n n   O O s [ 3.Q ) O.<.x I O.D. XD n J D -.[ D J 0.s.+X XD.o.) C.M.0.o.] -.<.<.) -.8.J -.3.-.0.) I J [ s Q J k T r < ;   $ 9 O.D k J Q [ ] f D Q n I [ T V n J 8.8.j.c.Y.y.<.[ 0.3.O.&.) f.I V o.D ) D J f.) k D o.y.) k r <.Q s < ;     9 k D I k k ; o.s q J r f n k s k x Q J s.y.j.s.[ o.T j.y.J 3.o.I s.o.k O.o.[ ] ) T O.n D ] k I ) V n r D 9 $   O q 2 f f I T s ] H.2 r V x I Q V s J 8.I.<.j.I.y.[ 3.o.o.Q T -.D T [ D T 3.] <.[ Q -.o.[ Q Q ) O.J x 9 < O   O ; < r x x I J 9 x ) k r y.V r x n I ) 3.O.s.f.3.o.8.3.T ] M.Q I [ [ Q ] D o.] T ) &.] ) V ] [ I I ",
"Q./.tX*X'.*XH. XQ.9X/.f.eX9XPXnXFXtX[.H.Y.*XQ.*XQ.tX[.y.D.eX/.&.0././.H.Y.o.] '.sXC.) c.'.M.] O.V r $     ; J 0.3. XY.f.'.8.f.+X,X,XO.8.3.4XFXM.s.9XhXsXQ.xXtX[.-.[.eXI.Y.I.s.<.C.tX;X[.I.C.I.M.4X*X&.I.+XT 3.;XO.x J $     9 <./.D.;XxXc.H.Q.[.+X) Y.sX<.C.[.O.3.-.4XtX4X/.eX+XM.j.Q.y.f.'.8.c.I.<.J 8.I.I.<.j.j.Q [ c.I.[ ] Q f.] M.I q <   $   -.f y.+X Xy.3.&.I./.8.s.Y.j.,X X*X<.,X*XeXC.I.H.I.D.[ ;X] M.,X3.&.[.V O.s.C.C.J Y.3.f.+Xj.V &.D o.8.) Q V     O r y.V ] 0.8.f.O.Q.3.<.T /.Y.&.I O.T <.o.D.+X,X;X/.'.3.<.H.D.) y.<.y.T ) o.j.3.) J s.&.x Q V Q -.3.3.n I I o.;   O < T q n J <.Q n T V Q ] Q J o.f.V O.J Q 3.D.+X;X[.D.j.-.f.Q -.] '.n O.&.D.V O.f.V <.y.c.o.q J -.D T o.T V V       f ] O.[ o.-.0.T D o.-.I.) k &.I x Q &.8.c.Y.;X/.s.8.3.3.<.<.f.8.&.&.<.-.-.0.n ] 3.) o.) &.o.) k x I n 2 s 2 ;   $ < &.) V O.T D O.) f Q V J Q ] o.J s V <.f.H.[.<.&.I &.O.[ -.&.o.I [ j.Q ) I T Q 0.Q Q k ] f.] J V T k k < O   O 2 J ) k f s J I Q V V x Q ) &.J J J -.[.c.D.I.] [ <.-.3.<.J ] Q -.O.T D Q Q [ J ) 3.I ) T D k D T ] s n f ;   O 9 9 r s T k n T /.x x 2 Q c.T k V f I /.3.C.'.s.&.M.[ Q Q [ O.V T -.[ ] [ I O.&.[ <.o.D V D I O.T D r 2 <     $ ; q k k T D q D V k s O.-.x f k V D <.y.s.j.3.] &.<.[ ] 3.T Q ) &.[ o.D O.O.k k T -.3.J J ) J D ",
" XC.I.Y.8.;X*X;XeX*X'.M.'.sXeXhXnXlXnX;X4X+XM.Y.I.sXsX&.D.,XhXC.) ;XC.M./.T <.j.;X X] O.f.8.T &.J q O     O D s.&.o.D.y. Xf.f.M.j.*XC.[ Q <.'.tX0.*XxXlX9X4X+X'.[ [.4X+Xy.[.sX8.-.c.4Xc.Q.Q. X<.sX4XY.<.y.0. X+X0.x k $     < ] y.I.D.4X+Xc.;XQ.D.f./.xXeXH.9XxXj.8.,X;XlX XD.[.C./.M.D.y.c.3.<.+X] -.&./.8.3.<.I.0.y.D j.c.r Q J I &.o.f   O   2 c.J o.M.D.8.&.c.D 8.Y.] C.Y.Q.tX9Xc.D.sX;X'.M.I.O.;X+XQ.O.j.c.f.-.D.3.Q s.Y.f.J -.8.j.j.Y.3.I s.O.j.Q f n   O O r f.T Q &.<.y.0.j.Q C.] y.[ +Xo.Y.k 0.M.[.Y.sX X9XO.3.Q.-.D.[ 3.[ o.Q f.8.f.&.[ [ y.-.s.[ <.9 T f.[ n V f j.< O   9 ) -.] ] O.I.8.[ Q O.&.k D T D r n [ T 8.I.[.,Xf.<.D.3.-.0.y.f Y.Q y.H.3.T <.M.) 3.3.c.8.s o.k [ [ D Q T ;       s T D Q ) O.M.) x x Q ] o.Q ) O.T x D s.M.'.;X'.O.C.j.O.y.T 3.0.8.<.&.-.o.<.V O.-.T T ) [ j.I V ) Q n k 9 9 O     ; D V x ] J V ] 8.s J I n n I <.) I s <.f.I.;XM.f.J Q ] 3.[ <.J Q ) f.0.3.k ] J -.&.3.q r 8.Q [ V s x V s     $ < r n V s Q D J [ k I ] V O.&.&.2 k D c.j. X*Xj.O.8.] 8.H.I O.O.] ) [ T D ) 3.D ] &.T o.8.T J T r I J s n <   O 2 r 9 q x s I f ] ] ) < q c.D q D T [ Q.j./.'.0.O.M.] I T <.) I ) O.-.Q ] Q ) -.-.<.0.J n J I ) J ) V q 9     $ 2 r f r k f n ) x V k f o.V V x D Q y.f.j.I.f.o.O.3.<.&.Q I ) I [ Q ] I ) &.I n D ] 3.[ I [ ) ] ",
"*XeXj.C.y.I.*XQ.,X4XI.4Xy.'.sX,XxXxXeX;XlX[.Y.j.D.[.[.&.s.'.4XM.&./.Q.I.+XT I 8.j.*X XC.3.&.) D V 9 O O   O x -.] <.<.V '.9X-.T H. X9XH.'.0.<.4XM.M.sXtXsX9XsXc.*XI.Y.eXH.0.hX*XM.s.f.M.8.H.M.C.*X X+Xo.D.f.&.+Xs.x 9   O $ V -.) C.H.H.C.j.Q I.o.[ -.[.hXH.9XhXnXH.;X4XFXtXD.f.y.o.0.s.s.j.s.'.,XV -. XM.8.<.<.D.J +X8.J '.<.O.[ s -.T 9 9   O s I ) n D s.3.) 3.C.0.H.&.+X3.0.c.Y.M.j.lX;XBX4X/.H.s.[.f.D.D Y.D.Y.0.Y.f ] ;X X<.T Q j.o.+Xf.D 0.3.0.0.q s O   O r -.c.] 3.8.Y.r s.M.j.[ M.O.s.Y.Q.[ D  X<.H.lX9X*X&.8.Y.C.;X<.&.-.O.J 0.-.-.V J c.I.<.8.o.T ] ] o.T n n k &.;       D Q -.] T Q Q.Q n -.Q.x &.] n J f Q -.f.[.9XsXD.y.Y.M.C.-.D.T s.n O.;X0.D C.3.O.&.-.j.-.T [ n <.O.J T D ; O     f Q x ] I D 0.&.k T ) J [ o.k J O.o.n I H.Y.,X,XO.H.y.8./.s.Q I &.s.<.O.J 3.O.y.] I ] -.Q 8.-.x [ 3.x I r 9   O   2 s x I s D T V &.V V Q T T V &.o.<.V O.M.I.4X;X'.] T o.f.Q O.) &.k ) C.j.) I T ) O.) T x 3.] V I s [ q q   O O ; q r x D &.-.k V f x -.x T O.0.x J ) &.j.;XD.Y.8.&.[ &.8.o.<.8.-.I T <.I [ o.D &.0.Q Q O.[ ) Q k s s x V ;   O < r < r V s J ] k ] x r n 8.J D n D T 8.c.[. Xs.8.j.Q V I 8.Q [ [ ] o.V <.-.T [ o.&.y.Q [ &.[ Q x Q D 9 9     ; 9 r s q k s V ) x n V k f x Q J ] 8.D.0.D.+XH.<.O.8.y.O.I ] ] D I J I ) o.O.[ ] [ ) o.) V T I Q ",
"y.tX X,X4XY.*Xs.j.nXD.sXD.f.lX XnXhX*X'.+X X X'.C.I.H.j.s.+X*Xf.M.I.;XC.;Xs.D &.<.s.'. X[.H.<.x k 9 O   O 9 D [ y.D.'.8.-. XQ.3.D J D.xX*X<. XD. X0.9X4X,X*XHXH.,X+XM.D.tXI./.M.tX[.) Q.H.;X-.O.Y.f.I.j.Q.C.O.<.0.T r     O o.8.-.0.M.4Xf.c.I./.0.D.o.o.H.C.c.C.*Xy.c.+XeXlXlXY.f.o.,XC.-.o.] 4XY.J Q *X<.8.T f.H.&.*X0.k D.O.j.s.) [ ) 2   $ O $ V H.3.T 8.y.-.j.j.j.o.&.[ &.o.3.,Xf.sX/.eX;X9XC.O.o.D.'.'.y.'.s.0.j.H.s.) T 9X*Xo.I ) M.y.8.3.O.-.O.y.f q O     f s.-.] -.'.I.Q 3.s.3.V O.&.3.I.Y.<.k ]  X[.4X9XC.M.o.Q H. XO.o.M.f.) -.[ O.I &.[ 0.<.D C.Q x o.x ) J n T n O   9 9 ] O x f Q V ] ) T k C.y.V I O.D ) f ] j.Q.,XsX[.C.I.8.*XT D.D.0.I I H.I.) 3.<.8.Q Q y.y.J I -.[ O.[ J s r   O   f Q n <.) Q ) I D y.-.Q J I T D I ) y.J M.*X,XQ.-.H.3.y.-.H.Q ] <.3.[ &.[ -.0.j.] J [ -.) ) y.V V 8.D J k 2 O O   q f V O.n n V s ) 8.V n ) <.n o.-.[ ] o.D./.9X4X/.8.o.[ 8.-.[ O.8.n n <.Q c.[ ] Q 3.J x k <.j.I x 2 [ r ; $ ;   $ s r x k D 3.) ] J s I f q J o.n ) y.-.D. Xj.j.<.&.&.[ ] O.T O.0.O.I o.I &.V T O.c.[ O.D &.[ D T r 9 D k $   $ O q 2 V Q x x -.Q Q q s V [ k J D I I c.f. X+XM.c.0.] I J -.) -.o.] ) T 3.-.] Q ] O.&.] &.3.O.Q f D x 2 <     < 9 q f f V s f D J q f Q T n V f J <.Y.D.I.,XQ.8.&.0.y.T ) -.] I I T Q <.[ ) O.T o.) Q V J T T [ ",
"y.'.4X'.;X[.lXI.c.tXD./.HXY.'./.xXeXxX,XQ.,XY.9X/.;X9X X0.I.H.o.j.9X'.] /.+XQ.[ 8.o.j.I.+Xy.[ -.f q O   O n [ O.'././.C.8.c.,XhXM.V j.T Q.xX8.tXtXI.9XtXnXc. XtXs.;XI.<.I.M.c././.9X0.3.,XhX4XM.I 4X[.M.c.f.c.-.I J r     < f.C.Y.8.D.'.,X9X X4XM.Y.I.0.I D.'.0. XsXY.*XsX9XnXeXy.f.+X Xf.-.-.C.Q.0.0.y.j.O.D D.M.-.Y.D.T f.I O.8.D O.) ; O   $ J ] O.T s.Y.+XC.f.*X'.M./.I.s.3.0.Y.c.[.4X*XlX9XlXI.0.+XD.c.y.D.C.0.Y.O.0.[ Q.&.'.4X-.x 8.[.s.I y.[ ] I x 2   O O f I 8.s I f.I.y.8.y.I.I ] O.Q H.c.;Xj.k /.H.9XtX9XY.-.I O.c.8.D 3.8.<.<.V [ f.c.C.) n 3.Y.c.o.r V ] 8.Q V J   O   ; [ ) [ o.o.f.f J T V Q s.n x y.q 8.J n  XY./.hXI.j. Xx [.f.3.Q.J C.J O.c.<.] &.8.y.o.f 3.[ T 3.V 3.I n x ;   2 O r V f 0.o.[ [ x y.J V k <.-.Q Q -.r y.I C./.,XY.D.I.-.I.&.c.I 3.y.3.&.8.O.V -.f.<.T T T T [ o.o.x J T Q k ; $     2 f x &.D V Q J k 0.x T n -.f O.0.x 3.0.D.*X4X/.j.j.8.T Q M.] O.0.&.I x &.<.n <.I Q O.I f n <.<.Q f k $ 9       9 q 9 ] k O x ] &.T I Q ) V f 8.r f.Q.I.D.'. X-.T <.&.&.Q 3.Q [ I D ) 3.k 0.V O.D 0.[ M.[ o.O.V x k T x s O   $   q 9 T T I s k O.] I q T M.D q x Q k f.M.*X+Xj.M.<.<.<.I [ [ -.[ O.] <.] ) O.) o.3.] o.I [ [ ) k V x q $     < 2 q k V Q n n ) 0.r q 3.<.k s k I ] j.H.Y.4XQ.0.<.s.s.V n ] V n n I D &.) O.c.I ) ] O.[ D I I &.",
" XY.'.'.4XH.f.H.H./.0.3./.s.[.lXhXsXhX9X4X,X3./.H.Q.y.4X*X X4Xy.s.c.s.Q I. X*X0.o.T j. X XD ] 3.D $     ; J &.<.I.c./.y.D 8./.D.*XD M.c.-.sXI.C.lX4X9X,XHX X+X+X[.[.sXj.I.*XT 9XI.f.H./.M.4X+XY.]  X XO.f.C.c.C.o.x r     q H.M.<.D.M.O.4X;XY.j./.D.Q.*Xs.f.,XM.o.hX*X4XtXhXhX;Xs.j.I.eXT H.Y.-.3.-. XQ.f.<.j.I *X-.0.I f.M.k Q o.3.<.f   O   $ f.j.Q O.8.D.s.c.o.y.'.C.<.f.c.<.y.O.'.H.+X*XxXsX+XQ.3.D.Y.Y.H.Y.+X&.y. Xo.x f.0.I.Y.O.O.Q &.3.o.V &.o.[ q ;       n n D x O.3.-.<.<.j.8.J o.f.V s.s.s.-.k D.,X[.hXtX,Xc.s.-.3.C.c.s.<.O.o.y.q -.0./.V I I.o.3.<.f n V ) <.Q 2   ;   f Q V I n y.4Xn O.D.n ] V n x -.o.s &.D y.y.Y.tX[.f.'.T [ C.M.o.3.C.8.O.3.<.-.-.I 0.I O.<.n -.&.V s.f D n $ ;     Q n r [ C.) 0.f &.I Q D T y.x V o.f ) ) f. X+X4XC.3.D.c.&.M.<.x M.y.D.-.O.n ] j.&.8.T ) J ) T -.I k n ) V < O     q f q [ [ n o.f I -.I T ) x n ] C.D D 8.D.H.,X9XM.C.8.-.n C.H.n ]  X) s T f.O.I [ n I J o.k o.T T n J < < O O   < s x 3.I f < ) I o.n f D f ] I s n &.4Xj. XtXj.] 8.8.0.0.[ J 8.I D o.&.f D D -.V [ D j.c.] ) ) s 2 f k s $     ; r f r k J f s o.k I r o.[ V J k V f I.j. X9XD.s.&.<.<.&.-.) Q x 3.f.] ] o.0.3.n &.f.&.I V [ o.f f D 9 <   O   q q k f <.x f 8.-.I k J ) Q n k ) T f.D.Y.9XI.j.-.0.<.D J ) O.J n J I ) I [ [ o.I ) ) o.] V T ) ",
"9X8.H.4X8.s.9X3.*XnX[.[ sX<.+X/.hXnXlXeX9X4XY.[.*XC.H.y.C.c.;XQ.'.j.-.I.[.I. XY.8.J I c.'.3.I T f $   $ O [ T k -././.lXc.D D Y.H.+XQ Q.-.[ Q.c.'.I.;XsX,X9X X*X'.,XY.I.M. X+Xy.y.M.4XeX;X;X XD.f.I.0.s.s.j.Q.Y.[ k $ < $ x j.I.M.8.Y.&.C.nX'.C.9XY.y.Y.c.O./.+XC.s.9XeX9X,XtX Xf.<.<.tXD.*Xc.M. X) T [.Y.y.+XT +Xy.<.n 3.H.3.V x I [ k       2 ) H.y.) k D.sXH.0.O.&.s.f.o.s.&.*X+Xy.Q.PX,X[.lXeXY.j.j.j.[.s.Y.,X] <./.Y.k O.O.C.[.O.f.f.<.T 8.Q 8.[ D < O     f I H.s.o.T x &.D [ f.0.0.[ c.k n 0.] I 9 C./.H.9X9X XD.+Xc.O.f.Q.j.s.) D./.T I n '.k J 8.[ H.-.T I n V Q n < O   2 $ I 8.T s 0.0.Q.s.T I T D 8.I Q n f 0.k ) -.M.9X,XH.Q.D.x I.'.[ -.Q.y.) [.o.-.c.f Q.] I Q.n D O.Q Q k ] x       r o.n &.x &.O.D '.D V f [ V -.k <.8.[ I ) <.M.[.,XH.c.M.y.j.M.&.J [ f.0.0.&.) ) &.o.O.Q [ ] V ) y.] V f Q f O $   $ k n V T O.[ V n J ] ] J J x 0.V [ <.Q ] y.D.*X;Xc.f.<.o.I O.I.3.J y.&.O.J J D.I O.] x [ I n D 8.n I q f <   O   ; r s T Q T f I x 8.-.) s n ) j.o.  k M.D.H.;X+Xy.O.8.C.s.o.o.j.f ] f.] r T -.[ k ) n o.3.O.J n D n s r 9     O 2 k V x J T Q s o.n x V J 3.q &.J D n 3.f.Q.;X/.I.3.O.[ ] ) 3.] ) o.y.o.I ) -.f.] &.y.3.O.I ) [ x s f ; $   O   9 2 s f J k 2 n T k 2 V I Q D r s x s.C.D.;X[.j.y.s.[ ) [ -.<.Q Q O.] [ D O.O.] n T T Q ] D T ) ",
"xX[.c. Xs.[ '.;Xs.;X,Xy.o.;Xy.Y.9XnXnXsX9X;X9X[.,Xf.Y./.sXf.Y.;X/.o.j.I.s. XC./.Q.s.V O.c.Q.I s ;   < $ n c.D.Q &.c.y.Y.HXs.x j.H.j.0.&.C.s.c.*Xf.j.c.lXeXlXnX Xf.tX8.[.,X/.4Xc.3.D.c. XM.[.H.D.[.+Xy.D.H.&.j.-.f q       I j.D.<.M.C.C.0.O.&.D.s.Q.j.'.M.Y.H.*X/.) /.+XtXeXhX+X[.j.o.f.H. Xf.'.'.T &.f.O.s.y.[ [.H.) x D -.s.y.o.x s <   $ ; < Q [.<.[ ) I s.Y.O.&.j./.j.-.9X&.y.s.,X/.tXQ.Q.9X;X4X8.f.y.s.f.8.;XI.-.] 9XO.&.s.[ -.8.&.0.J <.O.-.s.Q f ; O     [ j.j.D./.j.y.I c.j.J 3.8.f./.s.f y.Q.y.s x M.D./.hX*X0.[.I.8.D.O.y.+Xo.[ f.0.J O.D.<.-.T D &.M.<.o.J x k q O   $   V &.<.<.x [ s.] T I <.J 2 y.c.o.q k Q.[ V n C.'.4X XI. XJ j. X0.] 3.o.y.eX] O.&.] H.O.I y.J D o.<.s n [ q     2 k I.] -.0.n n I /.&.k o.Q [ &.D T 0.J <.] 8.f.'.+X[.*XD.o.8.<.0.-.T 8.[ 3.3.[ [ O.3.J I o.0.f ) o.&.V x J q   ;   < x D ] D y.o.) I V &.T &.o.s <.T ) ] I o.s.H.Q.*XY.j.<.[ o.I c.C.n T [ j.T n 0.I ] o.Q 3.) x s o.I I ; 9 O   O ; 9 x x x ) s r n D -.f.8.f D V 8.s.n n &.M.C.'. X8.Q <.s.c.D ] s.Q [ c.o.< ] c.) k Q D D T O.V f o.o.s < ;     $ 9 x V x x D [ T s V [ q V D T n [ n J 8.c.H. X+X'.0.O.<.-.T 3.o.o.[ O.o.T O.[ 8.[ o.<.&.&.J D T D f q <     O $ q q k x V f x D Q D x s O.) D r q D j.C.C.[.;Xc.c.y.Q o.&.8.<.T [ <.) T J [ o.o.J T T [ [ J T T ",
"hX,X+XeX'.] C.hXj.I.hXtX[ D.f.j.;X4XBXxX9X+XeX/.hX+X&.I.9X<.s.eXI.<. Xf.3.[.y.c.'.4X<.D Q I.J 2 $   O 9 J s. X<.-.c.Q.T 9X,XT Q H.y.H.Q Y.3.) 3.9Xc.Q.'.+XlXsXhXf.*Xy. XtXQ.y.D. X,XQ.j.H.C.*X;XH./.s.3.eXs.s.T < O O   V <.+X9X'.j.s.D.'.sX'.J ] c.) Y.c.o.c.'.+X[./.'.sX9X,X X;X*XI.[ D.;XQ.Q.[.-.&.[.9Xy.D T I.I.Q f.-.o.] '.] q 9 $     k Q V j.c.H.3.o.f.3.[ s.T 8.Q.I 0.eXy.s.[.3.f.C./.'.,X;X+XC.C.C.3.-.'.y.3.0.D.s.H.) 8.8.Q.0.f.D j.o.8.3.n 2 ;     < T y.c.M.H.D.8.Q x 3.-.;X<.V n y.<.<.y.9Xx V f.j.C.9X,Xs.D.f.s.+X<.&./.f.n y.I.] 8.T &.-.T n D c.<.&.Q n r ;     O r ) &.&.0.I o.j.o.q <.f.O.3.J y.y.) I H.[ D I '.D. X,XQ.D.D.[ <.C.0.<.V 8.f.Y.O.x c.<.s.Q I I [ T s.f D D O     $ x Q <.8.-.M.J 9 8.0.] Q y.n o.V Q D V ) -.3.y.D.Y.+XeXY.<.f.) C.8.O.-.<.o.<.[ o.&.s.n T [ 8.J [ f <.V J k ; O O   2 f n Q J [ J -.] D ] f [ ) ) I J Q n &.) D.C.s.[.;XC.8.[ <.o.8.M.D ) J s.] n n T n [ J Q [ I x n J D $ $     O 9 s I I k -.s V s I k ) k s n T Q o.I x 8.s.H.D.Q.C.3.c.Q.j.k Q T f.Q 0.) 9 &.s.O.n T Q n ] -.D s ] ] r ; $     ; 9 s k r q Q D s.k J y.s x V J ) n I f j.f.c.Q.;X[.8.O.y.C.] ] o.Q -.D ] O.0.T Q Q O.<.) ] D k x V f 2 <     $ 2 r s k n x ] n r 0.Q 2 k 0.I n V k J s.H.D.Y.;XH.M.<.[ o.] <.&.J ) &.T J o.Q T -.[ Q I &.) D T T ",
"C.[.*X/.eXc.3.C.;X3.tXPX'.M.s.M.9XI.eXhXeX,X9X/.,XnXs.C.;Xs.O./.;X+X*XI. Xy.c.8.M.tXj.f r o.s $   ;   I T &.Y.0.[ Q.4X-.f.nXf.T y.-.I J D. Xc.o./.'.M.[.;X/.sXBX*Xf.D.4XH.;XY.Q.Y.xX'.[.8.f.s.Y.+XC.j.O.+Xj.[ 2 9     f ] ) s.+X-.+X8.f.*XC.[.Y./.-.y.O.y.<.&.8.<.I.D.f.,X,X*XtX,X,XI.[ 3.+X'.D.*Xy.y.3.Q.s.Q o.Q.3.Q j.s.8.o.f.I < < ;   < V ] I 3.0.s.O.3.s.s.D y.D o.Y.3.k 0.D.3.D  XV &.9XH.[. XhX'.*XC.8.o.+X0.] '.y.0.f.&.<.y.o.y.f.) ) O.3.) <   $   ; k I Q f T C.O.f.3.) f x C. X3.r I O.I <.j.T f /.Q./.C.'.*X+X0.0. XD.&.s.M.O.<.j.-.'.<.o.] O.I ) 2 Q Q T n 2 O     ; x k y.V x H.-.[ ] f n D O.x n Q o.I x 0.Q J ] +XD.I.;X;XD.;Xo.o.f.3.D.0.o.I '.0.D -.8.D.Q 8.k ] k s.n n r O O < $ x k r n [ 3.Q I D k f.x T f x I <.D s f Q Q c.j.H.+X'.M.c.I.[ C.] ) <.M.-.&.&.O.] 8.J O.[ ) O.[ s O.Q k 9       < s f x V ) f J ) -.<.V J x D O.q V [ r ] T s.f.3.C. XY.c.O.<.0.3.j.V 0.] &.o.k ] &.Q 3.x n D &.) V 9 n O $     $ q f I Q f f s I f x n ) s J x x D I s 9 ) f.Y.j.I.+Xj.f.[.y.D <.V 3.T 8.x k <.] <.V D [ n 8.-.D r f f 9 < O   $ 9 s x n f < [ k o.O.x T I k ] f y.I k q Q 0.y.C.*X+Xj.O.<.I.o.Q ) T &.V ) <.3.V T o.<.O.Q ) Q n f k s ; $ $ $ ; q r s r s Q J V x ) n x V O.s x ) x s [ H.M.C.[.[.H.-.0.] T O.-.T ) -.] ) -.Q D o.[ ) D Q I n T Q ",
"4Xc.H.H.[.*X Xf./.O.M.4X+XHX0.Q.sXc.'.tXtXsXtX+XeXsX;XH.4XC.&.,X9X9X,XQ.4Xj.f.<.f.,Xf.J x s $ O   2 k o.j.) Q.0.T f.D.8.8.'.'.o.9Xc.8.f o.+XH.0.f.y.s.D.I.*XH.tXhX0.I.sX3.Q. X9XH.9XhX;X+XM.j.s.C.I c.I.8.8.T s O   9 -.[ -.O.M.f.I D.+XhXtXD.;XQ.H.;X8.f [ ] f.f.<.M.O.'. XY.Y.tX X3.j.O.H.s.3.*XT '.4X,X<.Q M.H.[ 8.T ] y.M.J J $     < I O.-.&.<.I <.<.[ V D./.-.[ c.3.s.) ] 3.j.J '.] ] y.eXM.[.*X;XsXs.c.o.[./.I C.f.f.O.H.M.8.Q O.y.0.j.&.-.x     O   n ] Q x [.O. XI.f.+XH.I < ] c.C.D -.0.M.I T J y.H.'.9Xs.D.;X9XQ.C.j.3.M.M.&.8.] O.] +XO.3.n O.0.M.) V n n r     O O 9 O.s T J 2 ] D.O.0.s <.[ f f ] ] V q r &.I V T c.I.M.I.,X+XI.j.c.3.) C.I.] 8.O.Y.T V c.0.-.I.k D x <.n q ;     O 3.I Q T D x x ] I x V f ) J I k ) ] T q n x f f.3.f.'.Q.I./.c.o.j.[ n <.y.y.s.<.-.&.<.) O.o.Q [ V n V ) O <       f D I I n o.x f D T -.] o.) V J 9 n [ f s I Q 0.c.s.C./.[.f.&.-.0.s.x s.y.] I J &.-.<.T &.) n ] &.r k f 2     ; ; s x J ) D k T ) o.k k f V [ I ; x n s ] k ] H.M.f./.D.0.j.f.D y.0.J J 3.J V [ x [ x D &.J [ I V k 9 2 2 ;     2 f V I T J q D O.2 I k x k T D f o.[ D q f C.j.s.Y. XQ.0.3.y.o.&.I [ ] Q ] 8.Q n -.8.O.V I ) ] J f s r ; O   O $ r q s r f k ] V k &.V 2 ) ) 9 s ] D k D s.s.f.D.+XQ.s.c.[ o.O.3.[ ) &.o.] ] [ I T T O.Q D I V T I ",
"tX9Xc.M./.9X+X+XI.Y.y.C.*X;X+Xj.;XD.Y.hX4X,XhX,X XH.eX9XlXD.3.H.;X'. XI.D.+X0.&.0.'.O.) n < O O 2 D -.O.C.&.c.-.T 3.f.3.8.Q <.[ c. X'.[ n Q c.j./.H.-.3.0.C./.H.;XY.'.,X3.f.<.[.M. X+X9X'.*Xj.f.D.T /.+XD k < O   9 &./.M.;X X*X/.c.&.] C.lX'.C.tXtXQ Y.f.]  X[.C.8.8.o.Q.4X4X[.'.[.c.sX[./.y.] M.c.o.C.H.o.Y.] O.s.H.I [ f.y.9     O O s -.M./.3.8.] H.<.C.s.o.s.j.c.s.3.Y.0.T  X3.8.j.T O.o.;XQ.M.;X;XtX+Xs.D.D.c.O.D.3.j.y.) [.s.0.Q &.o.C.r T 9 O   $ 9 O.&.Y.f.&.q 0.8.0.3. X'.&.c.C.,X[ J 3.Y.M.Q o.I <.[.4Xc.M.M.'.,X+Xf.[ I.c.O.0.s.s.I /.) C.D n o.-.3.n s r <     2 < ) ) <.[ r n J y.&.o.o.3.o.] x I O.T I D I r f ] Q H.j.0.Y.+XM.I.M.3.3.c.0.T D.) H.o.J 0.O.<.0.Q k T D r $     $ f f 8.s.O.D.-.D x ) O.k J Q n <.[ V J 9 T f J r O.] o.c.Q.;X4Xj.) f.y.T 3.] 8.f.O.O.3.-.&.T ] o.) V n q x   O O O 9 x I [ ) J [ D r V f n ) J [ f J J s x I x x f ) M.8.0.D. XI.&.&.y.o.[ <.y.O.x ) ) T ] 2 y.&.V f Q $ D < <     9 2 f V n T T q f x o.) n f o.) Q x Q 9 q y.D q 8.D.8.j./.D.f.C.I y.M.V D -.&.) ] I V s T -.J k x n x r 9 ;     O 9 x V J I V V n f.s s n J s Q x 2 J s 3.9 n C.M.3.s.M./.M.f.&.3.0.Q [ [ o.) <.n I 8.<.) r Q [ Q D x s 9 ; $   $ 2 x r f s n s x k J ] T s s T s s J V I k Q s.f.y.C.Q.I.s.8.<.] O.[ Q o.[ J I o.) I D &.o.T T V I n ",
"<.[.C./.) D.Q.[  Xc.I.c.j.f.I.M.D.Q./.FX+XY.tX,XlX[././.C.s./.c.,X Xf.4Xf.*Xj.O.Q M.k V 2 O $ O f y.<.M.-.;Xj.C.<.C.j.I.I.H.J o.T Y./.Y.] s.Q T C.y./.j.D.Q.,XM.C.[.9X Xc.hXf.D.s.I.,X+XI.Q.c.C.I.) C.0.n r 2 O < 9 j.*X/.'.[. X[.,X9XQ.n O.Q f I O.j.-.C.x c.I.j.,X-.o.<.D.*X'.3.Q.Q.,XeX[. X8.8./.Q 3.D.j./.o.I '.&.r T <.k 9 $ $ $ < ) M.j.8.*XsXJ O.o.Y.M.3.Q.n ) C.8.0.H.c.8.Q I I.Q ] x Q.Y.H.f.;X4X'.H.Q.+X/.8.8.f.f.y.T j.c.y.8.y.) Q q r   $ O ; s 3.[ j.I.) f.D.-.T I c./.<.J y.[.C.n O.) ] 8.0.J V C. Xj.f.y.H. X+XY.) 8.0.Q.o.s.H.3.) [ j.O.J ) 0.[ s 2 < $   9 x f Q 3.C.y.x ] <.) [ O.Q ] <.T n I 0.[ ) V D f k V x D.c.&.y.H.'.Y.H.O.8.D.0.3.y.o.3.M.) [ 0.I T -.f ] ; ; $   ; J ] s J o.<.8.D.Q x T f.-.Q f n I -.I f n J k k f 0.y.&.<.s.Y.[.y.] j.j.<.y.[ o.&.o.I o.] y.T T T 3.o.k 9 $ 2     $ x r n [ T T I V O.T [ n s x f ) x x I n s n T 9 q 3.-.&.8.C.H.0.0.0.V C.o.&.0.o.o.8.Q D D ] 8.x q f r <     ; $ f q f x q k V r s V s O.k s s s.r n -.k s Q r k ] D.s.&.0.8.3.C.<.j.O.I Q O.[ 0.&.8.r 9 ) o.k V T n 9 9 <     O $ q x x k f 9 x D T Q D q 2 J V V 9 r V I Q s o.0.&.-.<.D.f.0.&.M.3.o.Q <.O.I o.x ] <.) ] x 3.&.T D V s ;     $ s x I s s r n I T 9 x &.8.n s s x n f 9 V q x c.c.-.-.D.'.-.c.-.V I ) T O.o.D I O.[ Q n Q Q ) I n V f ",
"[ y.Y.,Xs.y.H.I.) j.;X/.<.9XI.[  Xy.[.,XsX XC.'.hXc.,X4Xc.&.M.Q.[.Y.I.Y.D.Q.'.s.V k q q $ O 2 k O.c.D.] <.s.D.*Xc.y.j.O.<.C.&.D k o.3.y.y.M.*XT 8.&.3.8.,X,X,Xs.3.f.M.+XH.C. X4X] M.+XY.3.H.M.c.I.D O.9 r 9   ; x ) Y. X3.s.sXxX9X*Xj.'.s.o.n Q [ f Q ) s.n M.J o.D.c.<.M.c.D.C.D.D.8.H.4XM./.0.C.'.) Y.O. X<.T [ '.x D n x   2   < q 9 Q f.-.J H.Q.<.&.o.r ] V ) s s T r Q I &.3.0.C.[.Q Y.T /.M.Y.f.0.Y.C.[./.[. XT c.M.j.j.s.<.0.c.0.o.s f $ < O   n I k o.<.C.[ [ -.[.<.T D n T s s D I [ ] -.-.q ) <.0.) 0.3.3.D.M.-.f.j.M.3.0.f. Xf.o.-.8.] 3.<.n T [ [ x 9 $   <   s ) ) &.) f.0.0.I T Q D J s f V k f x o.D T V V T D I k <.<.c.[ 3.j.Q.c.Y.-.y.M.j.8.y.<.y.[ s.f.q f 0.9 k r $     2 D c.y.; T Q 0.&.O.] x I Q D n f f Q V 9 x [ s V Q x [ o.3.3.-.j.j.s.c.j.I 8.s.-.y.-.&.3.J ] I o.T ] 3.2 2 $   O ; k r o.V k D I Q D ] 0.s.I I k k x n s k r V x n f 9 O.0.y.Q ) j.M.f.8.[ T H.] [ y.J O.D &.x Q T D k q     $   O r k D J k k V J r [ x q V [ -.q J D s q o.k D V x J &.+X&.) <.I.C.&.D.] f 3.o.I H.I o.n n q &.V V k s q <       < q q k x D s V I J J n n s I n -.; q J x T s r x T 0.o.Q y.s.3.-.D.&.O.8.o.O.o.] T <.<.] V x o.O.J ] n 2   O $ q < k D f f n s n ) k 9 ] s.] 2 f q o.O.k s r 2 -.eX-.) 3.s.M.c.] I <.0.T T O.I V ) ) n x I Q D x J n q ",
"O.I J I Q r T O.] 9 -.C.Y.C.'.9Xo.f.k I.xX9XQ.D.H.H.Y.hX'.[ c.c.Y.Y./.H.C.c.O.J f s 2   $ < r -.&.8.8.c.s.Q H.Q.-.Q &.J J I ) I D D n V V n O.8.y.J I Q I. X/.H.'.C.&.s.C.f.H. Xj.[ ,Xj.I.s. X&.3.V q ; < O 9 k 3.C.H.[.4XY.s.D.s.f.&.o.n f V J n k x s 2 9 -.T f.8.j.O.j.y.Q 8.M.tXI.0.8.M.f.D./.[.o.c.f.[.3.Q o.<.x r 2 9 $ O < s 8.Q ] ,XM.<.] c.Q D &.V x r V f D x < 2 < 9 n J M.9XO.O.3.s.BX/.s.o.T D.j.C.'.Y.o.M.f.<.s.C.3.[ T T x $ 2 ; O O T T c.3.M.[ I [ T o.o.) D J k x x f ; < s ; q V k q ] &.D.c.O.Q c.j.[ Q 8.8.y.Y.Y.-.-.j.] j.o.8.o.V x J k < O $ ;   J [ &.) 0.I O.-.M.<.Q f k x s r s q 9 q r s k s x I J n V ) ] D.y.&.&.0.H.D.Y.H.3.0.&.M.] s.o.[ ] Q D f q <     ; V &.D s /.2 x J s.D k J x s r 2 q ; r 9 q r r I D k x x x &.3.&.[ ] s.H.[.0.Q 3.&.8.<.O.&.y.[ &.I Q n V V 9     O O x k J O.D &.o.f x ] V o.n J J D D I D J f k 9 f s [ r x ] y.-.[ ) -.3.s.y.) 3.y.3.o.&.V I I [ ] n f 9 <         s n s Q f J f J ) T O.I f n J ) r k J ] n T n Q 0.x k n 3.j.-.o.-.s.0.0.o.n Q o.x 8.V ] J I x O.D k r < $     $ 2 s J k n J ] I I ) ] ] T n r J D y.f V [ k k q D I V ) [ T Q o.<.o.f.O.&.0.O.-.&.] ) &.] I J V ) -.D I q $   $ < x f x x r k V k D D J 9 n 0.O.k f 2 T 8.n f 2 r k c.[ ) ] ) -.j.j.O.&.&.Q [ O.I x J J k f V V k k k 9   ",
"<.&.) ] 0.J x n k $ x r J D <.O. Xf.C.I M.tXY.C.<.8.8.M.M.f.D.*Xy.y.0.[ [ ] k x 9   $ f O.] J y.c.y. XQ.-.o.0.o.3.y.0.) f.c.I.<.o.s.0.V f 9 $ n &.I [ T j.sX XI.H.4XD.o.o.<.8.8.j.J c.<.y.o.0.x x k q r $ < D j.eXH.f.C.D.8.[ [ I T [ 3.c.M.H.3.O.T Q ) x q 2   2 T ] j.H.I O.c.y.8.[.tXc.I &.-.8.f.O.&.8.&.J x k s r   2 $ $   x D Q.j.D 8.y.,X8.Y.&.D ] &.-.0.<.] I ] I T r r $ ; r s.D.C.s.D H.s.3.0.C.I I 8.8.<.O.8.&.) &.-.] D r f < O ; $ 9 f 3.[ o.o.s.s. X X-.[ V Q o.8.&.o.c.j.] ] Q 9 q ; ; ; f $ 3.y.] &.&.'.Q M.0.I ] I 3.3.-.-.x o.Q O.J x 2 r O   $ ; r 2 D o.y.s.j.8.s.) [ ) ) n &.D r s n J x 9 < q < 2 s k k f x s 8.[ ) 3.n ] ) -.8.c.f.J H.8.Q -.[ Q k V s < 2   O 9 J V 3.3.s C.T -.Q.O.V x x J D n k V r k 9 2 9 $ < x 2 s ] o.J -.&.V ) T o.y.-.<.D.s.3.I y.-.<.) o.V n r 9 ;     < s r V f s ] ) O.&.T n f s n x 2 V 2 s 9 2 f r x 9 f x V r x ] &.) Q s ) ) O.y.&.[ c.Q ) y.f Q x ) J 9 9 ; $     ; 2 D V n Q s I V I O.n k n r s q k 2 < 9 J x x q q &.f V x n f.) J I T [ Q ) T ) <.Q [ V T J D x J s s 9 $     O 2 f ; J f J Q Q ) O.Q ] Q ) n k J D J x Q ) f J x V I f k [ [ D J J ) &.] &.3.[ &.o.[ [ o.I D T I I J q 9     O 9 r x s s n D V J T J n O.x r O.Q f f 9 x -.f k 2 r < Q ) &.] D I 3.&.Q I Q ) O.&.) x n x f f k k s r 9 O   ",
"[.eXY.M.c.H.c.j.<.Q r r 9 r x n o.-.o.Q.f.8.Q.eX'.D.8.-.o.3.[ -.[ [ Q D V x r s r V D &.C.I ) eXQ.o.[.9XC.s.y.C.[.+XhX*X&.&.*X3.] D.'.O.O.I r < O 9 k s Q  XY.c.3.Y.Y.I.-.) D ] [ ] Q ] T T k f 9 O 2 2 V 8.-.Q. X9XtXlXBXH.Q 8.D.j.M.C.s.3.M.y./.0.s.<.3.] V r s $ s T f.O.D [ 0.j.y. XC.I.&.[ J D I D J f k s 2 O 9 2 9 < Q x 3.-.'.hX,XM.j.Q.[ O.o.O.[ M.M.f.8.+X0.&.D *Xf.Q k O 9 O r C.-.D.I [ <.8.4Xj.0.V T J ) V n D J q 2 q $ 9 O r f 9 &.0.j.f.j.[ T &.&.y.] T ] <.M.0.&.] c.M.3.j.8.T J o.r <     D D -.&.V T <.4XeXO.D J V V k x n s s k q 2 $ $   < r q D f.x D O.Q 0.] [ D I I ) ) <.) O.-.) T I T J J ; q 9 $ < q q Q J k D J 8.Q J n ] I T I &.T T J V k 9 $   9   $ f n s.Q O.+X[ ] T D -.x O.J D T <.o.] O.[ I I n r 9   ;   q V &.r ) [ V s.) V x I D o.3.I n j.o.T n T k r $   <   < V k J x ) J &.] n D I D J I ) s.V O.I n V k 2 r ; < $ 9 < r x J n D s.f.I V k Q Q T 3.f T o.x J x 2 9 2 $ O O   < x f x k ] V k f n x Q n s T J T V D x J 9 < s k <   x r T J s o.x n J V V I V I ] I T Q D n k s r 9 < < ; O O $ 2 r k n ) 9 Q 8.&.) I k k q V r s r 9 q r k k r T x k n f 9 I O.[ ) k D I D ) ] I ] ] O.O.[ J J Q I n r $ <   < r x V r 2 s ) O.J n ) D V ] V q k f s r q s n 2 k k s r f T &.&.) D I I Q ) [ o.[ Q T J n k f f f r r $ $   $ ",
"3.I.M.c.f. X;XY.C.s.J ) r < O f ] f I <.H.eX[ j.eXtXM.4X'.8.8.D V n q s s s T J 8.T <.Q.8.n Y.'. Xc.c. Xc.-.f.c.&.M.I.hX'.C.*X+X8.<.s.O.f.T ] x $ <   q k 0.Q.,X&.&.0.*Xf.M.o.Q k V n r x f s q s s Q T f.[.Y.+X'. X9X;X'.M.y.'.,XC.<.f.j.I.Q.0.D.j.H.&.O.y.O.D T <     Q O.o.-.y.) [.o.f.C.8.j.8.J D D r s f < f s < k 2 q H.8.j.<.y.8. XQ.j.-.y.f.H.I.8.M.f.s.8./.y.j.D s.3.M.-.Q ; 2   9 y.3.Q.f &.H.y.Q.M.f.&.k J n n 9 q 9 r s 2 V J o.o.J 8.c.o.V 4XI.Y.M.Q f.f.<.<.y.s.I &.) <.&.o.y.f.c.o.f.f k q 9 ; 9 D D q I /.,XY.I ) j.Q s J n k 9 f 2 ; $ f q q s q x V Y.[ -.Q.j.s.T [ -.&.J Q y.&.T 3.j.8.o.J I &.&.f k < $ ; $ x D n s I T j.s.f.s.) k < T x x k x r   2 < O < q f ) s 3.O.I s.c.T Q O.) o.<.8.O.D 3.) J T 3.Q Q o.I T q ; ; $ ; x D I J D o.-.o.Q o.J f n r f V r 9 2 r ; $   O q 2 n T J T V V [ ] J T ) ) f.o.V I o.T T 8.f 0.[ s s ; <     $ q r x s n <.8.D J x f q x V x k 9 r q r     2 O   $ < f n r f n f.Q J x V J V T J ] I Q I T I -.I < r s $ ; 2 9 k s s V n J V n x n f n V r f f f 9 9 < 9 ; ;     O 2 r k k f [ c.&.0.y.&.) n D I V [ D V x s T f < q 9 9 ; n s k 2 k Q ] &.Q x k f n n k D T Q T D V V n f 9 $ O 9 ; s s s x 9 f I O.O.J k n k V s x k $ 9 x r 2 r 9 s k T V k 2 x J Q ] I k k J T T ) T D J J k r q q 9 2 2 O $ ; 9 ",
" XH.y.[ -.3.C.y.s.[.[.f.O.D < $ $ r 8.D [ 9X*XD.,X,X/.HXBX'. XI.y.y.3.f.C.M.D.D.f.H.-.O.Q.8.c.I.D.c.M.s.-.M.D.I.y.s.x 3.D.[.H.y. Xy.8.&.y.T 3.Q 9 r       x 8.I.0.O.3./.f.,XI.-.f.3.8.3.-.8.s.J O.M.I.Q. X/.4X;X/.8.Q.'.s.C.Y.M.s.H.I.Y.j.C.C.-.c.0.f.M.0.C.O.J [ &.x 2 ;   J [ ) Q -.9XM.J f.M./.j.c.I.-.y.&.) V C.n D O.Q H.[.V <.nXj.o.] [ Q.9X*Xc.3.f.c.O.o.o.D.M.8.D ] 8.f.3.I 8.x s     V 8.) f.0.T M.H.y.-.D. X3.-.j.c.) -.Q T j.M.8.] V T 4Xc.Q Q.I.j.o.8.O.] s.8.j.8.0.&.o.<.O.I J ] <.<.8.J J [ r   $ D x   O.I.C.] <.Q 3.f.<.0.3.] s &.V k x -.] T D f <.] o.I J s.0.T O.Y. XI.0.) D s.Q ] &.0.s.Q V o.&.I I 2 f q   < O <.9 q O.) D.Q.C.o.n <.s.y.V 2 k x s f r f V &.D <.Q ] ] Q O.0.D o.8.j.3.I 3.8.J <.) D D O.T D &.] ) k s n ; O 9 q Q Q k J T O.y.y.f.D 9 k q $ < q 2 $   q D n 9 s x J 3.V D o.-.O.o.Q ) Q o.<.] ] [ D V -.V [ J D k I x r O   < < k f s s f ) ) Q D k x ; q 9   ; ;   2 $ $ q < s D I x q J x 0.O.I Q I O.D Q [ J n n n J ) D ] J n s ; r O O < ; k r k n f n I k x n r s 2 < < ; ; $ < ; $ 2 9 q k D J x q f 8.&.[ J ) T q f n D ] D k n x ) ] x s 9 2 O s q f s n J x V T V D x s s q 9 f s r 2 q 9 $ $   $ $ s r V f r x r I o.) I I D f r D q T ] ; 2 k V q s s J q D n s < s r k I ] J x x s r x n n V k q ; ; ; $ O $ q s r q ",
"/.I.c.M.;XI.H.C.O.j.'.M.I.8.s 9 ; ; q 3.s Y.;Xf.*X,X[./.9X+XD.j.Q.[.+X XlX4X3.M.Y.H.M.&.M.s.I.,XtXD.9X[.y.Y.0.I.eX/.c.y.k f.tXc.Q.j.M.y.0.0.0.3.D D f $   2 k T s.] 0.Q.j.j.j.I.+X'.D.[.I./.D.] '.[.C.+X*X*X4X'.Y.M.M.s.D.H.3.C.C./. X/.[.'. XC.'.&.<.Q.D.C.C.I.O.x T q 2 ; O n O.T f.<. X[.&.I.[ -.0.D.j.Q.y.j.T ;XO.T C.8.C.+XY.&.I.s.] s.3.M.3.[.,XH.s.<.s.D.H.0.<.D.y.) -.s.C.y.T < &.x     s n ) 8.c.<.<.8.s.3.f././.3.8.I.8.[ &.C.C.] T J I ;Xj.O.) j.y.D.D.) -.I.H.D.y.I.s.<.j.Y.<.T [ I ] s.j.J ] o.x O O   2 ) [.C.-.-.V &.j.0.O.f.[.n <.[ ) O.0.-.] ] r 8.f.s.3.s.j.j.3.3.<.) O.D.f.) 3.-.3.Q ] 8.] [ O.Q ] 3.x J r <   < J q ; s I &./.V j.) /.lXy.J x V J j.V x ) &.O.) <.y.3.-.c.D.<.y.f.) 0.y.[ <.0.o.&.<.o.[ ) O.I Q ] D x n I s $ <   k ) n o.I o.O.[ 8.D x I k x I ) J s s T 8.T k x J x 3.x D ] T [ 8.Q o.<.o.T &.3.[ I J x ] n V T D ) D k $ O ;   < 2 s k 8.0.J T T Q n r q s 2 2 r O q n 2 x x J J Q ) I [ f I ) D I ] ) D Q 0.T ] Q J I <.x T <.] Q s k ; O ; O s 9 2 q r J ) ) I x s r 9 r 9 q 2 < 2 q < J V x V T ] J f o.&.) ) [ C.f.T D V J ] ] J Q J V 8.) k s x 2 ; < 9 f x D f < f D ) J f x r ; q < 9 ; < ; O 9 2 k s V V [ J V [ I Q [ I x J ) V x D V o.] r q r J x s f V < s 9 9 9 s 9 r k ] I o.Q n f s s s s 9 2 ; < < < < < n J n r ",
"*XeXc.D.'.I.0.D.3.M.D.<.D. X[ n 9 ;   f f y.'.y.8.lXC.f.lX4X XT [.Q.D.o. X9XO.eX9Xo.[. X'.Q./.H.C.Q.tX4Xs.'.'.8.f.nXBX'.0.[ <.M.f.0.M.c.3.s.) s.<.k x r ;     f J [ H.0.-.o.3.c.[.,X[.[.hX[.M.-.,XI.D.,X'.sX4XnXtX/.;X+X/.Q.M.Q.f.I.;XQ.Q.O.f.M.C.] j.D.j.o.I././.0.] o.] O     x O.) 0.y.H.I.j.<.s.&.3.M. X3.j.) &.) V D Q H.0.c.3.'.BXc./.H.<.s.j.Y.M.j.M./.o.'.M.<.Y.8.3.<.o.8.[.O.] Q x r     r 3.M.T c.&.+Xf.c.8.y.j.0.j.I.[ ] 3.0.8.) j.Q.[ O.O.&.y.s.<.j.3.) I.3.0.f.H.'.f.Q 3. Xj.&.y.D V ) 8.T D -.Q V O ;   r Q *X8.J I 8.Q M.D.I H.] V Q ] <.[ Q D [ T T O.c.o.'.s.s.s.3.0.3.&.0.<.-.o.3.0.J [ j.] J y.V ] D.Q J 9 f k     2 s r 9 T Y.] 3.Q.0.,XT < ] T D '.x [ 0.[ x 0.] o.-.-.c.3.8.f.&.M.<.<.V 8.3.<.Q 3.<.3.I j.o.x ] I T J V n k < $   2 J I ) <.V ) <.] 0.Q f J [ &.[ V k V Q k ] T <.q V x ) ] 8.O.-.] ) Q -.I ) j.f s.o.x 3.n I V n s J V n 2 <   O < r q s.c.r f n J r o.o.x s x D s 2 -.J n T T f I y.8.o.] I [ O.J 0.V T r -.n &.) f 9 Q o.k o.T [ x r r 2 ;   ; f 9 9 s s q -.I k ) k ) I x V s r f J x Q J k x Q O.[ I [ T ] ] k ) &.3.o.D n I O.T ) x Q 8.D s x V 2 < $ O ; $ k J 9 f f Q T x I D q x q n s s q r J J J k n x ) D n o.3.Q Q Q x x Q Q T x D J f s x k k V q 9 9 2 r $ ; 2 q 2 q 2 D f J V n k q q r r 2 9 q r s f f s n I V r ",
"j.;X3.D.;X/.'.'.'.[.<.8./.C.y.s.J < $   < Q c. X] H.D.y.M.,XhXf.0.[.I.D.-.4Xf./.I./.Q.C.C.H.sXeX[.I.H.y.9X<.*X&.M.0.Q.4X*XM.) Q j.f.M.O.y.D.[ 0.f.<.[ 9 < $ $   q [ C.I.s.[ y.Q.o.-.[.I.;XD.y.D.+Xc.C.9Xc.H.,X;X;X XM.,XHXtXH.*Xy.O.3.D.M.0.j.H.0.8.0.y.I.j.) y.j.y.M.O.T q     $ Q 3.0.] D.f.f.y.D.[ j.O.M. X8.x [.Y.[ ] j.C.'.-.j.;X[.M.j.'.M.8.[.3.C.o.0./.y.D.M.] [.j.0.&.8.-.s.f.O.&.I n 2   < o.0.C.8.n Y.s.C.T +X8.f.&.D.O.o.<.D.I.y.D 3.<.I [ f.H.f.Q.Y.D.y.8.M.y.-.-././.O.T o.j.[ f.H.] Q V &.) Q o.V q $ O   x V s.) [ I Q [ '.J ;X8.J ) r <.) J o.C.[ -.V [ f.&.f.Q. XH.] ] o.C.c.T &.j.&.] T D.y.J [ I ) y.3.Q I x k $ O O 2 ] k n 8.-.] c.Q 3.I J o.<.) j.O.[ &.3.<.I I 3.y.k f.y.M.s.-.&.M.j.f.o.] -.y.Q o.f.] -.O.f o.o.3.f Q f s f 2 O   q T I O.<.[ o.T 3.8.I x x D [ I T I J k D ] [ D J V 0.3.[ y.y.T 3.-.] T I s.f 3.o.J -.n x D I s s ) T q 9 $ O $ O 9 J [ <.r k f 2 &.-.k n V s s s o.O.n 3.D r s <.) 8.I 3.M.c.x -.T 8.I J &.O.T D V -.[ x O.D &.Q x D 2 q $   ; 9 2 q s 2 D k f T x s x D Q r f s x V [ J ] ] V T -.8.] -.Q O.o.f V 3.O.f T D f J O.f T I I ) n D q k ; 2 O $ s r Q q 2 f s x Q x I D k n k x J q x x k T Q k r J [ o.Q Q ] k k x I x x I k Q f q V r k f o.J n J ; 2 < O $ 2 q x 2 n r s r Q x k x V n n k k s f J n q O.J n ",
"D.;Xj.j.'.M.[.9Xj.s.s.I.f.M.j.s.O.s ;     s 3.;XQ.] c.0.T I.sX*X X*XtX[.f./.j.4X'.;XlX9XC.0.*X;X9XsXtXI.FX'.Y.<.M.8.s.y.3./.[.Y.8.D.c.Q f.o.-.3.;Xs.-.k s O   < ; n 8.C.H.&.3.+X*X&.-.I./.H.8.) c.c.C.*XtX4XFXxXeXtX4X[.+X;Xc.4X'.s.s.*X+X3.I.M.M./.'.y.y.0.[ y.j.&.f.c.Q k < O   $ ] 3.] <.J r c.+XI.8.o.f.M.y.n f.-.f.y.[.tXD.8.M.s.'.M.H.j./.y.D.j.-. XC.o.3.D.C.O.I.3.+X4X[ s.&.M.H.8.f n q     < ) '.D.Q D [ f.V y.-.9X) j.o.I M.I.D.M.D.c.s.Q J y.H.[.*XI.0.f.&.o.j.8.o.<.<.+Xy.C.-.8.f H.) s.8.[ s T J ) V ;   O s o.n 0.0.x H.D &.Y.I s.o.3.Q o.D s Q 3.y.s.x o.3.0.f.Q.&.H.M.-.Q <.f.Y.V o.O.-.s <.o.Q ] ] ] k j.-.[ s D s ;   $ k V T -.J f.c.c.<.0.n 0.T -.T o.T ) y.&.f T o.O.O.3.0.Y.'.8.) 3.y.y.8.o.8.'.J n -.C.c.] D I f.0.k f V f n q $   ; n J Q &.] &.x Q ] ) &.I I 8.f n V I &.o.[ f ) &.O.O.c.j.f.0.] 8.&.) I ) f.o.Q o.J [ Q T Q ] k s ] [ r q ; O O   < x D o.V 2 x Q ; 0.s n n k f 9 x V f D <.s s I.D.J 3.&.0.&.f T Q 0.[ I D ] n n s.s.n r [ D J [ Q ) q f <   $ ; < q f s k s 2 ] k f k s x s n k n n O.o.&.o.k J o.&.] O.0.3.0.[ V O.&.D J D f D <.[ x x ] ) Q V f f q q $ $ 9 2 Q x ; 2 q f T s f V s f r k T k D x x I x r x ) <.[ Q ) [ J k f D V x I x T x k J D V V ) ] T V r f s < $ < 2 k < k s 9 q r n r D n f s r f r q D J 9 I n s ",
"T /.9XI.f.<.'.lXnXM.T j.D.D.<.M.0.V 2 O   O n D.C.) ,X9Xo.s.Q./.HX*XnXC.j.Q.H.Q.s.j.9XnXQ.-.Y.+XH.8.f.o.s.[.*XQ.Y.H./.[.y.<.y.*X X8.I.M.&.M.&.0.I.-.Q V J f       ; I -.M.<.T f.eX*XO.Y. X/.I.-.[.H.-.[.4X9XeX4X;X/.I.,XeXY.O.C.+Xc.-.Y. X8.9XM.8.-.0.f.Y.c.[ f.+XO.8./.3.<.D O   < 2 f.f.Q Y.) ]  XeXT ] D.y.-.J 8.Q O.J 0.[.M.M.+X,X'.[.s.f.9X;X/.c.) Y.4X) [.c.&.Q *Xs.y.'.Q.3.&.O.y.O.[ [ n ; 2 O f 0.y.'.c.C.H.r 3.<.[.H.] c.8.<.&.] [ o.0.Q.o.J C.Y.*X+XD.c.eX<.f.j.Q.8.Y.Q <. XI.I.f.<.s.T V j.8.+Xn n Q x r ;   O 3.I O.&.I s y.<.f.M.-.0.y.n Q T O.[ T -.f.T c.3.C.C.[.s.C.M.8.3.0.&./.3.) H.+X[ O.O.Q I -.o.f ) f.&.x V x <       x T n q [ s.&.<.0.V [ I [ y.j.3.V o.M.x V ] o.j.y.M.3.Y.0.o.f.f.O.) ) 8.M.<.V <.3.f.[ J I &.D.J n x x J r ; O   q D n &.-.&.) <.3.J y.k D T D I &.n f ] &.x T ) O.y.s.c.8.3.&.3.o.J &.J 0.O.) J [ T I J Q O.T D ] Q k k q < $   $ s D f ) s x s q s Q 3.] J V n n n T f o.V ) M.8.&.] [ j.T f Q O.) [ O.x D ) D <./.) J <.o.V [ T [ n n r $ O O ; q f s f s s J s n q q k k x x V k s x J O.] 0.3.) o.I ) O.D.&.I T ) T x D k V 3.0.x s [ n ) n D f n k < $ $ $ I J q 9 f x [ n r I k s q r T n n s k Q D x n ) <.[ [ O.&.-.T T I J V Q J T D J n D J I I O.[ n D J k 9 O $ < f 9 x s r q 9 k q J D f r q x s < x I r s k f ",
"D.<. XnXD.[ j. X/.[.0.8.f.D.j.s.j.) s ; ;   ; o.O.y./.;XH.Y.C.-.8.[ tX'.Q.Q.C.H.s.&.D.9X9XD. XhXxXY.I.M.<.Q.[. X[.c.C.9XtX-.Q /.I.O.-.eXQ.'.<.n I.Q.] V f V 9   O $ x ) <.C.Q Q 4XQ.o.*X Xs.9Xf.[ '.9Xs.tXsXxX'.H.;XM.,XhX*XI.&.f.f.<.+X4Xc.tX*X*X/.f.T -.c.o.Q C.] O.y.V n D f $   < ] o.T f.y.o.O.H.] y.8.o.s.3.sX] s.j.&.,X3.3.;X X,X/.+X0.I.;Xj.I.) j.'.3.j.+XC.T <.y.y.y. X&.Q.O.O.I <.I V 9 $     V I I.3.H.0.C.H.8.o.<.&.[ f.c.-.8.j.j.f.'.j.s.'.Y.[.'.8.j.+XT j.<.f.-.'.y.) -.j.-.c.Q.C.] -.r f.Y.) 3.o.s f 9     J M.x s n Y.D ) o.c.T x &.<.] J f Q o.] 0.o.D.y.I.M.C.Y.j.f.-.f.D.[ 3.<.n y.s.M.o.Q T Q o.-.Q r 0.3.x J n x $ O   k Q I [ O.I.-.D.c.8.) 8.r M.c.-.[ -.H.8.&.3.O.y.M.0.8.j.-.I 0.3.&.J O.f.y.I O.) ] f.) I -.T 8.&.] D D Q s < ;   $ k ) ] ) s J Q y.O.-.J D 0.x V D Q V ) T <.f.s.o.s.-.-.) 3.O.-.<.T y.n T [ <.J [ n D J I [ [ [ [ V n n f 2 ; O O 2 n T ] x o.f r 2 f -.I k f J x r s V V k V -.I 8.o.J s.f.] f J &.o.O.J x 3.o.f c.] J O.o.T ) n -.T J f 2 O   ; 9 s < n q T q q n q k V n s f V s J D f ] ] 8.3.o.c.f.J n &.n 8.] I O.x J x x ] &.] x ) r J n ) D Q D r 2 O   k n q 2 f s ) V 2 n x f s r J V n s x J Q V D o.&.o.&.O.) ) V Q J x I Q J Q ) ] f f T J V ) [ T T J V f $ $ O 9 2 x s x 9 x q q f I x s f I x ; s D n r k T ",
"/.4XI.*XhX'.O.sXQ.+X*XQ.y.8.+Xf.f.O.V < $   ; Q f./.f.&.-. XtXeXI.I c./.[./.C.4X;XH.M.D.4X*X;XtXeX4XM.Y.C.M.c.4XQ.&.8.Y.;X3.s.'.y.3.] s.sX X&.n s.9X&.o.f V x $ $ $ x <.O.+Xs.3.[ ;X+X3.I.8.C.D.] 0.-.3.,XFXY.+X4XFX X4X*X*XeXY.I.Q.f.I.8.I 8.9XD.[.[.0.f.'.j.3.o.O.c.Y.D.-.Q r     O x T Q ] 3.o.-.H.) [ -.0.[ O.I.*X3.&.8.M.Q.&./.;XtXY.+X<.<.Y.D.<.Q.[  X-.O.s.[.Q.-.-.-.D j.3.Y.&.<.8.f.O.s V $ O $ n Q I.8.o.) 0.0.H.] <.Q.C.-.M.j.3.J 8.y.y.M./.Y.H.Y.I.J Y.c.&.s.c.O.f.j.j.'.I -.[ <.o.s.f.D -.-.&.8.I &.D r O < ;   s.J $ 0./.Q &.&.) o.8.o.<.D s.J [ x &.3.[ 8.f.H.s.] &.-.I.-.O.c.&.&.3.0.<.V /.c.] o.-.] 3.Q Q ] &.x T f D ; $ O 2 T x o.<.3.f.<.8.<.[ y.r <.-.k -.j.I 3.H.f.<.j.Q.0.M.8.3.T 3.] 0.T J Q.<.j.T f.Q 0.J Q f.<.f 8.Q o.I Q s 2 9     q I V J o.o.f J &.8.n Q O.y.s x ] Q J f 3.I.Y.s.M.s.] Q f.) o.f.o.-.[ k -.&.<.J f ) o.Q I I [ O.D x V f 2 ;     O s k D [ n -.x f q [ Q ] o.-.Q I k I I &.&.<.0.H./.o.Q 3.O.] I Q O.] I x O.-.k V ] ) -.T &.o.k O.] J k q ; O O ; s 9 f ; T k f r n V k D x r k f Q Q J <.O.o.-.8.y.[.I.o.] k 3.T ) s.I T D n J T O.J [ V n V [ ] ] T n f $   2 9 9 9 k 9 J D 9 r k k x r D D D V J s V f T y.&.-.<.&.J x 2 J I D ] Q V T O.-.x s Q D D V ) &.) D I I q <   O ; s s k < n k q 2 V x k n ) D 2 r k D f f &.",
"8.Q.c.c.y.*Xc.0.sX+X[.+X4Xf.Q.Y.&.[ T s O   $ n o.c. XQ.3.+X4XeX;X-.[ M.'. Xo.<.eX9X+XM.+X9X*XQ.;X4XM. X/.f.j.Y.'.[ s.Q.C.-.Q.M.f.j.f.O.I.,X&.I -.[.[ 3.o.T k       r s.O.Y.j.Y.C.o. XQ.'.[ I *Xf.0.,XM.s.Y.xXhX4X'./.'.c.c.y.C.I.9XeXsXI.M.O.y.D.H.'.D.D.Q.j.c.I.f.&.o.M.3.o.n   9   f -.3.s.j.o.Q j.j.o.J ] J 3.[ M.Q ) H.I.D.H.I.sX4XQ.M.c.I./.I.8.I.c.Q.D.C.o.-.'.I.j.0.[ 3.] <.s.3.0.f.+XV f   $   O n D.C.C.c.o.j.'.3.y.] 8.-.O.,X*XC.&.y.8.s./.*X9XQ.H.O.Y.j.s.s.O.Q j.0.3.,Xf.&./.[ [ ] H.y.Q <.T V &.] o.n O O $   f O.J ) &.s.3.j.x y.8.8.<.&.-.[ ] o.T <.f.f./.'.C.-.O.T c.0.-.0.-.y.<.s.&.o.&.D.8.x ] y.&.&.<.I n ) ) r x O       V r ) ) J s.) <.8.) <.[ 0.D k n c.[ J c.M.C./.Y.H.<.O.c.0.y.] s.] Q [ o.I.0.8.3.) [ J f.8.k -.D ] T T s q q     ; ) ) k [ T I Q s.&.] k Q -.<.D D V V D I 3.3.D.I.M.] <.I.[ O.y.Q o.y.Q Q T -.I D I O.] I J Q o.T V J x 9 < $     9 9 r &.s Q 0.s k J n ] O.T J ) k Q V V j.o.y.Y.I.j.Q Q Q f.&.J V j.Q f ] ) I I ) -.0.J &.0.J I ) n k f < O     x V 9 ; k &.I 2 ) n $ J Q s r D r f V 0.M.3.f.c.] O.Q.f.0.[ J I [ y.) T Q I ) &.T V O.o.x n Q ] Q Q I D ; O   O 9 9 k q n n k r k k V q n D n x T s n k T 8.&.s.O.O.] I x T ] ) -.o.n T o.-.I k T T Q n T 8.o.D I Q s q     ; r k r 2 r Q s s f f k n Q V q s r f f x 3.",
"*XD.-.Q.'.,Xj.O.8.C.'.I.hX*XM./.8.[ Q k ;     2 3.y.j.D.O.Y.*X/.9X9XM.D.Y. X0.H.*X[.tX+X;XsXsX XM.Y.C.[.;X X[.f. X3.O.Y./.Q./.0.[ H.j./.D.H.f.q M.'.y.O.8.J s O     O O.3.8.&.I.D.0.-.c.'.C.J M.Y.O.0.tXM./.xX9X9X XeX,XY.*XD.M.s.M./.+XH. XY.j.] 8.Y.D./.4Xc.[ C.c.<.0.y.] Q J 9   $   D <.&.j.n ) j.j.T &.[ x ) J c.o.I H.o.j.*XH.D.;XY.;XC.,Xf.f.M.Q.f.[.D.'.O.-.[.Y.-.<.[.Q.I 8.Q.f.J D [.&.n 9 $ O ; D s.O.+Xj.M.Q T 3.Y.;XO. Xo.<.C.4Xy.8.j.C.'.lXnX'.C.j.H.D.D.C.T O.c.D.8.D.c.j.H.&.f.0.3.0.D.J c.J f.s &.J q     ;   ) T D f.-.Q J 3.[ I O.Q &.J O.) 8.V M.,X[.4X,X'.I.C.O.0.-.s.0.O.y.8.o.) I.) M.Q.] V M.Q y.-.J s [ &.D k q O O O x r I f J &.] -.3.0.<.f.s.x Q s M.Q.O.-.H.I.'.H.D.[ 3.f.0.-.&.f.8.s.T r D.O.O.<.O.y.) O.&.o.O.J D T I k f q O O   2 Q I I ] -.&.) Q O.0.D ) J ) x o.[ [ ) -.3.H.y.f.o.0.C.o.8.8.I o.8.<.T J T T ) J ] T I T I T J J Q D r 2 ; O   $ o.f k o.s <.J I D x D I x T ] q f.3.9 s.C.H.D.O.8.O.y.] T I y.x M.) x &.J V y.V J o.D I j.) n I k x V q O     k V 2 q r O.Q 9 J I $ J ) f s ) n k f ] M.8.I.H.8.x o.] -.3.I O.) ] T I [ I [ j.Q k ] o.V n I I D ) ] T ; $     < ; r s s 9 V f x k V 9 V I k q D n V ] &.&.0.c.) J T ] o.) ] T -.&.D [ ] [ ] V I &.[ I T O.<.Q D Q s s ; $ 2 r r k r 9 T x x k s k k V x f x q 9 n ) 8.",
"'.f.<.[.*X X/.Q.Y.O.M.D.*XeXj. X+X<.I s $ $ O $ J H.y.'.y.M.tX[.*XhXI.+X,X/.) 3.Q.-.'.,X X4XHXnXY.eXC.O.*XtX;X'.C.+X3.f.H.+XH.I.3.c.'.j. XH.j.3.T s. X-.f.n q 9 O $   D M.3.[ M.O.*X0.+X&.y.j.0.Q. X[ C.9XeXnX9XsXY.Y.sX[.H./.4XH.&.C.tXH.0.Y./.M.<.s.c.I.I.y.f.y.-.] C.c.-.I f 9     $ V k f.y.O.Q -.j.] 0.] 3.y.[.Q &.&.s.8.I.;X[.hX9XeXQ.y.Y.j.&.hXy.O.c./.[.H.o.o.C.C.<.H.[ 8.3.] M.O.I 8.-.s f       n c.-.&.Q./.O.c.D 3.0.y.c.c.O.Y.<.M.f.] Q./.'.H.D.3.) j.<.M.y.8.-.f.j.o.O.H.Q.C.D -.f.D.f.<.[ O.I [ D.3.k s 2     ; x -.O.J c.Q <.y.f.o.Q [ n 3.&.-.) <.;XhX X;X,XQ.Y.j.Y.I.T &.0.-.<.H.8.k f.-.o.0.j.I 3.J -.8.J T k &.Q q f O     9 J Q T -.c.O.3.] c.[ '.y.y.o.J &.O.s.[ I.j.[.9XD.] M.0.0.-.s.8.<.3.&.) y.y.I -.o.y.f.J 3.] -.D T I I n k 9 $ $   q ) 8.k o.J 0.-.T V o.-.o.T o.o.V ) o.M.0.C.'.C.s.O.-.O.I f.s.-.Q o.o.j.D ] f ) <.o.n V Q J D V J Q D q 2 ;     $ V n q q s n V s x V f V V o.I r T y.<.3.H.H.M.-.-.J [ <.-.I Q -.I V T 3.) f 0.O.I o.&.n s.T r D f D T s O O   q 2 9 f s k V q q o.s V J k x [ r n T o.D.3.Q.I.y.<.-.Q [ f.&.n ) D I J [ x I j.8.k J T I J Q D x ) O.Q ; ;   O q 2 k J x 9 ) T n f n q Q o.D s x n q 3.C.0.D.c.3.n x Q 0.&.&.o.T [ J -.) ) -.T D 0.o.[ Q T 0.[ J ] f f 2 ; < < $ J s r r x f x f x k f s x D q q Q 8.8.",
"[./.o.xXtXy.H.[ 4Xj.M.[.c.M.*Xc.D.s.] k 2     ; n 0.9XI. X+X9X'. XI.*X9XlXeX&.D.;X;X0.9XhXsXtXtXY.tXI.s.M./. X3.f.sX9Xj.O.j.'.H.s.[ f./.'.-.D.M.I f.c.3.D.s f 9     O D M.O.M. Xj. XD.eX8.Q 0.&.<.<.I.M.*XsXFXeXhX,XY.'.Y.'.D.C.+XI.D./.9X<.c./.'.I.0./.f.D.hXs.] Y.s.y.f.[ Q n 2   O   Q s.f.f.[ M.D.&.) 4X8.-.T +X<.s.3.-.T M.tXeXeX;XI.eXH.H.c.3.*XY.<.) Q.Q.[.C.0.3.T Q.,X<.<.y.0.o.9 D.j.j.Q r   O O I <.o.0.c.9XH.8.y.o.f.y.D.s.T Q <.-.j.O. X4XeX9X+X'.-.j.H.3.<.0.j.8.&.J j.s.C.y.f.T k y.C.c.8.Q ] ] s.8.[ n 2     r -.] V 8.0.0.&.[ ] -.n <.s.D *X) I V D.9XQ.[.'.'.H.f.Q 0.-.) y.C.x &.9X] ) j.8.J f.M.V D.f O.3.I r &.I f J     2   V &.] c.) M.o.O.o.[ ] 8.f.s.D T Q &.H. XI.*XH.c.j.&.3.0.M.0.-.<.c.Q [ <.&.I O.8.T <.&.o.&.3.[ f ] n k k q $     q I Q n O.3.I o.<.] Q k <.<.<.Q Q D n <.C.Y.*XH.O.3.j.y.J 0.f.0.J Q ) ] 3.-.n ) ] <.J I J V x ) T o.T n < 2     ; s V ] k r k ] f V j.o.x f I c.V O.] O.D.Q.Y.,Xj.0.f.I T 8.Q ) y.; 3.) Q ] r 3.I D I -.O.0.Q q ) n k I q <       V k 2 ] ) q -.s k T s k n n J I J V f.0.M.+XH.0.s.C.o.&.3.O.I 0.[ x J ] I I ) 3.V ) n [ O.&.s n <.O.k s <   $ ; O f [ s s x V I k n x 9 n ] D s x s Q f.0.Y.I.O.D [ -.I D T ] x 0.0.o.<.O.Q <.x f.-.] O.) o.Q O.[ V k $ ;   $ 9 9 q D s k s k D 2 q D n r r q k V x 8.",
"H.c.c.Q.eXlX+X0.Q.c.0.Y.I.D.'.f.s.C.s.T 9       k [.,X&.;XFX4X*XhX X8.j.[.j.+Xo.'.9X+Xc.hXxXBX/.+X9X Xf./.'.+X8.[ [.xXH.y.c.[.s.<. Xf.H.Y.C.M. X] ] -.o.Y.<.T   $     r 0.3.c.Q.0.<.*XhXI.'.c.'.y.[ H.y.o.s.eXtXhXxXhXsX[./.Y.[.;Xc.4X,X[.M.) ,XH.M.f.+Xy.C.Q.H.&.J I.[.&.) Q Q n     O J [ <.M.Q.O. XQ.f ) D. XO.3.c.f.c.lXf.j.nX9XsX X8.+XY.-. Xc.C.[.s.C.8.s.s.Q.O.;XI [ -.j.+XH.T T ] j.Y.&.O.f       Q 8.&.[ ] M.+Xy.,Xs.0.) y.[.D.-.H.0.Q.c.,X;XeXhX XY.j.y.H.3.o.0.j.8.[ [ s.C.8.f.<.0.y.-.J -.-.[ 0.M.T J ) <.  9 O   3.C.I J 3.C.0.8.Q c.T D -.O.V n y.I 8.*X X,XD.M.C.I.0.] s.O.y.[.[ I 0.-.&.[ C.] J Y.y./.< &.) [ ) n I k n < O     V y.J <.3.y.8.O.] I 0.[ f <.H.-.) 3.H.Y.I.tX[.s.f.8.j.-.O.] H.-.Y.T &.o.0.n y.<.I ) O.) M.) ] [ Q x s k r ; O   r V Q Q J T ] Q ) ] ] f O.T -.J ) -.D o.D.Y.+X XM.&.) &.0.&.3.T -.q -.-.&.] -.J Q 8.&.J n f n n n T V n r r O     k <.T < n V n ] s &.0.J I 3.] <.] O.[ C.c.[.+Xy.M.c.] J f.n o.C.D T I D ) T s.Q D &.[ ] [ ] D Q J f x 9 q O   ; 9 s 9 r x s J V k &.D 2 k T <.D x x -.D.C. XC.<.o.0.<.8.O.J x y.I ) 3.J T T -.) V ] T x ) -.[ n O.o.V f 2   O $ ; k J q r x x ) x n J x x J V Q J 9 ] j.M./.'.s.n 3.Q n J I ] <.Q Q ] Q ] [ I J O.] &.o.I O.O.O.[ J f $ O   $ 9 9 q V s k f x x 9 r x x x k 9 9 s I f.",
"M. X'.s.Y.H.4XeXeXo.M.hX4X+XQ.c.) 3.<.J 9     ; f [ c.3.s.+X'.*X3./.'.tXxX/.s.'.&.,XhX<.s.eXnXeXD.;X,X4XC.C.D. Xo.8./.s.c.M./.8.o.y.I M.D.C.j./.D.&.3.V o.Q D $ $   $ O O.3.c.Y.C.O.O.+X/.0.c.C.eXI.y.,XH.8.eXsXlXhX9X4X/.Y.C.D.Y.O.[.,XM.[.n 4XM.s.y.Y.0.[.j.H.'.I 8.s.I -.8.T O   O   V Q ) [ <.f.C.+Xy.-.] *Xf.J <.j.o.+XY.Q *X*XBX9Xc.Q.M.[ [.hX'.s.0.+XC.k &.;X&.0.+Xs.n f./.D.[ D 0.<.Q.&.k r < ;   J 0.M.I c.&.&.o.*Xf.I.f./.0.s.I.D 3.&.D.eX4XsXhXQ.j.s.c.*XM.O.3.y.-.] 8.j.H.O.8.3.H.H.0.x &.&.[ I y.T T V <.$   O ; x I [ J 0.f.Y.f.k 3.s.I <.<.J x M.D O. X'.4X*XQ.M.s.+X0.y.Q o.hXJ )  XD D D.s.o.q -.D.Q.f 0.[ ) o.V O.f $       < V 0.I J <.[ &.<.) y.Q &.J n 8.O.s [ C.H.D.eX4XI.-.D.C.-.M.T y.O.C.O.O.O.&.[ c.[ &.I &.n D.3.V [ ] n f k r < O   r D D ] ] D ] Q V <.) x 3.] [ [ o.y.Q 3.I.I.,X[.c.0.[ ) M.[ 0.J ] &.f M.<.V H.I x O.<.V x k Q n V D k k f r     $   [ T f V Q y.<.s V 3.D x -.[ /.O.O.] j.H.4X/.s.8.s.o.n s.I ] -.-.I [ n D O.<.T V c.Q Q J ) T D Q n s 2 q O   ; $ r r 9 k n V ) f ) D $ f I O.D J T T D.C.4XY.c.o.Q 8.o.o.D [ T D &.8.D &.n ) [ T O.3.s Q ) J D Q ] T k 2 O   2 9 r q k x x q J n k x n n n n ] ) k <.c.C.[.eXy.x -.T J I 3.3.-.] J T &.<.) k ] [ [ 3.) V o.[ O.[ Q f 2   O $ < q r k s x k n V x x n D ) T s s r -.C.",
"c.+X X/.;X] M.9X9X&.-. X'.D.H.s.0.-.) D r     2 j.n y.[.&.C.'.4X'.3.0.[./.sX[.lXM.*XlXj.&.tXsX9X+XY.H.tXQ.H.f.+X/.0.M.C.*XQ.Y.'.M.M.f.o.-.j.D.s.8.<.s.o.-.x s ;   $ ; x x s.&.Y.C.8.[ ] &.c.C.I hX[.s.,XeX+XY.tXlX,X/.Y.Q.Q.C.j.j.<.C.,XM.+XO.;Xj.D.s.0.3.,XM.s.s.f.Q &.8.Q Q r 2 < < $ J O.8.8.] 0.f.) C.O.[ T o.Q n -.&.f.c.I.H.+XlXhXsX+Xj.f.j.'.tX*XM.Y.I./.o.T f.T D.j.s.f.f.3.s.&.c.] 0.y.x 2       I O.<.o.M.8.j.O.o.+X-.o.0.f.s.'.o.C.M.0.+XhXBXhX XH.8.&.Q.f.f.H.Q.3.[ y.y.s.3.) C.H.0.C.3.O.I 3.T ] I V <.x   O   $ J J J f V <.[ &.3.&.8.Q V <. XD ) 3.C.4X+X*XsXY.0.f.Q +Xf.O.o.f.V c.D.y.f O.H. XI s &.8.) y.s.V ) n ] x < < O   ; 9 Q 8.[ <.O.J O.o.) j.c.f.J Q I.J O.D./.Q.*X;XY.Q I.H.8. X<.O.) 0.-.Q &.<.&.y.O.3.) y.n [ Q.s I O.I n x q ; O   9 x J <.<.I ] 8.x ] O.O.o.O.] 0.[ ] Q H.Q.Y.hXY.s.c.y.[ c.) 0.&.T -.n y.[ [ y.o.D ) ] D n n ) V ] Q x f r 2     O < D s k f n ) ) O.T V n n V ] j.3.-.0.c. X;XQ.Y.T <.-.n [ <.x J -.T [ J n ] V D D I.) ) ) Q D f ) T f 2 ;   O   2 r s V J n V Q n n I f f n V V ) 8.] f.C.hX[.4XD.Q s.x ] n &.T o.[ Q <.s.V ) -.J Q <.V -.[ V T I ) ) k < $   2 9 r 2 I D n r V T n q k I V k D I I 8.H.H.+XtX8.I Q &.] x c.8.T o.] Q &.y.&.n ) &.&.-.] I [ ) O.[ [ x r   O $ $ 9 r s s f f x n k s r n T D q V r 0.M.",
"+XD.H.Q.FXQ.y.Q.M.9X8.I.lX X'.s.c.<.I k 9     9 I.3.8.Y.j.;X'.sXlXeX8.8.8.3.9XI.o.<.xX'.3./.lXlXeXY.4X X/.&.C.*X Xj.M.D.+XI.0.;XY.s.'.M.H.&.] Q.8.0.&.8.Q.I q       V n ] <.&.M.Q.0.0.M.j.y.y.o.<. X8.j.[.s.eX*XsXeX4X+X+X[. X[.Q.M.f./.H.;Xc.C.s.[.D.0.8.'.H.-.s. X) j.4Xo.J J <     9 o.o.<.y.Q C.f.) c.C.M.<.y.x Q f.I c.I.*X+X,X9X4XsX,XI.Y.C.) j.;X0.'.&.+X*XO.s.0.<.&.] ) Q.3.<.j.Y.) ] 3.D 9     $ [ 3.f.<.< [.I.f.H.Y.H.8.f.) 8.8.C.I.[ ] 0./.9X*X[.H.o.8.M.Q s.C.[.8.<.8.[ O.j.T H.f.O.O.Y.y.T O.&.O.) x o.f O O   f 0.<.[ y.J 9X-.&.j.3.o.M.J o.f.T y.I 0.H.+X'.sXY.I.3.k j.C.j.O.j.f H.y.c.<.D O.Q.C.T n ) ) &.c.D Q Q V k 9 ;   $ 9 f J 0.<.o.<.O.s.I &.) s ;XJ J y.] o.0.D.'.;X+Xf.O.y.C.y.c.y.8.O.0.o.] T D.I -.0.) o.f.) k C.Q I [ T I D q O     9 r ) 8.3.T Q I.x q 0.0.I J ) y.[ I D C.[.'.hX[.Y.y.8.<.f.[ O.y.Q Q &.[ ) I s.) 8.o.D ) J V D n o.) V r q O   O   k s s o.k q q f j.s.9 D &.k V V ] -.j././.Y.+X/.o.O.f.Q D &.k -.T f D [ n J V I J M.) ) 3.[ D f I I k r O   $   2 r f n D n s f ) n [ O.k V n x D 0.f.j.H.tX[. XD.-.s.J [ ) ] 8.<.D f <.O.) o.0.J T ) n ] o.T [ J Q ) f ; $   O 2 s s ) D x k J ] J f J ) D x n f D [ './.,X;Xc.[ Q 0.Q q O.O.] D [ [ V &.y.k V o.o.O.<.] ) O.[ ] o.n r   O O $ q s s k s s x D k q q x D x s V r 8.j.",
"4X+XM.D.4X4X+X[.s.I.C.D.4X;Xj.c.y.3.T 9 O   O 9 M.'.I.,X,XxXQ.;XQ.[.BX/.C.4Xf.xX9XI.4XsXH.tXlX'.hX X+XH.M.y././.Y.f.s.&.j.Q.8.[.8.&.Q.M.8.f.8.D.Q.M.J [ H.D 2   O   ) D s.s.c.C.0.c././.3.8.f.0.O.<.Q.3.H.O.,X9XeXsXxX9X;X/.'.'.I.Q.*X/.f.D.D.Q.f.H.f.C.C.Q./.-.0.C.[ [ f.O.J I O   O V f.0.0.-.<.&.-.4X[ /.'.M.'.M.[ O.] s.c.C.;X4XsX4XD.H.Y.M.nXY.-.f.c.'. X3.Q.O.o.Q.Q.C.C.n /.H.) 8.y.&.3.T s 2 ; $ q -.8.D.<.0.Q.Q.c.3.Q.j.O.[.O.3.c.O.D.'. XI. XsXsX4X'.0.M.C.] f.0.j.3.f.s.] O.j.&.y.O.-.-.M.y.s.I T &.-.-.s D O     n o.O.<.3.D C.0.T <.Q.<.&.o.[ s.) O.T '.+X,X[.hX X[.c.o.s.3.O.f.j.s.] '.O.0.-.T n Q.M.k O.Q o.8.] T <.n x ;     < s V ) ) <.[ 3.M.H.D.V &.[ f.j.) ] I ] 3.s.I.+X,Xf.f.8.y.s.c.[ I j.8.0.<.V 0.o.&.8.T O.O.O.Q Q 0.V V J Q I q       q I V V c.-.f Y.J x -.I s.Q n -.0.<.x [ /./. X9XI.0.0.<.&.8.0.0.Q 8.-.Q O.J &.] y.o.k [ ) T D T I J V r q O       n < x 0.I n V s o.c.V J ] J &.[ J D [ ,XH.I.tXc.c.] f.-.Q V ] j.k f Q <.f k 3.) D O.T I <.[ T V n n f k $     < O s D r V O.f q T f T s.D J x ] k ) c.C.H.;X4XD.8.s.-.<.) 0.Q &.-.O.s n T 0.V [ I -.] n f I ) [ I T T s $ O   < < < r ] Q x r D D n J o.) D T n q V I Q.H.;X4XI.] O.<.I D J 0.&.D T o.) ] ] f D Q T O.y.] D <.) ) Q x 9     O ; q s s V s s D Q J f k J J V D V x 3.D.",
"D.+XQ.4X/.+X*X XhXs.H.D.j.D.c.;XH.j.] r O   O 2 8.'.I.4X[. Xf.0.+XY.y. XO.D.C.3.Q.I.I.hXD. XhXsX+X4X+X4Xy.y.Q. X9XI./.o.0.4X[. X,Xy.3.j.o.-.s./.j.<.I ] 0.x < O   q J <.[ Y.M.Y.D.Q D.I.&.s.o.+X0.<.-.H.+XQ H. X4XeXlX,X XH.H.C.9X'.H.D.Q.*X;XH.j.s.0.[.C./. Xy.[ f.Q.8.Q [ T n   O   9 O.<.0.] C.[ [ f.-.[ [ 8.I./.8.Q 3.0.Q.j.'.4XeXsXD.M.s.8.tX*X8.8./.) ;X0.I Y.c.8.;Xs.y.) c.D.O.O.Q 3.y.J x O     n j.&.-.) ] j. Xj.8.eXs.y.3.D.T H.3.) y.;X*X*X,XsX4XI.M.y.y.s.'.Y.j.y.0.M.j.8.<.y.s.D 3.[.O.V I.-.J Q T 3.D r   9 $ 2 T ] ] T C.j.8.x ) y.0.) 3.k 0.J I s D.s.0.I.4X,XQ.I.Y.) 3.j.[ 0.eXf 3.Y.o.n Y.T s.f.V 3.&.[ O.-.I Q n T q O   $ 9 s ) o.8.8.8.3.y.Q Q Q j.&.[ [ &.o.<.f.c.I.Q.,XD.D.M.8.0.'.T n s.0.8.0.) ] 0.O.o.O.o.Q o.8.k -.n k n T D 2       r ] V n f.8.J 0.T &.I n D.&.n Q f.s.V x j.Q.I.,Xc.s.f.-.Q y.Y.O.&.&.f.I -.8.s 3.) ] D Q o.Q T ] n D V 9 q $ O     T x f V Q T f n n 8.) [ f T y.H.o.f x [.Q./.9XC.H.] o.<.<.s <.8.D T <.<.k f M.o.x T [ ) T I ) J f k r s $ O   < < x I r n <.J V V n f -.V I n &.D V O.M.C./.hX*Xy.f.-.3.n <.J T &.M.Q n [ 0.D k x O.[ I x D o.) I I D q $     2 q 2 r D ] V q n s r D ) I J ] T r V Q D.j.'.sXY.[ 3.] [ o.Q s.&.[ Q o.8.o.V n Q I I [ &.Q D [ Q Q D k $     $ 2 q r r D q s T V V f s n n k n x T <.H.",
"H.<./.sXD.9X0. XtX9XM. XQ.<./.'.H.&.f ; $   O k [ [.y.M.'.xX4XQ.3.4XtX4XD./.,X Xf.y.M.*XtXM.lXlXnX+XI.tX4XI./.f.9XD.sX-.o.Y.'.D.Y.,Xj.0.c.&.<.D.c.[ ] Q I r O     q y.D -.O.I.c.eX/.8.Y.8.s.j.s.s.f.J H.[.s.] *X+X9XxX;X'.C.Q.'.M.;X'. Xf.O.,X*Xs.f.C.9X<.H.'.C.s.s.C.0.] ) V ; O   $ Q c.<.-.[ /.] f.+Xy.8.y.8.Q M.Y.q Q.M.Q /.+X9XQ.tXsX+X<.3.eX'.Q.j.*Xj.-.[ O.j./.s.-.3.I.0.D.O.<.0.[ 8.) ] 9     $ I Y.D. XY.3.) j.,X[ s.s.H.8.+X3.V 8. XQ -.[.*XQ.9XeXY.'.,XM.f.M./.c.c.O.f.*X0.Q j./.n 8.C.T n [.M.J V V ] x   ;   O [ ] j.&.Q ) o.o.0.n 0.-.&.] I f.Q ) 3.D.] [ +X'. XY.y./.8.I  XC.[ *Xo.] [.c.T -.3.s.) I O.0.T [ 8.] V V T O     q J I o.y.T ] O.I C.&.D O.[ 0.[ j.J [ I ) y.Q.I.,X/.H.H.j.&.D.<.C.Q C.x y.-.y.] ] [ [ ) -.o.3.k V ) n V J x ;   O ; r f 3.c.D ) H.T D o.V 0.I ) o.k 8.O.D f <.'.'.+XQ.8.-.3.[ -.Q.J 0.D 0.Q y.J O.] V &.O.J ] V D D V J V < 9 $ $   2 q D &.J D V Q D ) <.I 0.n I n H.f.Q Q c.Q.I.'.9XD.<.n -.y.n O.<.o.) -.[ I V j.O.k ] y.3.x n Q V f n q <   ;     x n x f s I J o.V <.f J s I ) I Q J V j.c.M.4X+X<.o.0.<.J -.) T T 8.O.Q T V 8.Q I Q T I V k Q I I J n q O       n D x 2 n V V J n f f n D I T 3.s r [ Y.C.I.eXY.y.8.Q <.Q ] [ 0.o.O.O.) o.&.I ) J T T J ) ) I ) ) n f   O   < 2 9 9 9 D 9 s ] r n f q k x s f q T ] M.",
"sX0.0.y.9XI.[.4XlX XQ.f.H.j.8.I.<.-.x 2   O < D D.f.] C.,XI.HXxX'.O.nXsX Xc. XtX9X;XI.c.Q.c.hX9X4XxX*XY.;Xy. X;XC.3.BX'.0.-.y.D.y.Q.Q.8.f.H.[.y.&.&.o.-.r $ $     ) O.-.y.&.M.0.&.c.s.j.8.[ Q /.f.0.j./.M. XT c. X;XeX*X9XH.,XtXc.+XQ.9Xc.H.4X XQ c.H.[.O.H.H.C.y.s.&.[ <.] 9       x J H.O.I c.<.] f.Q.] s.D I.8.r j.y.) '.9X[ ;Xf.4X X4XhXM.<.;Xy.D.I.xX'.M.J &.c.H.f.j.] <.M.c.Q O.D.&.o.J k ; O   q Q Y.D. XC.f.M.3.j.s.j.+Xs.8.Q.D.-.o.H.I.J O.Y.H.,XeX XC.+X3.y.M.<.M.[.0.] [.s.J M.8.-.I.0.Q V I c.s.o.k n r       $ ] [ C.C.o.) ] j.0.J H.I M.D 8.H.n Q /.j.o.[  X/.*XH.f.M.c.o.&.<.j.M.V 0.f.[.Q D 0.Y.o.I Q <.&.o.J [ k D r       s J T 3.0.3.f.T O.8.-.o.3.D j.] o.<.O.-.V J 4Xj.Q.;X4XM.0.M.3.I.3.-.-.Q 3.D y.O.-.3.[ J j.O.n ] J o.Q T Q ;   $   x Q s n o.x <.-.[ n H.f -.y.-.O.s &.M.o.I o.C.I.'.,XY.s.&.I 0.3.] f.D ] ) M.) ) &.Q Q ) J T V ) x V r V r   O   $ ; k s k T J n Q ) I 3.] x V -.x y.I.D O.y.c.D./.*Xc.Q.-.J -.D I ) T n ] D o.o.-.[ x ) O.o.Q ) J x s s s <     O O J s s k 9 n D 8.n x I J x V -.s s ) ] <.I.M.Y.9XC.o.T f.3.[ -.T n n O.&.V J ) Q V o.] O.Q n D J O.n r q     $ q V V k D q k J O.] x x O.[ k s Q D q n j.j.Y.*X,Xf.s.&.o.] ) V -.y.-.] T I Q x Q 8.J Q T [ D I J k k 9 $     9 r 9 < k 9 I q x k k 2 D J r x q r k [ s.",
"4X;X/.[ ;X/.I.eX*X/. X+X'.Q f./.<.n $     ; x Q j.4XI.Y.H.0.c.xXeX&.Q.,X9XC.*X'.*XQ.9XY.I.*XlXhXlXlX9XH.lX+X8.D.,Xy.C.4X+XH.M.0.O.+X,XD.-.D.Q.3.O.c.3.Q 9       2 J [.&.+X3.M.s.D [.Q.M.Q.&.O.8.c.-.<.3.s.c.T /.*X+X'.,XtX;XQ.[.C.H.D.;XQ.j.+X,XD.] o.;XM.3.Y.C.o.c.8.) Q x 9     < Q y.[./.-.3.O.<.[ I.[ <.I y.y.] I 3.[ y.sX3.Q /.,XQ.*X9X*XD.Y.j./.3.Y.[.*Xy.H.[.&.f.&.8.f.c.C.D ] I.M.O.r $     2 3.] 3.<.H.4Xo.&.[ y.o.V  XM.r [ o.s.) 8.xX) 3.3.s.I.9XH.Y./.j.f.'.y.O.Q.Q.T f.y.M.I.O.<.s.] [ &.] -.O.o.V ;   ; <   J T y.Q 8.'.I.) q Q ] [ <.n ] o.3.I ) y.&.0.y.,XC.[.*XD.H.c.C.o.0.8.+Xo.n O.[.] I 3.D.8.J -.) I s.D ) n q   ;   $ r J x ) I -.y.0.O.T ] O.'.V Q c.0.8.k O.[ 3.j.I.C.Y.'.j.I.<.I.Q.3.&.8.[ <.s.-.&.] &.Q 8.O.O.I I s ) o.D x ; O O   9 k T Q s.x [ s.s.k C.0.x s J ) J D ) k o.o.j.D.H.*X*XC.3.0.8.T Y.8.] D &.T 8.o.3.o.-.) T J J T I k r k q     O O r T k s T k x ) n q T ) f I [ x V ] k I H.-.f.c.[.D.;X8.&.-.o.) D n ) D D ) <.D ] n Q &.o.) T n k r s r $     O r n x [ q < D J D r f V D n f J ) s D I M.M.0.H.'./.<.Q C.0.) o.Q T J T -.Q s T ) I o.T ] I V D [ O.s ; <   O ; $ Q 0.k q s n Q s x Q 9 I j.I n x J V I 0.j.8.I.*XC.[ 8.y.r D ] O.0.-.o.T ] [ I I ) Q I [ V D n V r q ;       2 < q x D r I s r f k s Q T k I n q s T &.",
"Y. X*X8.hXtXH.I.M.Q./.'.hX) [ c.&.2 O $ O s 0.H.<.0.M.'.xXeXT M.PXY.Q.c.c.) s.tXc.H.;Xf.+X4X/.Q.;XHXhX[.4X*XH.Y. XQ.[.xX[.[.I.C.-.[.Y.I.-.'.D.) ) c.o.s <   < 2 9 q c.s.C.f.Q.s.Q M.j.<.tXj.] I s.) 3.8.'.c.T M.M.s.Y.;XtXeX[.eX X X X+X+Xj. X;XeXJ &.eXY.s.M.M.o.D.s.Q k 2 ;   2 s j.&.D.j.M.f.3.y.8.tX3.O.8.o.y.H.D ] ] x Y.[.V J /.Y.H.eX[.'.y.C.eX3.y.C.[.*X+X X[ /.<.o.s.[.H.[ &.y.8.V $ O     r D.<.[ f.[.Y.3.j.C.Q 2 &.'.9X&.o.j.y.n &.<.) ] H.I.'.'.4X,X4XM.] [.+X&.y.s.8.y.3.M. X[ 8.) T &.s.o.I Q ) r r     O k M.) o.f 0.0./.c.3.J -.] &.J I -.D J Q n V &.s./.D.M.Y.[.Q.j.I.O.y.O.I.c.O.j.o.C.) T 3.3.-.3.o.D -.] k q <   O   r V T Q T T D O.O.<.J I Q O.T Q j.y.Q Q I o.O.0.Y.H.0. X[.'.&.c.+X] -.y.I s.f.y.Q <.<.x O.&.o.T n D 0.O.s ;   O $ ; Q ] Q T o.n [ [ D r T 8.J Q D T ) &.0.V ] s 0.Y.f.C.[.Y.s.f.o.k Q.8.<.O.&.J 0.o.J ) <.Q ) I T J ) r s q 2     < $ q T k k O.x [ 8.] T V D s ) k D D ) k ) ] [ j.j.D.+X[.0.3.k C.-.D O.8.C.s D D Q Q V T O.[ T J k f q q 2     O $ 2 s n f.T k n D s f x n Q T f n O.V D s j.j.0.s.H./.f.&.8.o.<.O.T T Q I o.<.D Q &.) ] V V D I Q I T q $ ;   O < 9 V 0.n r f r I J V ] s V <.f q &.Q k x O.I.3.y.D.'.<.[ 3.x ] s.J o.&.<.Q o.I x J T J <.Q V k x n 9 <     O O 9 2 q D n s J V q r r f ) D k ) J q q x I ",
"D.j.lX,X4X;X,X9X3.0.H.C.sXj.x Q x   $ O ; k D.eX/.[.-.j.sXeX,Xc.Q.C.sX/.4Xj.V *XFX Xs.;X&.[ <.+X*XeXsXlXQ.Q.*X,XD.M.'. XI.hX/.'.f./.C.H.[ M.C.s.T O.k ; ;   D ] J <.D <.3.<.8.<.M.<.y.I *X+X<.O.O.-.D.Q 8.D.s.y.+X] C.I.9XeX,X+X/.D.D.I.'.j.'.tX/.o.M.I.8./.T <.c.M.0.D q ;     Q ] M.[ f.8.0.y.M.O.-.T Q.3.8.Y.s.&.] &.0.o.H.I.o.J &.'.I.Y.,X'.Y.C.Q.O././.j.[.C.D.y.Q.c.J -.+X&.8.D.<.) q       2 n I.Y.Q T f &.9XY.'.,X<.O.8.tXI.k y.j.H.D.I ) 8.H.0. Xs.H.4Xf.;Xj.-.y.f.I.y.f.c.y.] [.O.3.J J O.j.-.n V D $   < O $ s o.T ) q 3.Q O.o.s.8.I.[ o.D 8.-.O.O.-.V J V <.8.,Xf.s./.[.'.H.j.y.s.3.I.Q I.] j.0.8.-.Q O.<.0.J I Q 9 $ $ O O 2 V T 3.-.0.o.8.f &.&.-.n Q I 0.] [ ) ) Q V &.&.0.<.M.j.D.*X[.f.<.Y.[ f.0.[ [ c.O.-.&.0.<.V c.) T k J [ I <       ; x 0.) k y.] I o.T 3.Q x T O.3.f x k D <.D J 9 o.D.3.0.C.'.Y.s.-.o.3.J <.D.O.) [ &.o.n O.Q ] ] J x J 2 s ; $   O f r J ] J D ] 9 ] J ) 3.x x D 0.s [ J D x s.s D -.-.f.C.*X0.3.I f.D.I x T y.3.J J 3.T D ) ) ] n I x r 9 < $     < 2 k n 2 J T k s Q s f s s T I q r I [ &.9 Q f.C.8.f.j.I.H.[ D c.o.V I T I D O.] I O.Q I D J D J T f x r ; O   2 n k 2 n s J I x D ] ] Q J J I D s V n V J I 0.0.&.s. X*X<.o.I x T n I &.8.] <.T n I J n s.J V s f x 2 ;   O < < s f 9 f q s n T s s 2 s I f s Q V r q s k ",
"I.-.tXxX;X XeX,X8.Q D.;XI.s.T f 2 $ $   n [ Y.tX Xy.3.f.4XeXc./.[.f.'.'.FXsXJ T j.;X/. X X0.Q [ FXH.;XhX X,XC.;X/.j.D.D.Y.*Xc.M. X+XM.f.O.j.H.c.T n < O O $ 3.f.y.3.c.*X/.s.Q.o.] Q 0.x o.c.o.V V D M.s.&.3.-.&.eX) Q.I.D./.,X*XnXQ.c. XH.-.&.;XC.Q.[.y.M.4XJ y.Q.-.] r $ $   k x 3.s.Q.I.'.[ M.*XxXJ +Xc.J c.C.s.c.f.T D.&.<.[.] 0.y.c.D.c.D.Y.C.[.*X&./.Q.3. X3.C.c.&.f.-.&.I.[ y.C.I f ; O   ; ] n C.4X;XQ.y.D.Y.8.8. X/.0.Y.eX,XI n 3.Y.o.D.o.[ 0.+X X XI.s.Y.,XH.8.0.<.y.[.&.0.M.O.c.8.<.[ n [ f.8.k q r ;   ; k s -.M.C.M.T I 3.Q ] [ I.o.<.O.I C.s.[ M.[ o.] x ] T [.y.0.3.I. XY.D.O.C.&.j.[ 8.s.o.D.&.c.T s &.0.J I 9 q ;     9 o.I n s.] Q y.8.[ Q &.] &.[ I [ 3.Q.V D V I D -.0.O.0.y.] s./.Y.j.j.j.c.0.8.Q <.o.3.[ &.C.V <.J -.I V 2 r $ O O O 2 x o.y.T 3.[ ] -.n O.I k x n n D ) ] f T x x k k 3.y.<.0.M.Q.j.0.j.T [ 0.0.T <.<.o.O.n ] ] ) &.x r s ; q     O < V D x f k V V q 3.n J &.J T J f.V n 3.T q I f r [ C.[ s.y.c.j.Q s.0.J J n [ s.O.I 0.J J O.T O.f Q x 9 ; $     ; r r V n q 2 n 2 r V x s 9 r T J 2 s f ) 8.J s &.D.j.&.-.H. X<.V y.T n s.) T I ) [ T T D V [ o.I x x f r 2     $ k [ ) D k q D T Q f x T O.I r f V f Q V n D k Q Y.<.0.0.j.] n n -.Y.D n o.o.J -.) Q I s D O.Q s n r s ; $   $ 9 9 s f 9 s q f r V f x 9 r V q r J k s q r r ",
"Q.f.[.;XeX4X+Xf.H.s.s.4XC.] D 9 2 ; $ s y.'.;X9XeX+X-.C.;X4Xf.xXH.] ) H.9XHX4X<.D.<.I.,X+X[ Q y.tX;XH.Y.*XhX'.*X/.,X[.I.'.M.C.<.[.*XC.0.s.c.0.V f < $   O V c.C.f.f.I.H.*XY.I.;X8.<.T f < x -.] -.f ) 8.[ [ ) o.'.-.*X*X-.s.Q.4XtXQ.D.*Xc.D.s.9Xc./.y.o. Xj.J 0.f.n f $   ; 9 &.0.H.f.Q. X*XD o.-.f.&.o.Y.k f s.O./.D.J y.V O.,X) [ [.H.'.Y.&.0.M.;X+X[ /.sXj.O.j.Y.c.&.8.j.&.'.f.-.T < $     ; k Y.] I./.sXD.<.<.T ] f.o.-.j.o.D.*X0.V O.[ T s.3.y.I T 8.f.s.D.C.'.I.C.'.H.<.<.s.O.0.M.&.M.8.-.) ] O.&.k 2 O     q f.Q o.-.O.8.T [ D.8.] f O.V &.s ] o.8.I 0.J Q Q &.-.o.<.<.<.<.y.j.Q.D.O.f.&.3.c.y.<.] j.Q 8.3.V D <.I k $ $ O   $ s 3.&.s Q 3.&.<.D.<.c.O.T x ] V D ) -.V ) Q [ V V 8.] 8.] 8.<.8.Y.D.I.H.&.0.0.o.Q 3.&.O.Q O.O.D Q y.Q n < ;     ; 2 k T ] x T x o.V Q I y.<.J ] x r ] f J V Q Q f f s [ 3.-.&.O.s.D.0.s.&.f.-.<.n H.<.) n J T Q T O.k f s O ;     ; q V Q Q V D D f s 3.s T J I ] 9 O.o.; n y.s k ] &.x O.s.&.8.8.y.f.Q -.I j.) ] Q <.x Q V Q &.Q &.s I s < $     O s x s V s Q V V q I x D f r x T J r V s s Q O.x k O.M.o.O.-.0.0.D Q Q x /.) T O.] T [ T J n ] ) D k f r $ O   O q f I &.T n k x s ] o.T V C.0.x x f ) H.&.k f r x Y.&.[ &.8.j.&.D c.f.Q x 8.[ V [ D D D k x [ D k n r <   O   $ q 2 q 2 s n n V < r q n 9 q f 2 q x r s r r q ",
"I.+X,X[.[.[.,XQ.[.'.0.f.0.n 2 < ; ; s -.H.*X*X+X/.FXsXc.&.'.] M.+Xf.D ) Q c.,XQ.;X;XQ M.I.,X-.8.C.xXI.M.Y.[.eX;XY.;XH.C.,X+X'.0.0.[.I.y.-.Q x 9 ; O < r k O.y.I.] [ y.*XH.c.) [ T T x Q J 2 f < k n ) J O.c.O.s H.3.H.Y.c.C.y.f.Y.Q.[.Q.<.[.M.I.Q.I.-.y. XO.Q &.D r $ ; 9 n [ -.M.0.] ) /.lXM.-.j.J f f ] x r r V r Q o.T [ D.f.-.] D.+XhXM.f.&.8.Y.*X0.j.;XY.T C.I.M.C.3.0.O.D.[ n r q < < $ s O.+X3.y.&.D.y.&.O.8.x J x k I r f J f x O.<.f.] 0.M.c.<.Q T f.c.<.3.8. X4Xs.-.y.D.<.O.j.&.j.3.o.[ T x V q <   O 9 r -.&.j.H.f.&.s.y.n k J J f s k O r V s ] k Q n [ c.j.0.o.0.-.M.[ &.M.c.y.0.8.8.-.M.8.Q -.C.J y.o.q Q n $ <   O q k J I f.V s 0.) &.J Q T J 9 r k   r D s V s D ) O.k ) k <.O.I.<.[ 3.0.I.f.T 0.f.] 8.] 8.&.] Q 3.) ) ] r 9 $ O   < f f V o.&.<.8.k D I T V x I q D V D o.s J q f ) D f I Q J 8.) o.o.f.0.3.M.o.I j.] f.J o.) ] T V T Q k s q O     $ s k x ) n D I V k T 8.J k q r k ; n 8.s 2 j.x $ k &.r V f.C.O.-.3.3.-.o.[ ] T x O.O.Q s J o.Q I I q k < O   O O 9 V D r Q k T V k f ] [ V r s f f f s J s 2 r T [ r k o.O.] I D [ D I -.k y.D T Q ] J J Q [ D T n x k r ;   O < 9 s q k ) r x n V n <.H.n   O.-.k r 2 I -.-.D D s $ D D Q ) ) &.&.O.'.c.[ D Y.3.T Q n n n I k o.q x r 9 O   $ $ < r 2 9 9 J n x J r q 2 f 9 q q 2 q r r s s f r ",
"8.H.'. X X[.4Xf./.c.c.Q x s < < 9 s -.+XY.Q.'. X+XlX,X,Xj.o.o.J ) ] x k x I r V x  XQ.j.c.o.eX*XC./.,X Xc.s.D./.[.H.M.D.+X/.0.C.c.Y.<.[ T k ; r 2 ; s Q &.8.[ /.j.c.T f.c.O.Q ) [ [ Q f V k k k 2 < q 2 ] o.[ s.Q I s.s.;XI.y.0.-.8.Y.Y.8.4X'. XI.s.<.M.8.) x x ; r   q I o.j.T 8.I.D.y.o.[.j.0.) I V T V x x n s r < O 2 Q T I.-.Q c.[  Xc.Q M.D.O.8.8.0. X,X[ 3.c.C.H.<.-.O.x k 9 2 9   s T f.D f.C.j.s.<.-.x D n ) [ x I n T f f x 9 ; k   T r C.f.j.x ] 3.Y.H.Y.o.-.0.<.C.8.-.0.-.O.s.O.o.) k x 9 q     $ n n &.0.C.y.&.0.I 3.3.o.V J x D s n I 9 q r O ; r k o.<.-.) &.f.[ 0.r ] ) o.-.&.s.s.y.-.s.<.) &.V O.D s q $ 2   $ s x T 0.k j.T D 0.<.0.V r n V f f s T s 2 < q 2 r s V Q n o.[ [ 0.T s.x <.o.8.] C.y.8.3.o.) y.] o.V O.k r $ 2     ; V [ D f J Q 8.y.s.r D r r k s k r 2 9 q f k &.r J ) q J I T &.s O.D T O.[ f.f.] o.3.J ] Q D <.] x ) n r $   O   ; 9 n D s Q n o.] x s V n 2 < k 2 < r ; J 2 q T O.x [ k n x V -.] I T ) ) T O.J I f.[ Q J o.T -.k V r 2 2 O     O ; s I J q n n f f J n r J J f x r ; 9 k Q r s 9 q 0.J q r O.J ) J I I &.s.] Q T 3.n O.o.s V &.) ] x x s O $   2 9 2 r r D &.D o.x x [ &.-.) x Q [ x n D 2 o.o.9 s n f ; n -.J Q J ] O.&.o.T r H.] k k f V x J I V r < 9   O   < 2 q f q q x ] s 9 J D k 9 r 9 r q q r r s s f x f ",
"/.3.[.[.H.;XM.8.y.-.x x s 9   s J 0.y.+X,XBXsXY.H.+XH.<.0.] 8.3.4XD.0.f.M.T V 2 r 2 ) J j.s.c.9X;XD. XhX9XC.C.O.3.s.<.D.8.j.<.<.] [ I D s r k   ; J y./.M.C.f.0.Y.y.O.&.O.-.] y.3.D.Y.0.8.[ ) &.V D s   < ; x o.[.k 8.y.0./.I.y.j.] o.&.&.3.8.f.<.[ &.Q x x r r ; f 0.<.x [ [.I.o.Y.H.,XO.[ ) ) j.M.y.M.C.] J 3.[ ) n k   ; 9 V s.Q D.[ f.s.]  XM.f.T ) <.o.o.[ ) -.<.Q V V s s 2 $ ;   x 8.f.f.f.j.3.f.c.I.0.T 3.<.y.y.3.s.I.'.3.y.Q D f k < < $ f D.] O.y.Q s.s.9X'.s.[ [ ] ) ] &.] T T x k n s q $   q $ D 8.V 0.D I O.c.-.-.n Q T D y.[ n -.J n 8.] ) k q < r r n V n &.f.3.T f o.x D ] I ] O.o.) <.] x T x s q O $ 2 $ 2 q -.) I H.y.D I <.) V I x I Q j.f o.[ [ Q J f < 9 < O 9 < f ) &.s 3.0.&.) ) V ] I O.&.&.n O.-.Q ) V D r 2 ; 2   $ < V D n 8.) <.J -.Q D T f f 8.y.x ] T s r r q q $ 2 ; O q q ] ) J V T 3.J J J J D I I J [ ) V ] I J f r 9 $ $     k k n I D D J x f Q D r D x n x k k s q <   < O 2 D f 2 f f x 0.D J ) k I D T O.I f.D ] I Q T I D n f 9 $       9 q < x Q n 9 D -.I x n k J n J 9 r s r r 2 2 q 2 ; q D r n q D D o.Q k Q n I ] T k D O.3.-.J V ] V f q $ ;     q r V x s 9 J T 0.O.-.Q V D T T k s k n x f q r f r x f n r q x &.[ D x x I V x Q O.V x n f J V V f 9 2 ;       q $ < r k r V f V I D k s x D I V n x r q k x q s k k ",
"y.O.M.c.-.8.-.[ D n x q $ f n x f.tX;XI. XnXlX,XY.8.M. X4X*X8.[  X;Xf.Y.Q.Y.<.) x q $ 9 s T I I.'.,X'.[.[.C.;XC.y.O.&.-.J n [ ) x n n f r $ V n 0.o.c.Y.C.M.f.0.H.c.) c.f.&.M.Y.j.j.j.f.'.O.y.] <.T Q D ; $ 9 q j.o.] &.<.c.lX+X;XT 3.8.Q [ V V J I q D s 2 9 O J [ ;Xo.I 3./.'.D./.j.D.[ y.V 0.f.Q.j.Y.H.f.y.[ V [.D.) I 9 O $ ; ) Y.j.&.V -.O./.+X3.-.D ) J D D f x s x f ; < $ s q I c.0.j.C.M./. Xf.O.] 8.-.-.D.M.y.&.O.C.Y.D.&.M.y.] k s q $   T Q 8.[ 2 [ j./.c.c.D I T x n k f f x f r   O 2 < 2 x <.T tX] '.8.j.O.I -.T [ I j.c.0.) <.f.&.0.J 3.Q 3.k n 9 $ < r r x Q ] Q [ I y.3.o.) x I [ T V r s n   ; q 9 < $ ; J O.k 8.0.0.Y.I x T ] o.s.O.] D s.[ [ [ Q V [ O.Q x r ; 2   < k o.[ T T j.s.M.x J I D x x f J x q k q 2 $ $ < $ 2 s f &.J J ] 3.0.[ D J T y.[ J ) f.o.] c.) [ j.x x f q   2 O < x O.s n V J s D D k x x n s s k q q s q $ < ;   ; 2 q 9 V Q x T 0.[ [ ] I I [ T <.Q ) ) <.<.T J n 9 9 $ $   2 x r 9 H.J x o.T k r n f f J r k n V q s s q ; O O $ ; q f q J s O.O.J D k J D Q Q f D O.J k I r x r r ; 9 9 $ 9 q x 9 T &.V '.<.x x n x f r f k V V s x x 9 < ;   $ < s s k V J 9 r ) [ ] ) T x D D I J &.f f k T q V x s ; r f D k s r J D T I n n k V D I f s x f V q r 9 $ O   $ 9 ; k s s 2 2 2 D n D J V k f n J D J D x s r r f 9 2 9 r ",
"-.[ O.&.) J J r r 9 r s O.3.] 3.9X,XY.tX XHX;X;Xj.f.D.D.c.xX[.o.[.M.Q <.*XQ.s.y.M.-.x 2 9 < r O.Q.*X4Xc.D. X+X4X+XM.Q Q O.) n q I &.J f I f.M.<.I.<.I.'.*X'.C.O.D.0.M.+X'.H.<.3.3.3.c.[ H.8.Q.3.&.O.o.V ] q   r q D V O.<.o. XQ.tX-./.9X8.o.&.) I V x f V 9 &.0.8.Y. X[ [ *XC.] c.M.8.Q.'.s.Y.y.8.Y.y.H.M.j.D.Q I s.0.-.s.D D ;   2 k j./.s ] I.0.H. X XQ.3.[ V V x x J ) q V V ) n -.y.0.I.'.-.D.-.s.-.s.3.C.3.<.-.-.O.o.Q I &.y.) Q./.c.[ D ) V     r o.n < O.T C.8.&.O.O.3.0.j.n n V x 9 n k 9 V T I x y.V D.o.c.I.H.&.O.c.C.H.<.f.O.O.V O.f.3.O.3.V -.-.O.x D f <   O 2 V &.I 0.] s.y.f.c.V n r 9 k s 2 q 9 $ O < J I n T ) T x I '.f.O.O.) <.3.y.0.&.o.8.8.o.-.&.I o.o.&.] J k f ; O   x O.s O.Q.<.j.y.s.J x ) T n 9 9 r 9 < O 2 x D 9 I D Q 0.J I D ) T n Q <.] -.o.s.) &.n I &.T T <.[ I J f < 9   < s &.x J x f n &.3.8.o.s x J s 2 9 k 9 ;   2 9 O 9 k V s J ] k T y.] ) o.[ D 8.o.s.Q J k o.s.[ Q T q V k 9   < 9 ; r T x k J ] [ [ r k x 9 f 9 s s < ; < < O O 2 r s n I k Q q k D V ) V [ &.-.o.f x O.D f J s f n f 2 q f O O 2 r s V I 2 ] k n n f x r f s q q q 9 f ; $ $ ; ; < f V n 2 ] ) O.k D Q J 3.) x V D T Q 0.I n f T s V T x ; q q k r r q r f ) ] n x k x s s r q f 9 q 9 2 < ; $ < r x 9 f k n 9 9 s I T n s x Q o.) J ) O.[ I I J n D f q 9 r ",
"<.Q T V D D T I O.Q 3.y.+XQ.y.f. X,X4XM.hX4X'.;XsX X0.C.j.[.*Xs.Y.+X/.O.y.c.'./.0.<.J q 9   2 f j.D.*XI./.4X/.*XsX;X'.,Xs.D. Xj.,X+X&.j.0.'.j.H.[ /.,Xj.f.[.4XC.j.c.&.D.Y.'.;XM.C.D.hX&.f.<.y.I.y.y.Q.I ) I k       q x ) Q c.sX,XI.[.FXD.<.;XY./.8.f.] s.j.Y.tX9XQ.&.y.s.j.M.0.[ 8.f.y.sXY.f.D.8.c.8.s.j.<.s.<.[ ) 3.f.8.D ] k f $   q 0.D V C.8.0.D.3.M.0.Y.M.H.[.M.M.f.r 3.T <.D.<.eXtXH.'.I.Y.Q <.y.c.-.s.0.D.<.y.s.s.f.3.y.T ] ] &.0.s.I O.O.D     f r k 8.) &.I ) 8.o.y.8.M.) M.Q.y.I [ Q o.8.8.o.D [ c.O.j.s.C.0.O.<.s.D.I.f.M.<.C.-.o.O.8.T 0.] ) <.-.0.s J x ; ; < 2 s 3.J O.0.s.Q I Q [ [ o.Q T ] Q I J ) -.y.&.Q -.8.y.0.I c.O.8.<.-.0.8.Q 0.o.y.o.0.<.y.s.] [ D [ o.Q T T k q   O k r Q o.O.[ o.<.&.T s.3.&.q q J Q n k V O.] n <.Q [ -.[ 3.f.<.&.-.3.0.-.j.I O.V y.o.8.o.O.Q T 3.I O.I Q 2 ; O ; r q x k D [ ) x x <.V <.M.] f r f n f 9 k n f n x J o.Q Q o.o.o.[ Q &.j.n &.0.0.O.J 9 x 3.O.I T n ) ] n 2 <     f x 9 q D O.T [ k D k q k < < 2 r < q r q r f f r f Q V J O.f n Q T &.O.0.8.[ ) f -.V T J Q k o.J k q f 2 $ $ O s D J k O 9 &.8.T D r s r q 9 $ ; r $ q q r k r n [ o.r I n y.] ] T [ f.O.Q D I ] O.) [ ) D V J x T D r s ; ; ; r s 9 s I J k k V f s s x s s < ; 2 $ $ < 9 r s r s s s J x V V J k V T ] [ [ o.&.) -.) V Q ) D J r 9 < $ ",
"/.H.4X[.Q.C.M.D.D.y.sXtX'.,XlXY.eX+XBX+XI.f.'.tXY.9X+X/.y.<.s.<.+X X X;X3.<.j.*Xj./.y.8.s f     n 8.3.+X9X+XtXc.M.eXeXH.f.0.;X*X;X XO.0.s.eX'. Xf.'.M.;X4Xj.y.H.'. Xf.I.I.Q.[.M.o.8.,XQ.,Xy.) [.[.8.M.D.C.I r x 2   ;   f V <.9XeXeXQ.+XD.f.eX,X'.Q.4X[. X4X'.lXI.D.,XC.Q.-.eX/.c.D.M.Y.y.H.c.D.c.M.j.-.Y.y.3.D.-.O.0.<.j.I.o.; ) ; <   ; k J 8.O.8.3.<.0.I.C.s.I.[./.M.c.[ D.-.f.4XD.j.&.H.s.Y.9Xs.D./.c.s.c.Y.j.f.f.D.-.o.Y.j.3.D.T J 3.H.s.O.[ &.s $ < ; f ] o.y.x s.eXj.Q o.[ D D.Q.<.Q ] I M.j.-.Q Q T  X8./.[.y.s.f.&.s.3.-.o.j.8.c.s.8.T 3.<.T 8.] Q I '.V [ T r q $     Q f y.f.8.J s ] <.&.0.<.3.y.<.s.I &.<.&.Q I ) J c.] Q j.f.) M. X0.s.O.y.&.O.) 3.-.c.f.o.] J o.] ) T Q n n $     r ] o.s.o.V -.j.] o.] y.J q I y.[ ) J &.D I y.o.n I I O.s.<.&.8.-.y.3.&.V Y.<.f <.[ ] O.o.) T r T V ) k k 2     r n n T 8.o.k r -.O.M.8.k k n q ] T k x I T Q n x &.I J 3.-.] &.&.3.y.n ) <.3.y.&.J s Q o.J I J [ ] f 2 r <   ; q r q r D V ] x Q D O.I n V D ] D I T I I T I V x D D ) f.Q Q ] J ) J o.3.O.o.V 3.I o.Q [ n o.T V f x r < ;   ; $ s 9 r k n ] r ) T J D J n f V r q D x k T D x n J ] n J V ] Q [ 3.O.T o.I ] ) -.n I &.] D T Q J J x n 2 < ; r q 9 f k 9 9 f x D Q T o.T J k n q < r n n x k q x x V ] I T V V V T o.-.O.[ o.-.T o.I V [ o.I J n V x 2 ",
"'.D.lXtXeX XQ.H.;X'.lXnX*X9XPXhXtX9XQ.nX*X[.3.+XnX/.Q.*XtXeXc.0.y.y.'.'.s.D.I.j.o.f.M.0.T J q O   x D H.*X9XsXj.c.9XQ.hXI [.9XD.Y.,X*XO.3.'.;XI.M.[.-.c. X+X;XsXnX XQ.c.s.H.s.,XC.H.-.3.D.o.[ D.-.D.8.s.c.f.J ) $ 9 O   q s <.y.[.4X+XC.H.I.H.+X+X9XlX'.9XI.C.y.D.8.xXsXsXf.[. Xc.hXD./.Y.c.c.C.H.I.C.o.[.I.8.I.I ) /.j.-.C.0.T [ q $ ; $ O T Y.f.-.o.3.D.j.-.j. X'.hXD.-.o.-.3.f.C.-.hX/.I.H.s.I.y.f.M.8.Y.C.C.'.Q  X/.3.0.T c.O.M.y.o.&.O.c.Q ) &.V x <   $ k J j.f -.-.3.o.<.Y.O.0.f.] J T 3.0.-.o.o.y.-.o.-.c.H.j.D.Y.D.s.y.c.j.s.] 8.M.s.-.T [.O.) H.x D &.y.8.Q V V 2   2 O I 8.y.Q o.[ [ [ x Q o.3.3.] M.3.o.T 8.f.] I ) <.D.y.-.s.8.0.O.s.M.f.y.f.Q -.o.T H.D.3.Q I O.] 3.Q D f n r 2     J o.n D T f.O.Q Q I O.) n J o.[ ) D o.n ) 3.] ) <.) O.O.y.-.0.o.&.s.y.I -.&.J [ -.) 8.8.] &.D V f n o.I k O 9   2 < < ] &.] T o.[ <.T 9 f V n [ ) f s V Q [ D D ) Q ] o.&.0.3.8.3.] ] 3.[ 8.-.3.o.x I ] D I T o.[ x f x r ;     q f 2 f T ) s q s <.f s n n V s f k x n V J I x f o.s.] ) &.-.3.T V J 3.8.J Q ] I ) [ I T V Q D I D f 2 s $     9 n Q s n f n k ) V x D r s I f x I x s Q ) f s n <.f.y.[ o.o.I -.) T ] I ] I <.] x -.o.Q k &.] Q V D f k < ; < 2 x s $ q f r q I f V f k q n s q V ) J n n s f I ) O.T T D T ] I I [ <.<.&.o.Q [ Q Q -.-.) J k n k 2 ",
"*Xc.Q.Y.'.Q.9X XsXBXeXnXhX;XeXlXtX X'.9X9XnXeX3.Q.[.+XI.y.hX,XC.y.[ Q.+X+Xj.I.*Xf.f.+Xs.8.J f $     r -.Y.4XY.'.&.+XlX[.C.j.BX*X-.c.nX/.H.8.+XBXI.'.+X,X+XH.M. X4XeX/.+X[.f.o.y.y.j.O.f.Q.c.c.8.f.3.&.C.y.o.<.) r s     $ r C.j.-.H.Y.c.[.+XC.'.D.I.c.O.[.eX+Xc.Q.+XhX[.Q.Y.[.I.H.s.[.Q./.I.j.3.C.Y.s.-.D.H.0.H.s.Q M.s.8.3.f.&.] I r O     r &.y.] o.-.Y.O.J f.Y.C.eX X3.o.y.[.;X/.M.I.H.I.[ [ Q.[.*XQ.0.[.I.'.C.<.[ Y.Q.O.O.o.] 0.C.C.c.[ y.0.o.) n T q     < 2 [ y.*XQ &.I.D M.O.O.<.T Q f o.o.T -.<.C.M.T &.0.<.H.Y.c./.3.0.3.c.y.o.O.0.] ] V *Xy.<.Y.<.J x 3.[ D I ] x     $ f V 8.Q n I o.o.o.<.x I y.Q Q y.o.J 3.s.n D H.0.[ o.I.M.j.M.) 0.M.<.0.f.O.c.O.V c.f.M.) V Q o.I.[ V k V x f   $ 2 D s T <.y.0.] -.-.I Q Q D D &.I T o.Q ) ] D [ 3.O.o.<.j.y.j.&.y.y.T ) 3.j.J Q s.[ -.O.J &.I ) Q J -.T r O 2   O < s &.O.) D J D Q ) ] T k k ) T k k n J ] Q [ o.0.f.O.<.H.j.8.-.3.<.D.&.s.) -.) I y.<.n ] -.T [ T I V s r $ O   < V J x 2 f f k O.n x k D V k x D T I J ] 3.k r y.c.Q &.s.f.c.3.Q V <.8.D [ I I [ o.T O.k -.I [ D V s k q O $ O x V 9 k q T k 8.n x Q s k I n V n f s Q O.r n n x 3.T O.] -.Q ) o.O.D Q o.D -.&.I -.) ] n ) O.o.J J n J q   $ $ x s < x x q s O.f x x D f I n q k I V x x 9 r ) [ ] I T I o.D T o.<.&.[ O.8.[ ) T Q ] ] I V T J n x ",
"BX4XsXtX+Xf.;XC.D.lXsXHX4X,XnXsXnXsX'.9X'.tXBX9Xs.Q.'.eX) f.,X;X/.s.0.C.M.C.8.H.c.s.'.I.y.&.k f ; ;   [ I.C.f.,X0.4XsXtX-.f.BXeX-.-.;X+X;XY.[.'.Y.0.*X'.+X;XD.s.H.M.H.c. XeX8./.+Xy.y.c.c.0.f.j.C.s.&.<.'.T y.j.) f ; O   O <.&.O.C.<.c.lXnXtX,XM.9XI.c.n tX8. XH.xXnX X Xo./. X X/.y.Q.'.H.c.3.C.Y.-.j.0.s.y./.y.f.M.&.I.o.8.H.<.f ) T O O   9 8.D.<.[ [ 0.J s.j.0.8./.<.k 3.C.9XO.f.;Xf.y.[.'.eX;X Xc.3./.I.*Xy.&.3.) C.9Xs.c.<.&.J 0.I.0.T H.] D x ] k 9 O     O.I o.D.] f.Y.Q f.f.o.T Y.<.-.f.) &.D ) 3.3.O.c.c.M.;Xj.I.I.0.o.-././.I &.j.s.I ) 3.8.s.y.I ) <.) f r I T s     O J [ -.[ <.<.8.o.-.x Q y.J Q Q o.D ] s.] V o.0.j.f.8.9Xy.f.8.) c.J 0.o.3.Y.s.J O.T D.3.J V o.[.[ V D T D V < O   k x k <.D y.<.8.y.T ] I x ) j.T ) Q ) J J n <.-.s.-.I.y.f.M.[ y.s.) 3.] j.y.I ) 3.I O.M.] [ I Q T I I 9 x s 2     s &.T I T [ [ J s T O.V x T T J T J n T ] J o.s.j.O.&.C.M.O.Q D.T 0.-.0.J o.s I [.y.2 Q 0.f J D I V x n ; $     9 s J q D D f x J J q J ) f n I T n s V o.) x f.[ -.&.[ T O.M.T x O.O.O.-.J D -.T ) ] s <.Q ) f I k r q 9 $     Q o.  D n x s.r q ) r r f V V f k k ) -.q ] [ &.3.Q o.-.<.j.T o.O.f 3.3.D [ I O.-.T ) O.n ] [ I J n T f ; $   f r 9 J V 9 r &.9 r x D q V &.x k I T Q J q k O.] I J Q J o.I Q &.8.3.O.o.&.3.o.) Q T I T I ) n s n ",
"*X,X4X9X4XeXsX[.+XeXxXBX4X;XnX9XlXeX*XsX'.D.8.9X9XH.M.+X[.j.j.D.I./.9XC.c.'.s.s.8.M.C.'.s.3.&.V 2     q s.y.s.,Xs.3.sXhXC.c.9XhX,XM.s.9X9X<.+XsX/.j.-.Y. XhX'.[.;XsXC.C.8.I.M.j. XM.D.s.D.3.J I [ [.y.f.D.O.0.s.) V x O     n H.C.] [.O.Q.;XI./.Y.eXeX;X0.y.I.C.J H.PXQ.eXy.9XeX XM.Y.*XY.[.D.j.Y.;Xo.I.I.-.O.D.I.3.f.Q.8.c.] <.[ I o.D q     < q -. Xc.Y.C.V Y.C.+XC.) j.s.Y.&.8.xXQ.I.,X+X*XI.I.H.;X+XD.f.y.[.j.0.f.o.) D.0.I.8.f.D.s.&.[ O.'.C.x ) I r k   ;   0.M.k D [ ) ] j.o.D.-.I 0.) J ] O.3.-.] 8.0.'.c.'.Q.*Xc.M.'.M.3.T 0.8.I.J 0.'.M.&.) &.3.j.) D ) 3.8.D [ J I <   O ; O.o.o.J <.Q.3.I.I O.D.[ -.3.<.y.&.f.Q O.) Y.D.s.D./.C.f.8.-.M.<.] ) s.0.8.T c.[ <.&.J 0.] &.-.T D J [ f f   9   o.x ] o.Q &.9 +Xj.] -.T q ) 3.o.J -.s 3.J I <.<.f.c.j.&.0.0.8.<.3.M.I o.-.-.k M.D o.Q 3.o.[ ] Q n ] T O J 2 O   9 V Q I n ] <.x 9 V Q T ) D ] ] s Q n J I ] ) y.-.O.I O.I.s.T 0.[ o.O.-.J O.[ V c.<.D I Y.[ Q T ) f f Q q 2 O   ; 9 V [ D s f k f x n <.8.k n J T r f T s o.[ O.&.0.H.C.] V V I 0.T O.O.I.Q D Q D o.Q Q o.o.D V T ] s r r ;   $ 9 < ; q f J Q f r r n s n n o.2 ] V f [ s D Q y.O.-.<.o.Q ) I [ f [ &.&.J ) &.3.o.I [ -.Q D n ) o.n [ I 2 O $ < 9 f x f 9 V O.9 f s J f k f Q D D n T n f r O.s.T ) ] [ V T -.D <.y.O.o.O.O.&.[ ) o.n V J ) D n D ",
"'. X/.lX;XBXhXj.c.eX[.sXc.[.lX4XBXlX,XtX;X*Xc.;X X,XtXM.I.;XtXM.-.[.Q.c.9X;Xy.Y.s.f.Y.c.&.I O.J f $     Q 3.3.Y.I.T I.eXH.Y.tXBXj.Q.D.4X;Xf.8.hX[.;XC.Q.4XeXM.D. X'.eXj.j.&.3.f.j.y.M.4XD./.C.O.o.3.&.] <.J <.D.o.f 9 < $   < o.[ 8.Q.s.c.sXH./. X9XlXPXy.Y.'.I.+X'.Q. Xy.Y.[.9X/.,Xs./.+Xy.C.0.Q /.y.<.Q. XO.&.f.Q 8.j.8.,Xj.3.J ] 8.J q < ;   n I s.0.0.c.] j.I.Y.H.Q <.<.&.D.T tXtX[.[.D.[./.H.I.8.y. X'.C.Y.s.8.j.O.Y.o.0.D.3.<.D.'.Y.T ] c.j.&.[ ) f 2 2     ) Y.T r 0.D.I <.s.j.8.O.O.3.<.&.I &.M.&.I O./.Y.eXM.M.Q.I.f.j.] 3.c.c.c.f.&.J M.M.<.[ &.M.I D f M.j.s O.Q Q ;       r ] 8.-.o.&.I ] x T 3.C.c.<.r Q I n o.-.c.y.f./.y.H.8.j.O.3.c.&.-.j.8.H.[ T <.M.O.Q o.I.-.) I [ J T ) s I q     s -.k ] 0.c.f [ 8.<.] o.n ] D <.I J D y.<.O.s.0.j.j.s.o.<.3.O.o.I s.3.O.T 8.O.Q D [ [ V [ I O.s.[ D T n x q O   < k D J J J O.-.V x V V &.] J n T ) f J [ O.s.0.c.[.C.8.-.-.O.c.o.y.<.-.Q [ 0.k ] &.[ D o.3.] Q J ) 9 n f 2 O   O < k T f x k s f ; [ n 8.V J [ T x V V f c.<.&.3.8.8.j.Y.[ k k ] O.&.T ) Q T Q J Q D Q j.V D Q I T k x r q O   $ 2 r f r D q V n f s Q n k s.V I f s J D J &.<.&.<.O.s.-.J ) <.J o.<.-.J ) 3.3.x ) [ T [ J T ] 8.V Q Q V O   $ 2 r s q 2 k ) q q k I s f x Q V n V I I x Q -.[ o.[ 3.) D Q ] I M.[ [ [ ) -.&.] T [ J ] ) T V k k ",
"4X+XC.[.-.Y.lX+X/.f.;X9X*X9Xs.y./.tXtXsX,X*Xc.'.Y. XhXH.0.H.[.Q.] j.'.M.O.'.FXC.+XQ 0.+XY.I J O.I r $   k f.s.I.'.I.c.D.FXlXs.Q./.[ /.9X*X;X XQ.;X,X[.;XsX*XC.H.3.H.;X'.f.&.3.M.M.3.O.+XM.Q./.8.3.H.'.j.8.n -.y.f.) f 2 <     k -.y.Y.*X8.,X'.H.'.Q.-.9XH.Y.,XM.eX'.H.+X[. X;X/.'.M.&.c.4X3.0.*Xj.'.c.] &.'. XC.<.) V 8.I O.H.y.O.3.s.n $ $ ;     J /.&.[ c.x D.C.&.H.C.s.j.y.[.] f.H.D.'.j./.,X/.;Xj.y.C.y.f.M.8.s.c.-.[.<.o.<.&.8.o.f.H.I I.s.o.3.Q D.V n $     O c.y.I 3.f.J 3.s.<.y.y.] 0.Q.M.y.-.) O.H.*Xs.C.C.-.[ o.y.f.C.f.0.3.T 0.[.M.n D.C.[ T 8.'.] -.T ] n I f.Q D 2 2 $ $   T O.<.) s.f.q I f.D c.C.D Q x 0.J n -.j.D.M.Y.Y.c.f.0.-.j.3.s.] &.<.s.j.] y.0.&.<.f Y.3.J 3.r Q [ D ) s q       I T T &.s.[ 3.-.o.-.-.o.V 0.J Q 0.k o.0.s.Y.Q.Q.C.8.[ <.3.[ y.&.3.J D 0.[ D.) Q T O.I ) y.V O.y.T I Q ; k ;   O 9 k V J Q J O.D T [ x I &.T k [ I k [ ) V D.y.D.+XH.j.3.I &.j.o.Q 0.8.J ) 8.D O.J I [ n 0.f.O.f ) f k f s <   O $ r D q ] ; <.V V 0.I r T Q V J Q k f k C.f.y.D.M.&.&.Y.-.k k V o.<.3.3.T J I &.3.J x C.D I [ J D V J f r $     < f n s f s s 9 I T I k q <.I T V 2 f y.[ M.8.y.y.] C.<.I &.0.) ] <.&.Q I O.[ x T o.I &.I I I c.] n D Q 9 $ O ; q r r f 9 I V 9 n I f V s n x I [ D J n <.-.o.8.&.o.I Q &.O.Q 0.J D O.<.-.o.Q J T J ] D ] Q J x ",
"Q.*XeXnX'.c.4X'.'.[././.tXFXxXc.*XeX*XeXlXxX'./.4XQ.Q.'.y.'.c./.c.j.C.C.O.o./.tX XD [ ,X'.y.T O.J 9 ;   < 0.0.C.,X8.+X+XQ.*XtX'.&.T D.;XM.9X*XsX;X4XhXhX4XhXFX+X&.Q.s.[.j.s.'.Y.H.c.0.8.c.j.I.f.C.Y.s.s.C.o.-.] j.8.T 2     O 2 3.M.C.'././.'. X;X[.eX9XI./.[.O.c.eXY.sXnXeX4XQ./.;XD.D.Q.s.Q.H.f.D.C.Q.0.O.'.j.) y.y.H.J T Q.8.&.<.C.-.D <       J [ <.D.&.T y.'.I.y.s.f.0.[ c.'.y.s.s. XQ.,XlXxX*XI./.Y.C.M.-.c.f.[.s.I.M.o.f.f.j.<.O.&.T C.<.I.V D O.0.D < $   ; <.o.<.D.y.I k -.y.T [ I.I.j.<.H.Y.<.T [ *X4X4X*X;XY.<.y.y.o.c.f.3.j.) H.o.-.3.'.D.] V j.O.f.) J V 0.) x T r         n x ] O.s.-.Q ) k j.<.<.s Q D 3.8.s.] I./.Y.H.[.-.D.y.s.o.j.y.<.-.&.&.s.0.&.s.I f.Q T f.T <.n n D 3.I s ; r     < <.[ n T 8.V Q &.&.y.n T V I ] o.T I 3.&.j.I.'./.C.s.M.c.0.&.n 8.c.-.J D s.O.O.) ) 3.J J s.&.n o.) n f k q O   $ s n V V k ] T ] ] V J T Q D D k n j.D 9 j.s.D.j.8.y.f.O.o.y.j.f 0.M.] ) <.J y.) k &.o.[ f.[ D J Q k s k 9   O O q V 9 f Q <.f s &.x k 0.3.r Q y.k I ) o.y.f.Q.[.c.O.s.y.] I f V [ <.<.J T D -.j.-.f &.[ T ] n x V D s < ; ;   O r n k r J 9 9 D -.D f $ y.c.k s s x Q &.D.y.j.f.I 0.) O.<.8.) I o.[ [ Q ) I -.J [ O.<.T V x c.y.k x D k 2   $ 2 q k J 2 I o.r n V s D r r f T O.f n J y.O.0.j.s.D D Q Q O.&.O.0.D T O.-.O.o.) ) Q O.V I T J x ",
"C.*X+X+X[.I.+XY./.;XD.PXxXnXFXBXeX4X/.[.'.'.'.*XD.[.9X+X3.D.j.,X4X'.c.H./.O.) 9X;XT ] +X/.j.-.C.I 9 ;     ) &.c.H.<.M.f.*XH.'.4Xf.8.*Xy.H.s.+X4X,X[.4XFXsX*XsX9Xj.Y.[.I.C.V ;X9Xy.c./.<.s.f.j.<.H.I.0.3.o.T I D.-.&.D 9 $     O n &.c.c.y./.hXo.eXM.3.[.0.D /.C.y.'.I.'.;X X[.[.+X/.4X'.<.C.H.8.H.*XI.[.C.) M.[.0.] H.H.) &.-.c.D I y.<.I ;   O   2 y.o.-.8.s.8.s.o.-.j.o.f.y.) *X'.*Xj.Q.[.eX9X;Xf.j./.*X Xj.8.Q.&.'.y.f.&.8.[.y.&.Y.c.<.3.] -.C.D T <.0.f   2 ;   x Q 3.O.O.H.Q &.D.0.I Q ] T <.c.c.0.y.&.I. X;X,X,XY.D./.Y.c.D.) s.3.f.8.] 8.3.j.c.s.D Q Q f.j.Q J 8.[ x ) r 2 O $ q I I Q O.C.<.<.V ;Xn <.M.k -.[ O.[ O.3.9XC.,XeXI.] C.Q.c.-.C.c.[ s.j.Q s.y.[ 8.D 0.j.I y.T o.) f D &.Q J q $     s ) c.n [ ) 0.<.-.<.) j.[ ] [ J V I V &.D.D.D.C.M.y.<.-.Q c.s.Q [ &.0.[ I ] D O.3.I o.J T <.O.n ] ] ) s r s 2     f D V I n J I O.T ) Q J D I x D k M.J Q y.c./.f.0.3.o.f.[ 3.c.T [ s.-.[ f.s o.j.J T 0.J I I O.T Q k n f 2       9 n q x x J V n T 8.9 3.-.J I 3.V I O.&.C.c.I.Y.c.] 3.y.&.Q x D 0.-.I D O.I D -.s.J I Q T &.k q n J r ; < < O   9 k f n x n Q f T ) J s o.I.k n s J k 0.c.M.H.C.[ <.o.8.&.O.) I Q Q O.o.o.T 0.o.J <.8.J T I <.s.n D k k <     $ < r n s J O.r x k r s x k n k D s n Q j.&.j.Y.C.T I Q ) o.o.) 3.I I Q ] ] o.Q ) Q -.J n J T J ",
"s.9X+X*X+XBXhXtX,XlX4X[.D.4XsXxXsXlXlXtXD.s.[.sX+XC.H.I.'.s.&.Q.sX XY.c.D.+XY.8.9X[ o.H.+Xy.0.H.T r $     x -.Y.Q.Q.f.8.nX+XY.c.*X[.D.&.c.D.C.f.+X;X'.nXnXI.M. X/.y.4XI.Y.n c.+XI.-.s.I.f.M.-.O./.Q.Y.3.[ D.) f.s.[ r q 9     O I j.f. X,XQ.I.8.Q.FXxX[.'.tXH.I.+Xs.+X+X4XsX4X4X*X,X0.;X3.) 4Xf.[ y.H./.C.s.-.O.Y.f.Q.C.<.<.o.j.V Q y.] k ; $ O   D [ o.M.H.;X-.3.s.'.H.j.[.-.o.c.I.,XQ.[.'.;X;XH.C.f.y.Q.j.] Y. Xf.3.-.) <.C.C.) 3.<.j.c.j.c.[ Q <.T I.) D   ; $   r s T 0.c.<.] o.) T T j./.Q D y.j.O.&.j.[./.tX*X[.c.&.<.D.f.Q.&.] ) 3. Xo.<.s.3.O.f.3.[ ] ] Y.) x V M.[ ) k ;     O V -.Q V /.<.-.I 8.] ] T I s.&.s.J f M.I.Y.tX;X/.O.s.M.0.O.,X<.) Y.I c.0.y.T D O.O.<.O.[ <.O.J f 3.k ] V f O     9 V D.V f.[ D ] <.[ o.) D C.8.J Q I T -.M.C.Y.c.0.&.s.D.I f.0.-.O.T &.&.J 3.T ] -.[ I [ O.&.[ n 8.) f q 2 s 9     f J J O.I n D -.J [ o.3.D T T <.9 -.Q f.f.H.+XH.j.y.Q o.0.y.J 8.) &.T O.y.x ) 8.T ] O.O.J ) T D D J V s 9 O O   2 D f x D s f M.V o.k n V <.k D D f J 0.Q.H./.D.y.Q 0.o.) I n I j.y.[ I ) J D o.&.V ] V Q f.J q J Q f 9 < $   O q f 9 J q x I ) f D ] Q r 8.T [ 9 J T C.c.Y.[.Q.-.<.y.3.) [ ] [ Q T O.] &.Q I 0.k O.y.k -.O.I ) J Q n s < O O $ $ ; 9 n k D s V J D r f D [ r f I V D y.s.H.;Xs.O.] -.-.[ T [ x ] [ ) ) ) ) J I J [ J n J ) [ ",
"C.;X;X XC.tXtXFX/.,X/.9XlXY.9X[.hX4X9XtXI.M. XY.hXH.f.I.lX0.] H.sX+Xc.f.I.+X+Xj.M.c.y.&.j.j.j.o.V r       < -.Y.Q.lX XY.4X4XxX[./.nXtXO.sXeX[.+XM.FX9XeXsXtX[.H.,X8.c.H.I.M.j.c.*Xy.]  XH.D.O.j.o.y.[.H.o.c.c.M.j.O.r s r     $ 9 c.Y.I.f.Y.+X] Q sX9X/.[./.D.hX+XC.y.*X/.HX+XQ. XBXY.c.0.s.+Xy.O.3.s./.I. XM.o.J D.H.y.s.8.Q q Q 3.Q.0.T r ;     9 <.f.D.H.0.;XH.s.+X'.8.[.;X/.C.H./.+XtX9XeXhXsXtXj.3./.j.) M.Q./.3.&.T I.C.0.[ H.I -.c.O.Y.J y.3.) T [ [ x O   $ [ 0.Q s y./.<.0.f.0.) ] c.'.] V Q ] T j. X X9X[. X Xc.o.c.y.y.c.[.J <.'.[ T o.+XM.[ -.y.f.2 &.O.o.f o.3.o.D $ $   ; ) D.j.<.I.Q.o.) I.Q &.O.3.Q ] 8.] 3.y.s.[.,XC.Q.y.O.8.<.[ f.j.&.Y.o.<.&.j.J ) O.T o.I T M.) T x 8.I k f s 9   O   I 3.V 0.O.c.] ) -.<.Q ] f c.O.D 3.o.0.H.'.9X/.s.] <.f.) M.j.] Q O.-.O.J 0.3.) Q y.] O.D [ Y.) k x J 2 q r 2     q D ) J J o.T O.f V 8.s.Q Q Q s.k T T <.D.Y.*XQ.0.c.&.J D.f.x c.0.<.D o.] ] &.D J 8.I 8.] ] V n Q J x s q ; $   2 D x k D r Q k V J -.s k <.I T J T n ] C.H.+XY.C.O.s.] J T k V ] &.O.[ Q ) Q O.T D &.] I s.] n J I n f 2 O   O 9 r < x r r x &.f q I Q D 3.J T k I f j.s.H.+XQ.) o.f.<.Q &.[ <.] ) [ T ] ) x O.Q ] 3.k 3.[ V x Q J Q r 9 ; O $ ; < 2 V r s k x J [ k q x O.k k <.x V y.C.'.[.&.o.-.3.J ) ] 8.D 3.[ I O.&.[ T o.Q [ I x x V T ",
"sX+XlX,XH.Q.[.eX X;X4XtX4XHX;XtXhX9XsXlXQ.I.tX'.tX,XO.&.tXhXs.Q sX+XC./.M.f.,XH.j.*XD.f.<.0.s.f.D n ;   ; O &.C.s.*XH.eX,X+XtXI.H./.hXM.f.4X[.-.M.[.I.FXhX9X;X*X/.'./.I.-.8.+X,X3.Y.o.M.c.f.&.I.0.] Q Y.<.T  XH.] ] k k s O O   f &.f.'.;Xj.;XlXD.s.sX;XI.M.I. XxXBXs.s.eXtXFXQ.8.4XM.<./.f.y.O.0.I.D f. X/.C.D.] T &.j.,Xc.s [ <.0.H.&.k O O O $ 2 [ o.D *XH.c.Q.Y.C.I.3.-.Q.s.'.,XQ.Y.;XsXlXsXeXeXM.C.'.f.-.&.3.<.D.[ -.j.-.f.O.3.0.0.M.T o.&.s.3.j.) J O.; 2 O   $ I &.J 8.c.j.M.+X8.<.M.O.s.f.x Q <.J H.,X'.,X,Xs.c.;X&.o.j.) Y. Xn I 4Xo.Q -.Q.) D H.C.C.k s.I J -.I 8.J I O $     k ] o.o.-.Y. XJ [ ] &.[ <.f.D 3.I V 8./.'.,X;XM.'.Q [.D.f.[ -.O.f.s.o.O.O.Y.[ o.[ I 0.D &.f.s O.&.x J r f <   $ O I T Q T Q 8.o.o.O.M.n s.J Q Q o.D x -.D.H.*X XY.3.&.Q y.<.&.) [ O.[ M.&.n &.) ) j.-.T V Q c.I Q x f T k q ; O   ; n [ D r Q D 0.T r ] [ ) I x 3.) T V n I.Q.;X*X-.c.o.Q y.[ o.j.s.&.) Q Q ] [ J T 3.T [ D x &.] o.2 k r 9 ; O   $ n k k n f f o.C.T &.k x n O.3.x 0.k ) H.Q.*XY.Y.o.Q O.n ) V o.Q <.<.&.3.3.n I [ O.o.j.x o.o.T x f x f 9 ; O   ; 9 9 9 q n ] x x k x x f Q Q ] D V D y.y.H.eX*X) <.D.<.] 8.[ 8.[ [ ] o.Q O.[ x s.Q ] J -.D T n o.k &.r 9 $     < q r V r s D q r ) s f 2 T k x 8.k [ C.M./.s.O.o.0.] r [ [ T Q -.) o.] o.) Q 3.[ ] I n k k V ",
"*X,X XQ.9XhXD.FX9Xc.*X;X+XxX4X+XFXtXsXhX4X;X*XI.4XY.4X[  X9X X[ H.'.-.H.D.f.'.4Xc.Y.*XO.8.<.f.H.) f <   $ r D 3.D.j.M.;XxXQ.Q.Q.[.,XeXtXhX[.hX'.O.j./.xX,X4XQ.4XD./.'.3.C.)  X*X[ /.&.'.<.<.<./.M.C.3.8.8.V 8.) c.I x n O   2   k O.C.o.j.D.c.eX*Xf.j.sXD.tX) D.D.9Xc.c.+X4XxX*X/.'.&.3. XtXH.y.8.j.j.T O.0.8.3./.[ Q f.'.s.8.T y.8.I.] k r O     D ) 0.[ -.I.D.) I.M.C.O.M.f.Y.Y.Q. XI.Y.4XhXhXsXj.j.0.4X[.y.8.<.I.0.Q.f.0.O.o.[ '.s.-.D.s.D 3.<.o.) ) D [ q 2     2 8.] T 8.-.O.Q f.) H./.0.j.8.O.0.0.[ j.9X XsXtX/./.H.-./.j.] 8.D.) T ;Xy.s <.[.H.x T C.M.f f.-.D 0.V f.T x ; $   O k q f.V o.c.D.Q.k ) 3.O.D &.H.s.j.k Y./.[.;X,XY.<.-.;XH./.3.-.c.3.3.] 0.o.M.y.T -.] 8.J Q Y.J T 3.Q k x 9 < O     3.s 3.Q y.I f.k J 8.&.D j.T D -.O.V <.H.I.;X[./.o.3.-.s.<.O.] o.8.I c.y.D 8.n o.-.y.Q n ] -.&.o.s s s s k ;   O O r [ o.I x I -.) T D 3.Q Q o.x ) &.) ] f.I.,X/.f.<.0.I -.f.O.8.3.O.] <.Q I y.x ) x 3.<.J Q D ] J Q s s ; O O     2 s V ) ] r Q f.Q T x T D Q J n <.] I '.H.*X'.Q.0.] [ V J T J V <.[ ] -.0.J Q ) [ [ o.D Q [ [ s x n f 2   $ O <   x x n 9 Q k x s.x < &.V <.r f J &.3.8.'.hXj.<.y.j.o.J o.o.s.O.<.o.) V &.0.D [ -.] -.&.V n D &.T V s 9 $     ; q f k n q 2 n q k f k n V f V ] s I D.c.Y.f.M.<.3.T x V 0.) I o.[ T O.[ o.T J o.&.o.V Q T k ",
"sX[.eXY.H.[.eXhXtXsXhX+X[.nXnXQ.eXnXtX,X XxXtX XY.'. Xj.D. X4XD. X[.D.j.M.<.M.M.+Xf.eXY.8.I j.j.Q 2 <     &.j.Q /.H.]  X,X;X Xy.s.Y.*XtXnXH.[.tXM.Q.H.sXlX4X/. Xc.I.M.3.c.y.'./.&.+X&.I.f.0.-.&.3. X&.&.+XH.n o.;X] f k ;   $ < 9 -. Xy./.M.O.8./.sXy.D.H.9XY.;X XxXM.'.,X;XFXeX*X9X-.M.O.f.I.D.c.Y.j.*X3.) H.D <.3.o.Q.y.y.<.&.j.[ 0.&.k O   ; O V I T s.o.Q.hX&.C.[.y.<.-.[ D j.I.I.C.C.*X+X4XtX+Xy.O.I.I.D.Q Y.I.<.C.3.) &.j.] '.y.<.s.M.I o.) -.0.k n O.D   ;   s O.T T D  Xf.s.[ J &.<.4Xk ] Q.<.&.[ y.+X[.+X9XeXC.O.Q f.I.Q.o.3.s.D D.D.n I j. Xj.n ) Q ) 3.8.J [ f 3.O.9   O   2 T I f.O.D c.Q sXc.V ] I ) ) D.x c.D *Xc. X*X4XQ.M.8.s.Q.Q.3.O.D.0.s.) &.O.-.3.o.&.o.-.3.J s.3.T I I Q n 9 $   O ; I r 0.-.) 3.+X-.T J H.<.] J ) -.D s.y.M. X4X+XY.j.f.o.M.&.&.O.T 0.o.O.&.] 0.J O.3.&.T ] V [ I O.o.k k q s <   O < r V -.<.r q k o.0.-.Q Q T ) V n Q 3.o.Y.Y.9X'.3.O.O.o.x &.-.-.3.T J 3.I k 3.Q I D [ O.I s.J o.< Q n x 9 ; O     2 q V T ) x k Q Q V x ] T Q x o.n Q I /.I.,X XH.<.&.) ] 0.Q r Q j.I O.O.J ] I 0.o.y.Q x o.] Q n s x V 2 ;     O k &.x n D k f k 0.-.< J I T D r ) -.H.c.Y.hXI.s.y.Y.<.V T [ 3.o.-.[ [ ) &.<.I [ ) T ) f.o.D n o.] s n r ;     ; q k x 2 I k k J ] f 9 Q x k k ] J ] c.c.Y.I.D.8.&.) [ k ) O.-.] T D &.-.-.Q J ] [ Q ) o.] V ",
"+Xf.eXFX/.-.C.I.lXxXhXxX X[.lXH.*XHXxXsXQ.;X X,XY.4X[. X/.Q.eX+XH.C.sXC./.y.C.f.j.[.y.C.D.Y.Q c.T   ; $   o.H.s.;X*XC. Xs.Y.;XQ.H.C.s.H.sXD.y.*XH.sX+XeXnXtX X0./.+X Xf.Y.Q. XH.[ Q.I.&.o.Q.3.0.j.H.s.&.s.I.I &. X] x r ;     f [ V H.C. X X+X<.8.Q.[.BXY.M.4XtX8.;X[./.4XlX*X X,XhXc.;X/.j.3.'.D.D.y.Y.4X-.J D.*X3.Q c.-.s.] C.I.] Q &.V 2     9 j.-.j.&.0.0. Xj.Y.9XI.M.Q.c.] y.I.4X*XH.Q.*XhX*X,XH.f.C.H.C.n Q.0.&.j.o.Q j.c.[ c.] 8.s.'.Q x I ] H.T ) k r O     V <.M.&.9 I.,Xs.T &.f.] 8.Q -.8.<.O.) s.o.9X+XxX+X/.M.o.M.f.C.Y.y.O.o.c.) 3.Q T f.D.y.x o.] -.-.Q -.J J &.s ; ; O x ) Q 8.Y.O.D.0.<.j.j.O.c.] [ y.V ) T D.C.'.[.eXQ.C.Y.-.j.H.] ] 0.c.c.f.j.O.Q 3.<.) O.O.s.T ) j.o.s k &.D 2       r f k o.s.o.T j.0.) V J C.-.3.n ) J ] [ j./. X+XC.C.f.) c.[ f.3.D 8.s.J ) &.8.[ -.0.T I O.] k D -.] [ s q q ;   O q k k f.C.I V x ] <.Q ] Q D I -.J s T Q I.c.*X Xs.f.j.O.T V 0.j.o.) T y.I f ] O.D ) V I I 8.o.Q 2 x n n r <     ; r q s r T -.D D 8.-.r &.[ D r M.s J J I.H.,X*XC.-.s.&.V 3.-.k D j.s.I T J 0.Q o.J j.Q V 3.[ ) Q x V s   q 2   $ x I s D <.2 s D ) D V J O.) o.f T -.8.I.Y.4X'.'.j.H.-.[ Q [ 8.o.) &.] ] [ [ T o.J I T j.&.V x ] ) q n q O     ; 9 s n 2 o.q r T ) f r o.r s 9 f x J f.M.I. XI.y.o.O.] T ] ) T V O.] ) [ o.) I I Q ) ) [ ] J ",
"+X X/.nXBXhXY.O.C./.H.4XlXeXFXhXlXxX9XeX+X9XY.j.Y.4X XH./.s.'.;XM.&.tXC.;X/.Q.D.<.O.C. Xs.j.C.s.D $ O $ ; D f.;X+XC.tX4XY.4X[.H./.hXc.M.M.nXH.Y.s.*X4XeXsXsXtXj.;X X,X<.+X'. X0.0.H. X) O.'.<.s.0.0./.0.3.j.O.O.&.J J 2   O   V o.k D.[.C.C.;Xs.f.+X;X/.Y.+XH.Q.f.+XH./.*X[.xX*XD.j.f.I.nX[.n -.c.0.BXy.y.-.] Q.4X0.H.-.c.,X[ J o.y.3.&.r O     $ 0.&.;XI j.O.M.0.) +X[ /.H.tXc.j./.*XY.sXsX,X9XhX*X*XI.y.j.f.f.C.I O.H.f.&.C.-.8.O.J j.j.I.-.o.J f f.&.8.2   ; O r k V &.n V f.D.j.3.&.y.c.o.s.] 0.o.T V 8.0.j.I.tX*X,X'.-.y.y.y.D.3.f.I [ &.[ o.y.f '.j.Q -.J ] [ <.8.) k ] s     $ Q Q O.T Q <.3.-.o.Q J s.o.8.-.0.0.Q [ -.Q.H.I.eXQ.s.4Xc.[ [.o.8.[ H.3.H.j.&.Q y.3.T ] O.&.3.I <.0.x 9 [ J ; O     V x ) J Q 0.0.y.3.3.y.) Q 8.I I [ Q <.O.H.I./.,XY.M.c.3.-.[ '.y.Q O.H.T ] [ o.-.O.3.J J &.<.f J [ n &.q f 2 O     r D J T o.x y.D 3.I ) 8.] V D s.[ f r D j.f.[. XC.s.s.O.[ O.] D.0.k y.Y.D n ] s.k Q T V n T [ [ V k f k q ;     q x f D q I <.D k o.0.f [ T J D f.J I D C.C. X;XI.3.f.O.J <.Q f J c.I.D n O.s.<.k x f.[ D ] Q T I k k k O <   2 9 s s x 9 ) k I T x 9 J J ] o.I n q Q ) I.H.+X[.+Xs.D.] f.&.] y.o.V 3.o.) ) ) J O.Q J o.&.) n V ] J n f 2     $ < q s r f [ ; n J k s V ) f V D r r V f.c.H.+X/.s.o.-.J [ [ I k s 0.<.T Q T [ ) V T &.Q [ O.o.",
"I. X8.c.[.9X;XQ.+XHX+Xc.eXnX;X XhXsXsX4X+XhX4X0.C.9X4Xc.D.y.f.sX,X-.Q.f./.'.c.c.c.M.D./.Q.3.-.C.x 2 O   $ [ c./.sXI.eX'.c.[.I.D.tXM.[.H.lXM.[.9XY.j.+XlX4X,X9X/.+XY.'.o.*X*X*X0.) D./.H.M.&.f.H.y.O./.I.] f.H.O.I x V <   O   T 0.0.<.0.C.Q.Y.s.H.8.3.j.Q.[.3.H.9XO.Y.*X4X+X;X X+Xy.j.D.eXsXc.<.'.O.Q.-.3.c.'.O./.y./.o.j.D.O.] n c.8.J < O   $ x Q [ D.s.8.0.'.Y.y.[.M.c.s.s.J ] *XY.8. XxX/.*XxX*X*X+Xc.0.j.'.C.O.&.M. X0.-.] I.] o./.y.o.8.'.) s ) D -.V 2     9 O.I.s.T D I s.'.s.&.-.3.c.) <.c.-.n Q 0.&.[ Q.'.lX[.Y./.[ 0.Y.y.] ;X) J +XO.k c.) D.0.J s.-.J [ s.Q J D J O ;   $ V s j.3.k [ C.0.0.x Q Q D M.T 3.&.s.] [ 8.j.H.*X XC.+XC.-.Y.<.f.] H.o.j.8.3.Q y.0.O.J O.I s.o.D y.) s I x < $     Q D 0.o.q D C.<.] 8.[ Q f.) 8.<.I I k T c.M.Q.;X Xc.c.0.] O. X8.3.T M.T 0.I D &.Q o.Q Q &.) Q n D D I r k ;     $ 9 D [ &.V 0.o.3.D I T <.] T V o.] ] D k O.s.Q. X'.8.<.] j.T D C.] ] O. Xs Q 8.H.s V <.] k I n 0.J J r q 2 O     f D n ] x T J n I ) y.I J f [ 8.I &.V x f.M.Q.;X'.0.<.<.O.o.n n n &.C.<.n ] &.j.D D 3.s.O.V ) Q n V s f < $   D V s n k q D x x 3.3.9 f ) O.) k Q r x 0.I.j.[.*X/.3.I.o.s.-.) &.&.) &.<.I ) o.n O.O.D O.T [ V I [ n T f <   O < q f V 2 s T f ) D k q s k x n o.V s x 0.s.H.[.;Xc.O.O.) Q D Q Q x <.) Q &.] ) ) J ] O.T Q ] o.",
"BX'.3.0.+XeXPXxX4XhXlXH.M.tXnXsXtXsXFXxX;X*XeX*XM.,XeXY.I.+X0.*XtXM././.Y.C.O.y.;X4XC.H.s.f.&.o.f   $   ; -.H.j.y.Y.;XhX+X;XeXsXeXQ.j.D.C. X XH./.0./.lX4XtX,XH.I.'.'.s.Q.'.*XY.V j.+XQ.s.-.H.Q.Q [.c.8.&.s.) c.-.x q $ O   ; [ 0. XY.M.8.H.*X'.M.'.;X XM.I.Q.<.sXY.o.] '.Y.*X9X9X/.o.D.Y.I.H.Q.Q.s.] ] s.j.j.C.&.[ 3.H.H.) ] f.-.s.Q 2 9 <   ; o.y.3.[ Q.f.0.Q.,Xj.Q.3.D.s.4XI.D Q.[.H.J *X+X[.,X9X'.;X/.3.H.c.y./.y.I H.C.O.[ [.[ 3.+X3.x Q f.c.[ o.f D f ;   ; 2 o.eXD.D.Q o.O.f.&.O.'.3.M.[ D.I.s.V s.j.x 3.D.'.tX[.Q.;X3.[ Y.0.M.D.) 3.I./.s o.D.) 0.J j.<.) [ O.n D J r       k M.] c.s.[ O.C.I.o.0.J C.I 3.n O.] s.o.) J y.H.I.;X,XM.3.Y.M.c.3.[ 8.] <.s.f.J -.s.f.I o.T -.8.k &.O.D V 2 ;     9 T x 0.f.Q [ 3.o.] s.y.k ) [ o.o.o.n ] ] O.c.Y.Q.'.D.c.&.&.-.C.3.j.D 3.D C.T J [ T Q -.O.[ Q I n V V Q 2 r $   $ 2 9 x ] Q Q Q s.V 0.] 8.Q I Q D D ] &.J ] O.s.D.Q.,Xc.j.8.&.[ k o.&.Q I s.s -.-.s.n D o.&.T J k [ J n r 2 ;     O f J V n x T x Q 0.[ -.J ] n ) 3.x 0.q f 8.M.H. X Xs.o.8.3.I n Q k T 0.8.I T o.0.Q x I D.y.V O.] n D s $ < O O I D k &.J x D I k &.y.f s 3.M.n k O.Q s <.C.c.I.*X+Xf.y.j.O.O.[ ) -.s.] o.n Q [ k O.<.J I T <.V D T k V s $     ; 9 k I T q D D n V J q k J n ; n n f f O.0.C./.4XH.-.] o.o.I I T D -.x D 0.[ D I ) &.Q ] I V V ",
"4XtX9XC.M.Q.xXtX;X XBXeXy.I.xXFXFXlX9XxXhX+X/.sXI./.,XD.M.9XH.M.Y.D.Y.4X XC.O.s.'.,X;X8.&.&.f.k 9   O 9 n 3.C.D.C.'.M.f.D.M.D.D.hX;Xj.Y.C.[.;X/.c.s.s.;X,XnXtX/.c.'.'.M.H.s.'./.c.f.;Xc.-.M.c.f.] M.M.C.[ s.I ) -.k $ O $ $ s [ c.'.'. Xc.C.*X0.O.j.8.s.+X0.C.'.D.,XI.) Q.lXD.*X4X9X8.I.Q.s.c.Y.*XI.8.I -.Y.3.0.<.3.3.3.<.o.3./.y.o.Q 2 O     x I I.M.Q f.c.3.s.8.s.<.I.f.I.Q.8.0.0.Q.,XD D. XI.*XsX/.I.I.-.Q.C.&.'.I.J [ M.M.-.D.[ -./.O.) Q I D.3.s.x s     O s V x c.Y.Y.o.-.<.s.y.] M.j.T < o.;XO.I 8.<.-.3.3.[.[.9XQ.c.c.O.c.D *X0.s <.8.D.&.[ 0.<.I 3.<.T ) <.T D V f O $ O   f c.J ) 3.C.C.r o./.f y.O.J Q Q [ y.O.<.Q T 3.j.C./.4XM.8.Q.D. X0.[ &.Q ) s.D.D O.8.s.-.] Q T <.J T o.J f O O     k D n &.8.V <.[ &.n [ '.) V J &.I D O.J ] ] H.D.H./. XC.<.s.3.-.c.M.I o.Q y.) [ Q o.J &.O.) ] J D V f ] ; $ $   $ s f x ) ) [ I <.n ) ) J n J J J V ] T s f.0.y.c.j.[.Y.M.y.f.V ] ] ] o.Q Q D -.) ] D ] J ) [ V V n D q q < O     $ f J J D f V I o.o.n x I <.T D T J &.n k O.j.c.H.'.D.0.&.s.T f I J 3.] O.] [ [ o.Q k V -.O.V ] V f f 2 2 ;     2 r x c.f.< r <.O.q k [ q -.c.r f J ) s f 0.H.f.I.*XI.[ C.O.-.[ O.[ 8.] ) J ) [ n O.[ D D o.O.V V k x q 9 O     $ < s D &.s n k q T x r D 3.n r 9 f x n I 0.f.I. X/.<.[ [ &.O.I D D &.n V 8.T n T ] O.I -.) V x ",
"9XtX'.H.8.3.y.*X XnXxX,X XD.D.9X,XPXtXsX4X[.c.lX*XY.tX0.3. XxX Xf.s.-./.;X/.y.y.Y.;Xs.0.3.C.O.9 O <     o.C.j.Q.I.Q.*X3.9X*X/.Q.y.eX9XeXM.D.eXBX XQ.o.Q. X X X;X/./.Q.s.*Xs.*XI.f.s.;X4X-.J j. XY.o.f.f.) C.s.D n r O     < D Q j./.I.I.C.<.'.+XD.f./.Y.+X[ j.j.j.*X4X/.0.,X'.I.;X X*XD.c.D.Q.T s.'.'.y.D.<.o.[.j.o.Q.j.C.0.Q /.f.f k O   O 2 x -./.,Xy.8.<.0.s.f.M.Q -.Q 0.D.&.0.3.'.,Xc.T &.;XI.*XeXQ.'.0.c.C.0.<./.C.D <.'.y.<.O.&.C.J s.f.&.[ ] s.q r   $   I D.D J /.3.s.0.I r x &.D M.3.s J [ V [ T ) ] D.+XH.j.,X+X'.I.M.j.] c.M.-.I <.0.&.D ] f.V -.C.-.f C.) D q 9 O   O s n <.J o.<.<. XI.Q J O.&.3.x V J D 0.Q O.D I &.<.D.c.Q.[.Y.y.0.'.f.O.j.o.&.M.I.T O.o.-.j.T I n ] [ J [ x <     $   n D Q ] I ) ] 8.s.f T f.O.[ s I M.q ) Q V ) H.8.j.C.+Xj.8.c.8.] /.j.Q O.3.T ) <.J <.x ) T o.J <.D s V x 2   $     f V V ) ] T D [ -.n j.) k T V n s J x x ) ] [ f.s.Q. XM.8.D.J -.o.O.V s.o.T T o.] f ] ) D T ) f T k r < <     O ; f J I 3.x s &.-.D D I &.O.V J V T x f.x ) y.y.f.I./.I.j.-.s T [ s <.<.-.O.-.J [ [ [ [ D I T ) k x q 2 ;   O s 2 9 r &.f.9 f n [ f n <.r ] -.k f x T I 2 o.D.8.s.M.I.-.0.0.3.) s.D V o.O.-.<.O.T o.D x ) <.J V T q D < <     < 9 2 q x T s D s n 8.< f ; &.9 Q s q s x D y.8.C.D.[.8.<.[ I [ -.&.D Q D Q 3.D J o.T ) T o.I x k ",
"H.I.;X Xj.c.O.y.0.D.xXlXeXH.D.4XPXQ.xX,XhXtXO.tXhXI.*X,Xj.Y.lX+X/.M.8.D.M.sXj.y.c./.y.y.s.8.x ;   O   ] M.+XQ.<.Q. XtXQ.H.,X/.H.;X+XQ.D.y.Q.4X9X[.3.D.;X/.[.;X4XlXM.[.H.j.+XI.D.D.D.c.tXo.I 0.9XD.0.Q c.-.c.y.x r < O   9 x &.D 3.c.D.tXC.8.I.I.8.[.[.s.H.8.8.4Xs.0./.<.D.Y.;Xf.Y.,X*X/.I.M.y.[ 0.I.H.I.[.f.O.D.-.Q C.9X[ ] M.8.-.2   ;     V -.Q f.C.c.*X8.j.-.'.+XC.f.y.M.Q.J I y.8.y.*X) ) f.;XQ.,X+Xy.Y.s.M. Xj.Q.f.8.j.3.I.f.o.] &.o.Y.&.I -.s -.< O O   < j.8.V I 0.&.8.[.*Xf.D J D.3.C.f y.o.-.&.] o.V &.[.H.f.C.+X4X X/.3.y.-.3.0.Q Q.O.y.-.<.8.$ y.j.o.I 3.n D s       ; n T Q -.s.+X3.j.D.0.T <.8.V J ) T T n -.Q x D s.o.[.3.C. X,X8.[ ;X<.8.3.I.T 3.H.Q <.&.<.I f.o.J J O.I D 9 $     O k y.] ] -.] I J 3.o.T V [ &.j.) 2 ] f Q D ] n M.s.<.&.Q.H.H.j.0.I D.-.[ 0.M.Q o.0.Q ] J D D c.x T T 2 s f O     ; k n D r ) c.V D ) Q D O.o.n ] [ k ) J r s <.V x s.-.s.Y.j.H.<.x [.0.y.s y.T ) J &.o.x ) -.I k k ] k f f     O   ; s y.I x 0.V s 8.&.Q ) n s s.j.x D V I [ D x '.3.0.s.[.'.f.O.I O.&.n T M.<.o.<.) o.T J J 3.x k Q D s q ; O   O n f r Q f n f n T k x r V Q k T f x D n <.q q 0.f.-.c.D.j.3.<.8.V &.<.I &.&.3.3.O.) Q T D o.&.Q x x n s < O   2 ; k T T r r x k r D o.) s 9 f k n n 9 q Q x V /.y.H.C.H.y.] o.-.-.Q [ Q f.O.-.V Q D O.Q V <.J D D ",
"9XlXC.[.,XnX3.D.[.T ,X4XnXeX9XM.,X3. X[.*X,X4XsX9XC.H.4X'./.;X4X9X+X3.Q.D.M.D.0.f.D.-.0.y.] 2 ; <   s [ y.c.o.H.0.M.lX9XI.eXY.T H.Q.H.,XD.Q.D.*Xc.H.C.4Xf.D.H.FX+X[.Q.M.I.'.s.,XD.j.[.+X<.3./.M.y.C.n s./.y.k s $   $ x ] ] -.I Q O.O.0.D.<.D C.O.s.eXD.I.'.0.c.c.&.I.*Xf.[.-./.j./.tX'.,XD./.8.c.<.3.'.3.j.0.[.M.3.o.C.J 0.'.o.s ; ;     $ Q f.y.3.j.-.Y.;Xf.s.*XsXC.y.+X4X8.] o.0.[.y./.D o.M.,XH.s.;XC.+X&.3.+XD.Y.j.f.j.-.C.[ o.3.-.) D.Q.k T f r ;   O r 9 y.9XQ.T f -.D.j.o.*Xj.D 0.D.I.I o.) &.C.T D.) [ f.'.0.-.D.[.*XI.y.&.C.y.H.D y.<.<.y.T c.) D 8.-.k ] f f <     ; f <.y.-.] n -.-.c.C.s.f.c.c.I ] ] C.O.-.T ) k s D D j.0.8.M.[.'.<.C.8.c.] j.<.&.O.] s.&.y.J &.s.Q J Q f q $     < q < n <.s.8.M.D ) T Q c.<.Q n ] o.J O.s Q x f r ) y.O.y.<.M.Y.j.0.D.3.-.O.3.&.T T M.) J ) k 3.y.r x I q 2 <   ;   x q 3.D Q ] <.k I T [ k J k k D f J J ] s J ) q s f.s.-.y.Y.Q.O.D Y.D.V x j.O.0.[ &.D x 0.I x x x Q s q 9   ; O q D s o.[ D D x x o.J Q O.I x [ O.r 9 ] -.k [ s -.O.0.&.s.C.D.s.D &.) s -.-.y.O.I T -.&.f q 0.I n J x q 2 $ ;   ; V T ] x f T k x x n s 9 k V n s D q -.n Q x s I M.s.O.c.j.8.f.Q [ j.Q o.o.o.&.<.&.o.] I D &.O.T k k f <       < < x s s n n f x D x r D <.2 q r x J k q x 9 V Q.<.s.s.M.8.s.) &.V ] D ] -.&.O.V O.) ] V k O.V V V ",
"3.xXhX;XsXnXY./.,X0.O.O.[.nXHX9XtXI.s.;XY.,XsXY.9X/.M.*X XY.j./.hX[.H.+X'.D.f.] D./.8.<.&.n   $   f V y.,X9XM.0. X0.y.H.'.lXI.o.H.M.-.M.J *X,XQ.;Xj.[.f.[ /. XC. XeX*X'.Q.f.] I.f.y.D. X<.C.f.-.I.0.k C.H.) s < 9   O T M.c.C.8.,X*XC.8.'.'.f.D.8.x f.M.C.H.c.H.eX8.f.3.*X+X;XD. XM.C.,X;XC.M.s.*Xy.0.H.3.I.3.y.8.y.o.Q.[ y.c.q q 2     q ] 3.0.;XQ.;X[ y.I.<.8.c.[.c.<.[.;X[ c.+Xy.&.;XtX] V )  XeX Xy.D.eX+X<.9X3.f.D.3.y.s.[ I.j.O.) O.O.[.o.k s O <   < T T Y./.M.H.0.s.f.y.V o.Y.) M.] H.O.] q T '.) C.I ] 3.0.H.y.-.c.'.*XY.3.s.0.s.&.[ j.[ y.V y.M.f ] O.s V q ;     ; D I 3.&.o.<.T &.y.s.<.] 0.3.3.n T 0.C.x &.I Q x x I x ) &.3.&.y.c.I.0.o.0.&.Y.D.<.[ I M.<.&.V [ 3.3.) J 2 ; O   $ x f.D r ) D &.<.o.] T Q ] ) -.D k ) T ] r T D n s D ) &.] ] O.s.j.s.I.o.3.3.s.[ Q &.8.&.D D V 3.y.f k I s $       s f Q D I T O.o.D O.[ f.Q ] D n x V k x f r V n k x Q o.-.[ <.c.H.3.O.3.Q 3.Q O.<.) [ q k M.x r D n J 9 ; $     q r n T I T ] n k n o.k k ) [ T O.) f s o.] q ] s f Q 3.O.-.8.3.-.Q 3.T k 8.) 0.0.[ ] O.3.x k -.Q V x s < O     < T D I -.k ) D f V D -.J r s -.s T < -.D -.k n < < &.8.) &.<.O.3.n 8.C.n O.0.<.&.O.o.[ Q J J [ ) D k k q O   $ 9 2 2 I k r V x x x s 9 r I -.x f r x Q T x s x ] [.0.&.] 0.c.f.D o.I 3.T o.Q <.] n <.O.T f k Q k k x ",
"8.Y.Q.<.] M.lXhXtX;Xf.Q.<.O.xXxX'.Q.o.eXtX'. XhXhX*Xs.Q.+XhXH.s.I.C./.,X/.Q.j.I C.'.3.V k 2     O y.j.c.I.+X4XH.0.HX,X-.<.8.x 8.J y.y.+Xy.I.0.D.Y.9X0.) ] *Xj.s.M.H.,XsX*XH.I.I.s.y.0.[.M.s.D f.;X) I C.[ q s O   $ I y.I.0.&.Q  XBX+X0.-.T y.-.3.k s n ] s./.8.8.D.Y.3.] 3.4X4XD.s.O.j.f.[. XM.D.D.D.T M.'.<.<.j.y.-.I.) I T 9   O   J Q I.8.D [.I.lXQ *XQ y.x D T ] J Q o.I y.c.D.x +X*Xo.<.] M.4XI.j.s.I.Y.Y.;X<.0.H.<.3.M.o.Q.C.T ] C.I ] D f $ O O   k I ) &.<.o.D.0.o.n J [ 9 n J n q ) <.k r o.-.I D.y.<.s.] J H.H.) c.8./.M.0.3.-.s.) c.o.&.[ ) D.] D J k r ;     2 V 8.3.C.f.3.-.] -.8.<.T f V x D f x Q [ n Q I k ) 3.o.T k 8.j.j.8.f.s.D.M.8.<.&.o.f.&.[ s.Q 3.Q n O.&.J f     O   $ D -.'.s k o.J &.D D o.) 2 9 J k n D n J r k s n V T x ) f -.] ) f.D.0.c.8.] 3.O.[ 3.) <.I D D o.O.f q s <     $ 9 V ] f.T I T q ) Q o.Q 8.Q T J x V [ k f 9 D ] 9 f n q I C.f.-.-.c.<.8.3.&.-.) ] I D ) s k 3.V r T n k < O     x ] V V &.D V D n V [ y.T x k x [ n Q <.f J ) f n I r V ] <.-.] 8.&.0.-.n n [ 8.o.<.-.T k ] Q D Q I k r 9 $   O 2 Q c.x 9 ) D T f f J ) y.[ s f [ < s f o.r Q q n < 2 q T <.) ] -.O.&.f.s.V D j.<.) J J T Q [ <.T D x k f <   O O f f 9 J V n x q [ <.D 2 f [ 8.V f < 2 k D k 2 k ; I &.M.8.o.[ &.D ) 8.&.] Q I <.) k O.[ J k V D q r r ",
"9X9XtXhXQ T s.Q.f.0.0.9XnX&.[.*XlX[.y.Y.PXM.c./.,X4X[.,X/.sX+XH.<.D.s.,XC.s.Y.o.0.f.) 9 ; O 2 9 O.-.'.Q.Y.,X*X X*XD.Q./.o.[ -.-.T Q o.3.J I.[.y.[.eX] j.M.Y./.D.C.y.'.[.Y.M.*Xs.C.s.I.Y./.O.T H.C.Q ) ) x O   < q x &.y.Y.M.3.T ] /.Q.M.j.n D n D n f q r q I x Q -.D.D.] Y.C.*X;XD.c.0.0.<.C.8.y.'.;Xx M.I.y.C.I.O.o.o.V r 9 < O ; J y.[ M.I.0.&.Y.Q./.f.[ T f f s s q q 2 k q x &.k j.4X] y.<.-.C.C.f.I.&.f.D.j.C.s.f.j.3.s.I.y.j.[ ) 0.Q r O $     q D O.y.3.-.0.n ] 3.s.I n f x f x x D ; < 2 9 n 9 k o.3.D.I.&.[ f.+X-.D -.8.s.c.3.f.o.] s.-.o.y.D 3.o.x q 9 O O O q V ] s.) -.<.o.T O.<.I D n n q 9 2 k q s 2 < $ D Q T k 0.I 3.r C.r o.V o.8.0.&.C.s.] 0.j.x 0.-.Q ] o.x V r ;   O q 9 r D ) /.V O.f.Q &.D k f 9 s V 2 ; s q < s s q < q x V k V V -.O.Q I -.] Y.0.) -.c.o.) o.-.I &.s o.n r ; ; O O q k ) V I f.) 0.M.V V J x f x r ; 2 ; q r k $ f n 8.I s V k V O.[ J I ] [ s.3.-.Q 3.] D ) ) D D D D 9 J r 2 O     $ s r x J Q J <.I k J Q I q x s ; 9 k r J J k 9 ] s -.n k x &.&.I T T &.o.T V D 3.0.T O.I k I o.n V x q ; $ O $ 2 J T 3.9 9 T <.V k V x D T J < f q ; O Q n s k q x V V ; k <.o.[ Q J O.-.o.J k s.8.] D J I I Q O.J n s q <     < 2 r s r x k ) V J k r s k x x x k q ; $ 2 f k r -.V f k D x n ] ) T T 8.x V D Q [ I k Q Q J V V k ; < ; ",
"0.o.] &.T D x D ] T x o.9XY.) -.H./.C.8.,XtXtXI.M.Y.*X9XD.'.+X+XI.C.0.+XD.j.y.] ] I k 9 < O x J c.0././.y.0. XtXj.s.0.Q k D Q k D V f V x r T /.I.y.j.s.f.8.s.8.M.0.f.<.y.s.'.c.f.f.Q.H.&.o.3.0.Q n n ; 2 ; s D J o.0.&.D.[.Y.f.-.O.<.) o.f.f.[ O.) O.I ) f   r   2 ) ) O.0.j.-.eXc.8.Q.D.O.O.8.c.H.'.O.0.f.-.0.O.n I s s 2     q s 0.f.[ O.Q.I.D.M.C.-.o.o.O.O.I 0.Q J I k V $ s 2   T I.0.O.C.] /.O.j.3.+Xf.-.O.3.[ [ 0.3.<.s.<.o.Q J 9 f 9 O O s k ] ) n 3.) c.,XC.0.o.T V 3.y.Q I J J I T I D x   < 9   ; y.C.8.O.8.Q n  X-.D ) ] &.8.) Q 8.o.] O.D J q r $ O   9 n [ [ <.8.8.3.<.-.Q <.O.s J ] 0.O.O.n [ I f q q 9 $ 2 $ q T Q Q D ] o.-.3.T n [ ) -.3.&.3.&.J O.Q T J x q ;     ; 9 D V T [ j.-.Q c.I I Q n J &.&.f x J ] k x r $ 9 q 2 ; 2 r 2 T V ] J [ D x J ] -.-.&.M.Q [ ) -.I T s I 9 9 ; $ O 9 D V [ x J -.V 8.H.O.x J x n n V r n f < O ; < ; O n q   k J D D Q I ) ) T x I -.[ ] J J o.D J Q q x $ s O $ O $ ; r x x T J n q D f n x k f 2 n x V s q 9 s 2 2 9 s r o.x k r ) o.o.J Q x Q [ x J ] j.x ] [ D k I k s 2 $ O   O 2 s T x I k x J 8.J k n s f s V 2 s 9 q k r f < D 9 q ) V r s V O.) J I n Q Q J I ] O.) I T T V k x x r < $ O   $ k o.f ; f Q I &.J J n x V x 9 q x 9 2 2 2 2 r x k n f < s ) -.T n V D I [ f q V Q n V k V D n n s 9   $ O ",
"] -.C.&.f.<.[ o.I 2 r s $ -.O.s.]  X XH.y.;XsX4XM.y.8.j.M.'./.C.'.8.f.j.s.s.J V x < 9 q q s <.<.f.j.C.*X[.<.y.Q &.Q o.-.f.o.o.[ c.0.] f ; 9 s f 8.x *XhXV <.M.0.9X*X/.M.8.3.-.&.o.<.-.8.x ) o.D k 2 9 $ q V M.) f s.;Xc.f.j.y.8.T O.H.c.O./.[.-./.Q.c.) j.H.O.n < k   s V 0.Y.o.'./.0.Q.s.f.] I <.) ) ) Q o.J V k f s $ ; < 2 x [ 8.I.*XY.Y.Q.I.[.y.o.V [ /.D.f.&.;Xf.y.] <.8.T f r <   $ O.-. Xy.-.D [ C.H.s.<.T D J T T ] Q x D r s n $ O O   9 Q O.C.0.0.'.'.I f.8.o.[ &.8.s.C.Q I  X-.3.O.[ ] j.k r 2 < $ r 0./.-.r s.C. X Xk I x J V T V ] V D k k 9   < < < r D &.0.O.f.s.I I T ) V T ] 8.[ ) [ <.0.V T Q f.] q J q 9 O 2 k x I f k ) Q ) 0.x D x D [ J q T s J V q 2 f   $ O $ 9 r Q Q O.0.O.3.J &.) V <.3.Q ] I.3.<.f.n ] <.&.s s 2 ;   O 2 O I x V 9 Q -.) I f Q T D I n o.k ) n 2 r 9 $ $ O 2 9 k T f V n c.o.&.x ] n ) [ ] o.o.[ ] &.o.Q I ; V 9     q s V I ) k n x O.Q k f J D D V s k J s s x < r   <   < < q k J V V o.o.) V V ) n x Q <.] ) V [ Q [ n < f 9 O ; 2 n q k r J Q O.c.<.V V x s I Q ) s V D r < < q 2   ; q 2 q x V ] ) [ [ V n D D n n n x J [ D f f n k 9 2 9 s ; $ x s s r f T n <.8.V Q J V J k f s k n V n f f 2 ; O $ 2 2 r D 0.T < k <.[ O.V V k s s k k q $ 2 ; 2 q ; ; 9 2 2 D f s q k k D k V x D n s V n q k s s s q r < ;   ; ; ",
"D.j.H.H.Y.+Xy.y.C.) D q 2 $ k 3.C.H.j.[.;Xc.C.9X+X[.C.<.-.8.8.-.O.-.<.Q I s D k f 2 k x D 3.9X[.j.s.4XsX9X0.[ s.j.I.C.3.+Xy.-.3.C.,XY.8.[ I 2 < $ < n C.I.n M.8.[./. X9X0.y.] ) T T V V ] f n r q s 2 k o.&.;XJ o.M.[.y.M.Y.y.o.8./.8.0.8.f.D.f.f.+XQ.s.3.I 0.c.I x 9 ;   o.y.j.&.3.8.M.C.y.s.c.-.) V s f f s f 9 f $ s k k n ) 8.D.O.D.y.+Xj.Y.) 8.Q.y.0.j.C.0.0.,Xf.f.k D.I.<.3.x D 9 <   k O.f.V n ] /.s.y.f.x [ <.Q I D q k r f < 9 f r r s -.[ &.s.O.H.s.C.y.8.0.j.3.Q &.y.&.O.-.s.M.8.O.s ) j.D D J r q   9 ) Q I -.o./.8.V [ y.r s r f f r q ; 2 ; r ; s k J ] 8.y.] C.D.Y.3.V ) o.o.] H.'.<.V 8.M.[ [ 8.0.s.T ) s ; q   O ; O.r n D ] o.] o.C.<.J J n ) s f 9 O 9 ; 9 < V n n J J <.-.s.C.] <.Q I -.j.8.3.f.J s.o.n 0.o.n &.s.] ) s q 2 ; O 2 ; Q q f J V <.Q ] T q k f f s q q 2 r   ; ; $ < D T [ 3.J k ] <.o.Q [ J 3.3.&.-.[ [ D I T J y.O.f k [ q $   $   s o.q q n < ] T -.I q s s r 9 r q ; $ $ < O <   r q k I o.O.q &.j.Q I Q I V T o.Q f J V o.3.] ] V n s f < O 2 < s q n x V J 2 J D r V k k f x r 9 ; s O 2 ;   r T J J ) Q D O.o.&.J o.n ) [ I Q x [ 8.&.n V V J D ) V r < $ O s 9 f ] V r Q Q f x r k k f f s r q 9 2 < ; $ $ ; q k k s x T -.V n O.D I x f V T ) J k f x n r f k 2 $ < $ 2 x 9 f r f s J D T 9 f s k f q q f q 2 < O < O $   9 9 ",
";XD.+XD.8.3./.hX'.'.J Q ) s 9   x ] ;Xc.,XlX'.I.[.I.9X+XC.J O.Q I Q V k r 9 x x [ <.[ 0./.[. XY.8./.nXtX*X8.H.Q.I.*Xc.j.'.j.3.y.) [ j.D.C.&.&.J r <   s &.s.8.3.H.D.Y./.I.[.,XI.&.Q ] ) I T V f k Q 3.3.3.y.I.&.+XhX'.'.M.s.M./.H.D.[./.I.y.y.&.s.s.D.s.Q.3.V 0.x f.T q 2   r &.j.-.[ j.c.C.+XQ.[.0.D o.) o.o.) n n D o.3.] 8.<.D.Q.*XC.o.O.&.-.y.s.f.M.M.f.] s.f.D.-.j.) o./.0.0.-.) [ x 9   ; j.2 &.3.D.Q.<.C.J j.H.Q. X-.s.j.3.0.[ -.f D [ 8.<.Y.] &.f.[.y.] <.s.*X XQ.f.3.J 8.3.] [ 0.f.s.V &.-.] k I &.n ; ; ; r x O.-.f.y.] D Q I n O.J J V o.9 V k H.3.-.T T x j.Q.0.] Y.Y.O.O.'.D.Y.O.o.H.C.J D <.D ] 0.O.3.s.3.) < I 9 ;   ; s k [ V J C.o.Q <.] j.<.y.) 9 I ] 9 x D [ 0.n ] T [ ) <.D [ y.o.&.I f.O.I.O.3.-.O.o.D <.0.I T <.] 3.x s f k O   $ k J s q r [ 3.I V V J D.8.2 n 9 x $ s s D k x T ] s.] I Q 8.Q ) -.<.<.] &.J j.D j.n y.[ J ] -.Q V &.k 9 $ $   < k f q k k n r Q ] V ; q q q 2 < 9 2 $ $ $ k x n k &.x J Q I Q ] D ] f.j.Q Q ] [ -.I D x J ) o.[ x f J q 2 O ; O r T V x r ) ] ) k ) f k 2 q 9 $ $ s O q r 9 D ] J x &.V Q V I J [ I ] ] 8.o.o.x T <.T &.[ T x -.T I o.n 2 O ; 2 x Q k < x x k n I D k f r r 9 9 < < 2 q 2 q k q f I n q n 3.o.D J T [ I x D n ) I J V ] n I I f x r   9   r ; s 2 r f r D I Q k q r 9 9 < 9 < O 9 $ r O f r k r ",
"'./.9X;X+Xs.8.Y.4XM.H.8.y.) 9 < O ; ] 8.eXhX4X'. X;X[.;XsXH.8.+X'.H.I.D.3.y.8.'.Y.j.M.M.<.M.*Xj.Y.[.I.f.D./.[.f.C.I.D./.Q.c.D.H.'.] T H. Xs.I I V f 9 $ 2 I <.<.O.[.;X,X X'.hXY.s.M.Y.3.-.C.'.] j.o.Y.eXy.y.8.j.I.I.Q.9XY.8.s.<.+X+X[.s.C.'.Q. X3.y.hX-.O.4Xc.] -.M.J k s $   ; D ) &.+XC.j.Y.j.f.D.f.Y.;X9XT j.-.o.f.C.y.s.H.Q.0.*Xj.f.c.Q O.j.H.-.H.I.H.<.M.c.H.y.D.j.3.f.Q 8.f.o.] 8.o.k f   2 2 O.-.+XH.3.f.3.C.j.f.M.C.M.;XD f.o.8.O.8.s.3.8.9X X] y.Q.M.y.f.<.-.0.s.I.f.o.s.M.] O.0.0.3.O.n O.y.j.I I f s < $ < 9 T ] -.o.) Q y.<.O.-.y.y.I.) n 8.o.I.Y.0.o.n k I.*XI.Q.Q &.8.8.M.<.y.[ ] j.'.j.0.f.[ &.Q J c.) y.y.f I Q 2 q   ; D Q k s j.I Q ] f.s.y.[ 0.f ] o.J 3.V ) T Q ) ) ) 3.o.0.<.0.-.c.M.T &.s.I f.D.o.] ) -.8.-.J k ) 8.k J J q 2 <   O s f f 9 [ 8.n ) ) 8.Q.I 9 r f r Y.n q 0.o.V 8.x c.o.] y.<.&.<.3.) 0.&.] Q D.] O.&.I I -.&.T T T &.I r 9 9 < O ; < 2 q V O.s n ] r x n V k f V J r 9 x V D s f V [ o.&.3.O.T ) [ O.<.-.D -.Q ] &.J k J ) ] -.[ n V Q [ 9 O ; O q V k f V q k J 2 I J x n n f V n k 2 J Q q ] V I k 3.[ s.s.Q Q o.J 3.Q o.Q I ) [ 8.T 3.<.[ V ) o.J Q J x < ; O < s r f 2 9 s x D J x q J V n x V f k D f D n q J D k o.x Q J J T T ) J D x J D Q T n o.) J J n x f < 9 O 9   < ; r k s 9 x ) J k k s k x n x k f $ f x x f x s ",
"'.M./.,X*X3.<.[.*XC. XeX[.'.x f 9   O D I. XBXeX0.;XlX XQ.'.M. X XeX*X4Xf.j.D.eX XD.f.[.,XhX'.Q.c.H.D.C.Q.'.,X[.y.Q.c.D. XD.f.[.3.0.s.C.Y.,Xy.O.T x f <   $ V D &. X+XhX*X[ '.+XD.j.Y.D.Y.I.;X) 3.] D.lX-.c.y.y.;X*Xc.f.Y.*X;X3.Q.[.[.C.[.;Xs.'./.&.f.<.O.D.Y.3.j.H.T k [ f       2 f M.&.0. XY.T s.D.[.s.[.-.H.M.y.c.) M.s.c.4Xy.tXQ.;XtXc.I.+XC.I.I./.-.Q.*XY.y.[.Y.s.0.y.o.<.j.j.j.V Q [ D 2   r 3.o.M.C.*X8.s.C.Y.<.O.Y.+XC.I c.o.[ T o.3.j.O.H.s.Q &.'.f.Y. XC.-.c.c.,Xf.[ D.f.c.D c.f.<.C.O.<.I -.T I.3.9 k <     f T O.O.o.Q Q j.o.-.J ) <.8.o.I O.s.8.] ] Q ) &.c.j.+Xj.f.f.O.f.M.s.[ -.J y.8.&.M.3.3.O.Q Y.q I.f.D f D J x     2 r T r <.) &.Q o.k o.] f.x -.] s.O.&.c.T <.c.] [ [ <.H.<.3.<.s.c.] M.f.I y.I.T I [ ) O.s.<.n [ ) s [ D f r q     $ 9 n q ] ] x J D ] 3.x q ] D J 0.x n o.I <.8.V Q &.[ s.Q &.y.0.T j.O.f.D 3.-.T j.-.J ] 3.I I T -.-.q k k s $   O 2 < n o.x 9 I f I ] r q r x n r r D f D -.] I T ) ] &.-.[ O.0.-.&.[ Q j.I ) 0.o.q V &.I s J ] T J s Q f <   $ 9 q f D 9 n I 9 s x n V D s J V r q Q 8.q ] V I s ] 8.8.Q O.O.[ V I y.Q &.J Q [ j.[ Q y.&.Q J <.I J ] I s 9 ; $ 2 s ) 9 ; q k x V n 9 I D V f I s k D f [ I 2 ] D k j.3.O.Q ) ) ) O.] ) f n q o.O.k J o.V J J V I n r r r O $ $ r f s $ < s 9 r V x x J k f V J r x J k s f q ",
"'.j.y.[.eXs.o.[.9X/.O.[./.+XO.J I q     x O.;X;Xc.-.+X;X*XD.M.+X*X XhXQ.0.;Xj.[.tXY.+XH.,X;XsXlX9X X/.D./.c.'.'.Q.4X0.&.Y./.M.9Xs.c.H.f.j.'.M.'.3.Q D n 2   ; q V /.*X*X/.o./.;X;X<.O.Q.+X-.Y. Xc.s.O.j.[ c.4XH.f.;XH.[.xX9XY.C.8.c.s.y.M.Q.s.'./.y.&.<.O.<.H.c.-.D.&.k j.k   ;   < r c.y.f.+Xs.<.eX3.3.8.c.0.3.j.3.O.T s.<.s.tX/. X4XtX[.H.H.8.j.'.[.o.&.I.[.C.O.c.) H.;X0.y.<.'.J Y.-.T s.V k 2   2 D ) J j.-.[ ,Xo.n M.Y.eXD.'.3.8.o.-.H.I &.C.s.s.[ M.M.c.s.y.3.&.s.s. X<.T j.s.s.[ ) Y.T M.3.j.J k s M.s.k D q $   < x Q &.y.) J ] O.+XV ) ) 0.T s <.O.o.I.8.-.c.-.M.D.s.j./.4XD.[ 3.D.f.I.[ 3.H.] ) 3.c.3.O.o.k <.Q.k [ q n &.x   ;   s ) <.O.D ] [ o.3.<.I D T 3.C.f &.Q.J [ 3.T T I C.c.8.C.Y.c.V ] 8.f.j.-.D.o.o.8.o.&.0.-.V -.T D 3.T I r 9 2 $     k k ] k ) n k r J Q D n T [ ] n V ) D I 8.[ 0.<.o.-.o.0.s.-.J j.8.) [ O.Q &.D Q 3.] <.o.] J ) -.V n k k q   O < O x s I q x J x ) r x f q s x V J D s Q n V y.-.&.T o.-.0.j.8.0.T ) 0.o.) y.3.q D 3.&.q ] 8.T ) f &.D q $ O O ; r n V V k x r < V V ) k J D x D ) 0.f V -.[ n T M.I.Q 3.0.f.3.k o.Q 8.Q Q [ <.o.J 3.&.[ T -.] T o.D s s 2 O $ 2 D I q r n x V D f D D J q Q f n V r &.o.2 Q V s &.[ T Q ] I J I n T I D r [ o.x k ] Q T J T [ I r n k 2 ; $ 9 r r r q r < r D n x k 9 q V J k f x x f k r ",
"tX X3.c.eXI.&.C.Y.+Xs.I./.y.0.0.<.x 2     f 8.I.tX[ &.C.eX;Xc.M.;X;XQ.M.Y.9X;XD.H.4XH.) 8.*X'.tXhXxXtX;X XQ.'.I.y.D.f.3.&.f.s.M./.C.Q.j.D.M.<.c.s.0.Q n x $   < r O.I.;X;X<.8. X'.M.y.hXxXO.O./.eX[.s.f.[.D.4X'.O.xX[.f.c.;X[.C./.4XI.D.f.j.M.H.f.8./.c.[ c.C.M.<.c.M.<.f.J 9 O     < o.0.3.Y.) O.4X[.Q.s.[ Y.M.&.) <.9Xj.8.D.*X*X0.s.I.j.C.D.T I.Y.[.-.0.H.j.c.f.I.C.-.o.8.j.8.j.<.'.T I  XI I 9 9 $   k &.&.J  XQ.D.O.T Q.O. Xy.j.Q c.&.) +X/.+X[.8.I.o.Y.'.Q.s.y.c.8.j.'.j.8.8.y.c.j.0.&.&.8.O.Y.c.Q J T Q ) J s 9 $   < s ] [ [.f 9 8.O./.Q o.<.8.3.O.o.T k 0.I &.[ O.8.3.c.D./.,XI.j.] ) eXj.n H.s.Q ) M.[.O.&.V -.y.] ) J s V -.k     r x x o.Q <.J J ] 8.r ] 9 C.0.[ f o.&.j.n ) T -.M.3.H.Y.j.C.I 3.&.) Q.] f.0.-.0.<.[ C.T s 0.O.) O.Q I r s s 9 O   9 q J q T x n f D f ) &.D D D o.O.) T D T -.-.3.y.-.c.C.D.<.V <.M.] ) s.<.3.n T I f.[ &.8.Q s I &.J f f s ;   O   x < D J r J s k x J n s f V V n J n k Q V <.3.0.] &.8.0.8.-.c.T n J y.T [ O.x O.c.] ; k o.] ] I Q n r r q O   O n n s 2 V D r x s D 9 V V k f V I f q o.o.D ] f.&.-.&.y.c.c.s.&.Q [ ) O.8.V Q O.[ [ o.O.) O.Q T I V V r < ;   < o.r q J D D J V f x D 9 J x J n ; x J q J I I O.o.o.-.[ J ) &.O.x 8.o.T V D J I [ 8.] x T ] V q x f s ; $ $ 2 q 9 s D s 9 s q s 9 r x n k s r k x s f q ",
"sX XD.Y.c.Y.[.M.f./.Q.+X XQ.f.D.M.V s ;   2 J H.*Xj.f.y.o.hX,XQ '.C. Xf.M.;XQ.[. XC.H. X0.hXFX X X4X XlX;X,X/.Q.'./.s.j.Y.4Xy.) O.M.tXY.H.j.y.y.-.M.-.x n 9       o.Q.C.I. Xs.0.+XeXI.'.4XM.&.y.Q./.[.M.nX/.C.j.s.[.'.;XY./. XD.D.M.<.'.'.8.M.+Xf.O.j.I.o.f./.3.j.3.j.C.T o.o.q <   $ s O.8. XM.j.) '.I.8.o. XC.H.) Q <.O.f M.+X9Xj.[ /.sX,X,XM.I.I.Y.H.3.[.C.f.M.c.,X[.f.&.O.-.C.[ C.C.x [ [ &.V       2 O.] I -.C.y.f ;Xj.j.c.o.) y.Y.8.3.f.&.y.O.0.eX*X'.9X/.C.M./.o.s.I.s.&.3.Q Q.*X-.C.k H.T C.Q.I <.-.] Q [ k r <   O q 3.V j.-.n Q T <.y.o.3.8.o.x f.I.3.o.-.[ c.+XD.H.H.&.M.9XH.M.&.) y.Q.&.f.-.c.I V y.&.f.y.T 0.Q Q 0.q I &.k 2 O   q ] 0.s.y.&.) O.s.) O.f 8.s.[.s r y.,X) ) 0.3.s.f.C.Q.O.y.-.y.I.J s.I <.8.o.o.<.V M.] V y.[ T [ I f x J f 2 ;   O 9 D J f n V Q D V V 8.f D [ [ ) J Q O.V 3.k O.s.<.j.8.I.H.) T 8.O.8.c.) j.c.k D 3.I &.0.o.n T Q ] V k k 9 $     s r q ] k x I r r f f x V x f k q Q x H.-.n [ &.-.y.f.8.[ D C.y.T x 0.D I o.I O.Q.I k s [ j.] Q ] I f k s $ O   9 r D J n Q V s D J x [ o.I x Q s x s f ] D -.&.O.0.y.<.T I T [ o.[ ) [ f.I ) Q I ] ) -.Q [ I V ] I J f r q O O V ; < V J n n x q r x 9 k k I V s ; r V V ) o.-.[ -.0.Q k D T Q V y.[ ] f k ) Q [ y.T s J I V n n x V 9 ;   O < < 9 s 2 2 f s f r s f s r V f k D k k r ",
" XY.[.eXC.Y.,XH.+Xc.<.j.f.eX/.H.c.Q x ;     9 y.y.8.[.*XT ;XFXy.j.;X;X'.j.C.[.[.;X0.[.Q.[.0.eX4XxX Xf.C././.Y.c.Q.,XI.j.8.c.<./.<.8.Y. Xc.-.M.tX8.D.0.I I V < O O k <.H.[.tXC.Q.C.+X*X*XBX4XM.8.f. XI.&.'.[.Y.c.j.*XxX9XQ.C.9X'.eXY.<.Q.9X8.y.9XD.C.o.s.[ 0.+XO.f.o.s.-.n ] 0.x ;   O $ I &.f.8.C.&.9X3.8.[ &.Y.,Xj.f.-.+XO.c.[.BX+XD.,XnX;XY.Y.M.I.H.8.c.y.Y.y.s.I.D.y.f.C.+Xy.) 3.'.Y.o.Q Q Q T 9 q     3.Q.o.$ s./.j.O.s.f.8.V ) 8.I.3.] '.,XQ.O.T [.Q.'.Q.,X0.c.[.[ f.'.f.&.[ s.-.j.D.J y.8.k <.Y.s ) 3.O.T 8.x q 9   $ 9 y.V O.<.c.) 8.8.D.] &.Q ) O.O.) 3.M.C.Q o.;XI.'.c.Y.0.0.j.I.o.3.&.[  Xy.r H.j.0.[ T f.8.-.T O.T c.) J [ T     ;   9 [ C.0.o.V [ D.&.O.[ o.M.H.V s ] D.o.D c.y.c.'.y. Xc.j.] D D.8.3.O.] 8.y.o.0.J o.o.J y.O.I 0.[ x D T k 9 2     s I -.n I T ] J x I -.8.q Q k o.[ o.n 8.0.s.-.3.s.0.[ y.Q.&.[ O.Q T H.&.J -.[ Q D T O.O.) ) 8.x [ ] J x f 2 O O O k 2 n V k ] x q k V J T D x n k D 2 0.M.8.y.0.s.D.s.8.y.x 0.D.O.) o.J Q -.Q J ) n T I J ] Q I -.[ k s q $ < O   s T [ x I x V f k f I I J f ] n I D f o.O.3.3.j.&.&.&.Q ] n o.-.3.O.T 3.O.] D I [ J o.<.Q D D [ n f s r 9     ; O ; f x f s s J k V V f k Q T [ f f ) n o.[ [ o.y.C.<.) T k k Q ) J Q V n ] T ) [ n n I D I I I V ) f 9     ; s 9 9 ; s T J n k q 9 q s Q k s ] I I n ",
"hXlXj.Y.,XQ.M.9X[.c.Q.j.O.y.eX Xf.0.o.f O   ; ] o.0.+X,XD.'.,X8.M.xXxX,Xj.[.Q.C.+Xc.0.eX[. X9XtX9XtXlXs./.c.,XM.[.j.j.Y.0.Y.C.Q./.3.&.'.D.0.j. Xc.0.] V n x 9     < J M.Q.,Xy.j.Q.Y.tXeXlXM.s.D.H.nXf.f./.;XeXY.*X+X+XI.,X3.Y./.Q.I.<.o.'.f.o.c.,X'.y.M.y.3.0./.f.f.[.) 8.Q -.x r $     V 8.8.0.D.Q 4Xy.f.C.f.&.;Xc.<.8.&.s.s.4XnX[.eX'.C.D.<.I.[.lX3.M.Y.O.0.Q.y././.<.o.O.Q. Xs.D H.Q.s.-.o.[ x q $   $ D s.0.[ I c.f j./. X8.s.j.) H.M.V Q.,X8.[ 3.f.'.I.<.3.-.j.'.Q -.I.8.[ M.Y.s.T j.0.0.3.-.&.I.D ] <.) T 3.f r f $     T o.] -.o.x s.c.V 3.j.[ I M.M.] Q O.] D.f.H.M.eXM.s.j.f.H.Q.[ D.T -./.0.Q 0.T Q.[ o.-.j.3.J n T J &.&.) [ <   ;   s J <.3.y.<.D T k O.&.f.0.T 9 x -.8.T o.y.+XM.Q.M.s.8.I.<.I &.D.0.8.x -.D.[ 0.) 3.&.k M.j.V 3.Q ] J D x f 9       r ) I D Q D I I D I ] o.] <.n ] I V s.f.j.M.f.Q.D.8.] 8.) j.c.T J s.<.[ Q y.] T O.Q Q J V C.T Q o.Q x k q O     k f ; V n V n r T ] D V J V f D V ) o.M.'.f.j./.Y.o.<.*X) ] <.Q <.) ] ] O.Q V n ) n O.o.] c.I [ ) f f s < 2     n r f f I s &.q k x r s T V O.x x s V ] y.[ j.j./.8.f.[ J ) V O.8.3.O.[ I T 3.Q o.x ) C.I D ) 8.J x n n q   $   2 r r f s r r o.k n T r q D Q D s s Q D c.s.8.j.M.j.] Q o.] 0.) f Q [ ) n ) ) ] V k ) Q x I D J n ) f r ; O 2 2 9 f r f V s q k s f x s D 9 r ) J J x ",
"C.sXY.I.[.Q.C.+X4X+X X4Xo.o.D.;Xc.&.o.k 9     ; [ 0.y.f.I./.hXM.9X) lX,Xf.C.,X0.H.;X[./.y.4XtXtXnX+X,X X8.;XY.I.f.,X8.0.C.&.) '.xX/.f.C.'.0.<.y.8.'.&.3.V k s     O J f.[.M.H.D.;Xs.Q.s.+XY.Q s.*X X[.I.eX X,X+XeX9XtXsXI.M.s.D.,X'.M.s.;XI.f.O. X/.j.8.f.,XC.) -.C.c.[ 0.c.3.k r <     r <.0.'.f.0.8.j.c.-.M.<.Y.M.8.M.] 8.-.j./.eX+XhXeX[.C.] M.;XQ.<.[.D.H.D.&.0.s. XM.0.J O.f.[ ]  X&.[ ) M.[ 9 9     2 &.Y.j.j.0.x 8.f.0.O.j.) &.y.f.O.8.Y.8.] Y.C.*X*Xj.&.T c.H.s.8.o.f.<.y.f.c.) V D.c.[ ) V H.c.[ 3.Q Q Q V n f 2     k ) Q T <.r T 3.Q C.-.f.[ 8.f.y.Y.8.T Q tX XQ.[.'.f.f.I.8.C.C.M.O.&.-.&.c.0.H.Q.O.x 3.D.&.<.8.n T f s.[ x r O O   9 V J ] o.I.T f V I D <.j.D r ) V c.V 3.M.j.'. XH.y.3. X<.Q 8.<.f.8.<.V 8.M.D 3.O.M.s ) H.&.] I V T x I J 9 9   $   ] [ q D f V I J M.T V k 3.T 3.I J J o.j.C.H.[.s.f.Y.O.-.3.) ] D s.0.[ O.T -.C.) [ s.D f 8.&.V &.) 9 J x <   O $ s r r V k r x ) n ) x f J x r I [ &.Q *Xc.Y.Y. X) -.f.-.O.s.] V O.-.V ) ] ] &.] ; J -.[ y.) J V J x n k O $   9 n x 2 q I [ r J o.; J Y.f T <.V s Q o.H.s.c.Y.I.<.] O.C.3.-.] D O.<.&.T ] T o.x T Q [ &.D V &.8.f V f k ; $   < s k k f s r f O.J x q V r <.I D 9 J V -.0.y.D.0.o.) ) ) [ -.T D &.O.Q n ) J n D ) O.) n x J I k D I x 9   O ; 2 < ; q n V x f J 9 J f f 9 9 Q n ) V ",
"*Xs.-.'.Q.f.-.&.Y.;X;X;X<.c.s.*XH.) ] T k     < T I.9X*XI.D.9XM.'.O.+XY.f.c.H.o./.Y.*X X+X/.eXnX;X9X;X;Xc.D.[.9XQ.[.Y.Y.f.8.[ ] Q.eX0.f.I.[.I.C.o.H./.-.s D f q     I <.c.;XD.j.eX,X+XsX Xs.T [ I.,Xs.o.eX+XC.FXhXsX;X9X9XI.H.I.f./.I.C.+X-.Q.3.<.*XY.0.Q Q.9X3.] o.C.&.] C.-.3.k ; $     I s.H.-.Q.y.'.J I.D.Y.j.[ 0.-.y. X[ c.,XsXsXHXtX[.Q.,XM.H./.8.C.H.M.c. X8.o.y.;X[.s.-.O.T 3.,X) o.Q Q.) r r O     I j.J +XO.y.] <./.f.M.0.3.3.f.f.H.y.&.T Y.[.lX9X/.H.0.j.Y.M.Q <.0.y.M.) 0.-.O.[.o.M.&.3.T <.] J J <.o.] V 9 2 < $ ; ] k ] y.0.J 3.o.y.O.-.<.o.<.0.M.3.8.3./.M. X+XY.j.c.c.c.-.+XM.Q C.<.-.3.J D.Q.D.n ] H.] s.j.] D I &.] n k O     O [ J 3.) /.0.-.D ) o.Y.M.9 8.3.T O.] ) 9X0.'.9Xj.f.y.C.3.[ -.8.M.&.-.) &.s.Q ) O.C.3.D 8.[ [ T n x D V n f ; O   O T &.9 V q x J T O.-.Q x D -.I T T T ) -.H.*X[.c.f.O.3.j.y.<.) o.O.<.&.&.[ I 3.I [ 8.-.T ) &.) O.I J T r 9     O r r x D V J n J < k k n V r n q s.f.O.s.H.Q./.f.0.] s.<.] s.3.) I J k <.<.D &.&.n I Q T <.I n f ) ) x k 9 O O < f f r [ n s f [ D.k $ -.D V c.J J Q ] '.f.Y.'.H.-.] o.y.O.3.-.T -.<.o.T [ I &.O.) 3.[ o.) &.T J V D s q q     ; r s s f x V r V Q n ; f x J n n k ) Q f.s.f.D.c.<.] &.Q T J O.D I o.Q Q ] Q ) J D Q ] I D D ] x n n r 2   O ; < 2 2 r k x f s f k r s &.n f n f T D ",
"lX8.0.eX9X'.H./.j./.[./.O.[.f.[./.[ o.) k     O ; f.4XY.<.c.xX4XC.Y.4X4XQ.f.'.) H.4XxX/.BXhXlX,XI.+XH.I.'.H.D.[.I./.[.I.c./.C.f.D.'.C.[ 3.&.&.*X-.j.4Xs.] ] x $   $   ] &.C. Xs.0.;X,Xs.'.0.c.y.H.+X'.3.y.;X[.Y.9XsX,X4X,Xj.Y.y.'.Q.c.&.[.s.;Xs.y.M.M./.<.f.j.] s.f.3.D.x 3.[ Q ] $     O Q D.-.8.4Xs.8.) Q.o.y. X/.0.) o.9XtXH.sXtX4XeX;X/.c.,X/.M.D.D.D.C.C.f.Y.Q.H.) j.Y.C.-.f.) ) c.T ) O.<.O.x r       x 0.[.Q.0.Y.y.3.3.y.3.) H.o.&.Q.D.Y.0.0.;X;XeX/.M.3.,XH.[.f.D y.3.y./.o.O.c.<.c.k *XT o.s.0.C.Q V &.8.8.T 9       $ < D ) y.] &.&.o.] 0.0.j.Q &.0.<.3.y.H.*XY.tX9X,Xs.) '.8.O.Q.0.T 3.] 8.s.) y.H.y.T T D.I [ s.&.] O.I [ J V $     ; r ) s ] D.y.-.V 8.D f.<.Q y.f.-.T O.f.+XY.9XtXQ.3.j.M.<.3.M.] 8.8.[ Q s.s.I ] ] -.s.] &.O.J Q I n [ n f V   $   $ n 8.x [ D T k I o.x <.V D J V Q T ] 8.c.Q.;XQ.M.C.&.&.y.o.0.o.f.D 3.3.Q [ D 8.f.0.f ] <.Q ] x 8.q D [ q 9 O O   r 9 J k x Q Q o.k n J D D x O.k ] o.D.D.I./.;Xy.y.o.0.y.<.3.] o.I D r O.3.J D D J o.) ] <.&.J s o.&.f s f       r k s <.f 9 s Q y.J n n s &.<.k T f f [.s.Y.*XH.<.O.&.-.] 0.-.Q O.o.] T o.T Q &.Q -.] V ] <.I q ) V r 2 k     $ 9 q q r n I s s I x k T &.O.D V n J V j.f.H.[.C.[ O.f.Q D V [ I J O.D T T ] o.T D T ) I D D o.V n x r 2 O O $ ; 2 q s s s s s J r f k I [ s x k J x ",
"[.Q. X9XeX/.j.4X'.Y.[.'.] [.[.[. XM.y.D r $ O   ; ) Y.[.c.c.,XtXM.C.+XtXtXC.eXc.*X8.I.eXlXsXPX9XtX,XC.Q Y.;XI.;Xs.D.Y.M.8.C.+X'.H. X] +XC.-.Q c.&.0.;XI.<.q n q ;   O I -.C.Y.;Xf. XeXQ.Y.sX;X&.c.f.;XQ.c.*X9X9XeXsXlXsX[.D.'.&.*XI.[.I j.0.y.Y.*Xj.f.C.c. X3.-.'.<.-.3.-.O.C.f V 2 ; O $ x M.-.I.c.*XH.o.C.Q.H.[.[.s.[ 3.Q.o.3. XtX+X'. X[.s.j.+XI.&.[.'.0.H.y.j.M.D.s.y.3.[ f.+XQ.y.3.[ k '.<.j.Q r   $ O f 3.M.3.+XD.&.c.0./.*Xy.eXc.<.c.<.H.8.H.hX;X4X[./.8.<.8.j.T s.C.O.<.-.0.D I.3.) n ;XC.T <.<.C.O.] [ I ] J J q O   ; D s q T s.y.-.o.] J J D.s.Q D 8.I Q [.sXQ.tX,X[.Y.s.8.c.0.Q.M.3.[ ] &.0.o.I [.8.) ] Y.&.q &.] 3.O.k <.) D ;     O O.O.-.) O.c.C.D 0.0.] q o.o.H.T ) I y.0.[.;X'.I.<.D.H.&.) H.T ] s.o.] M.8.I &.) ) [ -.] f.J I Q D O.x r V   $   O s &.T &.[ [ V Q I 8.<.V f 3.] Q T T f.'.Y.*X,X0.c./.x [ -.-.O.f.n 0.8.x J o.x &.y.Q <.I I D.Q f ) n 2 ) 2 $ O   q 2 Q s s T V Q f k T I J J T T x V [ 0.f.+XeX'.o.0.&.0.D.] D O.] &.x ) O.I <.V V O.I J ) 0.O.D ] ] s r f       q n s D s k k k T ) -.s 9 &.[ n [ n r '.C.Q.;XH.8.&.<.&.Q <.&.O.[ T O.) ] ] J ] O.) 3.V &.&.o.k [ x s q f $   O < 9 9 q f V n V f ; n J J O.) J J n f j.f.Y.4XD.T 0.c.V x 8.Q T ) O.T T T T T Q [ [ T x x J Q n J D k r O   O $ 2 r s r r f x T r J x $ Q x k n J V ",
"] j.*X*XtX XC.9X[.[. XY.o.y./. X[. XC.n s 2   O x n y.*X'.c.D.eX+X<.Q.s.tX'.y.D.+X;XY.M.sXxXsXlX9XhX/.I H.4X+X,X&.8.Y.*X&.&.hX[.H.j.c.*XQ.'.<.y.H.[ -.-.8.D J 9     ; Q Y.Y.[.lXc.'.M.0.;XxX[.s.8.-.tXD.O.I.BXtXsXtX,X4X*X+XC.f.;XY.[.o.[.I.D f.9XD.y.M. X/.o.s. X) Q <.)  XH.Q q q $   $ q <.<.'.0.c.f.O.+X XY.o.y.I.8.c.4X9X-.j.xXeXeX9X;X/.D.Q.Y.-.I.I.O.f.<.Q.I.Q.M.8.I x H.I.Y.y.J n f /.] C.] s   O   s 8.M.j.c./.0.C.H.Y.H.o.&.Q.4X'.'.8.8.H.sX*X9X;X,XD.f.[ D.c.O.M.,XO.T D.J C.3.] D O.[.C.T H.3.Q O.f.Q ] k V q $     D o.J n &.Y.j.<.-.<.o.O.f.y.D J V V ,XhXM.4X4Xc.H.9Xo.f.f.) ;X'.O.[ O.y.o.) '.c.] O.+XM.q Q T 8.] s f.&.V < $     r [ ) D Q T f.M.I Y.J x -.8.&.D f.[ Q '.'.,X*XM.s.-.3.D.] 8.D ] <.<.0.8.o.O.-.o.&.) ) J C.<.V D D Q k r f ; O   O f J D J Q Q [ T s 0.&.[ D ] O.Q ] k [ I.C.sX4X+X-.s.O.[ o.f.) <.T 8.0.D n 3.O.o.I ] s.I D ) [ <.D x x n < $     q 2 [ n k I T T r 9 I I x f s.] k [ ] c./.[.,X;XO.0.) O.Q.) Q 3.] -.I -.&.V -.n D 3.o.Q k Q -.] J V x f r $   O < s n r J k D k o.&.I s I x ] I o.-.J j.C./.4XQ.y.[ O.o.T O.8.y.O.T 8.[ I [ I Q O.J -.[ -.) o.T T f k n 9 ;     ; 9 q q s k n n f f f f q ) T I ) ) J D.c.Y.;XY.[ c.<.f f I.o.) ] Q O.O.o.D s J O.-.Q x x I n x T T n s $     O < q r r s x D s n n f r f Q f V J Q ",
"M.0.Y. X'.D.j.0.y.+X XI.c.O.s.4XI.H.j.J n ;   $ q [ C.H.I.+XY.+XH.lXI.&.sXM.0.o.*XeX9X'.hX9XeXlXH.tXQ.y.'.[.9XI.Q f.I.,Xc.[ 9X,XC.f.H.s.'.o.'.<.I.&.s.&.O.] x f   2   n H.f.+XY.sXhXeXQ. XI.PX'.,X3.,X4Xc.Q H.sXeXhX/./.;XI.[  Xj.+X XC.9Xy.I s.Q.Q.O.M.sXy.&.y.I.o.o.[ ] f.Q.) f s     < k ) -.-.[.+X<.0.I.s.[.Y.H.j.)  X8.4XM.j.xXsXBXhX+X'.D././.'.C.s.<.-.o.y.C.,XD./.3.x T M.H.I.o.n s.f.[ 8.D r       k s.o.Q &.H.f.J c.Q.H.s.f.C.f.s.eX,XI.I.hX4XtX XY.c.0./.C.j.Q [ 8.Q f.[.&.O.O.j.[ s [ D.c.D.y.3.) 8.T <.V n O       J [ I 8.] &.I Y.s.s.8.3.s.3.T 8.3.V  XxXH.;XsX'.s.[.f.[ c.I '.Y.O.T 3.C.O.c.y.c.&.O.[.s.x J o.-.) f s.-.x ; $   ; q r I y.J 3.O.-.D D.y.T n o.8.D &.Q T /.c.*X+XC.s.O.3./.<.3.T T 3.<.-.3.[ o.f.[ ) ] I ] 3.y.I J T J x s 9 <     $ J k k n T ] [ ) x ] ) -.-.k o.Q O.V ] D.D.sXsXI.c.c.o.J D.o.I [ 3.-.s.<.T 0.s ] [ &.) V O.8.c.J T ) r s q O     9 9 ) I x k ] ] I f J V V D T J n ] <.O.D.*X*X'.M.&.] ] c.&.I 8.Q T f y.8.Q V n V <.-.-.n D ] ] k k I V q ;   $   < Q T 0.x s I <.o.k f ] Q I x V j.Q ] f./.sX Xc.) o.o.] &.0.3.[ Q 0.[ T [ Q T J T I -.o.D J ) x s V J ; ;     ; q f f f x f r [ <.k f n T D J T [ Q H.D./.4XQ.<.y.&.T k 8.] ) ] D ] ) o.Q s n Q O.O.) I J k x Q I k s ;     $ 2 q r s k x n n f s x I x D k D V ] ",
"sXf.H.4X XQ.4XC.o./. X X Xc.<.,XM.<.8.Q k O     < f.*XH.'.xXH.D.C.Q.tXy. XhX8./.) ,X4XY.+XHXlXsX4XeXQ.Y.I.D.tX Xo./.I./.'.o.f.Q.Y.c.M.j.I.I.j.&.[.f.-.<.8.y.x O $   ; s ] f.j.3.j.sX9XeX'.Q.4XtX+XlXeX'.eXC.c.BXtXnX;X+X+X0.-.*X0.Q.s.s.9X8.s.<.8.[.8.[ Q.y.*XQ.o.0.o.f.] o.H.&.q r ;   ; f D y.&.<.I.Q &.M.Q.-.+X3.hX] f.[.sXH.M.4X4XhXeX*XD.0. XM.*XI.c.f.f.o.D.y.3.T M.Q.O.0.0.H.;Xy.V M.o.8.<.f 9       n 8.Q.3.C.M.+X0.H.y.y.J &.o.-.D.I.<.I.j.tX4XlX9XY.c.o.M.Y.*X0.O.-.D C.H.s.V Q Y.Q.3.I ) H.Q <.f.Q ) 2 ) n Q q ; O O ) T O.f 0.O.o.) n 0.3.&.D 8.j.s.j.x y.;XQ.[.,X;XY.H.] y.C.'.M.3.y.I 3.<.&.f.&.c.o.-.C.<.k ) 8.[ o.x &.O.s $ O   O f n <.) o.Q f.0.J V s.&.o.I O.o.Q o.j.M.I.4X,Xy.j.Y.c.C.O.O.s.] f.-.) y.O.T D.[ J o.) &.[ <.[ ) Q J V k 9 $     ; I k n o.) o.Q 0.V H.x o.Q -.) ] o.[ <.C./.+X4XY.D.0.s.I 8.[ T Q s.[ 0.-.) s.D ) ] f.&.T x Q 8.] n T J 2 r O     2 q T o.D q r x ) V V x T o.Q ] s x H.s.Y.'.,XI.D.-.<.O.&.<.D 3.[ T 9 3.&.O.[ o.k T J Q J <.J Q f x T x q $     O 2 I ) 0.Q s J ) ] D D ) 3.V x V f.I ] C./.tX XD.O.3.&.O.0.s.Q ) o.-.) o.) ) Q V 3.) &.3.T x ] x k V n < $     ; r f f x J x f <.-.n s V k I I n ) T c.H.'.tXD.y.-.8.&.V Q Q T T I I V T O.] I D ) -.-.] D n n Q D f s ;     ; 9 q r k x k k ) 9 r D o.V f f x s ] ",
"9Xj.D.+XY.f.'.8.o.s.Y.*X'.Q.] f.M.] 3.) q ; 9   r o.s.f./.,Xf.;X,X0.&.,X[.H.'.hXc.y.M.PXM.tXlXxXsX'.,X9XM.s.Q.*X3.D.'.;X9Xj.c.c.c.*XY.<.f.M./.H.D.H.J 0.&.Q n <   ; ; &.] <.Y.O.*Xf. XQ.D.O.&.j.*X4X'./.[.Q. XhXtXtX4X;XQ.8.Q.c.O.I. XH.*Xo. XY.&.f.C.8.D.T D. X] O. Xf.f.T s.<.k O   $ q Q J O.I.H.I.] o.C. Xc.H.y.tXc.j.[.*XY.0.'.eXsX4XsXQ.j./.[ f./.'.M. X-.Q [.'.[ ] *X-.&.c.c.M.O.o.D.O.o.D.n 2   O O x [ 3.] -.9X4Xy.Y.sXY.s.-.[ Q 8.eX/.&.o.+XQ.eXsXQ.y.3.o.M.I.3.Q y.T 0.C.D.I D y.9XY.] ) H.I.T f ] f.&.o.; x $     ; 3.[ &.n f.0.o.J -.y.Q c.V o.0.) 0.I -.C.Y. X*XQ.Q.Q.D H.Q.-. X3.y.I 3.) c.O.<.-.J 0.j.f.x 8.0.I 3.V Q [ q       r T T -.<.) -.8.*XV ) s.o.&.<.] ) I <.3.c.I.'.*Xy.D.C.) Q.c.f s.c.s.0.&.&.o.] y.8.-.<.I V -.&.[ Q V D x f r O   $ $ x s V s.T I D y.n ) x 3.[ x D o.Q o.o.<.[.'.sX/.-.[ I.<.Q 0.) D y.Q O.V D c.V &.[ I x 8.I ) y.k <.J f V 9       < r T 0.[ s f x o.T J x V n I O.I V ) o.'.Y.eXY.3.y.y.8.I [ [ 8.-.&.f -.D ) I o.k o.] I D M.J T x D V r q       9 s r s I O.Q f J o.k ] O.J x J T -.f &.I.C.*XQ.D.3.s.-.&.f.H.D [ 8.] T <.I D V V f.-.I f.Q V o.J n x q q O O   ; q s s n Q q f ] f T J ) T Q Q x ] Q s.C.Y.9Xs.I.3.s.) D O.o.T k Q T I n [ s.o.D I O.<.] V D V Q J x k ;     < q q s n n f k x k 9 V s.< D x k < I ",
",X XI.C.*X,XY.*XO.<.y.I.*X9X*Xf.&.<.O.Q s O     V <.c./.c.eX'.j.eX;X/.8.M.s.lXtXY.M.-.eXY./.tXtXlX*XM.*X,X Xj.Q.c.c.0.'.4Xc.Y.-.+XQ.c.] /.0.f.H.[.) M.D.o.D V O     r f.H.eXsX3.lXD.Q.;X4Xf.tXf.O.D.tXH.I.+X;XxXtXsX XnXY.3. X4X/.Q y.Q.I.Q.0.4XM.J  XH./.C.I 9Xc.3.<.D.s.s.V J f O   O k -.J [ '.y.M.4XO.O.9X'.<.c.H.C.I.8.D.eX+XD.4X9XhX;XC.D.+XD.H.8.Q.Q.3.<.[ H.*Xs.Q C.'.<.Q.8.-.f.Q 8.O.T H.f $     < D 8.;X<.s.8.'.y.[. X/.&.8.*Xc.<.s.*XQ.O.*X*X,XeX*X X0.f.8.3.<.o.D.O.0.I.-.o.s Y.s.s.M.-.&.D.O.x I y.j.T s r   O   s r [ [ V s.[.-.] s.] &.Q O.I f.&.V &.o.y.C.M.hXY.[./.<.T [.O.Y.M.&.-.-.[ 0.<.I.I ] 8.O.3.] I 3.) O.] J o.9   O   D s o.V Q M.&.[ y.] J O.] 8.y.] ) -.<.T c.s.'.;X[.D.j.O.8.y.I.x O.[.H.8.] s.k 8.s.C.Q I T 3.T [ 8.s r &.x 2 $     k D n r 3.o.O.o.n <.] ) O.O.T ] ] ] J 3.] j./.9X'.Q.Q c.-.D c.y.f ] &.f.&.J <.0.<.[ k D T &.D -.] I [ x q $ ;     s n r J [ n T n T I r Q k q D c.T s f I I.I.Q.'.<.j.M.y.&.Q Q H.I j.[ &.J ) Q ) x I ) s n ) ) T k T V r ; O     x V k 2 ) [ c.T 2 &.o.x -.&.f 3.O.D &.J C.Y.Q.+Xc.'.<.<.0.<.-.&.O.I &.Q Q <.I T ) I o.J [ O.f D I n r 9 < O O   < D f 2 D k r D O.r s T Q V Q x x n ) y.C.Y.*X4XM.O.s.T -.&.Q V n o.-.V o.f 8.&.D D &.O.J D n n n n x r ;   O ; q f 9 s J q I V x k $ o.T f f Q < f ",
" XC.Y.Y.C.C.H. XI.3.C.-.<.;X XI.8.s.8.I 2 O O ; -.D.H.H.I.[./.&.H.nXBXsXD 3.Q.M.Y.f.+X4X;X9X+XFX9XeXQ. XH.Q.I.9XeXD.f.s.[.,XQ.-. XM.[.*Xf.f.M.Y.-.3.M.M.) D n   ;   q M.O.sXQ.Y.4XhXsX9X/.'.Q.4X+Xj.nXH.M.eXC.sX4XsX;X XQ.H.M.4X'.0.f.[.3.,Xc.c.3.s.M.*X[.3.o.+XY.&.] f.<.0.Q ] s O     V -.] T O.3.f.*XM.J j.*XI.I.Y.] f.*Xc./.nXc.9X,X,X;Xf.f./.Q.I.H./.0.s.Q./.s.'.D.I 8. XY.s.y.C.s.D I O.c.[ 2 ; $ $ 2 n J  XC.o.Y.s.<.<.Y.s.c.M.s.3.Q.I.c.D.3.eX*X/.tXtX+XH.I.<.0.Y.-.s.D.Q H.<.[ n <.0./.H.) <.y.0.f J o.&.D T < ;   $ r y.D I n Q <.) c.Q s.) ] Q.c.3.V V D <.T &.H. X+X+XD.H.O.c.&.s.-.D.o.[ I.o.f.H.T <.3.[ M.o.J x s.T Q T ) <       V D y.o.s ] <.] H.V D T V <.D ) T f.0.T f.y.C.;X'.M.[.s.O.M.<.O.[ s.I.0.o.8.o.[ 8.-.I -.] &.J <.y.x s [ f O     < J 2 <.Q I J Y.I T 0.T o.) Q 8.[ ] T J [ &.0.I. XhXI.o.8.) &.o.D.8.J 3.-.&.O.) 8.] ] J &.V T D Q ] J ] r k O   O   k I V o.J s J J J V D ) V V [ J ] o.D &.Y.c.'.;Xf.f.0.y.8.Q ) H.) O.8.f.s I <.3.s V [ T J V D ] k [ r k O     O f n V D ) D Q ) < 0.[ [ I Q D D y.D [ D f./.[.+XC.Y.0.3.<.o.&.<.O.) -.) I O.-.<.V [ Q <.I J n V n f r 9 < O   ; $ 9 V k n s k o.) f k I n J o.D Q n D y.c.C.Y. XQ.j.o.J 3.] Q n k o.O.D x J T ) &.I ] Q T D V D D V k 9 $   ; 2 q k 9 < n D V n Q x 2 I n x f J r V ",
"H.+X[.H./.I.C.9XBXH.C.j.&.Y.9XM.y.f.j.D O     < 3.+XM.[./.,XQ.[ s.0.sX[.0.o.hX,Xy.o.tX'.[.[.Y.9XhX;X4X[. X3.C.4X;X[.8.-.c.Q.,Xs.D.s.;XH.3.0.;Xj.&.D.8.0.) J f       x 0.H.Q.9X,X9XeX[.[.M.sX'.H.D.C.I. XY.C.[.4XtX4XeX'.Y./.<.*X'.M.s.,Xc.Y.3.f.0.Q.M.I.;XI f. Xy.&.3.s.J -.o.V < O $ $ [ f.c.y.s.3.o. Xs.T 3.H.c.) ;X] f.*XO.y.+X*X4X,X4X*X+Xy.c.I.+XQ.I.f.y.f.I.I.f.Q.s.) Y.Q.-.y.j.o.I J O.H.n r ;     n 0.o.-.j.<.8. XI./.f.3./.y.j.f.T &.;XO.0. XY.Q.+X/.4X/.+X8.o.C.f.M.H.J j.H.&.k ] 8./.Q.o.Q j.-.<.V Q T x D   $   r J /.<.[ [ T ) 8.-.] Y.T J D [.[ 0.) I 0.J [ M.H.eX9XM.;XO.<./.D.[ M.O.<.f.M.&.0.j.V Q 3.0.M.) T y.n I Q n O     $ 0.O.-.0.] ) o.] c.8.x M.Q M.T o.D &.o.I &.s.C. X'. XQ.f.-.s.c.3.<.J &.y.j.) [ O.s.T [ <.O.) I o.-.I n T s ; O ;   &.k y.0.V D 8.Q [ 0.J Q J I O.[ ) J ) ) s.<.D.Q.eXY.D.0.I -.T j.f.) [ x c.] ) ] 3.J &.I 3.n J D Q n ) 2 k     O < 2 T J ] [ V D Q n x ) J D J ] k O.o.J ] -.I.M. XD.j.-.y.y.J I s.O.) O.D.q D <.c.s D ] ) Q D r T x ) 9 f O     9 k J k n x n J 8.I T o.0.) k I ] o.o.k f 8.D.Y.+X'.M.y.0.<.o.o.<.o.O.<.o.J [ O.&.f ) T c.) I T V f r q 2 O     ; 2 x &.r 9 Q D J Q [ 2 x [ ] x D Q q x 3.8.M.H.+X'.C.T J 8.&.) D n o.Q V q 3.n n y.] ] ] ] f n D D n r ; O   ; 2 9 V V 9 x ) x x ] k s V f x r k r n ",
"8.,X/.y.'. XD.+X X9Xy.o.D./.I.c.0.3.y.V       s Y.*XQ.0.;X9XFX+Xo.s.I.Y.eX0.0.hX/.o.I.+X4XD.;X,XsX9X[.hX/.D.0.Y.tX+XO.8./.,XlXc.f.*XM.c.O.M.4X'.s.c.<.8.[ k < $ ;   ] M.H. XM. Xc.4XsXhX4X4XsXM.c.I.M.;X*Xj.M.D.lX[.9XtXY.D.y.+Xf.H.D.*X4XO.) /.c.Y.M.0.'.o.f./.8.&.s.c.J ] Q 2     $ 9 [ M.s.s.M.s.I tX0.y.) J H.y.O.y.D.Y.,X3.[ 9XtX/.+X;X4Xf.H.<.*XY.M.+Xy.[ &.C.[.C.s.<.y.c.I O.[ ] C.H.) D n <     f n f.j.D +Xj.0.j.Y.[.M.s.I.C.D.f.J [ eX;XI y.;XD.+XeX[./.C.M.H.0.T 0.+X-.T Y.C.D &.<.j.Y.Q O.O.y.s.[ I J f 2     O f I '.8.D.) V 0.s.0.o.Y.0.) n o.C.-.] O.O.] <.-.c.[.4X3.*XC.-.-.<. Xy.&.3.] [.) ) D.0.J Y.D -.&.I 8.D V D 9       r D o.] &.8.&.Q y.[ &.O.O.3.o.&.D &.n V ) J s.H.M.+X'.I.) 3.f.H.8.] O.) ] f.0.O.Q c.T 0.Q [ T o.J Q [ I f $       2 <.n f o.D <.) -.J &.<.D x D Q Q V J ] ] M.-.c.H./.;X[.-.O.O.<.[ y.[ ) x M.J -.I -.) D Q 8.Q I Q D s I 2 <   $ ; O V x s 8.T &.J Q x n ] k I V x k ) n V I D D.f.'.Q.D.3.j.c.[ D O.&.O.f s.V V Q M.n ) I V T o.q x x x r ; $   O r x [ V D 2 k V <.-.V n T ) J ] I O.] s I ) I.s.'.;Xj.f.s.8.<.[ 3.) -.3.-.T o.o.O.Q D T <.) D Q x q r r <       O r Q s.s 2 ] [ f V -.q x 0.) s x Q D x O.c.M.M.+XY.s.<.Q O.3.] ] T [ k k D 8.f f y.&.T ] ] s k n V f 2 O   O O 2 < V ] x s V n I V f x J V k s r s k ",
"H.;X[.D.Q.*X*X[.+XY.'.<.<.[.j.&.s.[ o.f O $ ; Q 8.Y.c.M.H.sX*X[. Xj.O.c.+XsXD.Y.eXy.) H.4Xf.;XsX,XeX9X'./.[.[.C.*XM.M.M.D./.M.C.f. XM.D.0.j.M.4Xy.-.c.y.Q ;   O   Q [ I. X0.[.Q.c.+X/.8.I.H.,X;XC.+Xj.*XFX'.c.3.4X,X XhX*XH.H.'.Q Q. X/.eXo.3.[.j.D.O.s.0.D.y.D.H.) [ C.&.J x < $   $ k ) /.y.I.M.D.V '.8.M.s.Q.] j.Q s.y.[.D.O.y.D.BX/.Y.eX X X;X) H.'.s.+XQ.s.[ Y.Q.M.o.] ;Xo.3.y.V n s.*Xo.x < ;   $ D -.[./.T M.3.-.j.O.8.) C.Q s.0.8.y.o.C.eXO.<.;Xc.H.*X9X4Xj.y.D.c.8.8.D.8.x O.Q.s.y.&.<.y.) 8.[ o.3.[ T x r $     f D r n &.M.M.-.f T n T J j.) q T T s D -.&.O.f.y.H.C.+XD.;XQ.y.[ o. XC.] ) c.8.0.] T D.&.-.s.O.x o.3.) k s       $ D O.0.] V 8.Q.I r ] T C.V ) T I D j.J V ] V 3.y.y.D.[.y.8.c.] Q.-.I j.O.-.-.D.-.) 3.Q 0.Q I T O.I T ) J 9 $   ; f r x k J 3.T O.T &.s n C.] V x -.T s D J ) 8.O.s.s.H.tXQ.Q s.y.c.o.f.x <.y.[ J y.] ] T k ] &.T Q ) x f k 9     O   k k V I -.o.I T J x J Q f ] k q s V f D [ T o.f.H.H.D.8.f.f.-.Q -.3.) x [ ] n T 0.x o.I k n o.k f r s q   O     r n O.] 3.f f 0.D ; J V 8.o.k D T n ) f.2 0.H.3.c.[.D.Q.s.-.&.&.8.I O.8.<.] O.) [ O.k T o.) J n r 2 r q ;   O $ O q n o.I k s -.n r V I n ] n V f J o.r x C.s.8.j.I.c.c.T ) [ [ o.T T r V <.D q x 8.8.s D J n k x k r $   O $ ; s 2 f I k 9 f x O.r x s D T k k f k V ",
"Q.+XH.C.I.M.C./.;XI./.'.Q.f.[ <.C.[ D <     r -.[.[.+Xf.H.[.;X,X,X<.H.o.o.y.9XnXI. X0.[ j.f. XhX*XlX+X;X0.4X*X;XhXH.s.Q.;X4XH.s.y.0.+Xc.c.C.-.s.H.3.C.o.f O     ; 3.f.Q.Y.D.[.nXM.Y.HX'.s.M.+XnXf.Q.M.Y.BX+XI.j.Y.xX'.+XeX XC.C.O.H.I. X[.y.D.'.H.D.) 8.O.H.'.c.8.o.&.j.&.x q O   < s J n j.<.'.Q.D.3.+Xc.&.0.s.3.,X] T j.O.s.Y.,X8. X;X/./.;XsX/.0.C.'.O.j.,Xf.H.c.H.o.-.I.'.) -.D.0.0.s.H.k $   ; O 9 I y.I.I.s.D.&.M.D.Y.C.O.y.y.] [ 0.J ) C.&.H.O.f.Y.Q.f.eXQ. X[.f.o.&.3.,X[ y.I s.Q.M.3.] Q O.0.y.n [ J Q q < ;   $ ) f.k M.T o.o.Q.Y.&.D T s.&.j.k ] [ -.f Q 8.I 3./.Y.f.C.,X4XC.D.D.f.<.f.[ O.[.] j.<.r 3.Q ] I.s.2 8.&.Q q ;     O s ) D T o.O.[ I.8.-.J T O.T s V k k o.] J V I O.) H.j.0.'. Xc.8.o.c.T y.0.C.Q f.&.o.] [ [ <.D J I ) [ D f < <   r ] 8.) k ) I V J -.T J q o.O.<.n T [ s D n I T o.0.-.j.Q.'.0.0.s.j.c.o.r 3.Q.Q V M.[ O.Q V I 0.J V V f k < ;   $   s s ] r T f.x n J V f J n f [ f s o.D 2 Q [ n ) 8.s.j.Y.c.f.&.) 8.s.8.f -.J O.n <.o.r ] ] D f V D n ; f $     ; ; x I Q x <.J D <.J I J q T c.J k r n o.c.s V M.8.<.f.Q.*Xy.o.) 0.y.J ] 8.-.o.o.) ] Q x D 8.Q J f q 9 9 <       9 ; s x x D k s ] f k n V s I k k T x V n q Q j.s.o.H.C.8.D -.] I T n I x O.M.2 k T ] O.r J J n n x s 2 O   $ < 9 n q 9 k s x T f &.k Q 9 s J x r k f D ",
"'.4XH.Y.,XH.j.[.[.O.-.sX,X-.&.&.f.) r     < Q M.D. XY.;XM.'.Q.'. X/.C.Q y.-.D /.M.9X Xs.f.C.hX;XQ. X4X*XH.I.*X4XQ.'.j./.I.I.[.D.&.C.Q.Y.y. X<.O.'.j.<.n ; O ;   Q D./.f.eXo.*XeXhXM.xX[.3.H.4XY.I.8.4Xj.'. Xf.H.s.,X;X/.;X,X0.M.C.H.8./.Q.c.M. X/.j.f.8.o.j.,X3.D j.c.&.V 9 <     T I Q s Q ) &.j.3.[ 0.&.) C.c.f.0.-.n Y.f.D 8.Y.c.0.Q. Xj.+X*XH.[.I.Y.o.0./.&.'.H.0.] c.H.Q.I s.M.c.y.[ ) < ; <     -.y.-.I y.y.D./.o.o.y.,Xy.&.hXD.o.o.V j.D.&.C.V o.C.hX/.j.*XD.I.D.-.-.<.9X] H.8.] D.f.<.-.T T f.8.O.f V k <     < $ -. X-.x V [ <.M.3.C.<.D o.I.f.) T J j.I J 3.s I D.j.3.<.c./.Q./.3.y.f.O.8.y.c.-.3.y.V H.f f.[ O.V D o.x ;     ; < Q [ y.T f -.[ -.[ &.8.<.8.I o.T f.n f Q I r D ) D H.-.8.M.,XH.-.y.8.T c.H.&.D j.3.[ ] &.D O.o.J D I ) f 2   O   2 f [ 8.) -.o.] f x D o.J n T -.I q [ k V J D f Q 3.<.<.-.Y.Q.0.3.f.C.V I O.f.[ Q 0.<.) <.r [ O.Q 9 n s q $     ; O D J Q r [ ] n D I T f k s k V s n -.D ; ) T ; ) -.3.0.H.Y.D.O.] s.3.-.x 3.Q -.J 8.D r T ] J s s V n < 9     $ 2 f x ) T 2 J n Q [ x ] r x f H.r q T x 8.Q 9 s ) &.&.-.c.C.3.3.Q f.y.D T y.-.<.o.3.-.Q V x <.k s k r 2 ; O     $ r x J I r D f V D q D J s k J n f [ I f ) x 2 j.D.o.y.y.o.Q 3.] n D k Q n 8.8.r I -.n V x Q Q f n f 9 $ O O < 9 f V r r x f D ] r V I o.s 9 s k f J q x ",
"Q.I.C.[.+X/.Q.f.,Xf.0.C.4XD.k ] [ D ;   $ n c.;XM./.M.+XM.I.9X9X4XY. Xc.'./.[ <./.0.8. XQ.3.hX-.O.H.eX4XY.'.+XY././.[.D.s.;X X*XT Q.C.c.D.&.f.f.y.f.I V O   $ s ) f.j.f.'.f.y.+X+XY.lXQ.s.O.Y.O./.s.Y.C.[.C.;XC.O.8.eX+XY.;X3./.Q. X-.0.Q.c.0. XD.3./.Q.Q H.H.I o./.j.J r   O O x j.O.0.f.D.Q.&.<.4Xj.3.0.o.O.s.3.c.0.f.3.+X&.&.<.;XY.y.4X[.C.'.4X*XH.D.0.j.s.0.[.8.Q.3.) 3.Y.[ 0.o.-.&.] n < $   9 k &.y.,XY.*XI H.'.'.T ,X,X0.C.s.tXy.V s.I.<.&.*XV s [ +XD.c.I.s.;X+X&.M.M.M.8.[ C.) 0.O.T Q.T J ] c.&.V q < <     o.2 8.'.j.0.) y.3.O.V y.j.T <.H.Y.J n x o.C.<.8.D I 0.f.0.0.-.M.I.[.s.D.D.&.j.3.<.&.3.j.J c.O.n y.s.V D n <     $ < q -.] D.M.n &.[ I I 3.Q.0.s.q f f.c.D x T [ r s J n <.O.O.-.s.C.<.Q.T 8.j.f.D 8.8.) f.&.&.k x f.Q o.V r < ;   < k T f f -.I T f.-.I f T Q 8.O.x q Q V I f k ) n 2 D O.y.-.) -.D.M.0.j.0.&.O.-.[ I f.n s.D V I I [ q r J q   <     ; f V x <.k O.T r ] ] -.x s r k r s I q s f Q ) 2 r [ ] I O.s.c.O.&.8.T [ o.T o.8.Q o.s n I J V f n f f q   O   r q I 2 J O.V V r I D q D -.&.k s.n r Q y.) 2 s k x D 3.-.O.] <.D.[ j.0.n D f.-.8.O.&.[ ) x n O.k k f q ;     $ 9 s 2 [ ] n q -.n r D D r r I O.r x V 9 O.T f k ; T M.<.[ [ &.3.] J n I V ) q o.n k n 0.V q k V ] k x r ;     $ 2 q n n q k D k f k r $ Q O.V q < s T &.q f ",
"H.Q.H.Y.*XQ.c.Y.Y.s.Q.D.'.M.Q D n < O   ; -.D.9XD./.j. XhXT +X9X XQ.3./.j.,XH.x &.M.O.Y.+X*Xc.M.Q j.D. X;X*X;X'.8.y.*X[.f.I.+X+Xy.,X'.0.M.f  XM.D &.x ;   $ 2 &.3./.;XD.Y.H.4XM.C.<.eXs.j.<.y.<.D.V I./.M.+X;X8.0.j.+XH.c.H.[.Q.4X Xs.<./.j.y.I.c.C.M.3.&./.c.n J '.] 9 2     q o.f.c.H.] ;X9XY.-.&.D.H.j.3.D x o.) &.c.y.8.f.o.Q [ f.&.Y.'.'.8.'.*XQ.M.*Xy.[.&.y.-./.f.8.<.c.&.y.s.Q V k ;     q 9 -.'.Q ,XI.sX&.M.[ D.f Q C.O.[ ) Q.o.8.'.C.x M.Q.] V V 3.Y.Y.<.f.Q.+XM.) [.0.M.[ c.f.] -.&.<.s.] [ [ ] 9   $   O Q I &.&.f.) Y.0.-.n O.] f Q D f T O.-.k 9 n [ ] j.O.n Q ] 3.c.H.[ 0.D.'.] I.3.3.C.3.V C.y.J 3.c.J O.0.V n 2   2   x D o.O.8.&.D [ s.o.3.I s k ] D q J ) &.q D r D n ] o.) n ) D I -.<.0.M.y.0.) I.Q c.0.Q O.0.[ V D n ) <.k ; $   < ; x y./.k f &.) o.n &.T V f 2 s x f x f I s s k f k J o.o.D ) o.[ y.M.0.O.c.) I O.o.&.I ] I f D J ] k 9 q 2     2 2   3.8.r J I k f Q V V -.f k f s x V s 2 s n I s r s J n j.<.) <.8.o.y.o.I y.] J j.) n V n I T V V f q O   $ O $ q x D I D n x n k c.) s V J &.J D 0.x [ k O.x f D x f T f.I o.O.c.] f.y.D n M.T 0.) T ) T V n n k q q 2 $   O ; k [ r < T V ) Q x n o.j.f k -.] 2 f D r I x n s r s I ) [ D ] ) ) J T J n T V D f x M.O.T r 2 k f x s       2 < f r o.n s k k V J x < r n [ T 9 2 q s n s f ",
"M. X*XQ.I./.Q.M.D.3.y.<.s.3.T n s O $ r ] 0.c.I.eX*XtX[.9XD.I.+XI.] k ;X XsXhX-.[ 3.] <.;XH.c.&.D c.*XM.H.'.4X[.3.Q.4XH.'.y.3.C.f.'.M.8.H.[ [.y.) O < 9 O   -.Q./.;X;XY.'.C.tXtX/.O.y.k V D ] Q '.[ '.j.] '.[.3.C.'.*X/.0.s.M.;X+XY.0.C.*XY.o.3.'.H.j.o.Y.3.f.[ n O.q $ $   f ] c.c.j.Q n 0.;X/.M.] n Q ] J 9 f $ n n Q 3.-.[ ] 8.V 3.Q *X*XI.;X0.f.C.I. X0.H.O.8.H.D.8.M.s.<.y.&.J J 2 < <   s V x C.f.T y.C.,XM.[.] &.) x q x f k r k Q o.C.k D.M.V 8.8.&.c.H.j.] -.M.j.c.Y.]  Xs.<.3.0.-.s.I J -.3.V 9 < ; O ; V J <.Q ] &.Q -.) 8.I n n < f r f f 9 ; 9 r f D s ] 8.s.j.O.I I.8.&.o.<.y.D.D.I.<.[ j.8.O.0.-.T y.c.9 [ x   <     ; 3.s.q f.o.n J y.s.n J D J s f 2 s 9 9 n q I f J r k ] J J T -.) T ] &.j.j.T 3.y.3.-.3.o.-.<.[ J D x k x r $   $ 9 f V -.I.x ] -.s &.Q s f q O s q r ; f q f s f r q x I T ) [ 3.-.) -.0.O.y.3.D O.y.o.) J T ) n D r r q q O   $ ; < n f x 3.V &.8.n q k f f q q 9 $ < x q r x s J 8.q T r x n 8.] n ) o.-.3.f.V D -.] o.T r T o.o.T x x s ; ;       r f J T V V Q n f s [ J k s s V 2 f I n I k J r J V f x V ) <.D ) [ ] -.&.V n j.[ &.k ) ) T D n k r 2 < O   O O < x Q q q [ I Q T x V Q o.V V Q s q V [ k x 2 r f x x s D T D I J I T ] ] I Q D J k f Q V D x x x 2 2 $   $ ; r $ < q x x x n n D n r x x x D x q q f n J x x ",
"I.,XsX'.j.I.Q.y.'.M.j.8.3.] x $ O   ; n c.Y.Y.s.3.8.9XD.[.eXC.Y.*X9Xk T Y.[.M.V T 8.H.x 3.I.C.s.[ 8.*Xs.M.D./.[.s.;X/.c.;XY.0.y.j.Y.C.s.M.[ 0.[ r ; <   9 J M./.s.I. X4X9X3.s.C.Y.o.O.&.3.] D x I I T &.s.M.0.y.0.y.Y.4XM.M.y.M.'.D.8.Q.[.[.[ y.C.+Xo.&.s.<.[ ) r s ; $ < 9 ] ) &.c.H.M.-.f.c.s.] I r V x x f k q n < O r k [ C.] T O.O.3.,XM.H.'.c.8.O.3.s.H.o.f.+Xj.3.M.s.] <.r x q 2 9   k ) f.-.3.[.[.&.Y.C.<.o.J x k s n x n r 2 q < 2 D q V C.<.] [ ] C.o./.V o.O.8.0.I.C.0.Q M.] <.3.o.[ V J f ; O $ $ $ I -.J j.<.0.c.M.&.f J V V 3.Q V f x ) D f < r ; ; $ k ) &.y.8.Q y.Q D f.[ D o.3.<.3.-.3.O.T 8.<.) T ] n $ ; <   9 f k ] Y.o.-.) ] V I T s V n f D x q ) f 9 q $ 2 k 2 q q x Q I n ) Q O.T I <.I T s.y.f.&.y.-.-.T ] ] V k s ; $   s o.q n [ -.0.I D.Q O.) n 9 [ [ f V V f r f < < 9 9 < < q k x ) O.<.-.o.[ [ Q -.] D <.8.T ) [ ) ] x n q < 2 $ O   ; x k ] I f ] V 0.H.o.n s s q r n q n r ; < 2 < 9 2 I r r r x x J D Q -.I T V y.) n ] n x 3.x ] ] T n s q     $ ; < 2 x s T f q k O.J V V k D n q f n 2 f 9 9 r r k r [ V s r f V Q Q J V J I ) D V 8.&.] f [ Q J V x r < ; ;   $ q 9 s D J s x O.I J D k V x f k r s $ s 9 f f I s < < k J 2 x V J J J V J I I D J V I x f s s n D J k O O   O 9 x Q k r k f T ) I I I n s x s s s r q < 2 < q 2 r ",
"C./. XY.M.D.H.M.[.D.3.[ D f f $ $ Q ] -.H.;XeX/.eX9X4X8.) -.T Q x [ s f x q D k n o.) J J ) 0.'.0.] D.8.c.M.y.M.D.;XM.I.M.*XQ.<.<.j.f.8.O.D n k ; s < k Q 8.0.Y.+XI.3.j. X3.[ T O.I k n J T V n k < r s [ s.T 4X/.Q c.C.[.Y.;Xj.8.&.&.I.Q.[.&.y.3.D.&.) &.I V f 9 $ $ s ] <.'.[.&.f.s.c.3.3.T V [ <.y.M.-.] <.] O.I x V 9   q k f.T k y.Q Y.I.O.M.s.c.8.Q -.s.-.M.D.8.-.) I V r r r ; 9   D O.+Xf.j.C.hXH.sX&.[ I Q s.c.C.O.f.0.&.T ] ] q q O $ $ Q <.Q y.Q s.Q O.[ f.0.&.[ I ] ) [ [ J o.J T f f s ; 2 ; $ k o.O.0.y.j.y.] s.Q.&.Q ] 0.<.s.[ n c.o.O.D [ J o.2 9 <     s 3.j.I V <.&.hX*X] s I ) V J J Q ) V J s V   9 $ $ 9 r q -.D 3.] C.r O.] V I ] I ) O.O.y.0.J Q T I D 9 2 $ 2 $   n s o.r ] s J 3.J D T ] J o.V Q o.J J k r k 2 $ 2   O q n ] ) <.o.Q <.8.D [ I [ ) D ) M.8.V 3.Q T D J 9 2 $ < ;   < s O.] J [ 8.<.o.[ T I D ) T n Q Q D I s k q O ;   ; f f ] I V D <.] f J J V n J J n ] ) J O.J r k s q ; O O s   x D n 9 f [ y.D n V n n V D s s ] n D f q < $ ;   O O r k T V f -.Q D r J f n [ ] ] T D [ -.] Q x q 2 2 q 9 I x s f n V x 8.J k I x V D n I T n n I n f f s < O O $   2 k q r k r n D ] D n D k x f J Q s q f V 2 9 2 s q 2 r f r q n k D D ) n f n x f k x n k f f s r r s <   $ 2 s s x ] J 9 2 J O.o.T I V k x s 9 r 9 9 r < ; ; 2 2 r ",
"D.'.Y.I./.H.s.j.s.8.) D q < 9 2 I H.D.Y.f. X4X,XtX*XM.&.I ) [ o.<.&.[ Q I k f q f $ s q q <.V H.c.J -.y.j.j.-.c.8.D.f.I.<.I./.0.8.0.&.] V k ; ; ; T ) ) ] D.Y./.eX,Xy.] O.T 3.j.3.H.M.<.0.Q.I.C.I x 2 r     D -.I.0.Q I.8.eXI.I.H.<.] I T ) D Q ) V I x x ; 2 q r q k ] D.j.C.H.<.f.Y.y.0.Q <.M.c.O.y./.M.-.H.c.O.&.8.y.T 9 2   < D y.O.V 8.+XT '.f.c.y.J I T J ) V J V r r n < $ $ s q D <.C.Q.c.-.*X X;X-.[ 8.o.s f.*Xf.Q 4Xj.8.o.Q M.8.Q k 9 ;   q V c.s.] f n H.3.O.Q 0.J I D Q f r f 9 f s 9 r < < q D 8.<.3.T 8.s.[.j.o.Q &.-.J 8.0.8.8.&.3.y.0.V x ) f.D s s 2   $ I -.D V M.3.s.H.J T &.n T T n f n q r   ; f $ q s I ) -.) O.<.M.3.&.T I ) &.-.O.O.o.D -.f.] I 8.O.) x x D   2 O   s I I D r V D Q f.8.Q 9 k r I k s r V   O $ $ q 9 s T ] k Q 8.8.o.] I [ J 3.o.0.s.V <.s.x f.3.T ] y.V D q 9 2   $ q ) ] f D 8.s.y.<.] I n n n n V r r x f s 2   2 < q V ) 8.I r J j.3.I Q n ] o.<.O.[ O.T o.I Q -.) x ) 2 q O O 2 r x V 9 9 k ) V Q Q r s k r q 2 r q r < 2 $   ; 9 q < D f [ I Q M.<.O.n o.Q n J [ D f n T ] [ J ] I V 9 r $ < q q k s f D I n V ) V k k x f s < f f 2 < 2 2 O   ; J x I ) D D I n I I T I I Q V k r &.<.J r V k k f r 2 < $ 2 r 9 s J k f f T n f D k s s f q q r q 2 $ $ $ O ; 9 f D s q J Q x f I ) I V V f r x x k k r s x n n q 2 < $ ",
"y.H.j.8.M.y.) T J J k s q s x o.Y.'.C.*XD.*X[.'.y.O.8.j.c.D.y.<.C.8.D.s.T [ 3.) q k 2   2 Q O.[ O.8.f.3.<./.[.j.T o.O.[ &.) ] T I Q V s < s q k k D.C.V 3.Q.,X,XxXeXs.<.H./.[.C.D.Y.H.O.0.0.y.H.Y.O.-.Q r s   q n o.<.3.M.M.8.C. X/.,X[.C.T I V J r n s ; f T T n 3.s.y.+XtX;XY.-.y.j.M.j.y.c.'.c.O.&.s.<.-.j.f.8.0.T J o.<.[ k ;   < f <.M.8.<.n J -.s.j.Q.f.V I V J r k x f x ; I 3.<.f.O.Q.0.y.Q.o.8.s.O.H.0.3.j.3.[ -.o.[.I.8.T O.I.c.<.V ] s 2   O k c.x $ D D.0.O.Y.0.<.-.] I ) T D D s ] J k s x Q &.D.) y.O.f.&.) [ o.I.[./.o.o.] T -.&.f 3.3.<.s D O.Q x x D k   O s n 2 o.I f.-.n n I D C.y.[ k O I V k f V <.I V -.J C.-.I o.y. X-.] c.D.j.<.j.I.M.k J &.) I 8.) O.O.Q n s q q <   9 < ) V q J O.3.8.I Q D M.8.s k 9 r f k r n o.Q f n 0.I n D 0.s.] o.[ M.Q M.-.&.y.[ &.V -.j.V ) o.Q -.V q 9 $ 2 $ r Q f r Q 3.f.-.o.Q I Q Q D x n J V D k x k V D Q x o.8.) ) &.Q I J O.) <.&.o.] T 8.I [ I ) <.[ J J ] r 9   $   9 f s 9 q D J I T T n 2 q k q q k q ; s f 2 9 q r r ] f ) [ ) <.Q I T M.j.) f D I I Q T Q o.) D.Q J x D r O ; O 9 < [ x $ n C.] o.V k V V f 2 q r 2 < 9 2 < 9 f J x n J V I ] T T I J ] o.&.I x f [ Q D x I 9 f V V f k $   ; < 2 n f 2 ; s k V V k k r s 9 q r 2 < < q q r V k n I k q f T T ] J J D J J x k n V I D I T I ) I Q x f 2 ",
"O.-.[ I Q Q V k f k r s D &.3.9XeXQ.I.eX[.tX+X/.s.8.c.D.Y.[. XY.Y.I.3.s.'.H.-.0.[ s n $ ; 2 2 T <.V J Y./.-.Y.*X-.0.8.k T V f s 9 f q q k [ O.<.s.Y.s.O. XQ.H.9XC.Y.c.M.C.c.I.c.C.f.'.s.+X8.D [ [.I.O.I ) s < < $ V o.8.-.s.j.;X'.H.[.;XY.) f.j.3.O.8.) ] o.D.8.s. XY.&.0.;X XM.9X/.&.H.D.9XI.I.C.Q.f.f.<.s.[ 0.Q 0.f.<.n s ) &.r k     2 3.o.c.k O.c.f.s.M.I.s.D.c.f.[ [ <.x o.3.C.[.,X&./.y.Q.4X3.V Q j.j.<.C.f.D.s.[ ) 3.j.o.3.[ f.f.3.8.I -.&.T r 2 O V 9 D 0.c.s.D c.V y.C.Y.M.O.D./.[ <.T -.I <.s.8.) /.y.&.O.f.c.-.3.[ o.8.c./.j.[ [ s.s.o.-.T [ Q J ] J 8.V V k < ;   $ k ) r Y.Q ) J 0.C.y.&.<.s.; o.[ I c.I D.s.Q x D <.8.-.Q [ j.T 8.3.c.y.) &.s.Y.3.O.-.) T D n 3.s.T [ f x T 2 ;     9 T n k -.-.x J O.) +X0.r x k < o.Q x [ -.) V T [ ] ] ) [ <.y.f.c.T ] M.T I D.-.Q ] o.0.) ] x I <.V s k 2 2     x q r n I -.] ) ] ] ] o.Q T -.<.Q [ D [ &.[ o.3.V O.] -.y.3.n -.<.O.<.&.3.O.c.D f.&.Q o.o.) ] o.n j.x s r <   $ ; r q r J ] s Q ] k < V ) V 9 T n 2 s V n n s f f ) J T 8.I I ] J ) -.] O.) I D O.I V T ] I y.I n T T V k <   ; < -.s 9 T /.] [ V k V I V n f k f f f s s n I D n n J [ -.<.&.) T V o.o.o.J n T T I n ) -.V f ) J r I n r ;   O 9 r < 2 ; q n f n J s k k V f r r f J x D o.x T I x n k D n V I I ) ) T J D x V ) V [ [ J ] V I f f q ",
"[.C.0.O.D n D V I O.s.H. X X0.,XQ.D.,XeXC.'.'.Q.I.*X/.I.C.c.tX/.'.eXC.&.Q j.Q.-.8.<.[ V 9 ; $ ; s f n 8.M.[ [.s.D.,X,X-.) C.I.I.c.f.O.O.M.[.H.<./.j.<.D. XtXQ.y.y.Q.*XlX*XM.H.D.Q.H.;X[ *XY.3.&.D.Y./.Q k D J 2 $   V c.J j./.*XlXD.8./.'.<.Y.C.I./.[ *X-.y.O.<.<.y.j.D.M.[.I.M.c.M.M.H.0.j.Y.4XM.'.&.C.H.[.T '.M.] 8.Y.&.Q 8.] s x $ ; $ O n x -.-.M.+X X-.8.c.'.D.H.C.s.,Xj. X8.s.[.*X;XM.H.&.lX/.0.M.I.I.&.H.Y.s.8.s.0.s.3.H.o.C.3.-.<.3.c.Q [ Q I 2 $   q I x y.s.O.o.0.c.j.H.<.j.H.Y.) &.y.<.n &.0.y.o.,Xy.o.[ 0.C.C.H.D.<.3.&. Xf.O.c.D.<.T 0.f.Q O.s O.D j.[ -.J 9 9   $ O V 9 -.) [ ] f.f.o.j.T f.k 3.o.D &./.j.] Q k x y.f.] +X0.) <.&.8.y.<.] o.) f.s.[ <.<.s.V D [ x 3.3.J r Q n s $ O O f 9 x 3.o.J [ T T y.I r D &.I s.I I s.T D C.O.T <.] <.y.8.&.s.D.c.&.y.n J [.O.D 0.3.Q 8.<.Q J o.k V I q 9 <   2 $ V J f Q ) ] [ I V o.-.[ -.&.Q y.) [ O.) -.&.] 0.V <.&.] &.s.y.] f.o.8.T c.] -.f.) Q O.3.[ [ Q O.J q q V $ O   9 ; ; n &.r f I Q T f q n f I J s q s x ) ) J s n ) T c.Q o.<.&.8.T 9 8.3.s V 0.V D o.o.D D [ n ] n x T q 2 O O O k r n f x x s s s n k Q D n n n k f k J ] D V x J -.8.O.Q [ Q n ] T I n n J J o.x T <.o.k J I x [ n 9 2 2 O   2 q x ; < r f Q O.x V J ) k n k n I f V o.r D f f o.O.-.) Q Q ) o.] D J J r ) O.f T Q k [ V T n I I ",
"BX;X[.D.c./.[.'.H./.eXeX;Xf.Y.tX9XI.I.*X,XC.I.Y.tX[.9XM.8.H.[.M.,XH.Q.H.3.y.f.8.0.0.f.<.T ; O $   O s I s.M.9Xj.+XQ.j.,XQ.D.lXC.f.,X) j.'. XH./.,X9X9XsX9X4XtXc.y.Q.c.[./.D.M.s.I.[.H.M.hXs.M.f.C.c. Xc.-.T n n r $   x 9 [ +X4X,X4X[ D.Y.,X[ -.*XH.3.*X[.3.f.T &.-.D./.j.f.;Xc.I.+XeXM.j.y.*X/.H.<.D.Q.0.Y.3.-.[ T O.M.s.&.I.T r J D       9 f o.M.D.D./.T I.j.3.c. Xs.[ D.0.j.0.j.'.H.tX;X9XH.xX XC./.'.M.I.[.-.3. XY.Y.[ <.s.f./.<.y.[ /.I c.O.x O.V 9 ;   9 n k o.H.o.Q C.&.) &.[.+X8.-.8.] -.) M.I [ 8.y.8.o.] C.8.c.y.8.] c.[ Q.M.J s.I.o.o.<.j.k s.[ ) ] f x C.<.x r 9       f -.3.3.] V 8.[ D.s I &.Q.n D o.y.J s.[ -.O.D 8.o.j.3.Y./.y.[ 8.C.o.D.] O.y.[ ) o.f.o.] O.s &.[.T k J x T ;   O   f D ] x s [ J ) T O.J o.3.O.H.x ] H.n [ 8.Q Q [ 3.8.0.c.j.y.-.T j.y.o.-.3.) ] ] <.) s.Q T J O.Q Q J n < 2 < $ O 2 D x o.] -.n Q &.) [ ] I O.<.8.-.) &.T I 3.[ [ -.'.) V 0.<.H.x 0.<.0.Q -.T ) -.&.J o.f.[ o.D ) T s s [ 2 ;     ; 9 r f n < n I D D n f k 9 n D k n I x D f D V 0.o.[ Q y.M.3.s.f.D O.3.D ) &.-.2 -.0.D q 8.) ) D x &.D f O $ O ; s J D f < r q k x n I I x x s o.n D x T 3.V J V s.-.o.[ 8.y.Q f <.D V x V o.] T n s.[ V D 3.n J J ; V ; $ O   2 x q $ q T s o.x s O.n r I k n n q V &.n V s s o.o.I [ Q ] ] D D T I x x D I J r J D J J &.o.Q D ",
"4XsX;X/.*X*X,X+XY.Q.9XhX[.tXM.s.&.0.y.9XlXQ.sX'.+X;X'.Q.Y.D.s.y.8./.Y.Q.) <. XY.O.&.<.Y.&.J ; 2 $     2 ] <.'.3.M.0.*Xy.3.f.[.*XxXQ.s.9X/.,X+XI.c.c.tXnX4XeX,XeX;X,X'.'.[.Q.[.0.s.j.;Xy.D.j.M.I.8.D.3.c.I.<.[ ) n 9   ; $ T /.+X X+Xo./.;XI.0.Q [.tX[ -. XtX'.<.M.s.'.*XY.Q H.j.Q. XeX+XQ.j.Q.c.0.f.f.8.s.M.j.j.s.] D 3.0.&.] -.V ) ) r ; O O   k O././.M.O. X,X[.[.0.D.+X) <.0.M. X X'.I.H.j.0.*XY.j.c.s.0.D.Q.J O.y./.y.[ 8.&.3.I.M.c.&.f.T I.) J c.I f 2 O   9 x D [ x -.[.Q.T O.3.j.D.3.y.J ] [ -.c.C.f./.0.O.&.0.;XM.I.<.D.O.-.Y.c.O.8.o.c.s.n y.] 0.[ 0.-.Q f I ] n V f ; $   < 2 8.0.D.I 9 8.s.H.D k H.&.O.T ] s T -.f.] &.0.&.8.D.j. X+XH.o.-.T /.y.J H.D.x n s./.) T ) I C.) s J f V V 2     < n T ) T o.J D o.O.k x Q <.-.J T 8.n Q ) n 3.) f.y.8.Q.y.M.<.T D.n 8.3.O.0.) [ f.O.s.o.k [ 8.J ) ) ) f < n r   O r V ) Q 3.Q [ &.] ] O.[ ] O.8.I O.&.3.x o.8.O.) 8.) 8.M.M.o.) C.3.] x s.O.-.n Q O.o.I y.o.o.I J T r s n 9 $   O < 9 s k T k r s k D J f q I k x 2 ) n V x D D j.y.<.O.-.[ -.] D.[ n I <.I I J x D.[.T < J ) O.T V o.k s f 9 O   ; q s s k r s r x x f q D s f f T n V r I x D Q 8.&.O.&.<.C.&.] I J D I T Q D I V o.) ] J &.[ J D J f r ; $   < k r < r x f T x q D k q q r k Q < n n k x x J <.-.] &.[ ) I -.] o.V T n x I T n I ) ) J J T Q I ",
"j.sX[.M.eXQ.D.H.sXC.c. X'.tXlXPXc.8.D.Q. X;XeX X X9XtX'.y.*X;XQ.y.C.D./.<.&.'.I.s.0.H.8.-.V I q   O ;   2 f C.C.[ f.;X XM.[ [.'.'.&.H.eX[.4X9X,X,XY.+XsX;XlX,XeXtX9XI.I.I.f.y.O.C.j.s.O.0.3.;XI.C.<.H.8.<.8.O.) D f ;   O D D.'.s.D.D.H.;X+XeXj.Y.xX8.-.D. XD.Q.f./. X'.M.&.;X[.[.D.C.I.c.j./.Q.M.D.f.o.Q.8.O.j.[.j.T c.8.-.T f.3.-.o.I $   O ; q I c.[.s.3.I.D.M.D.f.C. XQ.V &.c.-.<.C.eXI.8.<.D.Q.[.Y.8.y.'./.s.y.Y.0.f.y.8.Q.c.&.I o.y.3.T H.8.V o.) ] D O     < Q J <.-.H.f.J M.8.O.c.o.f.I f.-.<.H.) 8.O.C.,XY.Y.*XY.f.0./.&.0.C.f.3.<.V M.I.<.f.Q J V Q.M.] J T O.n J k 9 $     f 8.) 0.&.q o.T f.j.3.y.y.J Q c.-.n &.<.n ) y.s.j.[.s.D.+XC.y.[ n M.c.T s.f.&.D V [ <.] O.D 8.O.x ) f f D I O     r n &.&.f.Q x [ <.n ) -.T 3.H.s x M. X] o.s.C.c.s./.Y.I.c.0.D f.V y.O.O.s.J [ 0.J T <.x [ 0.V -.] J k k J x     O x J I J I ) o.] ) 3.8.] ] T <.) 3.[ V D &.] [ O.-.Y.j.+X0.] O.8.O.T <.&.j.D n ) <.J 0.<.-.n I o.V r D k 2     O 2 q s T s x V q s D s J V Q x T f T k <.I J y.y.O.8.s.) Q Q M.-.-.k o.k n J Q j.H.T n f ] <.] I O.k s D q $ O $ < s D n f V q f r D I [ k x r ) x V s n T ) 8.3.<.<.3.] &.<.Q Q J [ D -.O.I Q I D I Q Q O.) D V ] q x 9 <   O 9 q 2 9 q x n x s s k k s f D Q 2 n r I f J [ 3.-.O.8.-.T f ] Q [ D ] x r D I T I O.o.J T ] o.] ",
"*X+XlXeX;X+XeXC.*X4X4X;X,Xf.9X'.+X[ I.tXBXeX'.*XeXD.*X/.8.'. X4XH.&.I.f.j.O.y.O.s.c.I.8.Q J ] D 9 $     ; k j.C.o.+X<.;X[.D '.hXBXc.I. X;XeX4XM.Q.[.H.hX9XhX;XM.f.BX XI.C.eX'.M.Q.s. Xy.-.o.j.9XH.-.f.f.c.<.[.3.V D k   $ s 3.M.j.j.hX8.D.,X,X,X/.xX[.y.3./. Xj.-.tX;X[.-.3.;X;X9X/.D.+XI.I.I.s.D.D.H.Q *Xs.[ -.Y.y.T C.&.3.<.&.3.Q ] y.x $   O ; V ) H.c.C.Q.M.j.8.o./.4XsXo.f.c.I.3.f.Y.FX/.c.'.4XhX;Xj.C.'.y.C.3.H.+X<.D.y.H.c.c.0.&.<.&.] M.Q.T k ) O.O.; $   < y.0.) 9 o.I.0.j.-.f.f.s [ j.Y.s.s M./.D.3.o.Y.D.;X/.4XM.H.I.<.<.C.C.&.o.O.<./.y.k O.c.D f.M.x I 0.-.V Q x q 9   < r c.2 Q &.s.I s.3.&.I f.&.o.I O.y.o.<.[ y.f.4X'.'.f.s.y.H.-.[.] Q o.o.j.0.[ ) C.I 8.I -.y.T Q ) J -.n D k o.2     O q ) o.-.Q Q O.C.) <.[ 0.3.Y.n r -.I.O.T c.j.c.M.s.I.0.H.) J M.O.O.j.Q s.] O.-.J D 0.V ) 3.x 0.o.k f I k x 2 $   2 k J n Q o.[ ) V ] o.[ D &.o.o.o.Q n 0.&.[ 0.8.s.M.[ s.'.O.T 8.T o.s.O.8.-.I k o.o.o.&.Q J O.V I Q x x r ;     ; q f r s T Q r 2 x V n J T T n k V 2 y.Q 3.8.8.8.f.s.c.3.k j.3.O.3.V n D ) T ] ) J [ I [ <.O.Q 3.T s s 2 $ $ $ < f J k x n r V 9 ) ] ] D x D V x s T s T T 3.O.3.-.o.o.V T k ) Q 3.V ] o.) T Q ) o.I &.-.s D D T r x f 9 O   $ 2 2 < q f f f k k x J k 9 J n x k 9 J x [ <.-.&.8.s.0.T V V I D J I I k n D ) V ] ) D ] Q T Q ",
"*X;XhX'.4X9X/.[.tXsX XhX9X8.[.nX+X9XsXtXtX4X,X<.'.H.I.I.'.C.c.Y.Y.c.eXH.Y.M.[.0.[ ) j.c.C.o.o.Q r ;     O r &.s.y.4Xf.+XBX3.<.hX4Xc.3.*Xf.'.sX+X;XsX+XlX+X;X9XsXj.D.M.*XI.Y.D.Q.y.8.[.C.M.O.] M.,Xc.o.c.;Xj.s.] V T I $     V <.H.y.tX3.j.'.f.sX9X+X'.H.M.M.,X XJ D.I.9XH.f.*XxX XY.c.'./.,X+Xj.[ H.Q.D I.M.'.-.D.D D j.s.y.O.8.&.V I 0.J r O     f ) 3.y.D.s.[. X[ O.3.[.4XC.j.&.H.tXc. X,X9X'.+X*X XH.s.Q.*X3.O.f.3.j. XQ M.c.C.3.-./.H.[ D Y.[.8.[ D ) Q q O   2 Q '.s n )  Xy.-.<.j.&.) [ s.j.0.) <.lXf.<.8.f.'.[.Q.j.0.8.c.Q <.C.C.[ ] H.<.T j.&.&.<.Q 8.Y.k k 8.Q T &.V r 9 O   < D &.I o.O.&.8.8.8.T -.n Q D.y.J ] M.O.-.I f.C.,XC.Y.y.-.s.'.T y.T V /.c.Q T f.M.O.J ] H.Q k k D ] x 3.D ] 9   $   2 n I O.<.O.D I V &.[ D.8.&.D D k &.) ) c.H.Y.;Xs.D.<.y.f.D O./.O.8.] 3.&.O.] O.[ 3.r ] 8.x 3.O.V n D f f k ;     s V J T o.) ) V ] o.T J 0.D T s.) s H.[ -.y.f./.D.3.[ j.) <.f.I T f.3.I 3.&.T D ) [ ) n Q 0.s n o.n f s 9 $   $ 9 f r f x x x x D ] k Q o.V r V ) f I J Y.0.c.*Xc.T  X-.) -.&.[ [ &.[ D Q D O.Q T J o.Q &.3.J O.] s q q 2 O   O 9 s s x r x ] 9 T 9 k D V D r D q J J [ O.s.y.I.C.3.s.Q V D k Q [ ) ) ] Q D T [ ] n 3.-.s V I &.k k n s <   O 2 q 2 f 2 s q k V f I f 2 V J ) I 2 x I 3.f.3.8.c.f.<.J O.o.] ) n x O.T V n Q x V D J 3.] T o.",
"tX;XxX X/.sX'.[.[.lX[.;X3.4Xf.C.hX+X*XeX9XH.+XsXj. XY./.I.8.4XQ.c.c.C.Q.H.j.*Xj.<.o.s.o.Y.y.0.J q 9 2 O     x -.Y.H.D.D.;Xf.I.,XBX9XJ sX+XeX[.+X XH./.sXeX9XH.;X9Xf.'.*XD.c.[.0.c.M.3.f.eX*XQ.o.Q.s.O.y.j.+Xj.O.T I T q     r -.j.D. Xc.I.*XI.,XH.9XI.T 0.Y.lX'.Q.I.Q.*XtXY.+X'.tX9Xc.y.8.Y.I.0.I Y.M.] s.&.sXc.-.<.Q.O.-./.-.y.[ Q &.<.k 9 2   ; 2 y.<.c.I.Q /.[.o.f.3.3.Q.C.s.T -.I.[.Y.;X'.,X;X*XY.s.-.H.9X/.0.0.[ /.s.&.I.f.-.f.[ O.-.I.&.J +X8.3.n 3.V s ; O   2 M.[ s.y.j.] 8.I.0.D H.8.) D.-.O.T M.f.f Y.0.[.I.H.O.[ 3. X&.s.<.O.) -.Q.0.f.Q 8.<.-.) I D.-.J &.D T Q x f r   <   k <.o.) J x 3./.r -.-.Q 8.C.0.0.D.O.k O.;XY./.*X'.C.f.3.C.s.[ M.T Q s.o.3.) c.&.&.k &.0.3.T V D k r y.) V 9   ;   2 f J k 8.M.&.n D I I y.c.D x ) ) s.n O.3.H.M. Xc.3.3.f.c.Q <.f.<.M.T ) -.&.J ] O.<.I T y.] o.Q V D n J f k O O   9 x ] x ) D Q T O.3.Q J T J I C.J V o.V 0.s.I.9X XD.f.[ [ f.<.o.I -.8.T <.O.y.Q D ] <.V V -.T J ) V r s q $     2 r r x s r V D V I ) x ] f V s ] 3.J r y.3.I.,Xs.] <.H.T ] f.J O.) o.n Q ) j.3.O.s ) J O.y.J D J k x x s ;   O 9 f 2 k q V Q q ) n 2 D Q f V [ x s I Q y.8.j.Q.D.O.<.o.<.[ I n I O.3.) T I I ) n V &.T T V I s.x f n r < $   ; q 9 x 2 f s k D f V f r s Q D Q 2 n D 8.C.s.c.H.8.Q V [ -.Q y.D x ] T x k T D n V ) [ V n Q ",
"[.sXhX/.H.tXI.Y.eX X/.eXs.tXI.Q.BXeXhX9X4XH.D.4Xc.f.M.;Xj.O.;X XI.f.y.'.I.s./.j.M.+XO.) )  X8.I D r O   O ; r I -.&.0.I.,XI.4X0./.4XQ +X9XY.j.4XhXD.M.+XhXxX+XsXxX<.D.+X*Xs.Q.I.M.<.8.Q s.,X/.<.D.,XC.D.-.8.*X-.O.D V x $   2 O.3.'. XI.D.+X,XY.Q.+X] n c.H.;XH./.C.'.H.sXtXxX'.Q.;XD.y.j./.Q.j.8.C.C.s.s.] I.H.D.[ f.Y.j.] V H.] ) y.j.) 2 ;   $ $ y.f.+XQ.y. X/.8.0.*XI.f.D.s.y.f.[.s.s.,XtX+XxXxX4XI.y.f./.Y.3.8.s.c.Y.c.3.&.s.Y.y.-.) <.Q n *X<.Q J c.[ x 2 O   2 J <.[ D.M.s.<.D.s.) s.[ -.O.8.j.I.3.] k tXI.tXtX[.C.] -.c.M.0.Q o.Q c.y.&.-.[ *X3.<.I ] [ s.3.) I I I I x 9 ; O < ; [ T o.Y.[ V o.f c.Q <.f.&.) -.H.<.y.o.*XC.[.+XsXf.8.y.0.<.y.f.I &.O.J <.<.8.Q.j.J n 3.8.<.O.T k k o.) k q ;     ; k T J o.I.] I J [ <.C.c.9 ] <.T <.n 8.[.f. X9XC.H.8.s.M.O.[ 0.3.8.O.Q -.y.Q I o.0.f.I <.O.Q I f V T T f s ;   O ; n s.s Q n I T Q [ O.D J x 3.) T [ n J c.D.;X*XH.s.y.-.f.c.) Q ] -.&.&.0.T 8.8.I T y.T V ) [ T ] x f k r $     ; 9 r f x k n J V s Q s r I q n 2 s.] n o.0.Y.Q.s.0.T M.&.Q s.<.) J J x ) O.0.3.<.k I I ] y.] x f I T D k 9 $ O 9 n 2 r x x k r ) 8.s V Q q T O.n s ) )  Xf.Y.[.Q.-.Q [ c.) 3.V J o.-.V J ) T &.n o.o.V ] ] Q O.n n x 9 2 ;   O 2 2 s q x D x x V k q s r T r k 9 V f -.C.j.H.Q.-.D J J I n 8.J n J D x V J Q n V Q [ T I Q ",
"/.,XxXsXy.hXhXM.4XH.eXeXI.I.eXc.hXBX X9XxXD.*X,Xy.M.'.Q.H. X0.O.c.3./.M.j.0.M.-.C.;X&.[ o.*X8.[ x s 9 $     9 o.'.*X8.f.eX;Xj.3. XH.&.j.,XC.*X,XeXtX*XeXtX/.[. X,X[.'.Q.,XQ.H.[.[./.f.-.&.M.tXs.-.M.'.f.I.[ C.+X0.D x D ;     J ] 8.I.H.0.D.4X Xc.4Xs.3.0.s.;XQ.<.j.4X X/.+X,X+XM.;XY.s.c.H.D.f.c.s.[.f.f.c.<.M.H.-.]  Xs.) s.[ M.I Q <.-.r ; O   ; ] y./.O.Q.[. X) +X8.'.4Xj.Q O.j.4XeXy.*X X,XhXsX*X X'.I.D.0.s.C.O.D.0.H.M.O.3.C.c.f.&.] Q ] Q.j.J Q 3.j.D <       f s.] f.s./.8.0.O.[ 3.] 8.[.D +Xf.C.3.r  XQ.hX,X/.Q.M.H.Q.s.Q ] I.[ I.) I y.O.s.I H.D j.o.o.y.f J ) <.y.x 9 ; O     n &.O.s.-.] M.0.I 3.3.&.D <.j.y.D Y.-.+X'.,X[.9X8.3./.-.<.s.f.I o.3.j.V 3.8.f.s.k V f.I o.-.T I [ I ] n f q     O x ) J s I.V f.J O.[ Y.c.q 0.0.Q 0.O.<.Y.D.4X4X*X<.o.C.o.y.-.-.&.8.<.[ [ 0.[ J [ O.-.O.Q T I O.x V [ J f s r   O O J f.; I x Q [ ) ] ) 8.V T ) V I &.x T f.I.hX/.C.y.-.3.] y.j.] O.[ [ O.8.Q ] 3.T I &.Q o.Q k k &.n n n s ;     ; < n r f x x [ o.s I V o.V n ) r [ n 3.c.H./.Q.M.&.O.c.] 8.&.T -.O.V V I ) T O.<.J T ] I 8.8.D r O.Q n s q $   O f s 9 n f 9 f f o.x f k q D T 9 n x n 9Xs.Q./.Y.-.[ 8.-.T &.-.D o.O.D Q [ J 3.f [ &.D J y.O.r J T V q q 9     < 2 ; r k Q x q I s r n ] &.I s n I 9 o.C.c.Q. X3.I o.Q D J D x x I D I Q J ] k s k T ) T D ",
"9XY.eX Xy.,X'.[.hXY.[.*Xy.[.4XI.xXFXlX4X;X,XD.*XM.M.M./.Q.)  X+X0.o.D.+XH.c.j.f.c. XT y.&.M.c.D V V 9     $ O D I.Q.] <.xX4Xc./.sXQ.0.+XeXY. XeXnXtXHXnXtXsX XI.j.I.9XM./.D.c./.f.M.C.;X-.C.I.y.s.M.T O.Q.s.y.+Xc.o.J q O ; $ $ Q C.y.'.'.0.c.9XD.Y.*XC.j.H.-. XH.y.Y./.hX9XeX;X X*Xc.c.y.f.c.[.] 3.Y.I.M.c.0.O.3.8.o./.) y.O.8.j.D O.O.k f r O O O J H.<.8./.;XM.y.H.f.8.+XeX+X0.) 4Xf.Q.[./.tX'.,X X<.I.I.;XT y.Q.3.H.f.s.f.3.[ D.c.s.] C. XT o.<.f <.Q -.f 2 O $   r J s.C.j.j.0.f.3.I./.0.H.0.<.3.'.0.-.T ,X+X XY.+X&.3.s.D.<.Q f.[ &.3.0.V s.C.-.Q [.s.n 0.V H.3.V Q Q 0.V r 9 $ $ $ V V k 3.<.-.0.k ) Q O.c.T D s.y.J o.s.[.'.;X,XtXH.3.8.[ y.0.y.o.] T ] &.O.s ,X] r ] j.&.x O.O.<.O.I J I n r     $ [ f.s T s.0.O.T -.O.-.f 8.&.0.o.-.V D.H.Q.;X/.[.-.0.Y.o.T C.<.&.] y.T y.<.O.T T Q -.3.Q &.I J ) n ) I s q q     9 k s.2 I [ n O.D O.) s.T k ) Q J n I 3.C.[.tX;XM.8.0.) O.&.0.] 3.k [ 3.] -.n O.&.[ I Q O.T <.2 I V J s s 2 O   O f 9 k k J J n [ n V J O.V D &.D f f I M.c.,X+X8.j.j.&.3.s.J O.T -.3.k I I ) c.x T Q I T o.0.Q ] ] T n n 9 O $   9 q k f x x r k n J V r k O.x r J k V H.I.Y. XY.&.&.y.o.Q Q -.] ) x o.Q J ) D O.T T Q x 3.T r J J n s q 2 $   $ 9 ; q f s x n r r r &.s ) ] n -.n q 0.c.D.+X,X8.I y.D k I T D D D T D r ] T s Q x V V J ) ",
" XBX+Xy.4X;XeXhXhX;XD.I.+X/.tX*X4XlXsXtX'.+X'.;Xy.*X[.[.I.) [ '.f.'.+XM.8.H.[.D.0.*X[ f.[.[ s.3.[ x 9 $ O O ; n ) Q.'.Y.Q.tX'.0.9XHX X X/.8.sX[.4XsXhXeXtXeXHX*X] 0.4XnXI.] j.*X+Xy.s. X'.j.D.3.4X[.C.y.D.y.-.y.M.O.I f 2 $ O s T H.c.H.4Xf.[.3.M.*XnX*XO.Y.y.tX/.Q.c.tX+X4X,XQ.sX+X XM.o.c.Q.[.-.-.D.[ s.M.8.c.0.f.Q.3.o.D.3.[ [ I 0.D.[ n 2       [ '.V [.0.[.j.T ,X'.C.M.I./.8.y.sXc.<.;XeX9X XhX/.Q.8./.M.[ 0.Y.s.H.&.f.8.y.f.<.8.D ) +Xj.C.O.[ r 8.o.c.T 9 $   q s 0.O.Y. XD.] j.c.I.Q.Q 3.C.D.<.Q.f.o.f.9X[.,X'.9XC.0.y.o.Y.J s.;X8.D C.x j.3.8.r o.c.] 0.-.8.J J O.D D V q $     r 3.&.V x s.D.0.y.O.] &.j.I.[ f Q f k [.+X[.,X[. XH.f.s.) 8.O.f.M.[ 0.I <.3.x M.s.) D M.Q.n n n <.&.V D o.n q     $ J ] s ] 3.0.O.] -.f.J T &.-.0.[ T O.[ '.Q.4X/.H.3.[ [ 0.O.8.) [ O.8.8.-.3.O.T ] &.) T J 8.&.J n s -.J s r 9     ; x J k s ] Q ] T k 3.0.I V Q ] J V D O.c.Q.nX9XD.[ j.Q ) O.f.T [ s 0.o.Q Q 8.T -.o.O.[ J Q O.I D x x s k q O   O f r V 2 ] V -.Q V k I ] D n O.V r k J j.I.,X;XQ.y.o.-.-.Q.n o.J f.) ) &.T n 0.) J <.-.T k <.O.[ s n k k 9     O 9 n x V k f f I V J D < k n J V O.T n D.C.Y.+X/.y.-.o.) I D <.3.J Q &.[ T ) n Q J [ ) ] ] ] x n D f k s <     $ < q s r f k s x J r f V D o.; O.J f <.M.Q.4X4X&.I 0.I J ] -.V I I J Q D J k k o.] I x f V ",
"hXtX;X0.;X X[.*XeXeXI.f.4XM.j.C.,XlXtXlXY.;X*X[.s.D.'.H.c.f.o.8.I.*XQ.0.s.I.'.Q.<.Y.O.O.H.o.f.8.&.r < <     $ s ) H.*X;XM.9X[.f.H.y.*Xc.*XeX XhXtXhXlX,XtX*XnX*Xy.+XQ.;X'.8.f.0.9Xy.) 4X9XD.s.<.'.D.Q.f.C.H.s.0.O.o.) k <     k I 8.] ,X9X'.hX/.[ C.*X9XQ.'.] ,X,X0.y.Y.Y.sXsXI.C.+XQ.f.I.f.Y.y.3.[.H.3.T +Xc.c.] C.Q.-.[ I.O.T [ O.<.c.I f 9 < O   n [ j.s.4XD.M.I +XD.Q.[.<.<.j.'.Y.9XD j.eXsXsX9X4XI.D./.I.y.0.) -./.Q M.j.j. Xs.) V D C.C.-.I k x D.o.j.T s O   O k 8.[ &.s.c.Q f.f.Y.M.-.&.0.&.j./.I.C.c.9X[.sX[.*XH.<.M.0.'.o.[ D.&.&./.[ M.V s.T f f.c.<.-.c.) J f.D ) D q <     < -.o.V [ Q 8.j.j.[ f.o.&.s.&.k y.y.< Q.,XI. X4X*Xs.j.c.] O.[ 8./.O.y.V -.[ o.0.8.[ I j.I.k s Q O.&.s Q <.f <     ; k r ) T &.M.Q.T D c.3.9 O.D.] [ Y.o.) /.I.,X;XI.&.Q T C.3.8.] ) o.s.<.<.-.V 3.3.) ] ) o.] y.O.r V Q D r r < O     V V f V O.&.[ V I 3.[ r Q s O.n T n o.H.Q.nX9X'.8.s.o.D O.y.T n Q [ 8.) J -.V Q I -.] D T ] O.V D f s k 9       q D k r q D o.Q J n I I Q I ) D x D &.f.H.+X;X,Xc.o.3.] I.I ] T y.T V o.<.T I ) [ Q &.] Q J [ o.V x D n r O   $ < $ s I [ r J T ] I n J k T f V V ] k C.c./.;X'.f.&.o.] D T &.-.J ] ] [ T ) x D T [ D -.x ] I x D s x f ;     $ $ q s 2 f f 9 T -.D   x s [ 2 ) D D o.M.[.eX4Xo.[ O.D f n &.x ] o.x D Q T k k J T o.Q I Q ",
"sX+X[.Q.hX,XY.9XhXsXhX[.9X4Xj./.sXnXtXeXY.9XQ.H.Q.c.[.j.M.[.Q.o.o.Y.9X/.D.f.8.'.Y.f.3.&.) Y.I.3.[ r < ;       s s.Y.+XeX'.*XQ.*X4Xy.hX,X0.y.I.,XhX*XlXeXsX9X;XeXM.sX'./.D.[ C.,X,XM.I  X XD.j.f.8./.D.0.'.[.-.8.J 8.0.V <     x [ 0.o.D.Q Q.;X[.4Xj.M.,X4X,X'.;X*XsX<.3.xX;XsX*X/.I. Xo.Y.M.j.Q.3. XY.3.] y.'.-.T I.c.c.c.s.<.<.D &.o.c.Q f ; O   O n J 0.<./.tX) o.'.Y.I.,Xs.;XQ H.[.9X&.M.sX,XhX9XeXQ.j.[.I.Q.Y.M.o.o.T y.3.M.I /.f.o.V ] c.c.c.r 0.<.) I n 9 ; O   V 0.c.<.j.8.I.) M.<.c.0.<.O.x -.M.c.I.y.tX+XsX;XQ.f.] D.+X[.O.Q -.q H.;X0.J k j.C.V k &.8.y.D f.Q J f 8.$ V q O   O o.] I ) &.I [ y.] <.8.0.) j.s.<.c.2 H.[.D./.hX4X&.c.3.-.-.8.&.Y.3.Q ) <.&.y.3.0.o.O.f.s.s x y.T -.f ) <.q $ O   < s 2 J o.] 3.C.<.s Q O.) ) I f.I 3.0.<.j.H.+X,XY.I 0.-.c.s.0.[ o.[ s.[ <.&.x 0.s.V ] &.n [ o.&.-.V [ V r r $ O     D x n ] [ I T J Q M.) I [ x T n T ) -.D.'.tX4X XD.f.T I D.J ) [ O.n c.8.] 3.k T [ y.I V k o.3.V f n f s ;   O   $ k D I k q I x &.T V V ) o.J J J x j.c.j.+X+XQ.C.8.3.] -.o.I <.-.k r <.) ) ) <.J ] -.) Q 3.Q x k x I x r $   ; ; $ s ) ] D D k J n ; ) V &.f D f Q s D.j.'.,X/.8.[ 0.O.D 3.[ I [ Q J Q I Q x n ] &.n &.x J J V x x x r $     $ $ 9 k q x s 2 ] &.Q q x q J D n J I [ D.[.,X4X&.8.-.[ f k ) x J D V s J Q T V r n V V J T ",
"eXD./.nX,XY.nX/.,X,X4X,XC.sXY.j.eXBXlX+XQ.eXC.Q./.'.[.c.y.f.Y.j.s.Q.;Xy.M.+X0.s.+Xf.f.c.D I.c.&.T n 9   $     n <.c.*XeX XQ.Q.+X+XQ.eX*XI.;XM.I.hX9XtXlXtXhX[.,XtXf.j.;X9X8.C.Q.9X'.8.8.C.M.'.D.s.y.M.*Xs.Q.I.I [ y.8.x < O   f -.J I.;X8.'.M.,X'.+X<.M.,X XI.C.Q.H.Q.I. XtXeXsX,X[.c.c.j.O.H.I.c.H.y.3.c.O.c.f.<.j.s.8.;XO.3.s.I -.) y.Q x $     q r x 0.Y.8.,XQ ) j.*XD.D.C.lXj.y.4Xf.[.C.;X,XeXeXxXY.<.D.j.D.f.H./.c.O.-.f.] J Q ;XD.k y.j.y.C.D 8.f.k M.q ;       < [ &.o.f.I.4Xs.<.'.s.C.3.) ) ) Q.0.&.&.;X X;XlX XM.) 3./.H.H.o.s.J c.s.M.x V 8.Y.c.J s <.I.x &.f I I 9 s T <     q 8.O.[ q s.f.o.[ I y.<.f.I O.'.] y.J -.c.Q.'.4X X&./.Q O.M.j.3.H.8.V 8.o.s.o.I j.[ ] -.C.n D <.J &.T x O.< $ $   2 s f 8.8.T I.H.M.k j.<.[ 3.o.<.f 8.8.-.s.I.+X+Xj.T I.&.O.M.&.D 3.O.y.o.O.<.) Q 8.T ) Q Q ] [ [ ) J D V f q O       n < &.[ ) n I j.k y.k -.I o.s T Q O.O.<.'.4XtXQ.c.&.y.[ -.<.-.V 3.k Q o.k f.; I O.] I o.D D Q s D V k k ;   O O 9 2 n C.V I 9 n -.T n V x [ V Q n r O.j.M. X,XM.8.0.0.<.Q O.D j.o.] 2 -.k o.o.-.k I &.] k /.J r n k n 9 2 $   < < s q k 9 <.D n V [ q n I D x x I D f C.j.Q.,XQ.-.&.3.o.Q j.[ V [ ) D T J Q n x Q 0.I ] ) x V T k D f 2 $     O 2 9 n k D s 9 Q I f I ] r x Q r J J [ H./. X4X8.f.o.-.V T o.O.I s o.f k V ] [ k V J T Q ) ",
"[.[.4XY.*XH.[.Y.'.9X'.lXY.nXhX[ '.xXBX*X[.,XY.4XY.H.M.*Xo.o.Y.[.M.Q.4Xs.s./.8.3.0.Q.H.M.o.&.&.I J D 9   O   O Q -.O.C.9X XI.,X Xf.,XI.tXsX4XH.y.,XFX;XtX,XeX*XQ.hX[.'.f.H.0.M.H. X,XC.j.0.'./.M.O.C.3.I.Q.Y.s.-.j.<.T q ;     9 o.0.xX X&.lXs.y.[. X0.*Xs.H.4X4X8.f.H./.lX+XlX*X+XD.0.C.D.Q.) 3.D.H.y.y.[.Q.Q j.M.j.8.) /.f.[ -.0.3.T ] n k < $   n 8.k 3.j.y.eXI.Q &.'.Y.c.Q.y.'.D.8.s.sXC.+X*XsXeXhXD.f.Y.j.3.3./.Q.3.0.J 8.*X0.I j.f.s.'.I [ <.] O.M.9  Xq 2 2   $ T <.j.] 0.C./.0.3.,XQ.0.y.Y.o.V D.Q.'.Q c.'.Q.hX,XQ.8.&.y.M.s.[ [.T [ Y.&.<.s 8.Y.C.M.V ] '.&.< J ) -.I x x     O q -.T Q x O. Xf.o.D I.<.] O.V D.O.-.O.f j.M.Y.+X X<. X<.J H.3.s.j.-.I -.O.8.Q ] &.D O.Q j.I ] Q o.) O.q [ < $ $   q f J T -.y.O.s.j.] [ -.&.<.3.3.[ 8.s.[ M.c.'.;XM.s.c.-.n c.8.I <.o.Y.] 3.-.Q I 3.] <.) x y.I J <.9 k D n q O     < s s Q ) Q [ &.y.V Q x Q Q ] x V Q D I o.[.+XtXQ.M.3.y.3.T f.8.Q T O.&.] n y.[ &.O.r I o.] q I r o.n x n 2     < D s J ] ) s ) s ) D J Q 9 J ) [ x n s -.H.I.eX X<.c.j.3.o.) ] f.V c.f [ r O.o.[ k n T I ] &.] Q V J x 2 < $   ; q q n < x [ Q x V f.x D n n r x o.V k y.c.H.*X'.8.M.o.] -.3.] I n Q I I J ] D I T &.) J O.f D ] V D s < ; O   $ 9 q k x V s f ) V < I o.9 T I x f n ] M.Y./.;Xf.j.Q [ V ) ] s.] D <.T n k ] -.V f T D x x ",
" Xj.xX/.C.;X9X4Xj.*XH.'.;XhXPXO.H.hXxX9X*XQ.;X,X'.c.f.eXf.j.+X*XM.s.C./.[.'.0.D O./.C.j.C.<.[ ] Q f <     O s 3.C.s.3.,X*XI.4XsXlX&.] '.'.sXeXM.I.sX+X4X4XsX9X Xs.,X4XM.,X;XC.O.j.[.H.*X&.+Xj.D.c.c.y.c.Q.j.<.8.H.&.J r ; O   r s.M.*X/.j.xX;XhX8.I.M.hX X[.D. XeX&.9X[.sXeXsXI./.*X<.<.,X/.8.&.D.s.I.<.[.I.[ ] C.'.s.O.D./.&.] 3.o.[ ] V k ;   9 s s.Q Q *Xo.'.;X3.O./.+XH.'.D.Q I.3.f.4XhXhXH.hXsX+X'.y.*Xc.0.c.3.Y.H.y.[ y.H.3.Q ] Y.I.s.&.3.D.) -.x ) D x ;     ; &.8.[.O.<.&.0.y.[ [.j.3.3.C.&.0.s.y.M.D eX/.Y.,X;X'.I.M.8.&.M.&.8.f.Q D.s.O.q 8.C.<.j.) ] o.H.O f &.o.Q V 9   $ O < o.D J T O.c.-.s.[ y.y.T j.j.3.I n ) ) y.) D.[.,Xf.I.D.Q y.O.s.<.3.[ T c.3.o.c.T I s.Q [ -.) J <.I ] f ] 2 O O   k f ] o.J f.o.H.8.O.T &.Q o.[ O.-.8.8.] f.y.H.;X XI.8.y.V s.f.<.o.I /.] s.O.J O.3.[ <.V D I J ) -.Q x n V < $   O x r ) f V D 0.o.V 3.Q &.I O.] T r n x I &.H.Y.4X+XI.3.f.&.n s.c.) ) o.<.] I V 0.] J J J n V n O.n D V f f <     < J ) n I f D Q J x D Q ] k x -.] J I r T I.c.+XtXc.M.y.3.<.D [ 0.x O.-.&.; V j.s.q [ I x O.n &.[ < [ k 9 ; O   O k r [ s [ f V n s <.r J s J k Q y.k f [ C.M./.[.M.M.-.[ -.) ) Q V J ) J D [ T [ J J [ J ) f I I V k s 9 ;     ; 9 n r f x s n ] T q x Q k ) n ) s k I <.C.I.+XD.D.O.Q ) ) D o.V D [ Q D n ) [ x s J n k s ",
"'.C. X4Xj.*XlXhXQ.9X X-. X XtXy.H.tX9XtX;Xj.eXH.Y./.c.D. XI.c.H.H.M.y.D.s.y.Q.0.j.-.] c.[.c.J y.o.9 $ $   ; T M.s.4X0.Y.H.0.M.9XeXBXI M.,X3.,X[.+X4XlXeXhXsX/. XsX/.c. X4X+XQ.f.3.j.Q. Xo.M.f.*X X0.M.y.Y.y.3.f.8.] I 9     $ q &.C.9XH.4XQ.4XY.H.D././.Y.;XC.&.eXY./.Q.,XhX X9XH.D.*X[  Xj.C.) '.8.s.'.<.f.0.O.3.+Xc.[ Q.f.f.n -.T o.T x f $     I [ Y.[ 3.&.O.nXD.k I.4XC.&.4Xy.<.,X] Q.sX+X,X9X;XlXc.c.3.H.M.C.3.H.y.s. XC.<.3.f.Q D.;X0.o.c.s.f q T I.n q     O Q D O.s.<.] &.,Xc.I.0.j.s.3.&.O.] 3.D.s.I H.Q.[.*X,X[. X X0.-.M.I.<. XV 3.[.o.] x O.'.'.Q Q Q ) 3.D I I k V r   O O k C.-.] I V 3.8.T 0.c.Q Q ) ;XO.o.&.) y.I q Y.H.;XQ.c.c.f.o.0.y.o.C.-.D I.8.I 0.) O.&.I ) D.k n &.) V n ) <     O V k O.O.I ] [ O.Y.<.I j.D M.O.I T M.-.) O.j.c.'.*Xc.y.y.&.s.<.3.o.x 0.8.3.3.] o.O.<.n ) Q Q D J ) D f f n $ $   ; Q s -.-.f V M.I T Y.k I V k y.D V k o.[ &.3.M.,X,XM.f.o.[ &.n M.j.[ ) T 3.[ V ) I ) Q [ -.V V x x n T r < O     ; x ) I <.T T V Q D I T Q Q x <.J [ k n D I.C.D.;XH.<.O.s.8.f n y.[ V 8.T k n M.c.n s ) o.k <.f D Q ] q < O     O D s x k r f s c.n O.D V n q J D s.r q J I.M.I.[.Y.-.0.o.] I ] Q -.J o.J D [ T o.x V 8.o.D x I f k 9 s s ;     ; 2 o.s s k r x T ) f k Q ] V < -.I k n T s.D.[.Q./.) x &.O.T ) x T I D k D ) D n ) f x n x ",
"+XY./.sX[.j. X*X[.'.eXH.4XQ.*X[.-.+XsX;X*XI.[.D.[.*Xc.D.*X[.8.M./.c.0.D.o.I.;X[.3.] j.s.'.3.) &.J r $     9 -./.f.j./.eXlXD.] C.0.[./.c.HX+Xo./.tX+Xf.sX9X,X X*XeXeXM.&.+X4XY.[ o.M.*X;Xj.c.[.j.M.s.y./.I.) +X8.<.] n 2 O     J s.+XM.j.,X*X/.Y.*X/.4XeX0.f.C.<.;X*Xf.Y.-.tX,X,XQ.f.I.j.Y.I.D.o.+X X8.O.-.D.<.C.) ,Xc.J /.3.] &.3.o.D T V $ O   ; s.-.c.s.M.Q.I Y.*XO.) y./.0.;Xo.[ 4Xj.n 0./.4X'.tXeX'.<.f.<.,XI.-.[.<.o.8.8.C.s.Q.8.o.I.<.r s.[ ] ) x Q q q   O   r s.0.I j.8.y.C.H.M.C.c.s.f.y.Q.T V  XQ.J y.&.f. X,X,X'.+Xc.f.s.Q y./.8.D I.8.n 8.&.&.Y.&.J 0.] <.I n J q x   <   $ n I.0.[ I T ) H.o.V H.o.-.s M.s.) ) 0.] I D 0.H.+X*Xf.O.Q.x -.j.j.s.3.Q &.0.V O.y.f.k 8.O.3.Q I O.T J ] r     O 2 [ q O.[ O.-.Q C.y.<.T 8.8.c.<.I y.x J ] ) f.M.I.Q.Q.D.0.x 3.y.j.y.Q J ) O.0.-.n f.Q C.x x ] n I Q D k x r   ;   O 0.n Q -.n O.V J s f.] J q D n o.x J V Q y.-.C.c./.H.I.<.) y.T O.O.<.J T c.J ) Q 8.k V [ O.k V x f I ) r     $ < < x f Q V J [ Q I x x [ 2 I D V V &.k k &.M.f.c./.Q.D.[ j.s.V o.Q Q -.n J T k [ Y.f T D D Q -.x x n f q 2     ; 9 k T D n k f I I [ f k 9 n r T x D n q r D.y.M. XY.-.<.-.o.O.] ) Q ) [ I x o.O.J T V T -.J D ) s s r V 9   $ $ O s 0.] 9 k ] n x ] V < I 3.D 9 n o.k k n C.j.Q.Q.H.O.x 3.[ x V r ] T s n y.T r V &.r k n x ",
"'.'.3.sXBXs.0.;XeXlX*X4X4X4Xc.sX'.,XtXhXhX X[.[./.[.C.C.D.*XY.) I.D.D.c.j.I.Y.Q.s.3.y.f.C.[ ] ] D <   O O 9 o.I.f.o.,XeX9X9XH.H.c.Q.hXC.'.lXj.f.C.sXj.sXtXeXtXY.9X*X,XH.Q.4XQ.y.c.s.;XD.s.D./.I.0.) Q.Q.Q.0.<.0.8.] x     ; r I &./.'.+X[.s.'.D.H.*XlX X+Xj. Xj.[.9XH.y.j.*X4X,X;X[.c.3./.3.0. X8.9Xy.T 8.j.s./.Q C.0.-.o.c.-.[ f.O.V V r   O   k f.c.H.I.[.s.0.c.3.H.Q.<.y.H.f.<.'.O.Q.Q j.C.;XI.*XeX[.s.C.[ I.I.-.Q.I.0.J o./.M.y.[ o.C.o.) f D 3.'.O.D O     O ; ] H.c.D c.0.3.3.3.M.o.y.<.&.j.y.[ J f.sX<.J c.y.c.*X,XH.'.I.C.M.&.O.Q.0.J [ *X&.[ O.0.3.Q D &.T 3.I J I k O 9     T f V ] c.j.Q [ n n &.&.C.I f ] -.V 0.T H.T O.-.y.H./.&.j.[.D.s [ D.Q.) o.f.O.o.o.[ 0.-.-.O.8.T I ] T n x ;     O r s.s k D c.c.x T ] <.y.[ ) [ -.Q D.Q I T Q 8.o.s.I. XQ.I <.0.y.c.[ J o.] &.M.-.x 8.Q s.J r k x T V V I s 2     < q J V T &.x 3.Q o.r O.] D x 9 [ T k n I T O.o.f.c.[. XH.T <.) &.-.M.s O.] T D -.I ] V x T o.V T x q x V q <     ; 9 V k ] V I V J J I V D x x D q I s s n [ &.s.3.j.I.M.<.c.-.n -.o.-.T J I D s Q j.n I D n D ] k x k f < ;     $ 9 J k T o.9 n 8.T q k J Q s f D f n ] J q f.y.3.j.Y.j.j.3.o.T Q T I ] O.I D -.J T D V I O.J n D q f s s O   O $ < n [ o.x f J x f x ) k D T r 2 V D f f k 0.0.y.s.C.C.I [ ] I ] n V x k [ &.V s T -.r f k f ",
"Q.[.Y.+XhXC.3.eXsX4XeX,XQ.C.I.lX'.+X9XsX4X XQ.4XY.Y.c.D.j. X X&.I.0.D.c.D.H.*XD.y.f.s.M.3.T O.) s O   O ; x 0.'.Y.<.[.tX'./.9Xf.Q s.*X,X XlX,Xf.8.Y.[ ,XeX XtXhX*Xc.eX+XC.,XD.y.Q.c./.I.0.c.I.[.D.y.s.0.I.c.y.3.8.k ; O   2 I j.H.D.I.+X[.y.D.;X<.M.M.xX9XH.C.j.Q.PX,X/.-.;XeX+X;XeXY.j.[.) <.*X0.,Xs.] s.D.'.3.T ) y.c.-.s.-.I M.o.n f $   $   D J H.M.s. X*X&.D.D.<.Y./.-.4X<.Q [ H.-.Q.[.<. XC.D.[.+X X'.] 0.Q.-.f./.0.0.D.8.f.O.Q Y.M.x &.T J &.Y.J r <   $   D -.I. X8.y.&.8.M.Y.H.V 8.0.V o.O.-.n 3.) [.n M.<.I.Y.*X[.I.D.M.8.&.) Y.8.] D H.M.f.3.O.J <.Q 0.D Q J T r s O     n f.V J o.o.O.s.0.I n T o.3.8.f D o.x r -.-.) ) D.j.H.C.Q.;X0.+X&.3.I f.f.D C.Q O.o.k &.&.] y.3.n ) ] ] f <     O r f <.I j.J O.C.f.J x ] &.J x n T V 0.O.I I T <.T y.s.c.s.<.Y.-.-.0.[ [ y.-.[ C.-.I &.) &.[ V f n T x D D ;   O   r Q n n I I V D &.T x V O.] Q q <.J f J J D J Q [ O.f.Y.C.) <.f.3.[ &.D o.C.T D o.) ) J k I o.J Q n q f k ; O   ; x D D V o.D Q x J x x J k T D T V 0.f f T o.f j.-.y.j.D.c.f.) J f.&.3.k Q D V k ) 3.n ] Q V V T k k s s O   O $ < s ] x J I n D c.k n x < ) o.f 9 k x Q Q 2 ] -.O.-.D./.c.o.o.T 8.O.D ) O.[ J o.D Q x n I o.J x x 9 k r ;   O < 2 q x k T x f V k s r n x f x q f ] n s s 9 ) s.<.<.c.M.Q ] ] x n n f f J f.T r f T Q q s f f ",
"D.Q.D.I./.8.4X+XtXH.,XhXeX[ Q.xX XY.'.tX4X*XY.hXY.'.I.M.f.'.'.[.M.j.<.<./.D.+XH.O.f.D.D.T T &.Q < $     2 [ H.'.nX3.s.[.'.9X+XD.s.3.&.y.c.9X,XY.H.Q./.tXsX X;X X9Xc.*X4X/.sXH.s.Y.D.Y. XI.[ Q.[.M.f.+X8.3.I.-.0.[ ;   $ O s 3.*XC.H.f.+XhX Xf.4XtX-.y.*X4X0.Y.C.s.;X[.D Y.O.Q.[.[.4X9X[.D.] c.8.M.'.y.8.C. X/.J 3.J 3./.D.] o.] s.Q k 9     9 q O.n T M.I.C.I.C.s.*XO.f.,Xo.I.s.Q C.&.) f.&./.I.<.M.[.4X4XY.3.M.I.J O.tX&.c.Y.3.I c.y./.) Q s.<.0.-.O.$ $ ;     2 8.] o.I.D.D.'.&.[ I.*Xf.O.c.I.] V V &.s.o.j.f O.[ eX3.D.,XH.C.Y.<.<.8./.0.8.3.D H.H.o.-.n &.O.8.[ n x V   $ O   2 J f.J T [ J <.I.f.s.V 9 c.M.o.J ) I D.s ] I s n y.H.] s.c. Xf.H.&.<.8.[ 3.I H.o.[ f.n 3.D o.M.-.s ] ) Q 9   O   < n Q ) s T f.) o.C.&.o.3.f.T T &.-.J Q <.) V k O.Q C.3.y.j.Q.j.f.8.-.s.) s.y.J 0.O.O.&.] ) Q [ J J I V D 9 O   2 q 9 O.&.J ) T T s o.J T T r ] -.[ J n D M.] D k ] [ O.O.0.f.D.&.8.<.C.Q V Q I.] I T <.[ T k I O.V D x r s q       q ) ) D ] -.Q J V ) D q k s f J f T -.n 9 [ f s I M.<.0.f.H.f.T Q 0.) -.D Q n Q J o.-.x Q Q n n J x k q 9     $ 2 s x ] Q s I 9 -.D x O.f x x <.J ; 2 ) f D < k I [ O.8.c.3.T o.T f.&.f T &.<.T I ] Q n x T [ V k x r f 2     < 9 f V n f n s k D f r q q k 9 s s D 0.) f f ; k j.<.O.3.0.[ &.&.k r J V n ) f.V q T I n q f n x ",
"BXM./. XI.I.Y./.H.tXY.sXxXD.C.Y.;Xs.0.*XsX9XI.9X'.[.+Xj.3. X/.+XM.3.&.Y.y.8.9X<.] s. XD.k T T n ;     < I c.I.f.[.hXs.hX*Xf.*X;XD.-.+Xc.o.+XC.+X*X8.M.9XeX<.'.,XeX[.'.;X[.*XI.H.Q.j.'.'.eXQ /./.Y.s.j.8.3.Y.8.D k < ;   $ o.H. X-.+X&.*X4X[.Y.+X+XO.8.4X X XC.D.4X'.3.[.0.0.y. X/. X9X'.s.8.+X[ 3.H.s.s.C. X3.8.Q.O.) +Xy.V 8.y.[ x 9 O   2 D ] &.T D 0.) f.0.-.O.] 3.<.M.M.&.j.8.<.j.-.O.3.M.c.<.Q.H.I.;X'.'.D.y.[ ]  XQ /.c.&.&.8.8.c.D &.y.O.<.O.D ; $   O ; I f.M.8.c.&.D.;X<.f./.[.M.8.c.'.3.O.V D.f.o.[.k V T *X] s.D.I.Q.;Xf.<.c.C.8.<.0.Q s.[ V I.Q f &.Q j.J q q ;     r q D Y.s.) D <.<.Q <.f.O.D [ D.f.Q &.D s.y.J <.n I s.] 3.O.<.c.I.M.0.O.j.O.8.] y.) ] H.I 0.D ) 8.-.x I f k $     ; x J s.0.O.Q &.3.n D <.M.3.f.V o.y.H.T I ) J n f Q k <.) -.0.c.+XQ C.8.f f.j.-.D <.] o.<.O.T f ) T T D x k   O   < x f V &.o.] <.Q ] J [ T O.I n x ] D o.J Q ] x < T o.3.) ) <.j.y.O.y.0.[ T [ [ n o.) <.D I k T &.k s s q <     ; 2 f Q T I o.o.[ f D [ o.x k x q J q x f f J ) k q 9 Q ) [ [ f.s.[ ) O.V -.[ I n &.J Q -.I x D f x V x r < O   $ < r V n J T T x f [ n k T T I V 8.r ; O.D n x q f s J ] ] o.-.-.f.] y.o.k I 0.] -.I ] ) J s T ) x f V s 2 $   $ ; < n ) D J I f k V n k < x V 9 q 2 f 8.<.k n 2 < &.] Q ) -.) ) o.D n Q x s x I r q O.V r q k V x ",
"hXeXQ.FX*XQ.Y.Q.M.HX/.4X+XY.D.s.j.s.y.C. XeX+X+X,Xy.D.Y.f.+X'.H.<.C.-./.M.-.D.&.-.f.+XM.f D s 2 ;   O Q D.+XY.8.s.[.-.Q.hXsX+X X;XM.FX9XQ [ 0. XhXhX+XI.M.Q tXI.[.,X[. XH.y.D.*X/.j.D.'.[.M.D./.s.C.o.Q.8.J -.V 9     ; I M.'. X/.8.j.[.D.4X8.,X,XC.-.D.y.I.] Q.c.Q.H.[.c.&.I C.Y.I.'.I.Q.I.,Xy.y.3.j.s.&.Y.&.C./.O.&.'.O.r I.-.x 9 O   2 I -.c.;XD H.[.j.0.c.M.j.o.&.Q T 8.Q y.+Xo.D.) y.I M.0.8.*XI.<.I.'.,Xc.<./.-.s.) ;X8.O.Q.n O.s.o.O.0.[ I V 2 $ O   q J 3.Q *X+X XI H.c.y.o.I H.c.&.] +X<.J 4XC.J 3.'.) x I y.y.I.&.M./.*XD.3.j.3.0.O.O.D.[ T ] M.-.) ] T f.k 2 $ ;   9 f D Q f.M.C.] 3.0.o.[ x I [ J H.H.] ) D J <.O.<.) J J T V s.<.<.-.C./.3.O.8.0.) o.D [ c.T 8.O.D D <.T k   ; O   9 k D T 8.T J n Q -.I D Q -.J n f ) Q M.f Q n D x D o.r J J ] Q 3.c.<.y.f.) T I.T ) 8.Q J 3.&.T f J I ] V q O     < q [ 0.q n O.I O.] [ V J k J V s T ) k f f s x s 2 n V T J Q [ T y.s.8.Q -.&.o.I I &.I T s x n T O.f q q 2       2 k ) O.Q [ V V o.k J Q [ x k x k D D s q n I k r V s J <.I.) &.o.o.&.3.T o.O.I D &.D k O.o.n I k V n f 2 $     9 q f D x x T V T f C.k T s x Q x T O.; Q J ) s r n 9 r I ) T o.<.j.<.y.o.n J f.r 8.I n T J q D D r s k 9 O   ; s r 9 n J f T ] V s x T I 2 n n r s 9 q ) ] s n r ; n x T ) T J J Q I J I k J D n n D 0.Q V 2 s k f ",
"j.D. X,X'.*XI.*X+X4X[.9X*Xf.C.+X<.Y./.C.Q.;XtX;X,X<.O.[.[.+XQ.s.c.M.0.Y.c.0.c.O.s.0.j.0.n s 9 O O   k y.[.,X XD.Q.lXH./.9X/.Q.o.D.I.;XBXQ.J o.Q y.[.C.C.M.T +X XH.+X;X*XI.8.Q.9XD.I.s.I.f./.D.D.y.3.[ /.M.o.9 ; <   ; I j./.'.9X/./.3.eX9XD.M.f.[ 0.r /.Q 9X] [.I T ;X'.y.o.f.f.M.8.M.H.*X[.*Xc.H.-.H.y.J C.s.M.8.[ y.C.&.q 0.n 2 ; O O J 8.0.H.f.3.;Xf.+XD.c.3.f.H.&.D 9 ; s ] y.&.0.-.D.] I D o.[.eXs.c.y.D.H.f. X8.H.<.<.&.C.f.] s.o.[ <.0.D D q O   $ < s ] c.n s.D.+X<.Q.y.o.[ f I V V 9 D s D 3.D.x <.H.n T Q o.C.H.0.[ s.D.C.s.C.8.s.<.3.j.[ <.0.o.O.0.Q ) T $ ; O O O n I ] Q V I D.[ &.s J n 9 r s 2 q r Q q q O.n T [ y.J <.) Q c.Y.&.] 0.&.O.M.0.I [ &.<.Q y.[ 8.&.] q ] V 9 O   $ 9 J J x 3.M.O.T Q f.) Q ] s k D s V D f ] q T x I s J <.J I [ &.) J [ &.s.I.&.I &.Q &.&.[ V 3.Q Q J n n I r ;   < $ 9 D 3.I.f V O.J J T n V q r q f $ s s x k k f r x n n s n T O.T I ) o.Q 8.3.x ) -.&.Q V V D s V n T r 9 < ;   2 2 9 x O.O.Q s.T k Q V D n x r q < s s x 9 r x &.-.9 y.; [ f 8.] Q J Q [ 8.[ ) Q Q J ] Q s Q O.I Q k V f 2 O O O $ f x x x f D Q V x ) <.J x n f < f I ] < V s Q r f n q 9 x T n D D ) [ &.I s D 3.s ) n J k V s x s q r 2 $     9 n n s k V n J Q V f f J T q r q r s s s k x q r r q q q I I D I Q T Q T J J n x s r k V k f q r q 9 ",
"D.f.[.Q.[.C.'.H.3.eX[.f./.*Xy.Q.I.Q.Y./.+XC.[.*X/.Y.] H.9X*XI.O.+X[.8.<.I.C.&.3.s.o.J [ D ; 2     f O.f.M./.*X+XtX X,X/.eXeXeXf.k I.4X X[.y.D.+X) /.D.0.8.3.Q.hXj.c. X*X'.M.'. Xs.'.M.3.c.8.+X0.8.Y.J M.8.r ; <   9 J -.I.+X[.9X'.9X;Xj.'.+X8.s.o.<.I I r j.y.J 3.D f.Q.o.<.&.C.j.T y.c.Y.Q. Xy.M.M.[.O.Q c.f.Y.T 8.-.M.) n q r O ; ; 9 <.D.0.c.O.<.y.+XH.Y.C.x f r f f s k r 2 9 n I q 0.s.D s.y.s.+XM. XM.-.0.Q.Y.&.M.<.O.I.-.-.s.3.) O.[ k k 9   $ ; k ] T s.C.3.O.y./.c.&.V V f s k n f s k q r $ r x 9 M.3.3.[ O.<.o.Q.s ) [ <.y.C.<.O.o.y.V y.<.-.&.D V ) k 2 $ O O 9 s q 8.Q -.8.Q [ q -.<.r f V s s s s q 9 < 2 $ ; x ) O.-.0.Q J 8.[ D o.n ) o.[ O.c.D <.I.r -.o.-.f 3.q f $ $ s O O f ) j.[ &.n k I 8.O.n f x f k n f f 2 r 9 r r q s k n o.J k x J n [ I T [ [ V 3.O.<.&.I -.I <.x ) D f s s O ;   f x 2 ) o.s.V 3.3.o.Q x V k n f f x s q ; 2 2 ; k q s r q k Q o.[ J V n I Q J n D ) 8.T k ) I o.f V 2 r ; < O O   f n x x T x n H.H.T V x s s 9 r f < 9 q ; < 9 r x x r f T Q V D J T Q T s I ) ) V ) D J -.n J Q x V 2 s < O   O 2 2 V I V f f Q ] D J k k k s V s k f 2 r k 9 q n k V k r 9 r x V J J D I J V x V [ [ r q 8.q D k f 9 r r     O ; q f s 9 f ] 0.I I V n f r k r s 9 9 2 q f r r r < 2 k 9 < k r x V D x I T f x V J D s n q V D x f 2 $ ",
"-.f.[ o./.Y.H.9X[.8.f.C./.D.j.D.j. X;X;Xo.C.M.H.*X;Xf.0./.j.O.M.Q.[.s.3.y.y.f.s.8.3.I s O ;   $ s 8.C.c.M.s.H.8.Y. XH.M.y.M.H./.f ) <.s.x s.D.nXj.[ &.0.y.I C.hXj.;X3.C.Q.M.*Xj.<.Y.'.H.f.0.M.s.y.8.o.T k 2 2 O q x O.C.Q.[.Y.f.H.lX[.c.-.V x D D k V 9 x k q s f J [.o.j.&.] D.o.D c.M.Q.y.8.c.0.H. X<.I M.y.0.o.3.) o.f 9 2 <   9 Q -.j.y.&.y.f.s.f.j.T T Q T J ) n f D n r 9 q O ; 9 J T D -.s.k Q.<.] c.;X-.] <.3.s.s.o.D.M.&.O.0.D I r r ;   q < J o.j.] ] '.j.[.s.&.Q n ] ) <.o.O.T <.n f D k s   ; < n O.&.<.D f.) <.< f.&.[ T [ ) <.] O.) -.I T I I k s 9     9 q ) o.J y.[ ) D.hXc.) s J k 3.T I J f O.V T r < 9   $ < 2 x <.&.k n [ T  X3.I I D ) o.Q O.] ) Q T I k q 9   $ $   2 V V ) 3.M.D O.-.[ D D [ f O.<.8.3.n &.D J r s 9 < $ 9 q V I [ k s k [ O.x J k x I O.y.s 8.Q Q D k n x 2   $ $ O x D s o.[ T <.-.3.Q x D Q s o.s.&.J 8.x D J r r ) 9 $ O ; < 2 Q n x [ r 3.s D x J x ] o.k D Q Q s q r 9   ;   $ $ V n D J I o.n J T Q V J I V J J Q J D n V < s 9 O $ 9 2 $ n 0.n k r 3.8.V V f n k k f r J D I k x f 9 9 ;   ; < 9 s V s I 3.) V x x n V T ) ] T I T T r D f q 9 2 < q f f s r q q I n f k x k k x V I n x T D r s f q ; ;     2 < f k x o.k J J ) k [ ] ] Q V V f 9 s $ s 2 ; < ; 2 9 f k r q s r r ) D s x f k n k f s f s 9 q s r 9 ; O ",
"'.8.T k T k q ] 3.D D -.j.M.8.c.0.M.'.;Xj.Q.H.s.f.M.C. XtXH.O.3.Y.Y.j.M.s.s.j.8.s.I 2 9 ; $ 2 x Q Y.I. X[.[.;XhX*X] J o.D ) J V n r n q ; < [ o.C.T D O.[.j.[ s./.y./.y.y.M.D.j.y. XD.Y.o.[ 3.s.o.Q q f k   f D T [ C.Q.M.tXtX-.c.Y.] [ Q <.8.y.0.&.0.O.[ f < s   9 ] r D.'.0.3.y.f Y.H.c.f.3.Q o.O.<.[ T 3.] o.T k n r $ r O O s 0.s.s.*XM.] /.8.<.-.) T Q &.f.I.f.3.8.<.&.&.o.I k r < 2 2 r -.&.V <.j.O.D.y.f.c.) Q o.] Q -.Q I J V s 2 < $ ; f s ) y.4Xf.y. X'.'.j.) O.D D 8.'.j.I D.j.3.I O.-.] f V ; 2   9 k s.s.J I < c.<.[ I x n J f T ) x V r D q q ; <   2 q s 0.[ s y.y.D.f.-.[ x [ ) 8.&.C.8.f f.3.-.<.o.f 3.x k O     ; n &.J n &.[ j.8.x q T n x D V x s r f 2   q $ q   f k k 3.) /.<.[ T O.V n Q ) s.8.o.D 8.s.T [ O.8.[ r D D 2 ; $ 2 r J f r s T T J T ] V k q r k x s r < s 9 O O ; 9 9 9 J k J y.0.) 0.J k I <.I y.f.k -.j.n 0.-.f V <.n x r 2   < ; ; n T s ; I 8.r J x c.V k V k J D f q q < < ; $ $ 9 x &.] f f 3.3.I n k ) ] Q o.[ Q ] J J J [ [ I D D s < < ;   r O.k f V k V s Q T s r r r r f q q 2 q <   9   < ; s x s o.f J f.] x V I J D Q ] J V T Q O.Q I J r s q 9 2 < < 2 9 q s q f V I V s 9 q r s 9 2 s r < 9 2   $ O < < k s r q k ) D D D J 3.O.J T J x T ] q f s s q < 9 9 ; ; 2 q 9 r f r 2 V x x D x k s 9 s f q 2 < < $ O O $ ; ",
") n ] V T ] f x f s 9 q ; 9 n C.I./.s.8.H.Y.C. XH.j.3.s.Q./.M.y.M.j.y.D.3.<.&.) V f k q O q o.f.0./.;X[.+X*XtXs.O.Q D 0.O.3.I.M.-.3.J T Q < ; q f f C.[ o.T *Xs.<.3./.C.'.) &.O.O.y.) 8.I D I Q x V $ O 9 q M.C.s <.[.[.y.4XlXM.Q 3.f.c.C.f./.I.[ 8.c.C.,XH.T D x   2 ; q 8.I.[ O.'.3.y.T D.0.8.j.O.D I n n r x r s $ O q f ] x ] /.*Xc.[.H.J [.[.o.&.o.3.c.I.j.D.H.O.M.f.O.M.D O.) I k q ; O f ] [ 8.D &.&.T &.) n [ n T n V r f r 2 2 < 2 s V I +XQ f.3.0.f.0.j.D.[ o.I.y.0.-.s.<.o./.D.s.J o.I.0.[ D x 9 9   q < M.Q   J T D.] y.I &.I I D 2 r < r 2 k < n 9 x 9 J O.3.] k c.<.f.-.] o.O.s.Q &.j.o.&.[ <.] <.<.D D j.D s s f ; ; O V x k 3.O.[ Q J D ] n ) I J D q 9 r < $ s r 9 x q k ] I I Q c.Y.3.T ) 3.[ [ <.H.s.V [ <.&.[ [ O.-.] T n 9 2 $     s f x n n n T ) o.) V x T &.s s r < q ; 2 s V f n V o.D x I f.&.-.T &.<.8.-.C.8.O.T y.I o.y.r f s.J n x q   < $ O q ] q q x n <.D I D 3.f 2 $ 2 q O ; $   ; r < q s k Q -.D T C.O.T ) ] [ 3.] &.-.Q O.n I D [ Q T k I J q ; ;   ; D r r x s Q k J [ k r 9 9 q < 2 ; < ; < 2 s ; s f n [ k O.x D &.T I ] y.Q n I ] T T T V o.&.) [ r f D k 9 $ O $ < s n < q x D V k f k s r 9 2 2 < ; ; <   ; q 2 f n I J x n n n J &.3.-.3.-.) k V O.] x f D q f r f r 2 O O ; < q s r < r q x D x k q q q r q 9 9 < $ < 9 q r ",
"j.M.C.8.O.f.) Q o.T r 9 s < O x -.] Q j.Y.H.H./.C.*X[.s.3.0.3.O.-.-.[ 3.Q I k k q ; 2 < r -.Q.H.O./.+X X*X<.-.0.I.;XtX/.s.c.0.;XQ.j.s.Y.] r r s   2 f [ o.s.H.3.[.0.-.I.9X] [.8.D n n x x f s f x ; V T k O.4XQ o.D.Q.[.Y.*XI.f.8.H.D.tXj.H././.C.M.-.D &.Y.I.0.o.I < $   9 ] 8.8.3.f.V Q.M.Q [.*XY.&.-.) I T T ) Q x ) I.Q ] s.) C.,X'.I./.s.H.&.<.c.I.+XY.o.8.s.0.s.<.8.I.f.Q J [ 3.O.n ;   ; O I H.r 8.T -.C.I.8.Q.j.'.Q <.0.I V I n ] D <.8.M.0.[.o.[.y.0.Q D <.0.j.M.0.H.3.] Q &.<.3.s.T o.c.8.3.D ) D Q 9     [ q r Q 8.y.f O.O.O.c.Y.Q.Q Y.[.O.3.J &.n x <.V Q I.T -.o.s.+X8.] &.M.[./.f.3.&.Q j.j.n s.] &.D I 8.n s k n s 2   $ $ f &.] 8.I ] J &.&.f.0.o.D k I 9 k 8.s &.y.I f J O.y.] o.y.<.o.] s.[.M.J J j.I.O.) o.&.J 8.&.I -.<.[ < k s ;   ; q n Q k V ] Q s k r V  X8.9 O < f x D f I T k [ ] [ T O.[ Y.-.) ] y.[ Q s.-.D M.Q Q O.T -.I x T V ] n 9 2 2 $   $ J 2 2 r k x x V k J ] ] D x ) n n x f k Q f J I V D D ] &.3.J Q 3.&.-.3.[ O.<.Q O.T Q T ] Q I x Q O.k 9 9 ; O 9 < 9 < s [ n r n f s k k V f J V V r 2 V s x r J s o.O.[ -.O.J I ] Q 0.I ) ] Q ] -.D T T V J 8.Q f x J f 2 ; $ ; q x r q q r f x n n x k k k r q q 9 q r q T q x q ] T [ o.) T o.<.<.) -.0.] f J O.J I x V 9 k J x s s < $ $ $ 2 q 9 q 2 < s f s n x f 9 9 s f r q s q r s q ",
"I.*XM. X/.'.&.3.M.y.O.V o.r ; ;   k r f. X0.I C.0.+X+Xf.<.&.Q J D J k x f s O r x f T 0.M.'. XM.c.sX;X,Xo.j.c.-.M./.s. X9XY.f.s.3.C.;X/.Y.o.n ) I   2 ;   &.-.f.'.H.0.-.9XI.I.hX&.-.Y.j.y.y.] &.3.0.0.&.c.H.j.-.c.;XsXtXI.f.f.'.eXI.C.I.D.j. Xf.c.M.H.-.x f.*Xy.] O.2 k 9 O ; n [ y.I <.O.hXy.O.C./.M.c.&.8.M.<.'.J /.o.D Y.;X8.] H.s.tX/.8.Y.&.'.y.f.[.M.'.H./.8.H.s.-.y.C.H.s.y.I k [ <.I 2   O O q r j.H.3.[ ;Xs.s.8.<.3.,X8.3.8.s.3.j.&.C.c.sXI.M.H.s.M.8.[ <.c.I.s.0.y.H.c.s.O.] &.C.8.<.O.o.o.&.&.o.O.J x q 9 $   Q k M.O.J O.D c.o.D.Q T s.Q.I O.I -.D <.[ -.) /.0.3.O.c.'.-.y.8.o.<.&.D.c.&.<.f.D.J j.-.] O.x 3.V 8.n I k $ ;     s n I O.V T r y.y.] o.V j.k D -.T 0.3.<.c.I 9 x <.D.<.C.8.[ y.0.-.3.] I T <.c.0.&.8.o.o.) J 0.O.I o.T x V s ;   O q J s x -.I q 2 r x c.I 2 r D ) <.I n ] Q V y.3.] &.] [ y.T 3.s.j.f.) f.D O.&.&.D o.o.) 3.T f n ] V q J q 2   O < ; O ) s r k V &.f s O.[ J &.V f D D D [ f D ) Q o.x -.-.T o.0.s.T 8.&.&.[ 8.[ [ -.D T Q [ I I T &.n f k q $   O ; 2 9 k I k q s n k n I k J D J f s T V I k T f o.-.J 8.-.) -.) ) J x f.0.D ) f.n r -.<.] T J f Q J n s 9 ;   $ 9 q q q r r s r q r r x V x k k s s x f Q I V < D -.j.<.O.T 8.o.T 0.) T J x I ] T I V n r r T k x k q 2 ;   $ < ; k q < q q q D T q k D V f q s x q s k f ",
"[.9X8.M.c.'.y.j.'.y.[ D c.[ J O 2 $ $ <.) D -.I.eX+XI.C.D.C.c.c.[ ) T D T T D ] O.0.c.Q.D.[.D.<.Y.4Xf.Q.'.+X[.eXM.j. X;XY.[.Y.,XQ [ '.[.0.c.0.) ) q 2 < <   H.k j.j./.s.D.'.Q.+X XQ.'.Q.j.;XM.[.H.c.4XQ.&.'.hX,X+X/.*X+XH.I.[.H.,X'.c.,X0.c.Q.H.y.[.Y.f.&.s./.;X<.8.V T 2 $ O   D &.; j.M.j.;XJ 3.Q.Q.f.V 8.Y.&.,X-.y.J ] <.f.C.Y.s.0. XY.j.&.D./.D.T j.Q.+Xs./.s.s./.<.-.s.J s.c.o.[ c.<.q 9 n     $ < n y.O.n I.;XI I <.D.D.j.<.c.y.s.y.y.M.0.8.hXD.HXQ.,XBX0.Y.'.Q.y./.I.8.j.j.c.Q y./.O.D.-.8.] y.-.0.o.x Q n 9   ; 9 J r ] I.T V 3.o.V Q ;Xc.H.8.[ &.x D 0.T &.] M.c.I O.M.f.y.[.D.O.-.o.I.Q.&.3.-.f.&.V D.Q <.T ) I 8.I &.[ < q $   < ; I D s o.I ] [ T Q ] ] I 0.Q s s.-.Q ] O.k n 3.-.] <.3.0.8.<.&.j.C.3.&.] -.f.-.<.-.-.o.J f.q o.H.D k D x s $     q f s O.k x 9 I V x J k ] O.O.C.f ) o.T D O.&.T 8.s.O.<.-.8.0.8.&.3.j.] 3.[ o.V ) <.I <.) V V J J k o.x q $ ;   O 9 V r Q s J I ) q [ I V &.J x T s x o.x n ) T <.] 8.-.T y.f.s.) y.-.3.] 0.[ I ] I ) J T V J n Q n n V s 9       < k k D k s f k r x V s q q f s f n T x D V V [ s.[ O.T 8.c.) 8.Q n s.<.J ] C.D f 8.-.n x 3.Q n J J V f 2 O     ; q s r 9 9 r f 2 r k x n k r q r I k k <.J q r f.C.o.[ ) j.o.I 8.) T x f T ) T D J V n q V k D f r q 2 O O ; $ f f 9 r r r J ) < Q <.) f q f k q f V I ",
"8.H.D.D.j. XD.M.<.y.C.j.I.O.o.k 2 2   s x x f.;X*Xs.M.I.<.&.M.C./.s.Y.j.c.M.H.j.9XeXY./.H.tX/.f.[.sXxX[./.M.4XY.*XI.-.3.&.s.'.*XC.j.M.I.0.C.H.Y.j.f k q   <   8.s.H.C.<.c.D./.I.0.8.0./.Q.+X8.<.-.C.9X,X3.[.sX9X*X+XsX[.I.H. XM./.Y.[.*X8.] '.;X8./.c.M.M.s.s.'.3.+X-.Q J s   2   k [ I '.M.H.T s.Q.;XC.k y. X3.-.I.C.y.y.) y.o.I.'.n ;X,X0.*X4X9X X8./.j.f.H.,Xs.M.C.c.0.&.Q T H.0.<.M.0.J J n 2 $ O   2 8.j.Q eXO.) *Xf.0.f.-.-.c.-.O.-.s.C.O.f.eX[.,X0.D.I.C.s.M.Y.H. X0.] c.j.I.) &.3.O.D.s.c.o.I.I M.<.V o.f V q     q 2 s Q s x /.y.f q f.0.H.-.s.n Q D O.-.o.&.0.&.I s.f.c.M.j.0.&.s.8.c.+XI 3.M.[ 8.) f.-.3.8.Q Q n f o.<.x s 2 O     n ) D 3.<.r k s.0.O.V ] <.V s T ] T <.o.0.&.Q j.&.f.0.H.I.'.0.o.O.3.y.<.) c.y.) o.M.<.I f.I Q Y.o.V V f n s 2   O f f V f q r I s D [ s n k T 8.J I I Q ) k T I &.s.&.3.H.y.y.y.T f.8.<.[ <.[ J I 8.D o.] D D [ T I ) I r 2 q O   $   I r 9 n f x J J r n J n x J k V O.T T <.T <.O.-.&.<.0.0.0.o.y.y.<.T y.o.] J ] o.Q T ) ) J J n D V r x < O     k x r 9 n q q k n x x s k k x q 2 n 2 f r V T [.D.3.O.f.0.Q <.s.J Q T o.] 3.I r 0.M.n 9 ] o.[ I T I k q 2 $   O 2 r 9 < q k V 9 f f f n f 9 q f M.V q ] T k k O.3.O.0.s.c.O.] ) ] o.V k Q J V D J x V n x V n f s s r < ; ; O 9 k 9 9 f s V Q s I [ ) n r s x 2 q k D ",
"/.D.9X/.3.0.j.+Xy.0.0.s.c.<.-.x I r ; O   $ j.j.H.D -.D.o.s.,XI.;Xy.+XI.j.M.'.<.f.I.H.lX XQ.[ O.D.;X,X+X9X'.9X4XQ.+X X,XI.[ [ lX/.o.M.'.Y.I C.0.H.] f I 2   9   J [  XM.Q D I. X*XY.y.H./.D.'.[. X[.H.eXY.Q.I.I.4XtXsX'.nX9X*XD.M.c.M.;X0.&.j.c.s.3.j.*X8.s.'.c.] 0.8.f.Q V f O ; 9 ; x j.y.3.s.o.s.;X/.T H.tXc.s D.*XH.c.y.[.*XC.y.<.*X/.Y.M.Q.[.+X0./.Y.<.y.Y.M.s.f.y.0.M.s.I f.j.3.3.-.3.0.V r ;   ; $ Q -.8.3.Q O.f.*X'.s.O.f.H.0.I 3.y.Y.) <.hX*XQ.s.y.c.D.I.-.0.I.Q.&.3.D.C.0.[ 8.8.M.[ &.&.O.D.J y.Y.n Q -.x f r     $ o.I I [ c.C.x o.8.) 0.o.<.r -.&.n 0.0.0.0.O.C.I.f.[.,Xj.j.s.f.0.-.3.y.3.<.<.f.O.] &.O.O.y.o.Q q ) I n s q ;     $ r Q ) 3.J r [ V y.I 0.&.] <.Q -.I x T [ n D 8.Y.0.s.I.8.I.C.y.-.V D.'.I c./.Q n &.M.8.D [ r C.O.T n 9 n n f       s 2 ] q ] [ D ) ) k n k O.D ] s x 8.D.n O.&.O.Q c.s.I.I.D.8.] f.Q Q O.Q 8.] V f.T &.&.r n j.J ] D Q r q f q O   ; < ) 2 J k k Q n k O.x q k J J x I V J 0.T &.O.o.<.Q.M.D.c.[ 3.j.o.D f.3.s.Q n I ) T 8.&.T x n I n r I s <     ; r s D o.q V f s 2 x n Q n f k s x f q x I [ 0.<.o.s.3.I ) T y.D V I 0.V x V V y./.T 9 k [ 8.T Q J s q q 2     ; 2 9 q s s q 9 f q q n k q k V nXQ f 9 Q k Q o.&.-.8.s.-.&.f.O.J I J Q T s x Q D s x ) V I r x f k k q 2 ;   ; f < ; f f x I I q 9 J J q 9 D r r s f ",
"+Xc.I.tX0.M.&.M.eX'.f.Q.&.3.'.J &.x r O     D &.-.q y.,X/.Y.Y.;XsXj.D.c.hXy. XI.f.8.C.Y.sXeXC.] 9X/.lX XnX[./.9X X0.*X+X4X8.] +X[.O.H.'.j.8.I.Y.[ &.[ [ r $   O x &.Q.+XI s.Q j.hXY.J H.H.s.D././.D.[.lXs.9X,XI.4X/.,XQ./.9XeX+XO.Y.Y.D.j.H.I.+X0.T 3.Y.&.c.3.f.0.f.[ M.c.k r 9 O   $ x <.0.&.Y.T <.j.M.f.M.H.D.) -.Q.[.f.3.tXQ.Q.Y.o.j.Y././.c.M.M.'.f.D.M.D.I.O.+XQ s.&.*Xf.<.<.0.<.-.j.<.<.) n f O   O ; D -.D.I.y.C.Q.H.O.&.*Xf.c.c.T D.C.r I.9XsX/.'./.eXtX+Xc.M.j.H.H.<.j.j.3.H.J [.I.8.O.] <.[ 3.8.Y.<.x J x D 2 $ ;   O.O.T s f j.9 -.s.<.s.V V 0.j.I T 8.3.o.&.k Y.I.Y.;X;XD.f.[.y.J /.8.O.j.I o.Q.y.&.-.O.O.-.c.x V O.T J s x O   $   n 8.9 D D k Q ) y.0.) s.3.o.I &.y.8.o.o.O.Q eX/.c.M.y.&.I.y.'.[ ) [ 8.s.8.s.] -.T T o.Q s.I O.&.J -.f f f T <   O O < n T D ) k ) j.9 -.V o.) I.2 T &.) k O.0.s.8.C.s.s.H.H.[ [ s.-.[ -.n f.) o.O.Q J O.n ) 3.I 3.] k r x q f       k f f 2 9 k <.q k Q <.r s s V I Q V D y.-.M.0.s.f.j.-.3.D.<.Q 8.O.Q c.y.Q <.V o.J I 3.T ) n T q I V x q 2 ;   < 9 k s D n D x < 2 V s J D n x n f r k I [ -.-.0.j.s.j.-.Q s 8.&.) ) ] I J [ x o.[ o.V f [ Q D Q Q x r s 9   ;   O 9 s k k n 9 r s x x r s f x ] r f k J y.) <.3.8.c.o.3.Q 0.J T o.V Q 8.D r V r n D V Q J 2 x D s D r 9 2 O   $ 2 < < f D V f k n D ) q s D f n q f ",
"c.O.I.xXs.y.3.Q.Q.'.&.8.D.C.M.O.3.o.f q     O V [ 3.T y.c.j.tX[.Y.*XC.H.nXy.H.4Xj.;XxXo.;X9X'.o.3.[.lX XY.*X/.4X9Xf.D.Q.[.f.I.M.s.4Xf.I.<. X0.Y.c.c.o.T I k O   ; O.C.y.n '.j.&.[.tXO.M.'.[.0.Y.Q.[.4X'.[. XI.c.+XsX+XPXc.j.9X/.H.O.[.[. Xc.c.*Xf.<.s.3.Q./.0.J y.;Xy.D.<.<.r s $   $ q &.&.j.*XQ f.y.f.0.*X XM.s.-.c.'.[.Q D.D.+XeX+X;X4XhX Xj.'.Q.[.Q.c.C.0.'.O.'.f.O.O.0.j.I f.) s.C.) -.I f y.I q       2 [ I.H.c.M.D.8.O.<.] Q.nX<.M.] &.j.0.*XhXeX*X+X;XeX+XY.[.C.8.f.y.0.[.<.&.f.f.f.o.[ '.y.3.J 3.M.s.n f D I s $   O T M.V k T Q.3.] 0.I.) k J n s.s.k I Y.j.O.Q D.Q.+XH.8./.j.f.H.Q H.y.I.J 8.[ o.C.T Q j.0.&.M.T s &.T D Q n < O     ; 3.k 0.0.f.T [ 3.c.[ 8.J n '.<.k n <.T -.o.s.Q. Xj.j.8.<.<. XI &.o.T y.C.) Q f.y.s.n <.<.3.n f Q 3.n D T ) $     < ; J Q 8.O.J Q ] T n V s.3.Q r 2 <.Q V '.] s.c.I.j.f.y.8.<.I <.c.] s.k ) &.3.] ] T [ x I 0.I ) [ n V k x f 2 O   2 2 x q s T o.n k I o.n x ) s J Q V [ <.8.+X8.Y.Q.c.3.] <.-.3.f.&.I s.0.[ O.3.T Q ) &.x r J <.k n J n s r <   O ; r r f s f s n q ) x 9 D k k f I 2 x D s f.y.j.4Xc.<.c.<.k [ O.Q [ o.Q T O.I x T ) I [ Q o.n V o.T T k f O O   $ 9 r r r f I V q n q 9 T 9 V ) V r k J f.Y.3.c.Q.f.&.&.Q Q n V y.O.x Q I n T 9 T x n &.x s n &.r D k k ;     O < 2 2 s V V V x V D Q D n D D J f x ",
"M.] c.hX'.0.o.Q.'.4Xc.[ s./.Q.<.o.0.I r ; O   2 ) O.3.+X/.c.,XM./.c.,XeX'.c.+XhXy. X[.0.j.*X'./.'.tXlXtX X,XD. XH./.Q.C./.C.Y.D.Y.D.<.,Xs.<.O.c.D.I.3.J o.T 2 O   9 T O.J H.D.s.*X[.-.0.D.eX'.&.*X[.I.C.Y.,X/.Y. X*XsXtXxX+XC.H.*Xy. XD.c.D.I.c.H.H.j.y.] I.M.T 0.[.[.0.] Q J J q ; ; 9 <.-.D. X] D.8.[ c.[./.C.O.8.Q./.c.0.-.Y.;XsXeX X/.9X/.D.D.8./.s.H.-.y. XO.I.y. Xs.<.&.) T Y.I.O.8.j.r Q s.n s O   $   T o.&.f.s.,Xf./.0.y.&.[.j.O.T <.C.Y.4X+X+X'. Xc.s.Y.o.Y.sXc.3.c.<.3.s.&.s.D.s.o.J s.Q.Q.o.q D.Y.<.x J f q <   $   3.V o.D y.D [ C.&.-.<.y.I 3.<.I ) ,Xf.D f.C.I.[.'.8.H.&.M.M.T H.[ f.&.c.c.Q 3.O.&.y.0.T j.Q V 3.V f ) s 9 < O O $ k n ) s.D 2 <.M.f -.s.J -.c.M.) T [ x O. XH.c.,XM.j.<.) <./.] <.3.x y.3.<.J D.&.8.n o.8.o.I V D D Q -.n x q ;     2 s ) &.o.o.Q k -.J ) 3.c.k f x V T s j.8.C.Q.[.H.D.3.3.H.[ <.M.) f.V I -.3.] ) Q [ D x <.] J o.f D f I r r $   $ q ) x 9 V D Q J Q [ J k ) Q s J V n n s.Y.M.I.[.C.8.o.y.[ M.y.[ I <.-.o.O.o.J 0.[ ) ) s n 3.n f ) x r f 9 O   $ 2 r q r s f n 9 T J s x r s f I r <.) r M.f.D.sXC.[ y.j.x ] <.D [ &.o.Q o.D T O.T k O.Q ) Q k ) T T f V 9 O   $ 2 q 9 q f ] x q Q q 2 &.f k V D 9 n x -.Y.0.D.,Xf.0.O.O.) D n O.[ D T n n I r J f V O.k k D <.f 9 x f s 9 O   ; 9 9 r x V x k ) ] k s r Q x k q s ",
"[.8.8. XhXC.] H.c./.Y.O.&.H./.j.o.y.<.s q     O s I.[.M.Y.Y.+X X'.I.o.*XH.,X'.;XY.D.-.;X&.f.H.;X4XQ.'.Q.4XI.s.C.4XD.8.C.4X[.-.D.H.D. X'.y.s.9XT -.M.D.T Q I k ; $   f 0.&.&.8.C.'.[.c. X0.4XhX<./.+Xj.c.hXsXy.c.nXsXnX X+XhXI *X9X'.s.'.y.H.Y.f.s.D.*X*X3.f.Y.<.O.j.M.+X] ] V x f       Q 8.j.H.&.<.f.o. X3.D.-.I c.8.y.D.C.'.-.;XlXxXlX;X*XH.H.M.H.Y.Y.M.3.f.[.y.H.J ;Xs.f.-.D.-.] 0.y.<.I O.O.&.x r ; $ $   V j.8.[.0.0.H.8.8.M.3.8.j.8.M.o.M.8.+XsX9X;XeX[.[./.o.8.*XI.8.c.f.O.I.3.O.s.<.j.8.T I -.-.) 8.M.J n o.&.I <   <   V c.T H.<.<.&.O.8.V f.I T k c.I -.Y.&.q [.'. XeX/.s.o.V Q.0.8.8.Q f.8.M.[ -.f '.j.] T ] O.) J ] x x n s q r <     n Q k x [ r ] &.T 8.T j.-.8.-.3.y.) &.n H.,XI.;X[.y.[ -.3.8.y.j.[ ) -.[ c.I C.c.c.r O.y.0.) T I x s D [ I ; ;   ;   I s o.V M.n f n Q I I 0.9 r o.f O.J T c.s./.*XI.H.O.s.H.&.&.<.O.<.Q Q [ 3.&.V ) o.) f Q <.) O.r f x ) r r O   O 9 O.I < q s T o.) Q J D I -.x V V V n y.s.c.;X'.3.D.3.o.<.M.3.I &.o.o.o.3.V V f.o.J -.J x ) V x o.s q n r <   O ; f 9 s f D s k n D D 2 s f k s r j.[ ] M.j.Q.Q.M.o.Q c.V O.y.J [ [ T I o.D <.O.[ f J ) D -.k V I V s V s ; O O ; 2 9 f V V 9 f &.x < ] J T n V s I V y.M.j.H.*Xj.0.] <.3.I T V n O.] 9 x x V k x J J D k I T [ $ V 2 V V O   O 9 9 9 f x ] s J ] k x < V D k s k ",
"[.c.f.H.9X+XD.I.3.M.I.D.H.f.&.c.c.8.3.I f   O   < s.Q.C.0.f.FX4XhXhX]  X[.-.hX0.,X;XM.;XI.s.lX9X4X*XtX/.tXY.H.C.Y.I.8.0.y.eX XM./.M.8./.[.H.,X0.T y.[.o.x J T 2 O   f <.j.D.j.y.0.9XO.[.f.*XC.O.4X8.c.s.+X/.+XH.xXlXhXhX4XeXf.Y.H.4Xj.,XC.+XI.D.s.Y.0.,X3.D.3.H.s.C.[ '.D.8.T n Q 9     x C.D.;Xc.o.Y.H.lX<./.[ ) ) +X) Q.&.'.0.M.9X4XlX4X X X/.-.I.M.D.j.-.C.C.<.C.] &.M.H.f.8.j.0.[ I y.] T 8.&.] k ;     O s D s.0.+X] M.8.Y.c.D.I.T o.o.0.tX0.Q.hX X'.;X;X+XH. XC.y.C.C.0.O.M.c.3.I.o.T C.Y.<.3.Q ] I M.'.s V O.f.) < O O O < D.D Y.-.O.) k s.<.y.J -.I y.s.0.s.y.x '.'.*XsX XC.&.3.D.j.D.x o.0.s.0.[ n ) c.8.[ V <.I &.n x n O.x Q s q <     $ o.k [ s.o.V y.D <.c.V &.&.Q y.0.I M.3.8.+X;X4X9Xy.O.f.&.I s.Y.k <.] 8.[ -.3.H.y.J n c.I ] ] O.s ] [ f s k < O   $ q n V J M.] -.s o.J <.&.x o.) Q Q I ) y.M. XtX'.H.o.C.8.-.Q [ -.[ [ n O.0.&.k o.) ] V x <.o.[ n s I Q f s $       Q ) k x k n -.T D D -.Q x ) k s O.] o.c.I.[.*Xf.-.o.-.o.8.y.) s.T -.&.-.) x [ <.T J D I D J V ] r s D r 2       s 2 s s V k I k k k 2 n V k k < Q V -.D.M. XM.y.3.T 8.) O.0.] o.Q n V O.o.Q J O.I V J ) <.n n o.V n f 2 2 O   $ 2 q f n q 2 V ) V s s k -.J s r V D '.D.D. X+XM.-.] &.-.T ] J D O.Q r D k J n D I V D x ] r 8.x D r f f $   O 9 2 2 r f ) ] c.y.k x k -.[ V V D ",
"I.H.'.I.C.*XeXI.j.C.Y. XD.M.&.O.Y.-.Q &.x <   O   T H.H.;XI.Y.9XhXxXj.I.4XO.sXj.M.4Xs.s. Xc.FXtXeXsXhX;X9XI.j.f.Q.9Xc. Xc.J 0.[.Y.c.o.0.'.'.;X&.&.y.[.<.k ) Q 2     $ J D.eXc.o./.lXy.c.*X+XY.0.s.0.I.Y.,X[.[.+X9X4XI.f.[.s.Y.Q.f. X/.Q.C.[.s.I.H.3.j.Q.Y.y.<.O.-.I.o.3.4X0.O.Q f 2       &.3.I.0.c.<.<.;X8.y.8.0.<.j.I ;Xy.eX&.M.hX9XlX9X,XeX+X3.D.I.M.[.3. XD.o.s.j.[ Q.Y.s.I /.M.0.V ) Q.) o.) ] k 2 O   ; q J 3.s.eXH.3.O.s.0.-.;X'.f.V 0./. X'.xX;X;X4X;XH.C.Q.*XC.<.D.D.J c.0.j.C.0.D y.D.f.-.D M.J [ -.J D ] -.D 9 ;     < 8.s.s.c.I o.8.V j.3.J M.o.V 0.<.o.f.I D.'.;X[.;XY.3.Y.M.H.[ o.3.o.[ Y.D O.y.&.T 8.<.I &.[ O.J f 3.V <.k < $   ;   2 3.x s.Q <.-.0.r s.O.<.x <.3.O.V ] *X/./.*XeX;Xs.y.f.o.) <.f.) O.O.o.J j.V 3.c.n ] Q o.n 3.3.T T s ) ] f ;   O   k s &.Q 3.O.&.f [ n o.9 ) 8.Q O.J V I 8. X XlX XC.&.C.&.3.[ -.Q T <.D s.<.) D &.J I Q f [ ] I T k ) n s s < O     D Q n n V k -.T V V <.n x [ T s J I [ D.I.eX'.3.0.8.T &.O.M.&.y.V 3.<.I [ V T s.O.J D J J J n n s x n 2 9     O q r r q s n V k k s J n V k 8.x q k ) I.H.*X'.&.8.-.) &.y.o.Q o.<.[ Q [ O.x O.Q J Q n o.-.T D -.n D s 9 < O   ; 9 q r s < q V k D I 2 2 o.I r k x k /.C.D.eX,XH.&.-.-.] ) I ) [ I J D k n k T D n J f n [ 2 T I r V 9 q ;   O 2 < 2 r s k D ] x 2 n s r ] k n V ",
"Y.'.Y.H.H./.Q.C.y.C.c.H.-.Q.C.[ s.0.o.&.V q       2 Y.j.H.+X[.[.4XO.&.+Xy.tXtXc.H.lXM.Q.*X+XhXnXhX4X+XtXhXQ.M.'.s.+X3.y.*XO.I.9X'.y.M.M./.D.eX[ f.s.I.y.) -.D 9 <     f y.[.o.<.Y.'.4X0.y.j.4X/.I.C.'. X8.Q.*X[.;XHXsXsX+X3.8.*X+XC.8.D./.j.-.Y.,Xc.j.Q.[ Y.H.j.x M.8.D.Q.j.Q V q x O ; O D 8.y.j.tX3.y./.f.0.*Xs.y.Q.Q c.*XD.D.M.9XeXlX4X[.C.0.j.c.0.Y.C.0.3.j.3.&.H.0.c.c.s.3./.[ 8.-.) y.V [ ] I k 2 $ O O r j.D  X0.'.H.T M.I.Y.c.I.Q.&.3.;X<.o.;XxX,X4X*X/.Q.3. XI.D s.[.-.f.8.C.T y.o.0.f.] I Q.D.H.-.<.< D 3.8.o.x     <   o.[ 3.s.y.V -.8.&.C.I M.&.M.] ] V [ o.Y.*XtX'.Q.D.&.0.s.C.V M./.] O.&.Q &.C.3.n 0.c.D 8.I M.) x o.k [ x 2   O O 9 D J k Q 0.f.3.[ 8.s O.D.o.O.n &.Q n I.[.H.+X,X+Xs.s.s.[ 3.O.O.c.o.f.x [ 0.f D.H.) J 3.C.D V ) D 3.x V ) Q 2 O O 2 k Q ] <.[ &.&.[ O.O.J r &.T T o.<.] D 8.Q./.9X/.s.o.-.<.3.-.<.D D <.O.8.o.I [ [ I J T x ) o.n T x Q k q r <   $ $ V V s s I V o.T D J ] s &.) 0.D f n 3.D./.+X'.M.-.j.o.) &.j.o.&.J -.8.V I I ) 0.&.-.Q k D V D f x k q 2 q ;   $ 9 x f r 9 k I x k x ) n k x y.) n I T C.H.*X4X<.3.&.D &.H.V T ) 0.<.] ] O.D 8.n D o.I Q [ ] T ) f x f k ;     $ 2 9 q f 9 r x V T J r r T Q x I Q V 0.M.D.4X*XQ.0.<.-.Q Q I o.O.J J I 9 n r D V x J V V I f r V ; V s k ;   O < < 9 s f q J ] x s r k x [ f n D ",
"[.*X<.j.eXQ.[ C.c.eXj.c.j.[.s.y.] H.Y.] I 9 O     < ) 0.Y.0.[.eX Xs.;XI.[.I./.C.j.'.H.[./.,XsXsXhX,X+X;X9XM.D.;X4XH.0.Q '.0.+X'.c.0.Q.;XI.f.[.<.j.s.M.c.8.0.s r       q o.H.&.9Xj.Y.9XD.J +XeX4Xs.C.+Xj.j.Y.+XY.lX9X9XsX,XT Q.H.,X'.) j.'.Q.I.0.y.M.j.c.&.sXY.I.s.3.D.0.8.o.<.x s J     ; f C.8.j./.j.;X0.[ f./.H.s.C.n H.,X3.H.Y./.+XtX9X4X/.;XH.o.s.D.+Xy.3.Q.Q f ;XC.c.8.c.s.8.<.M.8.-.T D ) M.] D ;   O   x &.s.M.M.'.j.3.-.j.;X0.Q c.y.D.,X9X-.C.eX'.eX,X*Xs.0.'.M.&.j.s.-.f.o.M.f.3.I.8.) I s Q.c.8.Q J V ] s.Q [ ) $ O   k j.&.I 0.y.] <.J D.c.s.V 8.-.8.s.O.O.C. XQ.9X X*X+X/.&.&.M.<.Q '.D.[ <.3.) o.Q x -.3.f.) T f.f ) Q r n n r   O   ; x I -.n 3.s.s.C.I <.f 3.s.8.x 3.T 3.c.'.H.[.*X4Xs.3.f.[ 3.] 3.c.3.D.I o.) I 3.D.o.D O.Q.n f J T 8.r ) -.T ;       n x f I J J -.o.x 0.n [ k &.I I -.[ &.0.'. XeX Xf.-.T j.3.[ ] ] J Q 8.J [ I 3.I ] T n V [ 0.n D x T n r 9 9   O $ f s q f [ ) I V V Q ) T I n 0.n Q V O.M.D.,X*XI.O.0.J ] y.8.Q [ O.O.0.Q ) I T o.) <.I x x n ] V I s ; s 2 ;   $ 2 D k s 9 s f.J 2 k n V s x n I ] ) o.f.H.4X,Xc.0.J D o.C.f [ T o.I T &.y.J I x &.o.O.V n Q ] I f r f k $     O ; 2 s V n s x -.o.s s n V D s V o.I T C.I. X'.Q.f.[ [ T n -.8.O.) J V f x k r I D D &.J s T f V s f n k $   O ; < q k k x k f k T q r k O.s n V ",
",X[.y.s.*X[.<.c.Q 4XQ.y.s.[.<.3.y.D.M.0.n s O     2 Q C.H.H.eXtXD.C.+X;X0.-.;XQ.M.M.I./.H./.tXtX9XlXY.*X+X8. X/.4X<.C.*X&.3.C./.[.M.C.;XI.Q.Y.8.&.8.I.H.0.O.I 2 O $   V 0.'.j. X/.j.4Xj.D.s.H.Y.3.M.+XI.Q.tX'.'.hX;X;XeX Xy.'.C. X/.o.C.'. XI.) c.[.f.0.c.j.[.8./.f.H.s.&.8.Q f k x <   O ) I 3./.c.M.j.;X0.j.8.'.Q.'.O.s.9XC.-.s.C.,XxX4X;XH.[.C.[ C.0.f.8.c.,XJ I [.I.0.T D.c.s.[ H.y.] n ) &.D.O.r ; $     f o.c.[ f.,XT C.;X] [.c.o.*X-.<.[.+Xo.3.BX[.M.BXQ.Q.f.I.D.c.H.3.I O.T C.O.H.3.M.f.D n &.8.c.f.D f j.[ T D f   <   r 0.8.T &.&./.n k Y.s.&.x &.V O.-.s.j.y.[.+X*X4X*X/.<.] M.c.[ D &.) Q [.8.8.r 8.&.; Q C.M.n O.O.V ] x ) x f O       O.s j.-.f.8.<./.T 8.M.D <.O.s.8. Xn *X-.I./.sX'.M.&.y.<.o.&.o.'.) -.J [ 8.o.y.8.[ 3.-.C.s f O.) &.< I 3.f 2     ; x D n O.I [ H.Q < T &.o.] J f.q o.o.o.[ [.[.4X9XC.k 0.f.c.O.o.I O.-.Q [ O.k s.o.T V I J Q Q -.r V Q n r r $     ; V q V k J O.o.J O.] T V Q n J n <.O.s.c.Y.[. XH.8.o.] Q Y.o.D ] 8.J 0.<.) [ D V 8.8.V V J J o.x f J q q 9 ;   $ $ n x J s   x f <.f k n o.s ) n D O.D D.C.*X;XH.s.T [ Q s.n ] [ <.x J [ O.J T n Q D 3.O.I J J x f f x s O     O ; V r V x 9 J D s k o.D Q D 9 V Q Q s.y.c.*X*X'.s.3.Q Q J -.] ) T x n V f x k r I Q [ k s n V k f k f 2 ; ;   ; 9 $ n V x 9 < &.T n ; x -.n f n ",
"/.;X0.s.tXQ.'.c.O. XH.y.f.;X&.<.j.8.-.s.[ f   O 2   T /.D.[.4Xc.[. X X/.*XH. X;X*XY.y.xXD.H.eXlXsX/./.tXf.+XQ. XM.8.f.tXI.y.-. XD.H.c.f.0.D.Q.D.D.)  Xj.-.<.k q ;   $ $ k D.y.tX,X,Xj.0.Q.I.[.4XY.3.;XQ.0.I.j.Y.4XsXtXsXtXQ.[.M.4X'.-.H./.'. X] &.Y.f.j.H.C.M.Y.j.3.Y.c.] ) ] 0.V x $ $ ; 3.n j. X8.) C.0.H.Q.Y.f.'.I.[.&.I.;Xc.3.I.*XeX X9X'.[.3.s.sXQ 8.f.*XD.J O.8.Y.s.D s.I.M.<.0.&.O.] o.V 8.O.n 2     $ Q ] ] 0.c.8.f.0.f.M.D M.-.4X0.C.M.;X3.[ +X XI.*X*XD.3.D.D.H.[.y.<.y.) O.D.) [ ) j.D.J 0.o.0.D.] T j.T ] J r q <   q s M.0.Q ] C.[ ] c.&.) ) O.k D <.] T 8.f. X X9XtX'.3.T Q.+XM.] -.Q o.eXy.I s [ I.j.V n 0.8.f &.D Q r D f x ;   < O y.Q x q 3.j.-.] <.<.&.3.k 8.C.y.C.] C.8.c.I.4X,XD.s.Q ) 3.C.3.&.s.V ] ) y.[ ] H.] o.3.3.n f 0.I D V D -.r ;     < f I J [ I <.f.C.9 k s.[ T o.s.n O.0.Q Q D.'.4XQ.8.O.s.Q D.<.k 8.O.] ) o.&.I o.<.x ) T D n Q 3.J n V x f 9 O <     s 9 V 3.k -.D 8.V ) x ] f ) I ) x <.3.f.Q.+X[./.<.8.<.0.O.O.&.D M.Q o.I Q <.I T 8.] Q D D n [ f x n r r         2 k Q -.r r x k J J k x D n o.Q ; V s.0.C.+X*Xj.<.] &.T Q ] ] O.0.] s o.s O.) 8.q -.) I ) ] T n q x x r ; $ O $ ; s < k n f r r I f V &.n f s n O.) C.j.j.+X;X'.f.0.] I o.8.J J D Q D k x x s V n x T o.f x V n x k f s ;   O < 9 2 r J x f s Q x x s n Q T n q ",
"c.9X-./.C.I.I.[.Q.'.-.j.Q.Y.O.y.&.] O.j.&.q   ; O ; [ j.-.+XtXQ.I.Q.4X-.*XQ.4X XQ.4X8.eX XM.+XsXxXM.4X+XY.4X/.[. Xs.J '.[.H.y.9Xj.D.f.o.j.+X+XM.'.J H.O.] &.f f       Q ] O.y.eX;X X[.f.8.3.*Xj.[.I.Q.c.T 4X+XH.;XhX,X;XeXQ.C.3.Y.*X0.f./.c.'.j.<.f.8./.f.I.[ M.Q.f.D.f.[ ) Q O.V ;     9 0.r C.+X/.8.[ &.j.D.[ y.y.D.*XI.&.'.<.j.+X+XtX X*X/.I.M.H.C.] D.Q.M.C.Q I.s.s.&.&.y.M.<./.D ] f.-.y.n &.o.x ; O   2 ] J ) [.j.D.[.s.s.Y.y.3.3.H.I.&.<.I.Y.j.I.+X;XQ.9X X<.c.D.c.f.O.j.f.-.Q 0.c.<.D s.M.) s.3.o.M.] T j.n ] [ q <     r ) I.) V y.c.V <.M.Y.T J s.k ] &.D.y.D Y.I.C.tX X*Xs.-.<.D.y.8.[ f.k M.&.3.s I Y.D.O.f Q C.I I V T q f 9 s ;     $ ] [ [ ] <.Q.o.] 8.s.O.<.n T D.-.8.[ c.3.f.C.,X4XM.s.I Q s.C.&./.Q O.] 8.o.<.] <.I Q o.H.I J 3.Q f O.f -.s ;     k n T V ] f.<.&.y.D x [ o.Q &.&.n V 3.x Q M.Y.,X/.y.f.j.s 8.<.I <.o.0.I <.I &.x -.J O.D k I V O.o.f s n V 9   ;   ; s k f 0.T <.J 8.Q I I I J D V ) D Q [ <.D.H.*XC.0.o.y.8.] 8.3.J ] &.] ) n &.8.O.) r I [ J k [ k J x f s 2   ; O q < n T s x k f f I f n x r n [ n $ J M.j.Q.*Xj.<.8.8.[ J O.Q <.[ 3.n &.n T [ O.V ] ) J I ] J V 2 V k 9 O     ; 2 q < x n -.D < o.T x &.V n s D T J 0.c.f.[.;X[.j.y.o.Q O.8.V D V O.I f D D f I f f V O.x n V J n s q s O   O 2 9 q q D f s n V r s k f k ] D ; ",
"j.s.j.*X+X[.&.y.4X;X-.M.Q.O.8.C.-.&.-.<.I 2   O   < O.[.H.C.f.;XtX*XY.-.hXM.[  XD.'.Q.*XFXs.4XtXeX;X/.*X X9XH.H.[.c.<.4X'.M.M. XD.Q./.o.O.c.+X[.Q.8.O.Q ) ) V q   $   -.-.I f.,XeXI.y.;X XQ.T <.c.xX*X3. XY.;XC./.9XeX,X'.M.Y.'.Y.Y.H.D.f.-.9XC.D.Q 9X/.I.<.s.c.Q.y.3.&.<.f.O.n I ; O O f H.k /.*XT  Xf.D.M.j.3. Xf.Q.y.Q.y.C.s.M.lXhX;X'.,X+X8.D./.Q.j.J H.Y.3.0./.'.] ] c.0.8.o./.) 3.-.f.8.) Q Q r   O $ s O.o.<.Y.f.Q.I.0.J Q.D.0.y.0.8.D.y.O.;X4X+X[.eX*X4X[.0.H./.s.y.j.C.-.&.<.]  X0.] I s.C.-.<.J 8.O.) O.T o.[ <     q -.T T &.<.o.3.[ 0.Q.-.T [ s.3.[ J &.c.x C.M.Q.;X9X/.Q.O.c.O.s.8.f.0.I I.<.[ D s.3.o.H.] n &.0.x x ) x k < ; O     9 Q D D J ] Q.o.8.O.y.O.) 0.J 3.&.n 3.<.s.O.H.*X;XQ.3.-.] 3.y.) H.T ) o.O.[ o.H.[ ] 0.n M.J x J o.n o.q &.x $     D ) &.V D M.&.] [ Q n T ) o.&.o.) x &.n o.C.I.[.9XD.<.c.I ) -.<.) I Y.O.&.V o.k O.] T n x [ k I O.f r n D <       r f ] f D ] -.] &.-.D &.n ] n J Q Q x T [ c.C.,XI.M.O.y.O.-.Q C.O.[ [ &.Q ] V <.T Q Q D Q D x ) D I x r r <     $ x q n V V f k f V V k J q k ] f J ) 9 8.j.C.*XY.s.y.-.O.O.D I s.k 3.-.[ V I ] o.x Q Q Q k J n T s J s 2       2 s r q n 9 [ I < ) J r n V Q k <.n n V y.s.H.[.'.c.8.-.O.Q o.I I J ] J k x T x n f V I V n n V V n f r q   $   < 9 k k f k q D D x q k r J [ Q D ",
"/.-.8.[. XlX<.&.I.*X Xf.c.Q j.H.M.0.O.I x 9 $   $ D 0.f.j. XY./.nXD.f. X9XlXD.,XQ.Q *X4XxX-.tX9X;X;XQ.[.,X[.Y.y.'.'./.;X'.j.M.s.'.C.[.f.&.0.D.s.I.+X) O.O.O.n ;     x o.<.j.j.+X'.c.M.C.BXeXj.V M.M.) Q.c. XnX;X,X4X4X*XI.'.+XD.H.9X Xj.D.&.Q./.[.T I.Q.H.Q.j.f.M.0.-.O.3.f.&.V I 9   ; r [.D /.y.I.I.C. Xc.O.f.I.H.I.D.o.[.s.j.Y.*X;X*X4X'.+XC.M.9X+X0.) c.D.[ I.s.Y.] y.<.j.8.8.s.j.C.f D.J ] x D r     $ n y.o.J ) f.<.;X+XT D.Q.f.f.D.] 0. Xo.M.Q.4X[.+XtX;XC.s.I./.s.D.[.O.O.&.H.M.0.8.f.V y.+X3.o.-.s.[ J s 8.O.k O ; O 2 ) ] 8.s.) c.+X&.-.-.3.) &.) [ c.J &.8.Q c.+XY.;X9XY.H.D.j.O.8.c.O.D.f.q Y.o.r J O.<.I.[ I x <.J n ) D n q ; O   $ 9 s.O.x x ] [ O.o.[ 8.J o.y.D.-.] D D j.Q [ H.I.,XtXy.0.O.T y.-.J c.o.I &.3.) 8.[ ) f.V o.y.] s O.V J x ] s     O V ) s.) s Q 3.o.3.J x s.x 3.T o.8.I ] V ) 3.H.I.4XD.&.M.&.Q <.-.&.V y.0.J o.T n O.) J V I J n V [ n f x x O ;   ; x q 3.T s T o.[ 8.3.k o.I x ) [ ] x J Q o.8.D.Y.*Xs.c.-.o.y.] &.I.x -.V 3.o.V o.T ) [ Q ) x x V T V n 2 2 $     < x s D J J n x n J T x D k x 3.r x 8.k ] c.f.'.[.M.<.T -.3.2 I y.n &.8.D < T j.o.k I ) D n V n o.n J q 9 $     2 x r q s f n ) ) ] V V D s I D c.I k 9 3.j.j.I./.c.<.<.3.Q J ) I Q J J x r J D r n I [ x k n n k x V k 9     ; ; r O.k 9 Q r V T ) r k n D r k Q ",
"C.I.0.[.o. XY.Q.M.f.*Xf.I.8.y.M.3.o.[ T D < O     q c.;X[.*X Xf.;X4X9Xc.4XtXI.I./.[ [.'.'.C.;X,X4XC.eX/.4X/.;X3.'.;X'.j.I.C.C.s.'.<.H./.I.H.0.I D.*X&.8.&.s.s O     f <.M.j.f.+X,XM.O.'.*XQ.'.) C.4Xj.Q 0.[./.Y.9X,X*X XY.eX*X&.c.Y.hXQ.-.) '.'.;X&.f.0.[.H.3.<./.c.8.8.0.-.) T x   $   V s.o.c.s.eX/.c.3.0.c.&.M.8.<.tXQ C.0.-./.C.H. X9X/.[. X'.c.j.[.-.j.Q.&.j.<.s.<.I.I  X8.[ Q.-.y.J s.r Q I V 9     2 I 0.M.0.C.8.)  X'.-.<./.C.<.Y.0.V  XM.Q )  X,XY.9X4X/.0.y.I.C.Y./.&.&.-.j.c.0.0.D.3.Q C.c.T y.8.D T n <.J < $ O   < [ D <.I.0.s.<.y.y.y.) I Y.I j.J s f.M.r o.C.8.M.*Xj.*XC.I.I s.f.Q.8.y.J *X8.J V <.y.3.-.) J ) T V J f f s < O   $ V /.y.3.o.] x O.[ [ H.T [ I Q.0.<.n [ <.T Q Y.c.+X4Xf.<.s.n 8.-.<.c.j.x y.&.) 0.3.y.Q ) ] O.D D ] V n ] J 2     9 D V &.] J Q 8.&.) ) o.0.n s.D ) 0.D V n I o.j.C.Q.H.D.c.T I <.f.0.) n J T <.<.f ) ] 3.n V x V n I I V x k O O   s ] f 8.-.f -.] [ O.c.s Q V x I ) D ) T [ &.o.s.j.Y.j.C.3.<.f.[ o.<.Q I k f.V [ T &.I s O.O.x V k Q k n < 2 O ;   2 r < n D x I x D k [ f f J x x n I k 2 -.0.y.M./.C.-.Q s.<.r J ) T T [ D s D f.[ D D J n T V x ) x k < < $ O   9 D s s r q s ) J s r D s f V D O.T q 9 &.C.0.c.D.c.<.8.3.O.n Q V ) D J x k J T f n x ] J V J V k k n r O O   k 2 s c.q q O.x x J ] s k Q T 9 f O.",
"&.H. X;X3.<.*XI./.3.s.D. Xy.s.j.o.[ &.Q n     O 2 O.[.C.f.Q.sXc.C.c.tXy./.c.;X*X X'.I.C.C.hX[.,X4X[.4XeXQ.4X+Xf.3.H.4X/.j.j.C.D./.y.Q.+XC.f.&.0.H.Y.&.8.Q <.s   $   $ <.C.) 3.eX9XeXM.Q 4Xc.;X3.I 4XtXs.] '. Xy./.;XtXeX/.*X*X X3.I.tXC.y.<.M.*X'.I.c.+Xj.y.) c.'.c.-.3.s.3.] I 9   9 $ O.<.c.M.Y.c.[.-.C.H.3.+X9X3.o.'.O.-.I.H.y.H.Y.I.Y.sX*XI.y.'.f.C.f.c.I.C.o.y.y.y.M.T [.&.T  X] o.O.<.x J ) s $     s O.s.y.y./.&.&.H.H.D.&.[ I.8.y.<.f.j.D.) ] c.9XY.'.4X*Xs.y.f.Q. XD./.0.-.T Q I.y.0.&.) c.-.V J I D y.8.D q ; $   ; I ] ] I j.s.[ s -.[ 0.M.T 3.[ -.D D [ ;X] x &.H.c.+XI.Y.'.M.D.M.<.] C.s.T -.<.) O.&.-.[ 3.I O.I ) D n 9 q r $     s o.C.] <.-.] ] ] o.] C.s.) s &.y.) Q [ 0.n 3.D.M.H.Y.f.0.Y.O.] ] c.s.O.T O.] T &.I 3.I ] f.[ T Q D T D T q $     s J V Q V o.y.-.) f O.f.I J 3.] I 0.x V D ) &.&.f.j.H.'.0.J ) &.Y.&.Q n f [ <.j.s T ) 3.T r x x D x T D k f $   O k <.T -.&.k 3.o.] J f.T T r D V V r &.J I ] ] 8.M.y.Q.M.j.f.-.-.O.f.Q &.n O.J -.s o.I k o.) D T x D s f < $     $ 2 n 2 T D q n x D x Q s k k I s s x 9 x ) Q 0.3.M.M.0.O.j.[ V ] V ] n D J T D J <.s o.s D I x k n s 9 ; O   O $ q T x D k f ] &.k s x T n n V f k D x s Q D.3.y.s.c.f.c.<.o.V ) D T T T n n Q I n x x T D D D n k f r <   O   r r r 3.s k ) J f s J f f T x r s J ",
"D.H.M.9X0.C./.0././.&./.Y.o.Y.c.D.s.-.k q   O   r -.M.0.Y.H.tX9Xy.,X;X-.0.Q.;XeX4XY.<.D.8.hXY./.,XhX9X+X,X'.[.j.j.-. X4X8.D.Q.j.[.C./.;XY.j.I 3. XH.] 3.n D x   O   O.M.'.f.) 9X XD.;Xy.M.T '.+X'.f.H.3.M.<.hX&.xX9X X4X*X/.M.+XQ.C.,XD.C.'.Y.H. X<.-.'.D.8.8.8./.H.<.o.8.3.I 2   O   ) Q j.M.Y.[. Xs.j.f.] j.) [.j.s.8.O.y.[.*Xs.8.y.4X+XsXH.+XQ.Q.f.) [.y.'.y.Q y.s.f.0.Q 8.[ 0.O.H.&.V f.T f k O O $   s y.'.M.-.8.I.O.D.C.3.f.c.o.[.Q o.&.j.<.y.D.-.;X'.C.*XQ./.'.[ f.[.[ c. Xf.I 3.H.j.O.f <./.V 8.D J I 8.C.q r     ; T c.T D.&.c.[ -.C.-.k [ ) Q D ) T I o.Q s.s.J T I I.y.I.;X[.3.C.Y.y.I <.y.8.] Q y.-.Q -.O.Q V &.k <.J D r r 9   O 2 Q r D I s.;XI.T T k ) V C.<.f D o.f V 8.O.I s.c.D.f.I.c.D./.I.Q o.&.H.[ V f.o.o.O.] ) M.D &.O.V J f [ J r   O   < r x ) O.k ] 8.O.x ) T 0.I k J ] k 8.k I n D J Q <.0.M.M.&.<.s.[ c.o.r o.3.J f.3.J ) x k 3.9 r n ) f T x r q   O < q O.] ) ] k V 8.D I V 0.D f q O.n f f Q s D V <.8.8.C.j.3.s.j.-.f.-.V O.s.] J <.I -.n x I -.Q Q V f q < ;     $ q q o.s ] s r 9 D D ] n k I T s D Q < k 3.x k s.&.8.f.y.O.-.D D 0.[ O.n n f n n &.Q n ) V k x s f s r 9 <     2 9 f ) V T n s ] T q D f k [ r V 9 x J &.f k M.-.3.3.c.H.Y.&.T D o.Q V ) Q J f Q n n f T T x x f s f s 2 $ O   r   k q x I V D ) x 2 x n f J r J n s ",
"4X+X8.c.c. Xc.<.I.,Xy.s.'.f.j.) 8.M.) f 2   O ; f s.;Xf.tXQ.*XsX[ tX;XO.C.[.hX8.4XeX8.f I.tX,XlX+X4X X'.hX[.Y.Q.y.3././.Q.H.f.3.Q.D.H.;XH.c.M.f.f.O.<.f.I r     $ q y.Q.Y.+Xo.'.tX'. X,X3.c.3.8.*XD.j.c.H.o.*XY.[.'.*X X,XQ.8.[. X/.9Xj.3.*X4XC./.c.O./.H.c.s.I.H.D &.j.&.0.x   $   s ] x *XH.s.I.9XD.O.eXD.] <.s./.y.&.<.3.H.Y.M.8.j.I.,X/.+X,X*XY.f.T Y.D.Y.3.3.s.Y.Q.&.) Q j.M.f.y.J V c.] V ; $   O q -.T 0./.c.O.c.M.[.[.H.I ] j.y.<.Q O.O.J c.y.o.-.9XQ.c.I. XC.8.M. X<.&.,X0.0.c.y.<.&.[ '.&.V 8.&.o.3.<.T <       r o.3.] Q.<.D.s.Q [ Y.&.3.x ) Q [ 8.n V O.O.D &.s s.Y.c.0.Y./.C.H.0.Q [ j.'.V [ ) 8.s.-.T D 3.Q 3.9 n r V O O O     J 8.x f.[ k 0. XY.] D J 8.[ M.x Q J O.r ] ] x y.o.j.3.&.'.Q.c.j.8.y.) f.&.k D.3.[ M.T I [ x y.[ J V ) T r $ O   ; k Q D D Q 3.o.&.[ Q ] [ <.x k Q [ J n Q s < T Q T &.<.-.f.f.C.0.I &.y.D ] s.Q ) ] ] J n T V T s x n n k 9 O   O q f &.D T O.s.n [ ) ] V r x I O.x s V f ] T s s f T O.o.O.f.C.y.<.O.H.O.V ] I.) I -.Q V Q x x 8.V k k 2 r < ;     ; q 0.[ V T s q s k s r k n f n 9 [ T s 9 &.s s ) &.-.O.0.;X3.V &.] s.x k T I s T &.9 f ] ) s s f D f O.O <   O 2 $ k ) q D J x x k I T q f f.I q q V -.D s r ) <.8.-.8.j.3.D 0.I O.) D o.Q I D J D n r x Q n x J f s 2 2     ; r f r r k V D n ) k s q q D r 2 f ) -.",
"tX+XY.H.T ;XC. X8.M.j.f.H.j.s.J 3.<.Q 9       q o.D.[.4X;X[.tX;XD.8.C./.8.tX,Xs.Q.sX X] D.D.'.,X+XeX;XY.*X'.*X;X0.j.+Xc.[.;Xf.c.'.C.M.*Xc.&.j.;X3.Q -.y.f ;       3.Y.y.M.'.y.[.+XD.M.Q.Q.+X'.'.O.o.f.,X*X8.O.C.lX+XY.*X9X/.8.I.Q. XY. Xs. XD.[.[.H.Q Q.c.H.c.H.8.I &.C.o.D 2 O   ; Q 3.J H.9XM.y.Y.f.-.,Xs.M.k j.8.0.8.0.C.D.c.[ 8.[.f.H.s.[.9X X8.[.-.'.f.<.c.8.j.I.+Xf f.O.&. X&.J [ 0.-.J 9 ; O   n r o.n T x o.[ C.3.O.[ M.H.I.D.Q.n V J <.) x D -.8.*X*Xy.D.c.I.D.c.c.3.I [.j.C.8.[ O.o.C./.[ D 0.] O.O.D x $ O   O J O.D.o.j.] s.c.y.3.] [ C.D <.<.I -.n s.o.x -.Q x I Q.o.&.j.Q.f.I.Y.I 3.s.I.o.o.) Q f.Q [ n J Q 8.o.k 9 s   $ O <   T Q.-.[ s D <.-.) <.3.I [ M.C.J ) V &.[ ] O.n O.3.M.8.[ ) Q.c.C.C.<.3.V f.D 8.[ [ -.O.&.-.s 0.) J k D D q ; O   O Q T <.o.f [ &.I ] ] <.3.3.k x O.H.J T ] J x q k D T 0.[ <.H.D.[ -.f.V [ [ [ n T D ] O.T I n ) Q D V k q $     O < 9 C.] I D.[ T q s [ O.O.I x n J k J x I x 9 q n x D ) o.3.0.<.[ s.f.O.o.o.[ ) Q T [ Q T I n [ r r f < <   O   < r f ) T V J s f x D n r r s 9 n x J k f s ) s q D n &.) &.y.3.] [ o.T ] V Q T n I V x q o.n k f n s r q       ; 9 2 s ) J Q n q x s q n V J o.x s k n ) k q 9 n T ] [ &.<.-.] -.Q f.Q Q ] o.I D J V x q f ) I k J f q ; ;   9 < r k f r s D ] ] J x s k n k k 9 f Q &.",
"D.M.*XQ.3.O.D.H.I.C.Y.y.3.j.Q.j.-.I V O   O < J 3.j.<.f.9XI.lX;XeXf.,X) 8.<.H.Y.M. XI.I.8.y.Y.*XI.[.*X,X9X[. X/.'.-.4Xf.C.c.c.D.I.f.8.Q.c.-.f.4X0.D T [ 2 ; O $ I j.hXQ.J T I.9XsX Xf.8.Q.*X9X;XH.q Q.[ -.+X4Xf.[.[.c.'. X*X/./.Q.Q.f.C.+XY.C.[.+X X-./.C.c.M.0.s.[ Q C.&.2   ; O D <.Y.x '.,Xc./.f.f.c.O.s.Y.n 8.J s.8.O.M.-.V y.Q.D.f.&.[.M.H. XC.D.Y.I.f.Q s.c.0.D.D.I Q.3.Q *X] k s.I.n k ;     s f.[ j./.I.9XT *X9X*Xn Y.8.[ M.O.M.T o.I [.y.V D [ <.s.Q.0.0.D. XY.M.<.c.D.f.3.C.8.0.s.T 0.y.&.T &.) O.k f 2   O   q 8.) I.D. X<.M.-.M.3.k 8.M.3.&.O.Q f T s.V T 3.-.k f O.I I.3.8.j.I.D.&.8.j.j.&.Q &.V [ D 8.] D ) Q 8.f q ;     < s k s.c.O.T ) y.<.) I 0.j.<.T 8.j.y.r x [ y.I -.J Q y.f.[ Q &.-.j.j.C.-.o.[ -.<.-.] -.O.] <.<.I ] D Q k q ;     $ f x ) I C.&.r D &.3.T T Q T D 2 f [ j.D D D k k q k V n -.D n 0.H.8.&.-.I [ ] ] s s.x T 3.Q V f D Q D k 9 ;     $ 9 Q Q k J I 0.o.V I V Q D T f q x D r x s f s x J s q V ] Q J ] 8.3.s.) &.8.y.V V 3.x J f 2 J I O.q s k < ;   ; < q I J s x f s f D Q o.) n f f r s D r < f x k 9 < < D ] y.T ) O.&.[ o.s [ V V I ) x k s V D k s s k s q O O   r < s D x V D I f J ] D q D [ Q V I Q Q V V r f V s f V T ) Q ] O.o.] f.I T o.-.T D J V V f f T Q k D s <     O k q 2 9 s r q x ) D ] 0.r 2 [ n s f x I ] ",
"'.Q.I.;Xs.] c.,X[.j.y.<.y.j.H.y.] s q     2 I 0.H. X*XM.9X&.;XeX;X/.'.+Xs./.M.s.H.9XQ.3.Q.8.H./.3.M.'.,X9X4X X8.*Xc.tX'.8.f.H./.H.I.j.Y.D.c.D. Xs.J f x ; O ; I -.C.,X+Xy.O.<./.+X4XY.y.s.D.9X*XtXo.[ J Q I.[.I.f./.j. XH.Q.[.[.+X XO.f. X+XI.M.I.'.C./.Q.-.C.] y.f.] I s 9 O   I -.I./.Q xX[.D.c. XO.0.y.o.f.8.&.T s.) J M.f.3.D.D.c.V x <.s.M.'.;X/.;XI.H.O.8.M.O.c.f.y.C.] 8.D.T s <.3.; <   ; < [ M.j.-.C.Y./.H.[ [ H.) J c.s f n -.J [ -.M.C.j.[ f <.o.y.s.y.<.s.j.8.f.,Xc.C.O.O.] <.y.o.8.O.I &.0.r Q x 2     ; 9 J Y.V s.M.;XC.f.Q ] O.I J n I x x ) s <.3.D x s.I x 9 T [ ,X&.I 3.j.y.j.y.M.&.O.] <.I n [ 0.&.o.O.s Q q     r   k x V 3.c.] T s.y.I T ) 9 k D ; s Q <.2 k D &.V [ ) [ 8.0.] <.M.J &.&.s.] O.-.-.o.8.[ O.3.T <.T <.n D Q s ; $ O < q V r o.I o.V 3.8.J &.Q I n f s r k D V D f x k k Q n 9 D s Q [ Q  XC.-.<.<.I o.) f 0.J J &.J D V k x k q $     $ 2 r D H.2 V k x 8.s n f V 9 f 2 9 f D r f k q 2 f n Q r r T ] I J I O.o.O.s.I [ ] Q Q s V V k J D V q 9 9       2 q k o.O.n &.) x V k V T J f q r 2 2 V 9 q x I n f T r -.) y.n D J ] O.) J D V x T &.V V x [ J D x r ; 9     $ ; k 9 9 n x f x V k ) ] D f n V s 9 x D J x r < q D s r f D I J Q O.O.o.] D k -.o.I D J D T D f V V s k 2 O O O $ f J s r D I n D ] x n -.n q V < s r r V ) ",
"Y.s.Y.[.'.M.o. XtXc.J o.Y.D.D.3.n <     9 f s.I.'.f. X'.4XD.'.j.4X*X;X0.I.j.c.,Xj.+XC.I.-.C.Q.y.Q.;X*X[./.9X;X-.y.tX*X/.-. XH.Q.y.H.c.c.<.<.8.j.o.J 9 2     q I.Y./.;X/.y.I.<.y.Q.+X XD.J T D.I.[.Y.o.D.-.V /.f.j.c.&.;X'.M.I.+XeX XD.f.4XC.*Xy.s.M.j.Q.Q.&.C.T c.s.Q q   O   V 0.y.[.-.0.,X+X'.*Xf.9X0.j.Q I s f I &.) Q [ V k y.Q Q k o.s.f.-.8.8.;X0.j.s.] s.0.[ H.Q.<.&.D Y.j.I q D f < O ; ; &.y.D.Q.-.[ /.D.eXf.D.V <.D Q 2 n q ; n f r ] y.C.&.f C.f.y.M.[ I.0.8.C.'.I.f.y.] o.f.0.-.3.<.I O.o.T r n   2   q x I &.+XI y.j.C.8.J o.k n 9 x x 9 s ; ; 2 2 o.r < s.O.s k V &.c.[ J J o.-.3.s.y.I 3.8.) [ Q 3.] D ) [ r 9 O <   $   T y.O.-.I V n s.c.] J x V n k 2 k 9   2 r 9 f x k I <.<.o.o.<.I I ) Q o.Q -.8.o.0.V D.I O.] 3.f o.k V r ;   O 2 V J -.T J ) [ k j.s.9 V f x f q 9 s q $ < r < s k k D 9 k   I x -.8.f ) ) 3.n D <.Q Q I ] J ] V T I k s 9 ;   O ; < 9 q D O.x -.8.D T D r f J q r q 9 2 r < q n r 2 9 2 T k x T I x f s I x [ -.k T <.I s V n T ) n f 2 2 ; $   9 q k s r T Q J M.8.n x s s k k r q q 2 $ r ; r < x n f I q T n 9 x J I D ) n o.x V Q I T J r J n J f s f $ O     r r V I ; $ r f D D D n D V x k r 9 9 ; 2 q f r ; < n r 9 q x J Q ) ] O.[ J V s ) J D n n k D D s r q 2 2 O   q 9 < q s < 9 n D s s V f q x f r r ; 9 q 2 r V ",
"Q.C.I.c.eX/.D.*X8.[ Q C.4Xy.) r < $   ; T Q I.[.'.j.tXM.*Xy.o.T o.[.tXO.Y.Y.T  Xy.0./.+Xf.o.C.<.'.H.f.H.I.+XeX;XM.,X/.8.0.Y. XD.j.D.M.'.C.s.0.8.V s   O 2 f T ;X[.y.D.Y.-.,X*X;XH.j.Q.,X8.T I f H.f ] ;X/.k y.s.c.y.I C./.D.M.C./.+XH.eXD.D./.Q.c.f.&.Q.M.0.f.J 8.) 9 $ $ < ; O.j.C.c.-.3.D.*X;XO.&.8.V y.] o.k q k < 2 V V T 8.Q D T y.<.M.j.&.c.f.C.-.f.s.C.*Xf.T '.I.O.I o.f.-.D q q   $ < O.c.&.V c./.hXD.y.'.c.&.I r s I f f r r s   ; 9 2 V T o.) j.s.&.<.n -.0.y.Q -.8.[ c.o.) f.<.) s.8.] V D x   < ;   r ] O.y.y.;Xs.H.&.M.&.) D V D [ f n x D q f k $ r   < J 3.k O.s T ] D n J n D T ) -.T O.o.n &.] ] V k f r <       s D I x &.[ f.H.[.Q f D V k I x 2 q k k f 2 r 2 O O r O q o.[ J Q I D I I.j.V n Q V 0.D ] O.) J Q Q n k 9 ; $     O < J I j.s.f [ y.V J ) k J I ] [ ) x J J x r $ 9 < ; < O f r I f q T s s s n T 2 J T ) V J Q D I k n s 9 ; O   $ 9 f x x x o.V x O.c.Q D ] I ) &.T k J V s 9 q ; r < < 9 2 ; r I T s < s V n r k f D Q ] r f ) q s n < 9 9 ;   $ ; n D D f r I V x o.J f D I D D D n V V x s s < q   $ 9 $ V r ] n q T 8.O.n V s Q V k ) r T Q n D n k s < ; O   s 2 I k k y.Q r x k V D I k J Q J x x n x f r < r 9 < ; x r q q s n I J V ) Q Q D n f k k s f 2 q f 2 < < $ O O ; V f 9 9 q r x I J k x J s V V k r s x k D q 2 9 ",
"-.M.<.+X X'.j.j.c.O.y.H.C.) D k O $ r x f.j./.[.4XI.[.] xX;X0.&.D I M.O.O./.8.Q o.D.s.Q.I.<.x c.4Xc.o.M.M.f.s.c.,XQ.+Xo.C.c.,XD.s.y.y./.c.8.[ V s ; O r T f.M.[.lX XM.[.,X/.[ <.s.V n x x s s < 2 2 k Q 3.M.r ) s.M.o.-.j.f.0.3.j.c.D.I.D.y./.Q.I.0.] D.8.&.o.x 9 x O < f I Q O.I.D.C. X8.D.H.Y.O.n Q n x O.] n k J f 2 q 2 ; f -.V n I ] 8.'.) D.'.] -.&.O.M.H.f.D M.&.] V o.J s q < O $ 2 V H.[.3.f.D.&.D.f.) ) V x -./.M.<.T o.) D D V s ; < O   k n V O.n T o.] &.<.&.o.Q [ [ J T 0.0.[ T n n x 2 O 2 $ 9 k T 0.3.C.s.[.Q.C.8.8.f I ) +XH.-.o.j.0.o.V I n q 9 9   < O D O.) n V r x o.n [ T f T I V s x T n f f s ; O O < 2 V V J O.3.<.J f 3.Y.&.D T O.[ 0.o.I [ &.I T O.q n 2 < < O   k x D J V y.Q 4X'.n x q n n n J r D k f 9 k 9 < O ; ; f x x ) x 3.3.) ] ] V n O.O.&.o.o.O.<.D D I Q Q x V q ; $ O V < I V < r r [ 3.) T n D q J 2 x x k f q r O < O O $ 9 x J I J J J <.[ n J T 8.&.I Q -.0.T 3.o.D Q o.k s $ O $ $ O $ q k f f x k f k V s f s k s 2 n 2 2 r $ $ $ $   ; < n V V s ) <.I D V x I ] ] T I I D D D n ) T k x q < < O 2 < I 9 9 < D f V n k x D s n 2 s r r ; f O q     ; ; J k J x 9 0.c.] Q V I Q J V J T I V V D n T D 9 q < 2 $ 9 r q q r f f k x D T T J V f s r 9 s ; ; q ; ; ; ; < 9 r T k q 9 9 s x n n n x n ) D I o.I 9 s [ ] k q s ",
"I.0.D.Y.I.H.f./. X) 0.8.Q x r $ $ < Q ) [. X/.[.9X'.H.8.C.*X-.Q D r n f r q V 9 r r T O.Q y.f.-.[.C.[ y.H.+XY.0.c.+X'.] c.[.c.M.f.j.j.C.] D n 9 < $ k [ -.+X;XQ.tX X+XlX+X&.) J ) ) y.Q <.] J k f s q $ 9 9 V ] o.0.&.&.y.-.y.[.y.0.3.[ f.y.C.y.C.o.[ y.O.n D r 2 ; O M.H.T <.4X/.O.+XtXj.j.o.T O.0.3.<.Y.-.-.O.&.c.c.D 9 r < ; 9 I I y.9 <.[.<.j.Q.H.<.O.I T Q ) T T J f n 9 s ; 9 < $ Q [ f.+XI.f./.y.*X Xs.] o.8.[ ] H.C.0.[ [.&.[ o.-.T T s 2 $ ; O r M.Q &.3.s 0.C.o.f J ] J n V n J V 9 k r 2 < < r < o.3.o.y.[ j.3.H.Y.o.] -.c.I [ s.'.Q Q ,X&.o.) D 0.) n 9 s ; O $ V O.J 2 2 ) o.I ;X&.n r f x 2 k < r 2 2 ;   q q D k ) I <.] y.I M.Q.D T ) 3.-.s.8.0.T O.] <.0.J &.I 3.V x $ s   O < k J n [ ] 3.<.f ) -.V V ) V s s r r < O < x D 2 q J D f I s f.Q.] ] T O.O.-.-.C.<.[ &.M.&.Q J ) ] o.k f f < ;   ; q I r 2 9 x I o.O.f s k x ] q 2 9 < 2 s ; f q 9 q f V J D n x -.T J ) O.&.-.f.<.) ) -.s o.) D Q 8.T I f q ; $ ; ; r k r q f k ) n x k 9 q s 2 2 2 < ; ; < ; ; k f k f J J T D O.3.x T Q o.O.V ] T I I V n n k I J s x J r ; $   9 9 s ; r f Q x D V f V n q n r k 2 D J T ] Q T T Q Q T k ) f J f.T I ) 8.<.n Q n n T T J J J I Q n D n V 2 $ < ; 2 r r 9 s D n Q s J k I r q 2 k 2 2 q < ; ; q r x x ) f 9 q J D n n I ] T x ) Q [ T D V s s &.D x D ",
"/.H./.f.D.'.s.'.j.Q [ ) s r q   ; ] *Xf.*XeX*X,XeX X-.[ T ] [ -.&.J [ o.f n V r q ; < r J [ &.8.j.[.<.y.M.9X,X X0.O.-.-.s.C.y.3.f.I T Q x f s O 2 T <.M././.[./.9X*Xy.8.o.8.M.j.j.-.D.y.H.C.M.Q C.Q f 2 ;   < T 8.) I s.+Xj.&.M.j.9X3.<.] ) D I x J x x J 9 s 9 n s r 9X8.o.*XeXy.8.+XhX&.-.D.c.y.M.c.0.[.o.[ j.n o.D.0.) T x s $   < 9 ] ] H.c.o.o.[ f.) 8.o.I Q n k < D q $ f f k T -.f.o.Q.4XD.) [.[.'.<.[ 3.Y.Q.O.j.3.C.y.T c.j.] &.T I &.[ ) D O 9   $ o.y.[ D k y./.H.j.o.&.D I n ] V D q f I r q V 8.c.+X[ /.&.j.s.J ) <.0.M.y.D y.0.I ) ) j.y.J f.J c.I D q O.s   2   o.9 < V <.y.x V &.s <.) 0.I s [ n k k f k j.T k J k I -.I s.o.s.Q I f.C.H.0.&.O.y.x 0.J Q s.O.r ) 0.T x 2 I r   2 O 9 J Q Q <.-.[ q Q ) s.[ ) D s ] J q x k I I Q s [ <.-.n r &.j.o.-.y./.<.&.Q f.Q.&.V j.<.3.[ Q T y.T n x q r $ O O r f r 9 ; r O.k k x I *Xo.r r s 9 J D 9 O.I n r D O.T ) k Q I.[ -.O.-.o.-.8.I y.J o.J k O.] k T [ -.9 k r < O O   < s q r T I f Q D 2 n ) n 9 0.r 2 < 2 2 I x s D x Q V T J T D [ o.[ o.] T T ) I o.n x V J n n x T o.s f q ; O $ 2 < 2 D 3.I V f x ) -.-.<.o.-.&.T r D k q f q f x I V 3.C.Q T ] Q Q Y.] D x J I 8.[ D n Q Q -.n I T Q x 2 $ $ q f r 9 q r q V s q n q J x s f q f k 2 q x s 2 D s s D q V D V Q T I 0.I J -.T D I J o.D f V ) J I ",
"s.H.f.Q.M.C.<.3.) x r n r $ < n f.s.H./.,X;X XI.C.0.-.8.s.I.c.Q./.C.f.C.[ o.<.&.k f r $   < q s 0.s.c.f.&.hXM.+Xc.O.T Q I J T T n n n q s 9 f I <.Q.[.Y.4Xc.eX/.hX/.&.o.j./.;XY./.H.Q.J s.y.[.y.0.Y.) f Q x $ O 2 f 8.-.-.Y.0.0.I.+XY.tX'.) 3.3.] D Q k J ) -.H.V ;X] j.Q./.xX/. XC.f.&.f.<.*Xc.y.+X-.c.I.f.c.Y.C.I n o.0.I k J r ; $ ; s 9 &.y.f J 3.] &.H.c.D Y.&.H.M.9 8.0.f I.-.j.I.;X-.3.+X0.&.H.s.y.y.I.4Xj.[.C.8.y.0.3.[ -.] f.f.3.o.V V [ j.x < ; O O 2 n ] 8.o.M.C.3.Q.<.T 0.s.Q.&.f <.T s.I 8.o.8.c.I.Y.0.8.c.I T s.Q.c.O.C.I.j.[ o.y.O.&.&.D [ &.J k D T ) T k 2 ;   $ 2 n Q O.n n I y.Q Y.s.I y.Y.s n -.o.) +XT D s D <.3.Q 8. Xf.O.8.3.o.H.0.j.&.&.y.&.V j.V ] o.Q <.x I V J D 9   ;   k J n &.8.n J ) M.[ 3.D 3.2 x ) x I O.] J x D o.[ 0.Q s.O.O.<.<.y.D.[ o.J ) f.M.&.3.I <.0.I ) &.Q ) n 9 V k $     2 < f < q J J O.) V y.J q k I [ y.J x Q Q J ] I J J V V [ ] -.8.D.8.I 8.T T 0.T D ) V Q T Q f x [ D n x s 2 $   $ 9 9 s D f f D [ f O.I f D 0.D J x x q x D I x T n I [ O.) [ &.3.] o.I o.Q n x y.-.V f D V k f o.[ f q r 9 ; O $ ; < x ) I k s f k D J x r O.Q f ; J ) 2 O.x r q I Q &.8.Q ) &.J n ) x 3.[ f I s.f s O.O.D Q ] I T T I J 9 ; < 2 < 9 r q 9 s f 2 f s k k x n s k x s k x n x n r q x V T J T Q J I y.) n O.I I Q V ) T T J T O.I ",
"-.O.V O.I Q J J s Q 9 ; f o.Q ]  X*Xf.Q.4XsXhX'.j.8.C.D.Y.+XC.;Xj.[.-./.J M.3.0.D ) T s O $ 2 9 T 0.[ -.D.f.hXI.Q.y.j.*X/.s.O.J J x n V 3.Q./.-. XD.Y.8.C.;Xy.-.s.y.+X Xf.8.*XY.Q.sXY.O.] y.f.M.s.Y.f.o.[ T r < ;   V T J  XH.s.y.;XD.sX*X X*Xj./.y.D.'.tX4XM.I [.,XD.y.I.sX[.0.s.j.f.H.I.o.Y.j.s.D.-.3.j.+X3.f.s.c.0.O.3.o.J r x r O   $ < x x k ) [.D.f.o.-.<.tXc.&.O.8.lX8.V 9X[ s.D.C.Y.D.'.I Q  Xc.j.Q.&.c.y.'.D.3.I.j.3.s.3.<.I.Q [ D.8.n -.y.V s 2 < $   9 Q 3.s.f.y.'.-.o.[ /.c.Q./.) 0.[ 8.Q j./.y.'.-.M.8.D.sXj.s.*XH.f.O.D.I.3.o.8.8.&.s.<.<.] ) ) o.V s.) x V r 2 $ O O q V O.) x q &.j.-.] [ &.f.n n J O.] <.x ) T O.&.Q V -.0.y.C.Q.<.O.3.8.j.M.<.8.<.T 3.j.) T D J D 8.O.T V q $ 2   ; s k Q &.J I ] O.] Q n ) I 8.T ] y.&.D <.8.O.D ) x [ j.j.0.f.&.O.0.o.0.-.-.-.0.] 3.] O.<.J O.T T <.Q 9 n k s <   $   n 2 2 r n [ V q J J f 8.I.j.0.) [ V ) x 8.) f Q Q [ T T j.f.M.O.3.M.D ) <.o.f o.) D T 8.D V V x J T r q ; O O O < r f x V x n 2 [ I n x o.o.&.k s 9 n &.I Q x ) x 8.o.Q 0.y.0.D o.Q 3.V J D o.) J D V n x f [ J n k x f 9 $   O < r x V q r s q s k 9 2 T s k < s I 9 T x V r I 3.-.o.<.3.0.) O.Q k D.J q [ D.n f &.) n x -.T T I I T n q ; O $ q f r q 9 n 2 s k q x k n s f k k x s I Q n f s n o.O.o.<.O.T n Q T I O.V D Q k I Q [ J V <.n ",
"+X3.0.o.Q J n V &.-.T O.y.'.f.'.;XxXI./.9X;X[.D.[.H.H.c.D.Q.f.M.'.+XQ.I.M.c.0.<.] <.&.I q O O   s Q k O.C.+X/.M.Q.O.s.;X;X,XH.f.C.Q.c.Y.*XsX XH.Y.tXhX*XQ.sX9XhXj.Y.'. XtX[.M.s.M.[.Y.-.D.c.[ 8.[ 3.Q.y.8.C.f q 2 O ; T k y.Y./.8. X+X) eX4XtX] [.D.tXs.*XsXI o.tX+XQ.tXY./.sX,Xs.f.I.eXD.<.I.0.;XD.D.) s.*Xc./.M.s.3.c.y.] n j.V J f <     ; r < o.C.y.&.o.y.f.+XM.D.C.I.Q.&.+XY.<.] O.j.tXI.Q.V c.y.[.;XQ.I.s.C.Y.f.M.I.y.] j.y.o.] T O.D.f.V 0.<.V T n 2 O $ O k &.] H./.3.J f.Q I.c.C.*Xf.3.V o.[ -.8.) ,XI.s.<.Y.H.c./.M.y.s./.I.<.<.y.y.0.] o.&.0.H.-.-.J T n 3.) q I V < $   O f ] ) x k f.s.I O.D 8.Q O.n x T ) 8.f.f 3.O.O.n 8.C.] c.j.y.O.J c.-.M.] o.H.3.o.Q M.o.-.-.J I I n &.<.x n 2 ;   O x f T 8.3.T s ) 3.J V s.0.J f.M.) r o.M.-.) Q <.o.j.0.c.[.C.y.-.o.&.<.D.J 0.s.[ I 0.s.I O.x V 8.8.s r q x s ;     s < < n D T k x I O.V ] O.) n x V T x T ) J k <.O.3.] f.M.D.<.T D.<.-.] [ <.n ] -.D ) -.D D D s T -.T q 2 2 ;   O r r q k V q f I V s D s k Q k V s r -.J J T T O.<.O.s.y.3.o.V s.<.I x o.] J x V T J x I I J s D I x x f 2 O   $ 9 r f s s s s s r r r x q V q 9 k r 9 f ) s J c.8.[ 8.<.Q J j.y.f &.V T Q [ D n -.j.k s ] ) Q T I n V f 9 $   2 s r q q n s f f 9 n s x f s s x D s V Q D x x T <.3.0.8.-.<.Q k V ) 3.V n Q n Q ) o.k k [ V ",
"j.8.9XsX,XH.j.8.c.s.H.I.j.;XH.tX+XQ.'.eXxX*X X+XeX*XM.y.Y.+XQ.s.+XD.D.f.D.f.-.y.0.s.3.<.) s q $ $ ; x I c.hXQ y.eX0.C./.I.eXQ./.9XC.-.tX X4X;X;X;X'.Q.&.H.eX4X/.*X X[.*X/. X/./.M.M.j.o.[.;X[ 3.] c.c.T s.4XI x 9 2   $ O o.8.s.j.0.[.T ;X*X[.[ 0.tXY.T tX9XJ &.4X*Xy.Q./.eX*X,XI.Q.hX9XQ.0.H.8.I.D.D.&.j.f.H.I.8.M.3.o.] /.[ [ 3.o.V q ;     q 9 0.y.o.<.3. X[.H.M.0.f./.f.x D.[.<.D.M./.'.,X&.O.;XH.4X9X/.c.[ c.f.j.H.M.o.-.M.8.o.] <.] M.0.T ) 8.T [ 3.k   ;   2 J n s.H.o.J j.c.'.8.j.;XQ.] s 3.c. X<.j.[.'.s.H.O.y.C.y.C.) s. XC.<.0.3.&.j.M.Q 3.J <.&.o.&.&.k &.J k ) q s ;     $ f J n Q j.H.k <.T M.O.o.<.n <.&.f 8.O.f.s.f.s 0.&.C.+XM.j.[ [ &.I.<.T -.y.3.o.T &.3.) f.8.] n s Q [ f ) q q     r r ) 3.j.V O o.<.0.Q -.-.f.;X&.I n k f.y.) f <.&.3.c.+XD.*XQ.o.[ ) o.Y.[ j.'.o.V O.8.0.I f V -.j.n r n f f x     O < 2 V J ) V D V [ f T s ) o.-.q y.J M.s n I 3.) 3.j.Y.j.D.3.T s.f 0.O.T 3.o.T <.J ] <.x n <.k D ) [ q r k q     q r q f f < x ) V r J q k Q k n k f Q f ) ) o.y.-.8.H.8.M.0.n [ -.x ) o.[ O.[ k n T n Q O.n x D J f x x s ;     < q f D k r n s $ q r f k n r n k s f s D s I c.3.&.3.-.s f -.C.x n V &.J r D T 8.Y.k n V o.T Q ] I k f s <     2 9 q f f k f r q x k D V x f V Q k x V J x V [ -.0.0.&.o.8.3.I D V 8.J D ] D ) ] <.x J D T ",
"Q.;X;XsXD.8.'. XQ.D.,X[.j.,X'.,XnXI.,X9X[. X*X/.+X;XY.M./.'.[.C.Y.*Xf.f.O.;XH.I.8.0.[ &.] k f <   $ ; < 3.s.[ 0.Q.f. X4XI.;Xf.j. X*Xc.9Xc.D.I.*XhX,XtX8.8.9XQ.4X+X4XI.H.+X;Xc. X'.+XC.-.y.+XO.c.C.Y.O.] &.D.8.[ <.k ;   2 y.&.I./.T s.f.0.sX/.<.[.tXsXQ f.*Xs.*X/.hXlX,Xj.*XM.xX/. X*X9X9Xc.-.M.s.<.f.s.j.M.&.] -.c.3.&.T H.) T -.f.3.q < 9 O   < O.8.Q c.o.C.0.I.I.j.*XM.I.y.T &. Xc. XH.,XQ.s.<.H.*Xf.s.*X8.j.I.s.C.f.H.o.Y.f.o.<.I.D.D C.&.[ I 8.&.O.O.Q < $ O   $ D [ y.f.T ] ;X*XQ j.I.j.D <.3.0.<.J 0./.+Xc.3.D.*X4X'.C.O.f.D.0.0.0.y.<.&.0.8.j.s.<.] ] Q f.s O.<.2 f T x 2 $     r &.J x J Q.D [ ) &.j.k 9 T s.&.[ ] o.) o.&.3.C.j.+X'.c.f.Y.s.) &.j.O.j.D ] y.-.0.&.I -.s.) o.o.n x r J x q <   O s 3.n T x k 8.f D.8.D M.D.hXj.I Q n &.o.n D C.;Xc.D.j.-.Q.H.I 3.8.-.s.c.s.H.-.o.T Q -.V J ] [ 0.x k ] r f T $ O   2 s 9 x ] V r q ) T Q x x Q Q.$ T [ M.x o.] O.o.s.c.c.j.y.&.I y.Q o.-.D o.8.Q O.J Q <.V D s.n I D f 9 s x r     ; 2 D V 2 r f &.x s V D ] O.x 9 k I n s 8.Q y.<.0.c.c.] M.M.D n ] V &.o.) O.3.V k J x D [ V ] T D n x n k 2     $ 9 s D k r V f ; q n r f J x V r x f 9 n ) o.8.-.c.y.8.D x x y.) T x ] Q n I I o.o.J [ I -.I D [ O.k f k s $   $ < r s 9 k f s 9 k x V V n r x T s n x I J Q -.3.f.3.O.o.Q Q D V x [ J D T k V J <.V Q n Q ",
"8.Y./.eX/.j.;X X,XI. XnX4XY.Q.hX*XQ.Y.Y.I.4X,X;XD.H./.C.I.M.f.f.Y.lXY.<.O.I.+X3.M.H.0.y.<.T T f $     O < O.Q C.y.c.Q.sX+X4X[.;XH.hX&.f.BXnXQ.eXf.tX[.[.s.+X9XlX XH.*X4X[. X/.H./.[. X3.M.3.0.c./.s.o.I.3.0.y.O.3.q 2     q n /.Q.Q '.8.&.;X;XQ ;X XM.&.s. XhXY.3.'.[.hXM.M.*X;XtX*X<.H.*XI.0.C. Xs.D.s.y. X8.8.O.j.o.O.D &.f.C.n j.Y.k < $ O     Q 3.J '. XC.) f.4Xf. X X/.I.J ] 3.Q.y.'.j.sXc.y.4XeX+XY.D.0.O.,XI.c.y.Q.] Q.<.O.T f.'.O.<.T ) 3.s.0.[ k ) D       $ O Q Y.) c.-.D.I.&.Q.Q T <.j.8.I.8.s.0.;XeXy.0.Y.eX4XD.Q.s.D.C.<.0.8.C.M.&.0.M.) 8.o.] y.T T J -.y.] s f I s ;     s 3.D k ) D s.3.D O.f.n &.x o.O.) o.c.I O.&.D.M.Q.C.D.*X] M.*Xx <.y.8.I M.J s.M.O.T I.[ 8.n n [ [ -.V V V q 9     < 3.f f D 8.[ I j.c.I 0.O.9XeXT I ) f <.3.&.+XY.+XC.M.s.f.f.I y.y.-.) f.M.y.Q 8.&.&.r I Q 3.Q ] x I Q x n Q q $   ; r 9 x [ J r k o.<.I T q D C.s k y.o.) 8.&.0.f.H.y.s.8.3.-.x y.M.) 3.D D 8.8.] J T ) f J 3.V ] o.f s k s 9 <     $ s k f T V [ s q ) Q x J T x D D f Q T O.<.y.s./.M.Q Q -.[ 3.[ x ) -.) D O.I D x x J I n O.-.D J J V f q $   O ; r r f k x x k s T k q T D x k n 9 9 x <.<.8.y.[.3.[ o.[ r ) O.T ) ] Q n D x Q I T [ ] [ T V I O.V f k x 9 O $ ; x 2 2 s x I 9 n f f f k r x T r k V J O.8.y.C.D.y.O.-.V x k x J ) T n x s x k &.V D I I ",
"M.j.[.I. XQ.;X Xf./.*XxX,X0.I.,X*XnX/.9XBXhXD.sX/.f.I.C.*X'.y.y.I.lXf./.y.j.'.8.O.f.3.8.<.o.<.I f   2   9 f -.0.f.H.s.4X[./.[.*XnXM.3.4XhX;XxX4X3.Y.tX+X+XhX,X,X Xs.'.'.Y./. XI.8.f.0.Q. Xs.s.y.Q.s.o.y.y.I.3.0.y.V 9 9 O   x -.J O.,XC.O.;X*Xo.'.sX[.s./.[.,XeXO.f.9XhXY.[.,X4X X9X[.y.D.8.+X<.j.C.D.c.8.f.I.j.<.j.) <.3.o.H.3.8.] ) 9 I q   $   9 ) &.D.H.[ H.j.Y.H.sX'.&.eX) s.y.y.H. Xs.j.D.+X4X4X[.Y.H.C.Q.D.j.O.s.D.J H.D.M.0.Q &.I 3.H.[ O.j.-.V V O.D r O O   2 2 0.f.Q.c.s.Y.3.Y.J &.C.D.o.] -.C.M.'./.3.y.4XQ.H.c.8.M.D.D.o.-.O.-.0.c.] 3.0.<.T o.c.f.] n ) [ T n r Q s ; O   O D x &.[ ) T -.C.) ) O.s.I j.M.I D Q 0.V 0.<.D.'.c.<.H.y.3.D.J 0.j.<.x /.y.n 0.O.) j.o.y.o.n V [ -.f ) V f 2   ;   ) ) V 3.I [ ) Y.J ) ) 8.*X*Xk I y.I r Q D.H.D.[.Q.Q.j.] 3.] <.[ 3.3.C.c.] [ C.[ f.T T I 3.J J V [ n I J I r O     ; f x [ Q x D J D T I ] 3.k q x Q Q Q Q 0.Q.M.Y.D.c.J s.Y.x ) f.&.8.D s &.H.) I Q <.r I 8.I n ] I D V r 9 r <   O 9 9 V k s k D ] J ) q f T x Q ] s T f V c.8.[.+Xy.0.o.[ I s.O.) n O.o.J O.J D x D o.D r ) s.D V ) D f q 2 $     r O r V r x J r n T r V n I [ k n x q ) -.M.Y.+X-.x 3.c.I T -.V Q o.T V o.V T O.V n ) J ] J n [ J s r k r $ O $ T ; 9 s D -.q J k s s x f J [ k q V n 0.D.f./.H.j.) &.Q o.Q n Q <.O.V k n I x O.Q n o.x ",
"M.M.I.[.;XtXxXs.[./. X,XeXtXH.4X XFX4XeXsXhX,X[.4X/.o.I.,X4X0.O./.4X'.0.Y.D.j. X<.J H.M.3.[ s.[ f $ $     f O.j.C. X[.;XH.[.*Xj.4XH.8.'.tX X+X[.[.&.D.4XlXeX9XI.C.+X'.M.s.'.H.C.8. X0.M.'.c.C.c./.c.O.8.C.&.+X3.O.Q V 9 O   $ n V Y.C.0.o.eXj./.C.Q.4XQ.s.9XH.*XH.[.'.eX+X'. XsX;X[.+XY.0.Y.C.y.0.Q.<.8.*XI 8.+X/.c.J ] M.o.<.<.s.0.] I r r $     < D &.I. XO.[.8.f.I.,XH.o.I.c.M.0.s.H.Q.eXI.y.;X;X Xy.s.C.M.;XD.<.&.Q Q.D -.M.,X<.8.c.y.0.<.O.0.o.y.O.x Q q r 2   ;   O.3.3.I.8.Y.y.-.<./.-.<.<.[ M.s.f.-.Q.'.8.Y.eX X XI.) -.H.[.8.<.y.o.3.y.] o.<.8.-.Q J Q y.V ) f.V V f <.n   2     2 3.-.[ <.T &.y.0.] o.8.J D s.c.-.s.D.f H.4XD.[.Q.3.] T M.j.O.3.] ] D [.8.f.D 3.o.-.Q Q s.<.J I n k ] V k q $     x ) x J V Q I <.V 3.[ 8.f.) ] V &.&.) x C.D.Y.;X/.C.<.O.f.o.-.3.o.Q f.8.y.o.0.8.-.I I I &.) D Q V r J T n s <     O k n r k [ T s n I n &.[ f 9 ) I T Q T Q.8.D.4Xc.c.o.O.+XI o.] T H.Q k x 0.O.V [ ] ) k T -.D ] f f J f q r ;     $ ) k q f D x n I ) D s q V O.k k T [ Q s.M.'.[.0.-.C.O.&.-.J I V V o.&.-.n J -.n k o.V f O.[ J I f k x 9 $ O   9 r q r f s q q V s k f J k k r f Q f s c.j.'.'.f.I ) f.] k j.T [ Q [ n I T O.-.Q k ) k -.8.f D s x x f r <   O V 2 9 x s f ; V &.9 r Q f V O.f k f D C.j.C. XI.-.I Q [ O.J T < ) Q x J V k [ ) V T I n ",
"D.Y.H./.BX,X/.'.;XM.Y.[.Q.hXeXeXtXlXeX4X/.eXeXH. XI.H./.'./.D.j.s. XsXc.f.I.3.*Xy.8.s.<.3.-.8.8.n < ; O   9 Q C.I.[.Y. X+X,X+X&.[. Xo.+X*XeX[.Q.xXj.o.tX4XlX;X4Xs.*X'.H.0.Y.C.j.&.I.eX0.f.'.H.T [.M.C.Q.8.Q j.D.) [ ] 9     $ s -.J C.Y.Q ,XFXf.4X0.[ s.Q.4X4Xy.tX;XI.Q.lX,X4XhXeX9X+X;XD C.'.I.8.H.D.f.I.<.s.D.O.s.f 0.C.M.s.I ) &.<.<.n s 2 ;   $ D &.M.M.-.f.H.s.'.+Xj.n [ +Xc.I.) /.M. XM.'.9XhXQ.[.D.y.0.c.c.3.[ s.C.M.) ) [.&.y.o.s.[.H.k ] &.<.[ J I ) s O O     I ] D.*XV y.C.[.&.C.8.[ <.T y.H.+Xy.c.H.y. X;X4X*XM.<.c.<.I.s.I I.s.M.-.s.O.J f.-.c.] n J J J j.] x k <.-.2 ;   $ 2 O.T ] C.f.] Q c.D 3.&.&.-.I M.y.c.&.f D.,X'.9X;XH.3.T y.D.0.T D [ <.f.I 8.-.f.3.<.V o.3.] [ I r [ k n k < 9     2 O.s q 8.3.k 3.) 0.o.T &.D [ ] [ x y.o.D.D.'. XH.D.-.3.j.o.[ c.<.Q s.O.O.&.-.j.c.3.f k f.I J 8.n q x Q J q O   O   k ) $ n <.I ) V T V f.] n n T T [ I D C.0.Q.eXH.3.O.-.8.Q x <.D j.[ J x -.] f V o.o.T x T T J s n T f 9 q ; O     o.V J J V J V T ] [ n s q Q k n n o.I Q.C.;XY.3.c.Q &.] H.T ] T k Q 3.) I s ] T D T J n ) [ V Q x k x 9 $ O     9 n x k f x ] ] I V r r k J n < n k D I.c.Y.j.0.D [ 8.T D o.J Q T Q n ) T I J T [ V V -.&.Q f n D x q 9 ;     s r r x r f q x T f q n D Q [ s V n k *XM././.[.3.) Q ) Q V ] n ] Q J Q T I [ T D T T V ",
"8.9X9Xj.+X;XQ.[.[.I.Q.'./.*XH./.9XlXlXeX'.D.j.[.+X/.H.[.[.y.,XI.I.H.Q.H.'.+X-.I.f.H.c.<.I s.c.Q T r ; O     x H.Q.'.D.Q.sXnXeX8.Q.lXf.+XH.*X+XeXtX XM.sXeXsXeX;XI.,X[.c.C.C.Q.s.C.3.M.-.f.Q.s.&.c.8.Q.4XO.<.f.;XM.D k s x     < 0.J Q.4X<.Y.FXC.,X'. Xy.M./.3.f.eX4X XY.,X,XsX4X*XQ.I.'.C.H.j.Y.-.<. X+Xj.&.<.I.0.8.[ Q 3.c.s.Q I &.D.D.I q ;       q j.c.0.j.c.Y.C.M.y.-.O.c.<. X;X-.;X3.D.,X[.lXhXI.,XQ.I.s.3.0.O.I.3.;XT f.8.Q ] C.&.O.'.Y.) ] 3.s.) I T O.s ; $     k [ c.M.[ O.j.c.I 0.V D.M.3.I D M.Y.c.3.C.,X9X;XI.c.f.9Xc.8.<.O.f.] 8.Q f.Q ) 8.o.&.&.Q ] T V f.T 2 I D O.9 O   O   [ Q T O.<.&.3.] O.T O.] C.k 0.M.) O.s s.Q.'.4X XY.O.M.y./.y.[ ) o.<.y.n &.j.s.8.3.T Q j.y.] s f j.Q ] V 2 ; <     s n V D j.&.-.f.] 3.n [ Q -.s.s.Q Q 8./.H.+X*XY.D.] 3.C.3.n <.&.<.C.3.&.y.Q 3.0.o.n I f.f V s.T s x V V r < O O   f 8.s x ] J O.r V I 3.D T T [ Q T I O.'.j.Q.;XQ.j.[ c.D [ o.-.T [ [ Q V o.) x n I I 8.x [ Q x k n I s q r ; O   < k T x J &.r D J -.D <.< J k D V n D [ D.'.9X/.-.I.O.) [ 3.o.&.O.r J -.I T r I Q I D T J J ) x ) V x x q ; O   O 2 D x s q < n k k V I f V ] O.f k f D C.D.+XY.<.Q -.Q n &.I n Q [ I n ] ) I ) I ] T D ) 8.Q x V J k 9 9 2 O   ; s q r 2 f n x s I x s n J T D J D x [.C.[. X+X3.o.o.o.T x ) J n V Q J n J V n D J J D ",
"I.Y.+Xf.M.[.[.Y.C./.;XtX4X*XI.4XnXhX9X;XeX+Xf. X;X8.;XY./.I.f./.H.Y.c.Y.*XI.f.c.y.Y.H.H.T y.y.D [ V <   O   q M.[.+XD.M.;X;X*X3.,XsXM.c.'.,X;X,XY.9X;XhXnXtXsX'. X,XM.M.Y.D.D.-.s.[.O.8.Q.;XI.y.[ ) M. Xo.c.j.Q.j.o.O.r q   O   k T y. Xj.C. X,X*X+Xc.j. XtX] <./.[. X9XY.*XsX,X X XY.I 0.,XH.M.o.8./.I.8.H.s.O.8.c.3.f.C.] f.V V ) j.M.I s r O   O ; C.8.y.+XY.Q Y.'.O.[.+X[ ] /.;XQ.C.f.j.PX/.hX4X+X'.C.*Xc.y.j.D.o.0./.3.C.j.-.-.<.0.O.I.&.] -.&.j.Q V o.Q f q   $   r 0.3.8.&.[.I.8.<.Q.M.f.I.I.o.0.c.j.Q 3.M./.xX;XI.'.o.H.j.8.x 3.D.0.[ f.3.I O.j.j.[ I x H.C.T I O.9 J I ) r $ O     ) ) T f.O.Q s.V <.j.T 8.-.o.) &.Q &.Q c.Y.+X9X[.[.-.y.<.j.n f.3.D [ 0.Q o.c.8.<.&.&.x ) 3.s.[ x V 8.s.Q n   ; $ x J x x J <.8.O.Q [ O.k ] &.O.O.y.] f 8.I.D.,X*XI.M.j.O.-.-.T O.&.0.-.o.-.s.D O.0.T J 0.y.I s T ) J I r k k k $     < Q x f J Q [ J x 3.J x Q Q 3.I V J 3. XD.Q. X'.3.T c.] I ) T ) I O.o.Q o.Q n J ) k <.x f.) n x f V r r f <     q q J r k O.q Q V Q I Q n I J J V n s O.8./.9X*X3.M.C.I ] D -.[ -.s I ] Q V T V D D I Q J J I n T V x k r < O   $ 2 V k f k f o.n q s I 9 r [ D.x r k Q H.I.;XY.f.o.) J I 3.V J Q 0.) ) ) ] I -.V I ] T D <.T J k k s s k r $     s 2 9 q f I n f ) V r f x J T V J T 3.M.Q.eXQ.<.&.O.o.I x Q ) n V O.J k I n D n n D I ",
"Y.C.*XM.8.D.;X;X*X;XhXtXC.Q. X XhXeXxX,X+XtX4X'.I.j.*XI.Q.'.3.Y.y.Q./.s.I.M.Q.s.0.C.j.+Xj.O.I f.[ I q   ; O < <.f.M.s.c.4X4XtXY.I.+X,XD.[.Y.I.,X+XlX XnXhX4X/.c.*X;X0. X'.'.f.-.Q *Xy.Q.4X XQ.&.o.O.C. X-.0.f.c.M.8.0.s <   ;   q ] s.Y.C.Q.*X,X*X<.'.4X*XeXQ /.Q.Q.D.;X*X,XeXlX,XsXY.<.D '.[.c.T M. X+X<.&.3.f.3.o.8. XH.f.Q &.[ T &.O.x s f     < q 3.-.0.eXD.o.D.o.j.tXf.s.-.] /.;X] Y.8.eX+XeX,XeX'.M.D.0.8.c.Q.M.[ Q.o.3.f.D.0.) s.j.c.T 3.8.] ) I J 8.) f 2   2   q 3.0.j.H.] H.0.c./.f.s.<.H.-./.D.Q.Q 0.4X'.eX,X+X+X] 8.Q.8.J j.o.c.3.I j.s.[ j.&.) s O.+X-.O.n V 2 -.D &.n ; O   O I D f Q 3.<.] /.j.-.[ <.8.<.f 8.T <.y.Y.[.,XeX X;X8.0.x M.8.) f.D.Q -.3.O.f.3.O.I [ I o.] 8.o.&.I ] Q k Q f     2 s O.D r T C.M.&.n o.D [ y.o.x [ I I y.D.C.;X'.j.y.C.-.&.&.O.) 0.C.I T [ -.I &.s.V k y.M.y.q r n O.T q D V k O     9 x s V Q I Q ) n j.I D T Q o.I I D ) f.M.[.;X*X&.) D 0.<.D O.f ] 8.<.O.o.D k I <.J V s 8.O.I q k V r r f <       J s J k 9 I [ k D Q n D J Q T f k D O.s.j.eX;Xj.3.0.o.D &.-.J [ J T O.Q V 3.x x n o.J x Q I ] D V k s r <     O q D x q q n y.V k V O.D k f I Q s x T M.M.[.D.[.&.s T o.[ n ) T f.T -.Q [ k T x o.T -.J V [ V k s q k V q   O O q 9 f n x I x T D s k n V I n n J ] ] M.I.sXH.y.<.Q T n x ] &.T V o.n f ) V D x x D ] ",
"M.'.;Xc.c.Y.;XtXf. X/.f.y.*X9X4X/.9XFXeX*X'.Q.Y.I.tXs.j.I.Q.*XY.0.j.9Xs.c.f.I.Y.y.<.C. Xs.O.&.Q.) I q   $ O   I I.Q.H. XeX*X*Xc.+X+XQ.Y.4XeXQ./.y.'. X9XhXeX4XQ.,X/.M.D.;XC.C.y.M.3.<.D.,Xy.I.y.o.&.M.+X0.] 8.I.Q.-.&.n q   O   f y.+XD.Q.[.9X4X+X XM.;XlXC.f.M.D.tX[.y.;X,X9XlX+XhXC./.M.3.Y.j.-.s.f.,XD.[ 3.I.3.O.J D.I.&.3.0.f.[ ] J x f f   O   q ] C.O.*X/.8.'.<.) ;XQ.f.*Xo.M.4Xs.c.] I. XsX9X[.,X+X0.3.O.;Xc.&.0.Y.s.s C.f.8.-.s.c.[ 3.I.y.O.9 T [ 8.<.q ; $     x Q <.O.C.D.M.o.Y.f.Y.0.[ j.] M.j.eXs.8.tX;X'.4X*Xs.y.M.y.8.) o.[ 8.<.y.D <.<.M.j.o.q I y.O.<.f D r T I o.f < O   $ V ] n -.O.n ) C.<.8.0.s.I s.O.Q y.O.f.Q. X+X;X/.Y.O.o.0.y.-.D <.] k y.H.-.-.o.o.V J H.&.r f.O.J &.O.Q V [ 0.; $   s D ] I o.0.&.D.V y.O.[ 3.<.[ 8.y.q s.4XH.Y. XI.y.o.y.<.o.[ n j.D.) o.Q ] ] <.y.n D Q f.8.q D x O.V f O.n 9       s ] s V ) ) -.x s O.&.J I [ V [ T ) Q 8.c.Q.,X;X3.T I 3.H.) O.x T 3.O.&.o.J V o.J ) f J J &.Q 9 D I s q r $   O   V q ) J q I Q k ) o.J x I J ] r Q T c.c.M.,X4XI.o.-.3.D -.&.V D o.I y.I J 0.f V V o.x s Q T 3.x V x s r ;       q n D x 2 2 x [ ] D x x D x s -.k x I j.M. X[.Q.0.k V T Q Q n ] 8.x Q T ] V V T ) -.<.V D Q V D x s f k <   O   < s x J x x q J k f I J n I x V J I 8.D.Y.,X/.j.y.Q T n n J ) ) x J r s ) V k x x D Q ",
"/.Y.j.C.tX;X'.Y.c.lXQ.0.H.;XQ.*X*X9X*X*XBX[.j.j.4X[.s.3.j.;X;X+X<.f.hX'.f.[ M.,Xc.[ [.D.o.3.f.3.O.I q       O I M.C.M.;X+X/.+XQ.Q.9X'.,X4X4X;X/.I.*XlX9XeX X[.M.*XM.C.-.+Xs.c.-.eXj.-.] Y.s.;XQ.I ] 0.Q.s.&.&.D.3.8.j.J     <   r &.I.j.Y.[.[.hXD.;XI.c.*XY.j.Q.y.sX4Xy.I.+XsXeX[.hXY.0.I.0./.C.D M.'./.<.-.H.c.<.o.y.3.I.0.&.&.3.) T V I D V < $   $ I I.<.H.tXo.Y./.H.M.s.,X+XQ.f. X;X<.] Q./.hXtXQ.,X+Xy.<.0.Q.<.&./.H.] x [.D.3.&.s.0.I C.0.8.&.k ) [ o.-.q < O     I J ] ) 3.f.c.&.4X8.] s.-.3.8. XH.H.8.s.M.Q.[.4X,X-.0.-.[.&.y.C.&.Q 8.f.I ) T J s.s.o.n 8.) 0.-.f D &.k [ < ; O     f y.o.[ I.M.s.x o.8.f.O.T <.j.&.&.<.-.C.+X[.;X'.C.o.3.D.M.j.) ] -.< C.Q.o.T T 8.&.V Q 3.[ -.] J -.k T x x s   O < 3.D q T x 3.y.[ n j.-.[ D &.c.3.C.$ -.hXQ.H.,X Xj.] M.V T 3.O.M.o.T <.D [ [ -.-.o.) V 3.Q r Q [ T J f -.k ;   O   2 J x x T -.y.] s V O.n [ [ D &.D O.[ 0.C.D.*X/.) [ j.] y.T k &.D <.] O.[ T T -.x T D ] k ] ) s J T s q q O   O ; 2 q ] [ Q x x I J 8.k ] f J ) n <.n C.0.I.[.eXY.&.8.<.[ V <.T V [ I 8.I J <.x T J I x x I T <.k J V k s ;       9 q Q o.n f 9 x [ ] x I Q n q ] s V ) I.H.'. Xj.8.[ D V Q &.s O.O.x k ) I o.T O.n s.) x &.Q J V D x r 9 ;       ; x s V x k q k x x T J k V V n V k s.C.I.[.+XM.j.] [ J V x V T V T n n Q D n n n V D ",
"3.+X*XD./.+X+X<./.4XQ.I.I.'.'.;XsXtX,X+X4X*XtXQ.[.c.s.H.M.M.[.'.0.D.Q.Q.C.8.Y.f.C.-.*Xy.8.3.[ I f.[ s       2 &.I.I.I.9XI.D.,XtXc.*XD.4XnX4XtX3.,X/.D.xX4XhX'.,X XY.c.I. X,X0.Q ,X+XO.) I.3.Q. XO.3.f.'.I.'.3.y.y.] o.] q O     &.I <.Q.C. XC.;X X XI.;X/.;X[.4Xf.C.Q.,XD.+XlXeXtXQ.'.Q.8.c.c./.o.f.Q.C.O.s.H.) &.Q.M.s.y.c.8.-.-.] ) D Q n s     q ; f <.I.M.eXD.Q 3.s.O.I 8./. Xj.f. X8.0.*X*X4XsX9X+Xy.0.] '.s.o.[ c.;X) j.] j.O.[ H.[ I  X0.] Q &.T J I Q k <   2   J ) O.Q.o.I.H.f.;XC.Q.j.Q T O.8.s.I.Q.y./.[.eX[.4XH.f.I M.J o.Y.I.s.<.3.I -.) Q J M.y.] o.[ ) <.q Q [ 9 M.2   O   ; < 3.y.q <.0.I.c.] '.Q 8.Q ] f.y.3.o.k -./.Q.,X*XC.&.V O.D.c.-.n Q.k s.f.I V T H.H.J n 3.y.V <.] ) I x J o.  $   q j.V I V I /.o.I [ f.<.8.k O.I.D O.O.J Q././.*XI.c.] Q.x &.j.3.M.Q T c.T 8.Q T D -.V Q y.Q f x f.x o.q ) s 2       n < J T Q ) J j.I J T s y.) o.[ V o.n o.C.I.*XC.O.D.&.x f.-.n ] ) f.O.O.Q J D Q 8.D J D D T ] s n J s r r       O f 2 3.3.J I f T J T V T D f T ) -.r [ 3.y.[.9XI.0.[ 3.-.x 3.O.J J Q ] T x -.J Q I k V J n I [ k T J x f <   O ; f < D I q V x n &.O.f V f k I O.s r k y.s.Y.*Xf.Q &.&.Q D [ D o.[ ) x &.x -.J ] D O.J V &.y.V s J V q 2 < O   ; 2 J q k D V n n D s x T D n x k x r <.j.C.'.*XC.j.Q Q D D D Q k V [ Q n n V D I J V n ",
"/.hX*X/./.sX/.+XtX8.f./.[.'.C.4XxXsXtX4X'.tX X[.D. X8.H. XI.M.[.f.4XI.D.O.M. Xf.c.D.'.I &.0.0.<.8.T x     $ q Q 3.H.+X X,X'.;XD.f.;X XI.hXY.Y.I.sX;X3.hXhXeX+X4X;X'.'.D.H.I.<.] ;X XH.[ I.j.f.[.<.[ 0.H./.H.-.[ <.Q 8.J 9 $   $ 3.&.3.[. XI.c.4XtX*Xy.C.c.eXhXQ.o.3.;X9XH.4XeXsXeX[.Q.s.C.H.-.f.c.0.y.3.M.c.s.Q c.I.-.o.Q.f.<.<.f.J T 8.J k ; O $   <.r s.8.[.[.[.j.c.*X0./.y.0.&. Xf.j.j.C.tX9X9X,XeX'.3.3.D.Y.<.x M.Q.I.&.[.D.&.Q 3.j.] I ,XO.I T O.y.Q I x f ;     $ [ Q f.T y.M.c.C.D.;XI.0.j.0.0.[ y.H.Q.;X3.C.eX*XtX;Xo.s.Q.&.&.0.y.O.3.) J 8.c.8.V ) c.-.[ I O.s.I n [ 2 8.r $   ; s J &.[ k y.s.M.0.] Q.I [ &.o.M.Q <.M.J <.Y.D.;X[.+Xs.[ [ -.0.&.0.&.&.o.o.T Q I y.s.y.D o.M.] k k Q T [ n n   <   2 ] Q o.) V '.T D <.j.<.) T J s.O.] <.I M.c.Y.[. Xy.<.H.T O.H.[ 3.[ J 8.&.O.] T &.I r -.-.] x k s.s o.k x x ;     2 n f D 2 [ ) [ 0.Q r ) J D -.) O.J O.T -.<.Q.Y.,XC.o.0.J ) &.-.r O.H.8.-.D Q n Q &.O.I k ) x k ) q f V n 9       q T n J D &.D n V ] V x o.n D D J k J r y.j.H.*X Xs.] -.Q f [ 8.T V T y.o.T I O.V D k I f n T ) [ f n f r ; O   < r f k V r I x x Q ) T k r J ) T &.9 q &.M.C. XQ.3.<.Q T [ V T <.V <.Q Q k J ) I D I ) J T ) J T J n f 2       ; 9 Q r q f D J r x n n s n I r D s r n Y.c.D.'.I.y.-.O.T V I ] D V T J f V ) D J I I D ",
"+X X/.j.*X4X/.M. Xc.c.+X4X Xo.xXlXeXhX9X/. X[.4XY.[.H.;X[.s. X0.s.'.9X[.o.s.Y.'.j.C.&.) o.H.3.8.T V q $   $ k Q j.-.eX'.H.lXC.f.[.9XtXI.[.'.[./.lXeXj. XtXsX;X X4XY.I.I.s./.C.0.[.9Xy.8.s.,XM.H.f.J &.f.8.M.Y.s.Q Q &.x <     O c.&.[.H.-.'.;X*X'.tX4X[.O.,XtX;XQ.8.Y. X X;XtX9X4X/.C.C.c.s.M.Q.'.s.o.c.j.0.&.j.C.] M.;XO.y.-.j.) D -.8.r f r     $ j.9 I.D.M. XM.f.[. Xs.Q.f.+X&.0.eXx Q.f.*X;X*XsX;X4Xy.<.[. Xy.D -.f.I.j.j./.J J D.s.f.j.c.] &.D y.o.s x ) 2   ;   $ &.O.C.] 8.j.C.s.s.0.c.<.Q.'.3.&.D.-.I.+XQ.C.;XeXlX'.) j.s.<.3.-.8.&.-.-.0.<.y.[ ] I c.y.[ I T M.s r x Q V $ O   O J Q J Q q [ [.8.Q 8.M.[ ) j.T ) H.V <.x <.c.Y.H.4X[.s.y.Q o.-.0.M.o.T I 8.<.D [ 8.&.f.[ ) ) y.T T V I Q D q O     x D c.] V 3.f.O.[ n 8.] V c.c.T T O.&.<.c.x C.H.9X0.s.M.&.[ c.I O.] C.I ) C.V &.c.q o.[ D -.D k f T ) 9 V x   O O 2 9 V &.n I n O.M.Q D I V ) Q <.I T [ T Q -.M.D. XM.o.j.Q ) [ [ D ] s.3.-.] J x ) ) J J f ) n x Q r k n x 9 O O ; ; s Q <.r 0.f.n T 3.f n -.Q V I x J D n O.y.f.Q.*Xs.0.T D [ I o.3.T V &.8.O.I Q I T J Q J V I J [ x V r 2 O O   $ n s k T f k x J k &.n f n I -.x [ r 2 Q s.0.C. Xj.[ x O.3.x D Q n x y.[ r T y.T s J O.) D V T J D V k 9 $   $ f 9 x q 9 9 J [ J n f k s k I n n s V n c.M.f./.I.y.] I J n x V I V J T V D Q T n n V V ",
"[.I.c.H.'.sX'.I.'. Xj./.4XD.j.tXeX4XhX4X/.D.Y.+Xy.j.*X4X*Xy.,Xj.8.[.Y. Xj.3.C.H.D.I.o.f.) f.&.o.D D ; O   $ ) <.Y.y.;X/.8.tX X X9X[.+X'./.'.[./. X4XQ.+X,XeX'.+X*XH.I./.O.I.'.I.D. X-.M.3.*Xf.0.H.3.f.-.V s.[.M.) -.<.k 2   O ; ) O.H.;XH.tXQ.j.eXj.tX4XQ ,Xc.+XsXj.+X XY.9X+XtX[.Q.D.+Xj.[ D.+X+XC.[ -.0.j.y.H.f.J '.D.[ 0.8.&.) -.o.T I J O     9 Y.n j./.'.f.f. XsXY.8.D.'.j.c.s.sXo.&.D.I.*XQ.,X4XeXC.&.Y./.C.I M.y.O. X8.j.&.] 8.f.j.o.f.j.D.r Q ] ) ] J $     $ 2 o.s.&.8.o.] *XI.3.] [ H./.9X8.) I.8.H.0.f.8.Y.+X9X X-.0.j.y.f.-.8.&.Q <.Y.3.&.] -.T s.f.&.J ] 3.D s x o.q   O $   O.y.o.&.] x [ f.<.3.8.Q Q.&.s.D <.3.0.s J O.H.M.4X/.y.y.Y.I ) C.o.<.8.V c.0.J V H.[ <.) ) ) s.) ) J D k x $ O     &.I j.&.f o.O.&.-.V D.r ] [ +XQ I 0.O.8.) D H.D.[.H.s.0.f.T y.&.&.T C.V Q f.Q ) &.x <.T Q T ] V 2 I D r V q   O   q n I [ T T x O.0.O.9 O.T <.V T &.I T I D 3.f.D./.D.H.8.Q Q V 8.I I ) ) Q &.J x Q ] x Q x ) n x D n x k r ;     $ 9 r [ c.< -.s.n V M.k x ] I x x n o.D ] [ f.s.C.H./.s.I V Q [ I 3.J f J 3.o.D V I T J T T V J D T x V 9 ;   O   $ I 9 k ) k r T J r ] r k x D o.V ] x 9 n 8.0.M.D.M.] k 8.0.f D V Q I 0.J f J [ ) q D o.] T D Q x n n f 2 O O ; s f V V f 2 V I D x f D n s V V f r n s &.C.3.C.Y.j.o.T o.) V n V k k V V x n D D x f x ",
"I.c.f.[.D.4X'.+X,Xy.sX-.+XH.9XY./. XsX;X XI.I.c.0.M.lX/.;Xj.y.Y./.Q.<.j.Y. X<.j.M. X8.s.8.-.) T J V ;     2 o.j.c./.4XtXM.I.[.+X/.Y.<.tXsXM.+Xc.I.+XY.*X[.4XH.4X/.Q.[.[.o.s.Y.'.C.f.y.I.j.<.<.3.,XD.f.<.o.-.0.C.8.3.3.s 2     q x Q.Y.Y.Q.9XhX/.) '.Q. Xj./.I. Xs.s.M.Y.&.4X4XeX'. XY.4XI.&.0.M.+XH.O.D j.I.H.c.) H.0.O.O.H.J ) y.<.I D o.D   O $ D M.3.0.D.;X-.y.9XM.c.4Xy./.j.*XQ I.[.&.J M. X+XY.hX XI.3.0.C.C.] y.*X0.-.O.j.8.[ -.[.j.k c.j.[ ] 3.Q V 3.s $     < s D.T &.s.&.<.s.'.f.0.y.y.o.I.H.3.j.f.Q.D.<.3.I. X;X+Xf.-.Q s. Xs.f.I.o.k ] &.0.M.0.[ [ -.n f V r D ) n q q ; O   O V O.-.[ -.O.f Q.<.T f.<.s.[ c.D ) &.+Xo.r Q s.Y.Q.'.M.D.M.O.f.&.k /.j.T &.j.[ n j.&.&.) D 3.[ [ Q T n f f ;   < 2 0.O.Q 3.) ) ] T -.J H.] ) I <.j.D 8.0.&.D &.Q.M.D. X3.[ D.o.<.8.o.&.<.I ) ) y.x f ) 8.) o.x T V n I k D r   O     n x k D 8.s.) T k T J H.x D ) &.s.V J D J 3.s.j.C.[.Q.j.D I &.0.O.D V n V &.] D ) [ f ] n T n n k J x r ;     O < r k J s.s I J Q s C.) n x k D r k [ s I I y.0.8.s.[.0.) T T &.T <.I ] O.3.) ] T J T x D D D J T k s n < ;       k T 9 J T k x 3.n I x r T x n V x f k s < ] <.8.8.C.0.Q &.[ f ] k D -.Q V I V J ] k D n n ) J V f k f 9 $   $ 2 $ V T T x q D k r s k I V q k n J D r 2 I j.<.3.y.y.[ Q &.[ n n J D n V J V n D Q x r s ",
"*Xc.I.[.*X+X X/./.*X/.;Xy.*XhXy.8.Q.tX+X+X X+Xj.j.+XeXf.[./.8.I.;X,Xn I.H./.'.0.3.*X-.] C.y.o.[ f 2 <     x o.c.&.Y.[.4XQ.j./.tXM.0.*X,XeXsXj.c.Q.[.I.Q.[.4X'.;X/.+X XI.y.<.j./.'.3.D.I.I.I 0.c.*X/.j.O.3.M.0.&.f.] ] ; O     D H.0.3.C.xXQ.tX*X/.H. XPXY.8./.y.D.eXH. X-.[.xX/.,X4X/.'.[.H.] 3.;Xj.[ [ Q.H.c.M.T C.<.3.y.f.q <.c.J [ O.f $ O   ; [ y.I.C.C.H.j.y.Y.y.y.D.O.*X[ 8.8.[.tXI ] I.'.tX[.4X XY.c.3.j.o.Q.[ *X/.s 3.f.0.o.y.D.3.) s.0.] o.y.Q s T O $ O   q ] s.H.n D.3.3.Q.c.&.H.&.<.Q.j.<.0.0.3.y.T I T y.[.*X'.D.c.-.&.M.3.[ M.f.8.n -.c.0.) ) O.0.f I s f I Y.Q 2     O O I r I 0.f.T -.) y.x ) D.Y.n n ) ] Q D Y.j.k -.8.Y.c. X XY.<.c.s.O.[ s.f.[ x Y.Q j.) -.3.3.s <.D O.Q D V q <     q n J T x &.j.D.[ D &.D -.f.Q ] ) ] D J C.[ -.V s.8.D.I.y.[ Y.j.o.&.J s.y.D Q ] f.D k n M.O.D [ r s V [ f V $       k J Q J r J I T o.) x [ O.s q s &.0.V J x J o.<.&.3.f.Y.o.o.O.J c.[ n T Q T O.<.I [ ) r J k D x V s I k 2 O   O 2 f r k x 8.J V s o.k <.O.T x q ] k f ) f V x o.3.-.y.y.f.] ] -.) 3.Q x O.-.T x Q V T ] k I V I D Q q 9 f O $     $ ] T k O.J r I 8.V O.r s o.o.f x T r J [ q T 8.&.3.M.D.<.I x V -.[ n T ) ) J s ) I n J f q D V f k f q ;   O 2 r 2 x x D k k I x s k s n n s f k ] &.q q x -.3.&.o.<.[ Q o.Q V I D I D V J I D V J k r f ",
"9Xc.j. X4XtX/.c.sX4XBX Xc.*XH.C.<.Q.9X,X+X*X4XY.c.9XI.<.D.4X,XM.Y.0.0.9X<.Y.Q.f.8.I.0.y.o.8.c.[ s $ ;   < [ y./.&.+Xy.+X;Xs.eXhXO.;XtX,X*X*X,X8.0.Q.;X/.*X4XtX*X[.,XI.C.Y.0.y.'.*Xs.Y.M.M.3.C.H.I.M.D.0.<.c.s.] c.T D     O 2 O.c.'.'.y.f.c.c.HX4XC.sX Xs.;X+Xc.D.I.*XM.&.'.tX,X;XtX;XY.Y.Q.Q C.[.M.&.M.I.D.y.H.[ J H.j.8.8.J [ s.Q -.) ;       < Q D.[.y.[.Y.j.D.4XeX8.&.C.;X] +Xo.0.C.'.8.y.[.[.*XI.sX X/.y.0.3.'.j.C.j.] f.y.H.y.I o.8.O.y.s.3.s <.<.J <   O   ; I k ,X3.f.3.[ j.I./.c.D &.0.I.s.o.s.8.-.,Xf.2 V &.M.Y.'.+XY.&.] f.c.O.y.8.<.j.0.s.V T o.y.&.x T k f I 8.x       O q j.x J f.j.3.O.0.] q Q 8.[.-.2 J 0.D o.o.] k y.f.C.j.H.Q.c.I.f.[ 0.o.T D.) Q M.k /.0.&.] [ V 8.T n ) x x r 2   2 T c.I ] q [ <.I.&.[ ) y.&.I T n 0.x D k f.J [ n Q &.y.y.M.f.Q.8.Q s.T ] 0.] T <.O.) n r 8.) J <.V 9 T J f ;   ;   $ ] J V [ I Q D [ Q D J x D T J V f O.J J k V Q o.] -.3.-.s.M.0.) ] [ k o.3.[ [ &.D [ ] n n n V x V r D f ;     O 9 k V J ) 8.D D n J J k D T D q ) V f Q I V r D [ O.] &.y.8.o.Q o.c.Q n &.8.] Q -.Q I [ V I J V k V r 2 9   O   O 9 [ V V &.x 9 T I V Q k 9 J y.q V Q f s J O 9 ) T ) -.j.y.T x T o.3.[ r O.[ D V ] f f D T x f D J s q ;     ; 9 r D s 2 n x x x f k k q n T n f q V O.r f s J 8.3.o.-.o.) Q I T &.n D D V V I I n k s k V ",
" Xc.<.'.Q.9XC.D.sXhX,XQ.c.I.f.C.j.I./.eX,X+X;X+XY.tXH.-.c.*XeXj.f.&.f.,X3.y.I.j.y.f.M.D.n [ j.I s <     s -.H.+Xj.lXf.hX9XC.4XD.3.Q.eX*X/./.lXC.] Q.;XeXQ. XtX*X'.*XM.Q.[.f.0. X'.j./.f.0.Q.H.c.Y.-.3.I.Q.<.I <.0.T r     $ [ j.s././.[.9XeXo.*XxXH.[.hXs.<.H.M.9X'.nXM.-.'.'.Q./.4XeX XC.I.[ Q.I.C.y.C.c.C.j.H.I ) D.Y.Q M.O.D 0.o.) q 2     ; s x c.'.O.D.*Xs.<.tXj.k I./.] c.&.D.c.c.) &.I [.s.C.C.4X,X Xf.3.*X3.c.c.0.8.O.Y.Y.3.n &.j.8.8.] n T C.O.9 O 2   $ r 0.T Q.y.3.0.c.3.8.D.[.o.[ c.C.[ J D <.[ /.o.f -.y.c.D.I.'.c.y.H.c.[ J c.j.Q Y.-.0.Q <.8.3.k T ] ) J [ n r O ; O $ V H.I n T J D.M.y.<.V q &. XD.J n &.-.o.Q V r <.s.c.0.-.s.M.Y.s.f.) D y.c.) 3.&.n s.C.O.I s ] 3.o.9 V k 9     $ $ J y.o.] q Q ] O.) &.[ Y.0.x f J 8.-.Q T O.n s Q T [ ] &.0.M.H.O.[ M.&.D T <.] <.T ) T k T I ) ) ] r J 9 9     $ ; k V I o.y.&.] k T D &.T I -.T ] c.x D D V x k ] Q ) o.o.3.0./.f.) 3.Q D [ 8.I ] ] V ) ] ) f J V x V 9 r 2 O     $ r n I Q O.o.x V Q I T s f V x s x x r n V k $ f k D n O.o.8.] V 3.3.D D J ) Q [ ] Q n T J x Q r s f q $ $   2 < < k V k n I f s [ r D J T k s -.n k ) &.r k 9 < V I T Q o.3.[ I Q ) J ) k T o.[ [ ] f r f o.Q f I J 9 <     $ 9 r q I s r D k V s x f f r I ] k s V 9 V s f r f ] O.Q T I J V x T -.I V I T D I T V s f x V ",
",XQ./.'.'./.[.eX[.c.'.s.j.Q.0.0.D.s.y.tXsX;X*X;XI.*X/.&.C.'./.[. X&.j.0.f.C.0. X[ f.0.O.-.o.] D $ ;   ; V O.D.C.Q.*XI.;XM.,X X/.H.o./.;X'.I.lX;Xy. XM.lX8.Q. X*XD.[.M.4X'.f.0.*XD.f. Xs.0. XM.0.f.j.O.-.,X'.J J T V       O M.Y.H.c.Y.3.tXhX4X<.;XD.c.9XsXQ.J s.,XsXM.j.<.H.*XT Q.'.*X4XY.Q.O.j.Y.y.s.f.C.s.D.Y.x j.Y.s.0.O.3.Q 8.x x <     f V D n I H.j.Q I.H.j.4X&.Q '.sXc.&.J C.H.3.&.-.3.o.0.o.Y.f.+X/.f.c.H.C.o.<.f.8.&.[.[.I 0.o.Q Q.<.n Q 0.O.n $ <     < O.0.D.f.-.o.j.I.'.) 8.j.3.f.H.M.x 0.) D.Q f.D.x ] O.D.Y.y.f.f./.M.Q &.y.c.8.3.C.o.-.O.I o.O.[ s ) n [ V s O O     < -.;Xc.o.V y.0.3.x j.8.r C.Q.Q.x r I s.[ I s.x o.&.c.[ Q 3.c.C.D.M.[ -.3.c.&.) O.[ [ T o.-.f T I <.D q r   $   ] < ) o.H.8.V n y.Q s ) y.3.<.&.D Q M.[ D.T o.J f x &.D [ Q ) &.c.s.s.-.&.8.V ] O.&.D Q y.k [ [ x T J f < q O   ;   V Q   Q o.s.s.y.n k s H.T Q n k T o.J n D n D s [ n D D n D [ &.T O.-.n o.Q O.r [ ] J Q I ) 2 J V x D q       O ; r V Q f D I x n D o.y.] ) J x q V q k k k k n ; D q s Q n T J Q 3.[ D ) &.J I ] O.D ) k V I 9 ] < k k <       f r q V r k x s k J 3.s T ] -.[ f T -.q s 0.q s D < < s 8.O.T ) [ I Q O.V n O.V -.) n n J x 9 ) ] k J 9 < $   O 9 k f q n x V x < D D [ f f s J J < f 3.q s k f s s f n I n V I V n Q -.I f V T x f x s s f f r ",
"4XY.H.'.[./.4XC.Q.y.nXD.-.9Xf.D Y.8.s.,X9X,X*X;X[.f.'.D.8.M.;XC.,X[.I ) y.D.H.D.<.<.s.j.8.I ] r ; $   T o./.D.Y.f.Y.[.hX;X X+X,X4X&.'.8.eX+Xj.f.D. Xj.xX&.O.H. X+X,X'.[.Q.Q.8.;XI.&.M.H.M.I.+Xc.&.y.s.0./.D.J r s ; ;   < 2 '.+XQ.s.0.0.lXtXc.'.hX XO.hXhX*XO.V Y.s.Y.eX4X8.D.D eXC. XeX/.j.y.M.f.O.Y.j.f.0.H.I.I M.M.8.[ T -.&.D s q     < ) ) H.o.j.[.f.D.'.] 3.y.j.J Q  XV H.) n  Xj.0.0.] T Q.J M.f.y./.[.D./.M.I C.c.[ ) /.<.[  XQ 3.M.&.k <.0.f s O   ; 2 ) &.8.I.Y.+Xn [ D.Y.-.c.,XI J -.c.D I.j.C.D j./.[ n q C.s.D.<.c.Y.D.Q M.H.&.y.Q c.x j.-.T I Q k ] o.n s q ; O   O k ] y.T 8.y.y.3.&.[ ] y.<.I f.) D.] q D T x 8.j.] D T &.J [ s.) -.0.c.0.T s.3.O.D 0.8.D n 0.-.<.n x &.D   < O   9 ) I -.0.-.n n T s.-.<.s f V J k k I 8.f.s f V r ] ) J n ) ] f.Q [ <.-.[ T O.n &.y.Q D I 3.) n O.2 D O.2 ;       9 r J 3.T 2 ] Q f.Q I o.I r s n 2 V n Q r k D I k n k f 9 V [ o.J D ] O.3.f.T V ) n &.f Q ) n J x f f Q s <   $   < < n D T o.&.q 9 V D Q n D k D 2 r Q k k q q k I 2 J f 9 Q V k V I J I ) Q D I ] Q D D D x n x s f n f 2     $ 2 2 f n V s V I f o.T ] V s x k k n T Q f r J x r k s 2 q Q -.Q k D ) ) [ D V k I &.T r k T n k T n x r q 2   $ q D J q q V ) x D x D ] [ x q q n s s Q T n Q r n T q 9 9 I k k V n n J T n r J D n r V s n n k r ",
"hX X4X;XhXH.4X[.'.s.;X XQ.Y.T ) ,XeXM.C.Y.;XsX*X*Xy.'.8.H.*X*X8.'.;X0.[ D.9XH.J ) y.D.Y.-.V f O     s c.y.I. X4X[.D.j. XxXBX[.,X Xj.Y.Y.[.H.O.[.;XtX X Xj.Q C.,X'.;X[.H.j.I. X*X+Xo.f. XC.C.c.[.0.0.-.3.C.8.V D < 9   r [ <.f.,X X/.j.c.9XFXH.'.C.f.Q f.4XlX X) y.O.[ 4X*Xs.I r Q.'.c.[.[.Q.'.M.'.Q C.y.D.&.D.f.I M.y.8.<.o.y.o.k ; ;   $ ) s.I.c.O.+X,X+XH.;X4X3.o.I s s T &.0.&.T c.I 0.3.) Q D s.f.<.T 0.'.[.Q.I.] 8.j.&.I C.O.f.D.T -.I.) q O.[ $       $ T y.-.O.8.Y.4X8.y.3.) I f s.s J V V J 3.o.D ] -.<.n [ &.y.3.f.8.8.3.j.C. X3.I f.Q T O.<.o.o.T V [ [ ) s q   $   ; < D <.0.] j.s.-.<.3.J V x f < s r k n q x O.o.9 O.f.) O.D x D s.T Q o.o.3.y.c.O.&.O.O.] O.T T Q V k x V 9 O ;   x k T -.j.O.I k -.C.] I k s x f q 2 < 9 r n q T T Q s.<.V k ) -.O.n T I ) <.] O.[ J T [ [ x O.y.Q ) x 9 k 9     < ; q k n [ o.s ] 3.C.] f f r 9 < q 2 q 9 s 9 s k x f r x k f x O.Q Q f ] J O.o.x [ Q T n ) I J J x k V 9 q ; O   $ 9 n x k k V &.f.&.I f q k 2 2 q q 9 s < 9 s x f x D q J V V J k s n J V x n Q I Q Q D n k r J I V s 9 2 ;   $ 2 ; 2 k r r D r n Q D Q k x f s s r q 9 q s 2 r k r 2 s s 9 q f V T I x s x n V k n J T I D x V V n k 9 q 2   O   O 9 9 V 9 q Q -.I D x x r k q x q 2 9 r k r r n $ q V 9 q q f n I J k k n x x r n n n f n s k k s 2 ",
"&.;X;X0.4XQ.Q./.Q.I.*X*XY.f.[ o.H.tX-.c.4X+X+X9X,Xs./.D.*X*Xj.j.c. X Xf.c.M.-.I y.D.s.8.V s < O ; < [ /.Q.M.I.+X XtXf.s.Q./.[.,XO.eX[.s.M.c.D  XI.H.f.H.o.] 8.I.8.Y.,XsXj.y.+X'.M.I.3.Y.Y.3.[.Y.f.s.o.<.j.&.f q $   O [ 8.Q.H.4X[.,X'.C.M.I.s.,X9Xc.[ ] c.<.M.y./.3.o.H.] T J o. X X[ -.D.'. XM.Y.3.s.-.O.C.'.0.T M.3.&.] J ) r 2     2 V M.c.4Xo.V [.[.,XI.O.C.<.o.D I n 2 T k D Q f.D M.[ I [ Q ) -.,X'.[ <.c.H.M.o.8. XC.T y.<.I.-.V -.c.J f f f $ O 9 x 0.n D.M.&.[ &./.s.3.O.I r x k n r s r q O r r 3.-.y.T [ M.[ C.[ y.0.<.[ [ 3.[ o.j.T Q s.V T -.O.s V J 9 2     O s f V <.-.3.] Q o.k n V r x k 2 x s k < 2 $ 9 r n 2 k O.-.] D f ] <.-.T T J ] o.o.&.o.] O.] Q D D x q r k 2   O ; q V x ) y.<.T O.V O.f.[ q D D V 2 r J V r   ; $ ; 9 V 3.<.k k V ) x < D Q J D k Q -.Q J Q Q x ) [ J V k     ;   O 9 D k ] &.k J 0.f.8.Q x k V x D n x V s r 2 9 $ < 9 s 2 D x x q D n f k q x x V D [ o.J D ] ) n V f f x O   O O O 2 k k V V T ) <.O.J f r x ) o.k s n 9 r ; < 9 < O $ $   2 9 x k r r n D n f s s f n V x V D k x x k q ;       < k q s x V ] ) n x J D n f n V k f n n s r r q s 2 $ $ < 2 9 q q 9 I -.T x n k x f V D f V T k f f k 9 $ $ ;     q s D f [ x x D [ J k x D 9 f f I r < f r 2 < ; q O 9 n q r q r k J I x f f s f q r r k r s q 2 2 < $ ",
"Q./.H.I.+X+X[. XQ.Q.[.;XC.c.H.) ;X;X<./. XH.Y.,X+X'. XhX+XI.] H. XH.Y.y.D.C.-.&.Q.c.T x q 9 $ $ O Q <.D.*X/.D.tXf.'. X-.f.4XY.[.o.Q.tXC.O.f.Y.c.Y.Y.j.Q I.-.8. X0.s.D.4Xc.I. XH.] /./.Q '.C.C.Q.3.c.O.[ ) V ;   O O J s.s./.;X[.I.;XxX+X*XM.o.o.[ [ I k n q T Q x 0.y.) M.'.8.O.j.8.&.o.3.8.y.j.c./.M.-.Q '.Y.o.J 0.3.Q n s f <   < k r &./.8.'.&.j.O.Q.Q.<.] V x n x V n k 2 s < $ 9 ; y.[ Q [ Q I 3.'.I y.D.<.-.O.3.c.'.y.T C.8.f.Q n <.I k r q   ; < ; /.3.[ ] I.j.D.T C.[ I ] Q V ] ) V x I k f q 2 O $ r O.J T 0.T 0.r ) y.f.y.[ V T J T I I &.I ] n J f s 2   O   2 r &.V D 8.8.o.f.*X/.Q D s ) <.<.k [ ) ) D n n s O   < < $ ) I T ] -.T <.'.Y.J r J T k V x D D f s k q q $ < $ $ ; 9 &.f O.] Q ) ] 3.I D V -.n 3.3.V J D ) Q ] V V r     < k V 9 n f k x k I O.) x x D x V n x x V T k 2 q $ $     9 < k s J y.&.x Q 3.] ] n o.O.) I <.O.[ O.) D k s   9 < 2 ; s r s r $ s V 3.V ] s q n r V q V k n s 2 s 9 ;     ; < s V J q D O.0.[ x V ) O.] n I C.0.V 3.s s ] x 9 q ; < $ 2 9 q J q 9 r x D n x x f s k f q r r 9 2 < < 2 $   $ 9 r f k V s ) D.Q Q V J D x T Q J k x ) [ ) T V k x 9 ; ; $ $ 2 9 V < < f x D T Q f f x k q s k 9 q ; < < ;   ; < k n q s 2 I I ] n D J n f T k D ) T s x D f r s 2 r ; 2 r 2 q s D 9 9 V V s s k s r 9 2 r 2 ; < $ $ O O ",
"9X XO.Q j.j.[ 8.j.3.-./.Y.c.H.Q 9XQ.D.*X3.C./.j.[.,XH.4X,X;X8.0.'.c.c.[ M.*Xj.[ f.[ n 9 r ; ; q Q  X'.I.Y.'.H.9Xf.9XsXH.) f I T V q o.Q r s -.D <.&.Y.8.f.T <.j.0.y.C.y.3.Q.+X/.3.Q +Xs.3.s./.3.-.f.[ D 2 2 O < 9 &.0.H.M.[.,XD.-.Y.;X8.Q x V D s T x x f k 2 < 9 O Q ] 0.&.y. X-.] f.C.I.0.s.[ -.y.8.[ f.f.8.) ) -.-.V r r ; $ r [ O.x C./.-.c.'.y.[ ] J [ Q y.C.f.c.O.) ] D I f 2 2 ; 9   x 8.c.V x sXV <.3.-.&.V ] -.-.] I -.] Q V V J < < O ; 9 s f D.I.O.<.M.H.f. Xo.o.f o.y.Q.O.D.s.O.T ] T &.] s s <     r o.s.s.O.n T H.&.0.<.k V k x k r 9 k f $ r q < O 2 O f k J s.s &.3.Y.3.3.f.J [ ] J s.D.0.[ [ -.f.-.) O.f I f   2   9 n I s.k n n f.-.J s 2 f f f k < ; f r O 2 q O $ ; q r n C.k M.[ J 3.O.) ) o.I [ 0.8.y.n f.<.) V -.-.o.D f s 9 ; ; $ V k x I o.n J T Q -.s s f s x s 9 r < O O   9 < ; k f 9 V n k 3.0.D T Q o.T <.3.&.] <.) [ O.O.D J V r V q O ;   $ 2 x J s V k n Q Q D r < x n r 9 < q O r     q ; < q k n n 9 I O.O.k T D J <.D.<.D &.c.V 0.T n 8.O.f k 2 <   O     s 9 9 r x n x V J n s s f 9 ; < 2 < $ $ < 2 ; 2 s x k k T n Q s.n Q T O.) J o.Q n f s T ] [ O.J k T x r q ; O < 9 r r r V -.<.T n r x k s k q ; 2 q ; ; 2 ; ; 2 2 Q V s k x V J Q ) J o.[ k T n k O.I x J D n I n k x 9 ; O   < s D 2 ; f k s s k f f q q q 2 ; 2 2 < < 2 ",
"M.<.<.n x V D 9 s n q T -.) o.&.D.Q.c.I.y.Q.M.M.s.Y.I.+X;XI.Y.I.c.j.I.8.s.Y.3.T ] x x $ $ O D 3.3. X+X/.C.eXtX9XM.T y.-.O.] f Q J f s q f $ O q J Q J o.D.C.[ -.-.3.;XI.D.8.8.0.<.M.D.c.f.s.s.-.[ J r r ; r O f 3.Q.f.'.0.4XlXC.Y.s.] &.O.0.8.f.y./.y.0.8.3.s s < f ;   ) <.V O.C.I.M.H.D.3.'.I o.] k n O.Q V n J D x 2 2 q ; < M.-.V o.eXY.3.j.9Xy.O.O.&.o.s. Xf.<.Y.y.s.O.C.) 3.D f k 9 $ ; r I.<.n c.&.J 8.[ -.) o.o.V T T n D f f s   9 s s f x D.[  X'.] O.C.Y.M.o.o.s.O.] C.lX-./.s.M.[ Q f f.c.8.D s 9 r   $ T o.3.s I j.I ) &.x D [ 8.k n s x 9 f f 2 ; q r D x -.J M.2 3.I.c.j.<.I [ D.J [ 3.y.Q 0.Q -.j.y.I <.) &.f r s ; ;   Q O.  I D Y.o.f J -.8.I Q n k J s r r s n n x s k n T f.V &.8.D.0.) &.y.M.0.o.M.8.I T s.3.<.] ] [ 3.) V f 9 ; O $ s r k J ) f I T n ] r J I x V 9 < 2 ; s $ r q q k f J D q J I ] s.-.Q 8.s.<.[ o.0.3.&.D ) o.O.V V I ] D s < k O     q f < r s V ] k 2 n V f.Q f $ 2 2 q r O r Q 2 9 x ] D V T -.<.&.) [ &.&.&.O.T Q -.&.I Q -.I ) &.f [ V f q O $   9 2 9 r f k k n D x r f V x s k V 9 2 2 q q q s k x n f ) -.Q T I J ) 0.T V ] Q I J q n J Q o.D n T J x r 2 $ O ; 2 s ;   f n s f r D n x J k 2 s f n f f < x f 2 n k V -.0.] T I [ Q O.8.T Q V k [ T J J x I O.D n V n f < O O $ q r f r 2 q f r s s q f q q 9 q r r s k ",
"T Q ] J -.J 9 J < s < $ 2 2 s Q M.+XO.f.C.I.y. X'.j.0.C.+X[.Y.8.D.y.f.f.0.y.T n V q s ; $ I f.[.D.+X;X/.D.'.Q.f.[ ] 8.f./.C.s.f.f.T 3.-.x s r   2 O V k k k c.D.c.<.D.tX;Xj.&.[ J Q &.J n o.r s x < < f s ] q D [. XM.'.y.;X9XC.&.O.s.9X;X/.D.H.] ;X[.<.Y. X0.] n n 9 < $ 9 q Q M.;Xs.3.T Q Y.3.M.f.I T f n x s k n < s V n [ o./.<.n Y.tXC.I.f.I.o.f.s.C.M.] M.8.<./.f.D.O.C.T V n o.T n 9 $ ; O f Q &.f.< [ -.] y.f.f.n D ] O.o.f T f q T Q -.T C.3.j.[ H.H.] <.V O.c.,XC.[ C.y.j.3.-.M.<.f.o.] 3.o.y.[ V f n r   9 s 8.k O.s.o.8.c.-.&.] j.o.Q <.8.O.) s n T Q x <.I s.) s.x 3.4X[ ) <.c.C.[ o.s.-.[ ) -.T ] [ &.I y.8.O.9 V J q q   V q ; J s.M.V n [ o.I ] 8.k [ c.s f ) n ] O.Q V k k ] 8.J [ c.'.&.o.s.I.f.0.-.y.8.J <.o.] -.O.T ) s.o.[ s 9 r ; < ; O 2 I x V &.) q f J k I x k < x J k D n k s f n n n I J Q -.8.O.&.D.-.0.H.8.&.8.<.O.Q ] O.] ) n I o.n s x J r $     q q r q q Q s V n x j.n r O q < D f 9 J ) 9 J Q n f f Q ] ] [ 3.s.&.-.y.Q T <.V J &.V O.Q T Q k ) V k n ; q O O ; < 2 r f k k k V n J I n k k f r r r s r s f k f n n ) 3.O.) &.T Q 3.x D Q Q [ 8.s k D Q ] V Q I Q V r r 2   O O 9 r r f s q 9 q V I V x x k k s J n I q Q D x f x n 8.8.o.o.-.) ] I &.&.) V J Q ] J D V I [ T V D T I k 9 O   O q k q $ 2 f r k r q n q k s r q q s x ",
"f.C.3.-.H.eXs.-.8.k f s < < O   I -.V H.f.D.D.8.Y.*X9XY.[ y.8.o.-.o.[ [ x D f k 9 $ q x J Y.'.Q.8.[.4XI./.y.-.3.c./.[.[ I.tXY.M.H.8. XH.s.J x f < ;   n q Q <.<./.C.-.,X8.Q.*X4X] O.I ] O.n Q k x D -.&.I M.o.c.'.,X'.C.*X/.8.f.y.c.I.j.C.Q.;XM.f.I.s.s I.s.<.f.] <.T 2 <     f c.D.D ) -.'.Y.s.'.j.D.f.-.J s.O.<.M.Q 3.8.T D.D.] C.M.sXM.M.xX0.y.[.M.;X+XQ.0.c.<.3.f.] f.y.f.H.[ [ 3.x Q J q ; $   $ x x k V H.y.f.Q <.[ <.8.s.C.D c.) y.<.o.j.3.I.j.-.Y.s.*X&.[ -.M.M./. X<.H.D.3.j.j.f.O.0.3.] &.&.0.-.V D D k q   O O J o.<.&.y.0.8.Y.) [ O.J ] Q 3.] k [ D 3.[ -.s.] f.Q [ -.3.<.8.c.'.D -.j.H.0.) C.O.<.-.-.I T o.D O.<.T o.k 2 x     s s J [ x n &.3.D <.8.x I f.J D I x o.O.J V s q [ f.[ '.j.] <.j.O.D.o.&.o.8.Q M.f.O.0.[ Q ] O.&.V s.Q n n < 9     < D < f D x s 9 J x D s k 2 k V n n O.r x D f ) q T I ] s.-.] j.C.H.[ <.[ 3.f.<.o.o.Q o.T 3.V D J J k J x s ; 2     $ Q ; f r x ] f 2 V x   x f V T f k J x 9 <.[ f J ) 3.O.-.<.c.3.I 3.Y.D V Q.0.V 0.D D Q 8.D J n f x ) r V <   $ O ; q k x f r s x J D k f s 2 f x x f r q r r f x Q Q T <.0.-.] T <.n [ ) J Q M.f f J ) T x o.I [ J f n f $ $     q x q q s < < f I k ; r V r 2 f r ] s ) D ) s T Q D.y.<.O.3.] -.f I -.T f T T ) n V T n D [ Q J I V f r ;   $ ; 9 q ; < s k V s r J s V n r q 9 q s ",
"/.,Xs.Q  X9X3.s.f.y.V [ Q s 2   < < n 0.'.Y.T 0.+X4X'.s.[ j.J ) I I D x f V V f k D y./.I.'.;XM.Q.hXtX[.Q.M.Y.D.s.,XQ.D.0.I.[.c.-.f./.c.0.-.8.o.f 9 ;   $ x ] ] c.f.s.c.D.Y.I.c.f.&.Y.4X,XH.] 3.] o.H.8.y.8.H.c.9Xj.*X*XQ.M.H.'.'.+X'.3.'.&.[.Y.-.H.3.M.-.o.Q.Q.f.&.o.k r < <   V J n C.Y.[. X&.D '.M.f.O.T 0.Q.*Xs.o.&.V [.*XM.y./.y.,X X&.Y.8.j.M.0.+Xc.j.D.j.0.s.*X0.'.c.T H.I.-.3.) <.k D q ; O   2 f 2 ) 0.y.,X[ I 8.M.y.s.[.&./.s.M.s.8.O.<.I.I.M.+X) tX;X8./.D.[.<.8.H. Xj.y.8.[ f.D.<.0.s.I <.s.[ 8.Q x x f ; ;   < o.<.Q C.Q &.f.<.T k 0.Q I.s.Q ) ] x ] V ) j.j.3.T T <.D.j.I.M.j.o.c.C.C.Q c.3.) O.O.j.] O.) J ] j.D J o.f s $   O < k D s 3.&.D J [ /.V ] I n ] < <.[ k ) x D -.T 3.<.M.f.0.M.H.j.s.s.[ o.<.T j.s.0.J j.o.) f.I D [ 8.o.Q k s $ $   O f k V D r s n f 9 -.n k I f x o.3.f f M.[ s V ) s M.3.<.s.j.3.) +X0.3.O.[ ) y.n Q o.-.[ Q f T [ o.x k s 2 s   $ O q r < n J f r q f r 2 s V s D 9 f ) r n J n s D.) &.<.-.-.s.C.I [ 8.) V y.8.x 3.] T o.] Q I f I x J ) < s   O   O 2 r s r q q f k k x n f 9 f x r 9 D J s k k V y.3.] y.y.3.8.9 j.x -.O.T T Q J s ] c.k k -.n J Q n Q V f ; O   O 2 q q r k s 9 f V k r r s s < V k r k f &.V s y.<.O.8.s.s.o.&.) D T D V [ [ [ J I ) k s O.Q I J D x k q O   ; < s 9 < V n J r 2 r k s r s 9 < s s ",
"H.9Xc.y.Q.Q.I.<.I.D.Q c.[ T r 2     ; J <.3.D f./.c.0.I.3.H.;XC.0.<.s.3.<.8.f.x '.C.+XH./.4X XI.[.sX9XH.I.*XxX*Xs.Y. X/./.'.8./.M.f.C.<.I.D.Q.0.<.f 2 ; $   s n ) [.s.[ s.*XM.c.c.0.c.j./.H.H.o.<. X*X*Xj.j.lX*X+XQ.9X,X/.I.'. X;XQ.;XI.M.O.0.D.j.0.M.eXY.-.-.I.H.J 8.Q I r     < f f [ M.Q.C.s.J f.0.*XI <.Y.c.&.&.[.V Q '.'.D.+X9X0.'.*XY.H./.'.I.3.C.0.f.D.H.s.0.c.D./.8.o.M.&.o.] [ &.) o.T f       < 9 -.8.j.+XV 3.3.[ D &.f.H.[ Q j.I.0.I [ T  Xj. XD.,Xy.H.9XD.H.M.c.f.s.s.j.Q.&.3.I.] M.&.T C.D.I &.0.n V f < <     D I T 3.T T I.M.q ] H.O.f.I.j.r s [ 8.[ I I s.I Q &.j.0.D.c.I.) 8.f.3.c.o.s.D.o.n ] 3.3.f.0.o.k n [ I ] n V 9 O   O < n O.D.j.T <.V [ -.n ] n n O.k x k n V o.M.D D 0.<.y.s.H.Y.j.&.<.&.c.f.V <.y.o.I 0.j.O.<.O.D x f.o.I k x r 9     ; x q ) s V 9 V Q <.9 9 V n ) n D < ; -.V s k o.j.<.-.H.I.M.8.o.f.&.3.8.o.8.M.o.n O.8.-.J n x &.C.x k q 9 n r $   ; q r x V f s I n V n n 9 f ) V x Q x f n x T -.-.-.y.D.3.&.'.D c.] J I [ c.[ x 8.J J I Q J ) x V Q ) 2 2 s $     $ 9 s f k k x s q f J n 2 s x f s x k x [ V o.3.] &.f.0.j.[ V f.T T J 3.x I I x 0.Y.D s O.Q Q I D ) n k q ; $ O $ 2 q f n r s < x f 9 I J q r J x f x s V V f [ o.y.0.[ &.<.<.J I J I V O.T J J ] o.T D J T J T Q D k r <   O ; 2 < < k k 9 s f q q f k r s s n V ",
"I.Q./.D.C.H.C.D.y.j.-.Q.0.0.] k f <   ; r V D Y.eXM.c.;XC.I.xX*X9XlX X3.Y.H.'.y.Q.I.hX/. X9X<.j.sX'.*X[.;XM.4XsXY.I.I.+X[.H.D.Y.C.] s./.Q.y.C.M./.T s q 2   ; $ q y.y.k -.-.y.Y.+X&.C.f.I.c.Q.j.,X+X9XeXM.C.[.Q.eX4X[. X[.[.I.s.[.c./.'.+X XD.] 8.y.M.Q.f.c.C.C.-.T f.o.I o.f $   O $ n /.Y.O.s.V J sX*X8.J [.9Xk Q '.-.Q.M.Q.,X[.'.[.Q.eXQ.[.tXhX[.D.<.s.O.s.M.j.s.0.s.3.<.&.O.s.y.T 8.-.O.3.&.n $ O     2 8.8.s.<.[ Y.c.I.-.f.O./.C.o.D H.) C.y.;XQ.f.D.Q.Q.c.C.C.'.j.c.Q.&.o.s.D.C.T ] I.] f.3.&.f.j.[ I [ 3.Q x q r O   9 9 ] O.) ) H.M.$ o.c.O.8.-.J < Q I <.O.&.[ H.I <.M.D.I.;X'.y.V s.c.0.j.j.] D.O.H.[ J T o.3.s.f.T o.) J f V r < O     J n Q y.f I -.T ) ) n T c.T s V ) V I J -.Q s.'.f.Y.c.c.M.Y.D.o.I O.j.) [ <.I.J V 0.o.[ c.] n 3.Q T k x x n $   O $ n s r s f o.x T q $ n O.T s.] f r O.n x s J *X3.D.'.D.M.&.-.<.8.<.3.T f.f.o.s ) ) <.x k f ) Y.n x q q n f <     9 f s f s x x n O.f D f r D V s V T r n T J J 8.j.H. XC.)  XV s.n o.-.Q y.3.I O.) ) I 0.Q ) s ] T D n q f 2 $     < r f k x V f 9 s J J s f k s f f r n O.V D.D.&.y.<.Q j.o.V [ ] ] J -.n T [ x &.0.V k o.] ) V D Q k V k < ;     ; r f f r q < r q r I I r k x r r x n n [ Q j.y.y.D.y.J n T x ] I ) D 3.I x D ] [ o.] V J V T o.T x s r ;   O O O 9 q r < f x r q f f 2 < r k x ",
"'.c./.Y.c.s.s.,X<.j.D.C.0.0.3.s n q     $ x ] ;XC.s.[.*X;XY.C.Q.4XsXf.[ ,X,X[.s.f.D.9X4XeXxX] M.9X,X/.eX9X4XY.Q./.Q.I.[.I.-.M.+X/.J O.eXs.0.j.c.I.&.T I 9 $ $   9 x 0.O.o.J f.D.Q.Q././.M.8.xXy.,Xj.*X+XQ./.,X/.4X4XM.*XtXeX+XI.3.C. X/.Q.<.*X/.8.-.) Y.D.f.I.f.s.-.o.j.o.O.D ; $     f Y.y.Q j.I ] +X[.] <.4XY.y.f  XI.f././.[.*Xy.I.Y.,XQ.'.j.+XH.M.H. XM.o.-.H.j.M.3.&.C.s.f.8.o.I o.D.Q j.3.x 9 q $   O ] 0.O.M.] M.H.Q.C.&.[ [.j.I.V -.&.j.] Y.[./.y./.Q.;X[.3.8.[.Y.&.j.O.C./.&.3.0.s.) 0.c.<.&.0.&.[ n y.o.n f x 2   O O x 3.f.f.o.) f 3.<.j.c.x x &.C.Q k 3.x <.Q.M.x C.I.eXtX X&.] j.f.3.Q.o.&.V o.[.8.D.-.o.&.Q 0.J I 0.J s n f 9 ;   O 3.Q.3.< n O.x o.) j.8.n o.J V I ) I <.Q T ) M.Y.c.*Xc.M.j.D.C.0.[ x s.-.O.J I.0.J O.] ] j.Q n I ) &.D k x J 2     O   9 < T n -.s x J n V 3.o.f.I s V Q x J ] 0.[.f.H.0.3.I.0.] 3.j.&.[ D 0.3.T T Q x 0.I x O.V 8.I J x s k q q O   ; r 9 f q D q k O.k J D r f D r k o.r x [ &.0.y.D.j.j.C.Q c.J T D f.0.[ ] O.&.V T ) Q O.J I s o.Q n I k r q < O O < q r q s x x s r x V D n k r f f f V I ) Q.C.s. XC.T ] O.n Q ] o.O.) ) J -.k x x n V Q ) O.J J I f V x < < O   $ q r 2 r 2 J q 2 J s k x k q s f f V D H.O.8.j.s.<.<.c.V J k ] T Q n ] Q V n I ) [ o.] D x J [ Q x f f 9   O   O s q q r q q s k k r 2 s J I J ",
"Q.c.D.4XM.&.Q.Y.0.c.I.j.-.3.s.I O.T q ;   O 2 o.y.C.Q.D.+XC.f.Q.;XeX*X'.I.I.,X*XD.H.I.c.+XhXj.C.8.*XBX;XeXH.C.'.*XQ.I.<. Xj.T ;XD.0.f.+X[ 8.C.'.s.0.<.8.q ;   $ ; k O.M.Q j.s.Q [.M.+X*Xs.Y.9Xf.D.+X4X*Xc.c.sXs.[.9XY.sXeXQ.'.4Xj.c.j.Q.'.Q c.*XI.c.O.f.s.I./.[ s.0.-.f.3.&.) < ;     9 ) D -.Y.0.I H.sXo.T lXM.H.o.D Q.,X-.s.sX'.H.0.*X'.4X'.M.[.D.T Y.Y.;X&.C.I.f.j.8.y.-.[ <.&.H.I Y.O.-.I ) V f r O ;   s 3.<.C.<.&.3. XI 8.o.Q.M.4X8.8.3.<.k C.C./.eXs.,XsX*XH.Q.s.c./.Q.) I.Q.[ y.0.[ I j.f.) <.M.] c.Q [ ] x x n 9 O O   k O.o.o.[ C.Q ] 0.c.O.< O.f.[ f.J J c.y.I.&.<.D.'.4X[.j.y.8.f.&.s.H.&.&.o.T &.s.8.D Q C.f.f.x ) c.) D D k 2 $     s s.Q r c.c.; D -.3.] [ [ s s.O.V x O.o.[ <.&.D.I.'.<.M.M.M.j.3.y.J f.) C.[ [ j.8.-.T [ 3.] T k [ 0.I x n J 2 ; $ ;   n ] y.V J ) x f ] f J s.Q q 9 Q n r k <.4Xj.H.C.s.s.j.<.J -.8.&.[ Q &.3.T ] ) ) <.T x f.T D o.T D x x q 9 ; O   < 9 J s V n k I [ T f k x Q V n o.q s ) &.C.M.+XD.j.<.T 8.[ I [ 0.3.[ Q [ ] &.J D O.D V ] x I O.I V x k s q ; O $ 2 q 9 r r f x k r f n V n f k f n ] D I M.c.Y.4XI.<.o.) I -.<.D &.<.Q x -.V V n D V n Q 3.[ T D n V f r 9 $   O 9 9 ; r s [ s q ) s 2 I f r I T s f J ) H.M.c.,XD.J 3.&.I k V Q Q I ) I I n J [ Q I -.D x D Q I V x f s   O   $ k s r q q q r k k f r 2 D x s ",
"M.-./.eXj.C.;X0.8.M.D.Y.0.c.s.-.[ J < ;     2 I j.Q.c.C.Y.f.;X'.tX[.I.I.H.Q.'.'././.4Xj.*XhXlX'.Y. XeXC.xX[.C.f.,X*X[.) D.I.c.Y.o.c.[. XM.[ O.Y.M.j.8.j.I s   $   f T 8.<.D.y.[ +XM.&.9XM.Q.hX0.0.I./.*X0.Y.*Xc.4XxX4XlX;X0.s.I.,XD.<.I.+X/.O.f.,X0.3.f.y./.C.y.[ 3.[.8.-.o.) V < $   $ 9 J j.C.D.f <. Xf.Q.I.H.o.y.8.3.tXH.<.,Xj.eXI.*XeX,X/.[.tX+X8.s.y.0.3.[.M.'.M.Y.Q.&.8.Q I c.y.<.-.] 0.0.Q n 9   2     ) &.j.O.+X&.I.<.j.[ H.Y.Q.8.f.<.f.[.) /.4XY.[.,X Xj.'.<.H.tX3.s.y.[ s.y.3.8.C.[ Q 3.) &.M.O.j.] s.T f V V 9 ;       ] f.D o.H.V 8.f.-.&.y.Q.c.f 3.n T 3.Y.V O.<.H.*X*Xj.c.&.j.o.&.Q.s.Q C.[ '.I &.y.3.T &.3.8.n y.3.T Q J n < O ; O $ 3.n n n Q D T [.D J 0.T V o.o.] ] I V o.D.c.Q.4X X-.8.8.j.c.-.8.Q c.s I.M.Q ) f.s.D ) o.3.O.k T [ n J J D 9       q f V x s T ] k ; J V ) y.T 9 9 ) ) n r ] eXs.+XD.'.f.] &.&.&.[ 3.&.[ I ] &.I ) f.[ J n 3.<.f -.J n n D k 9 ; $   O q -.x k s f J &.) V k r D J D Q f s [ <.y.Y.,X/.[.Q o.H.O.o.[ ) y.) ] Q I s.[ T T 3.J ) ) D T n V J r f r ;     < q r V r r D J k r f k x f k 2 x <.Q T c.D. XY.O.<.<.<.J ) c.V Q c.V J &.I ] ] J J D D o.] D n T V x V s $     < 9 9 < V V f s V I 2 Q s f Q T f k [ H.Y.0.Y.tXf.k s.) T T I I D Q o.x I D T &.I x o.D D J J V J D f s ; O   ; k k q 9 x V r 9 s f r s ] V s ",
"j.3.[./.C.;X/.f.y.Q.Q.D.s.Y.s.[ 3.[ s q       r n 0.j.'.Q.j.4XQ.Q.C.+X X*X+X'.*Xj.s.4XQ.I.4XxX[.[.nXsX,XH.hXI.j.Q.'.hXf.&.3.sX/.8.3.M. X;Xs.o.-.s.c.c.y.3.D <     2 I o.I.f.f.c.Q.H.D.Q.O.sXhX3.,XH.I.+XC.;XD.j.tXxXeX9X9XY.H.s./. XQ.Q.<.f.f.*X<.<.H.M.8.,X/.-.c.0.D.H.s.x < Q n $ O O ; [ y.0.O.n ;XD I.Y.j.D.8.I c.9X/.y.[.j.C.sX*XI.nX[.c.8.Q.,X,XH.M.T 3.j.o.s.-.I.j.y.Y.[ -.C.0.[ ) D ) &.[ V k O <     n 3.&.D.[.o.'.-.3.-.C.Q j.o.o.I.] C.c.-.,X;X,X+XY.o.I.M.f.*Xs.Q I.s.H.0.V D M.H.s.-.o.Q 8.<.Q [ H.I x Q J q <       V j.n M.M.J [ H.o.Q <.k ) T &.T Y.T O.c.j.8.[.4X Xs.I.V D.O.s.C.I Q 0.-.D.<.V ] s.<.-.[ o.Q j.O.J T n J s ; 2     o.) ] [ D.D f k 3.-.x 3.s.0.k 3.s.[ D -.c.'.C.9X;XD.3.) 3.-.0.y.Q 0.x 3.3.[ Q s.D.J I J &.T T J n k [ I x x 9   < s [ $ k I 0.T n r D ] 8.3.x 9 f x -.Q V o.*XD.,XD.Y.o.Q c.y.] o.0.o.[ I n 0.[ o.f.] o.T ] -.J O.n k n D V k ; $   O q 0.k f q s T Q ] I n 9 f Q I x V k &.*XD././.c.c.Q <.Y.Q 8.[ D 0.o.o.V T ] ) ] V 0.V D O.J k s ) T 2 r r <     ; q r D s s D I n f k k f s n 9 f <.T y.D.s./.I.[ o.Q 0.V D y.] Q <.D ] &.T Q [ J ) T V D D k k [ n D J f ;     $ 2 q 2 x 9 f s s T s D s D V x k x o.c.I.D.[.'.M.Q V Q o.O.o.x k n J x V D T ] I x D n T Q V k J I s s 9 O   $ q k 2 r n V f 9 q r r s O.D f ",
"C.,Xc.s.+X/.C.D.3.Y./.) 8.[.[.3.] Q x V 9 O     n s./.Q.M.f./.eXsX0.eX'.j.D.+XH.[.8./.eXf.hXlXeX;Xj.tX,X;Xj.I.Q. Xo.;XC.D.M.Y.Q.Q.y.M.+Xj.Q.[.c.D c. X3.3.V s $     s -.H.C.3.o.Q.'.[.;X&.[.sXc.'.Q.f.H.[.,XsXM.*XtXeX[.,X*XQ.o.D.D.c.'.f.&.Y.'.<.&.y.'.y.y.Y.C.I.D.x c.f.-.s k o.; $     I ) j. X<.-.y.4Xc.M.j.T s j.I.0.'.;X[.j.tXlX,X,X+XQ.Y.0.*XD.Q.y.f.C.D.C.&.o.'.3.j.H.s.f.f.-.8.8.] V o.] D Q r $   $ s [ /.Y.D s. X8.<.c.O.<.[.I &.Y.Q y.[.-.I.hX*XeX*XQ.;XD.0.H.y.O.Y.3.j.<.j.<.V 0.8.[ ] ] 3.] k j.o.T J &.) s 9 O   O s j.[ [.o.3.J ] y.3.M.n O.[ T o.H.-.<.o.V  X[.tXC.M.0.J /.I.j.I [ I D.c.D [ o./.<.I 3.o.[ o.[ s.) J f ] J < $   < ; D <.J o.[ x 3.&.o.] [ T T x 8.o.T ) f.<.Q.[.,XQ.I.-.[ M.8.) j.I ) O.-.T o.O.O.C.I Q V O.I 8.] x n -.V s T   ;     r k D J 8.T D f T D J -.r V &.f -.V I y.H.D.,X*X/.Q &.f.&.V &.8.I o.<.V O.3.] J I 3.I V ) o.[ V x D D V T < $   O 9 8.q f ] r n Q [ s ) n V &.) q V s o.'.C./.,XI.<.&.o.3.V j.<.V ] 8.<.] ) J n o.-.n J D ) D V D o.D s 9 r q $   ; 2 9 f s f n n k k n J f r T k k &.V 0.I.f.+X[.[ O.o.T ) &.I ] -.n o.) &.T n Q D [ D ) V n f k O.f J D r ; O $ $ ; 9 k 9 r f s f x V q f [ n r n q n 0.Y.D. X*XD.[ o.O.o.D T f ) I J J x n V n J I k k Q [ x r J I r r q   O $ 2 k ; f 9 9 f k r s x q o.V s ",
"C.y.0. X/.'. XD.8.'.<.V M. XC.3.f.Q x J D   O   2 0.Y.D.[.3.Q.sX'.y.eX XD.y.M.'.,X+X[.+Xy.4XxX9X*X*X9X;X9XM./.c.[.I.D.&.C.*X0.f.;XD.0.H. X+Xc.H.f.-.D.8.J o.I < O   < x 0.M.H.&.&.sXc.&.3.9X+Xy.,Xs.O.I././.4X,XlXlX;X,XeX,XQ.<.j. Xc.+X0.0.Q.C.0.j.c.C.Y.O.&.j.*Xs.J O.+XC.n ) ] q       D O.y.eX[ [ D.;XH.c.s.k ) Q.&.0.C.Q.,XI.,XsXtX,X+X9X+XM.f.M.0.j.&.*X/.T -.j.I.-.D.D.<.j./.-.<.J ] J Y.3.I x q O     ; y.c.<.-.-.,Xc.D D.D.Q.C.y.) o.T Q.3.'.D.+XeXtX;XC./.H.4Xy.] s.s.o.I.) Q.y.3.J -.<.f H.Q.T [ ] C.y.s J O.V ;   $ O s x M.0.<.&.-.3.T 3.Q f 0.o.k 0.] O.3.n O.Q.4X9X*XD.8.D.D.C.O.f c.<.s.0.[ [ O.M.J Q -.f.] 3.T 3.o.k J <.r 2 $   O n k D D o.o.I 0.T Q Q T 8.o.n T O.T n O.H.C. X4X[.j.c.&.8.j.3.c.o.I [ D.) -.O.o.3.T D.n &.s 8.-.I D x [ J V r     ; ; x Q T ] I n s 8.V f n &.f T o.D f T C./.D. X+XI.&.-.j.T V 3.-.n j.] Q -.o.x J Q O.] ) T O.T Q V ] q J s q O     q ) f x I V 2 k x 0.T r V 3.I k V q I H.H./.4XI.) O.H.o.V -.f.O.I T &.n 8.J T T O.J ) T n D o.] n k k n x 2     ; 2 q f r x 9 O.r $ Q J k J J T k n k T Y.y.+XY.y.0.8.x J C.n D c.k -.Q Q ] Q ] V ] ] Q ) k ) q Q x D q q 2     O 9 s q 2 s r n f D T s q r V x x T r <.C.Y.*X*Xj.O.o.O.Q V V V -.r ] V J V J k V x D V x ) n k s f k x 9     O 2 2 < 9 2 s k f k k r f f D I ",
"3.Q.j.'.+XY.[.c.y.0.f.f.3.M.) '.8.o.Q -.n O     < J C.j.+X[.I.Q.I.Q.-.;XC.s.lXC.*XeXM.D. XeX,XeXtXeX4X,X9XC.C.[.D.c.,X[.8.[ 0.Y.c.f.o.H.H./.M.[./.f.I.y.J o.I 9     $ n y. XH.Q f.hX0.D.D.'.'.j.j.s.j.I./.M.,XY.hXeX+XQ.Q.Q.H./.Y.y.H.[.M.&.H.-./.'.I.C.H.3.3.] +Xc.D 0./.3.O.[ ) 9   $ O ; ) 0.J '.D.) sX'.T &.-./.'.) -.'.s.8.M.hX;XhXeXM.Q.sXj.0.sXC.D.J Q.'.C.) c.f.8.s.I.] c.Y.8.D.T J &.0.<.J n 2 O     ; s.M.-.y.s.Y.M.o.8./.I.j.Q.o.&.] '.Q O.C.tX4X X[. X'.C.H.j.I Q.[.J O.3.I.Q 8.D ) y.3.H.I.T <.-.O.T k T O.n 2 $ <   V <.o.s.O.0.*Xo.y.0.3.I [ o.s.T I Q Q J 3.9X X9X/.j.M.-.M.s.s -.j. X-.V D &.c.0.T <.V &.j.8.) V ) V ) I k ; $ $ $ q n ] k o.[ -.0.O.o.T J 3.0.3.q D f D I '.I.'.tX Xj.I.y.o.f.[ 0.8.y.x &.I.) s 3.H.T o.I M.J ) ] V V n ] Q D q     $ s I ) n ] D <.o.o.s o.s T s.V Q r n I I.Y.Y.,XH.y.s.O.) -.D O.[ -.y.&.Q Q o.x O.o.T ) Q T 0.T I D ) V 2 r 9 $ O   9 J 9 r x Q D Q V 8.n J n I x k x r I H.H.'.;X'.y.[ o.) <.8.<.n D I [ ) o.J O.J ] ] ] n k ] [ I V x ) x k <     ; 9 f n s x q 8.n q f V k s x V V x V I I.H.4X[.D.&.] J x j.k T O.[ [ ) ) n -.T T Q 8.T n x J D D k 9 < 2 2 O     < 9 f q q r D T T V r x V J s x T D ] D.M.'.*Xc.3.) T I ] ) Q &.J Q V I ] x x f J J D n ) n f r f k r q < O   $ q k q < r f s J T q n f n V ",
"<.[.D.I.4XY.c.C.D.Q.+X3.] 4X3.&.0.&.Q 0.r <     ; f M.M./.[. X[./.o.[.Q.'.,X[.c.,XD.c.sX9XI. XxX9X9X X,X,XY.f.9X'.-./.Q.D.J c.Y.D.j.s.*Xc.s.D.I.D.y.C.D.I Q k r O     V ] s.0.s.f.[.D.*Xy.s.+XeXD.8./.;X8.3.tXM.+XsX9XeX+X3.O.f.9XC.M.H.c.C.j.) +X*XC.j.M.c./.f.3.3.<.O.Y.C.D y.J q     $   -.H.0.I.f.-.4X'.0.&.M.*X,X&.y.D.M.C.D.hXC.9XhX'.D.3.H.<. XI.s.O.y.M.I.&.y.I.j.C.s.-.&.M.Q.&.T s.] <.[ D D < ;     $ ) -.O.D.H.s.D.8.] tXc.0.3.8.V C.[.Y.s.f. X,X9X[.D.[.Q.f.D.J '.Q.T -.-.c.s.Y.] 8.n &. X3.O.&.8.D 9 T -.j.T s O   O 9 ] ] -.f.-.<.o.-.s.3.Q s j.0.] ) ) s.0.f.eX+X+X;X+XY.] <.s.T o.D.'.o.r Q /.<.o.f [ ) 0.<.[ 3.T ] Q n ; k r q       D [ 9 ] <.y.Q f.3.] ] Q f.O.T x I V 0.H./.Q.9X*Xc.M.C.[ <.[ I Y.H.r o.H.V r s.D.D V y.'.x x Q x V V Q o.J 9 O     k V I s V Q o.j.n I 3.n < &.-.8.[ 2 &.O.Q.D.,X/.y.-.) 8.3.o.] Q y.3.<.T J ) T 3.O.I D o.x <.<.J x Q I 2 9 < $ O   9 x < x f k T V s [ o.n x n J D s r T D.D./.;X;XC.] J ] y.O.-.9 J &.] f.T n -.V ) &.I n x O.Q D J s I f f 2     $ 2 s f k r 9 T x n n r V n Q J J x ] o.M.D. X/.D.) [ [ k &.V T I <.J ) Q J Q [ D Q O.[ V V D J k k r 2 2 <       ; 2 V V f f x J x 9 q V D D q J n D J Y.j.Y.;Xc.3.I Q I [ ) I ) o.J I I T f V V T V D x Q n k s k x q ;       ; 9 r r 9 k f r I ) q J k k x ",
"I.c.D.C.4XQ.[ Q.Q.M.Y.c.D.Q.y.f.3.o.[ s.f ;   O $ n j.Q.j.3.,X*XY.j.;Xy.4X'.c.,X0.I.'./.+XY.D.eX+X*X[.4X'. Xf. X'.s.D.H.D.o.s.;XH.j.3.I.Y.8.M.f.I.y.f.Y.O.O.x f $     s n O.0. XY.'.4XH.8.y.c.tXD.Y.I. XH./.Q.4X/.hX[.eX*Xo.8.H.+X*X0.] c.*Xf.J /.9XD.s.j.y.Q.Q.] I.j.3.j.O.I [ x s ;     9 O.M.-.'.C.[.eX'.D.<.&.Y.[.<.f.;X'.[ s./.f.,XY. XtXQ.'.s.[.'.8.<.c. X[ s.[ Y.M.j.) D.&.j.&.8.y.I ] y.T V I 9 9     $ f 3.3.c.,Xs.0.Y.j.<.C.;X-.o.J s.[.Q.T &.'.4XlX4X8. XH.8.D.<.I.-.V H.V <.M.j.c.&.-.D Q 0.f.y.f s J 8.&.8.k q $     s -.8.[ <.<.<.O.8.o.c.x [ s.I [ ] ] M.-.0.Q.'.*X9X'.<.3.8.c.3.Q [ ) c.-.3.f.I f J <.0.0.o.3.) -.T -.x s D k O O $ < O.O.D [ H.-.Q 8.&.[ -.<.[ s o.[ x &.[ -.Y.Y.+X,XC.<.M.o.O.3.I D.s.I -.j.I n s.c.] n 0.C.f x [ D I J J [ V ; O $   s 9 J D D y.D 3.D Q Q x D n T ] j.< 0.Q '.c.+X XC.I o.H.o.M.] I [ -.&.T ) Q O.-.] ] n -.J J c.D x [ k s < $ O O O q k 9 D I D j.Q q f s.k x f Q ) k n T 0.M.D.,X*X0.o.&.o.s.D [ I I o.-.y.I n O.n T &.J D D Q D I Q s 9 r s 2 O     ; q O.-.f f 2 x I I n V s k x s s &.3.s.f.*X+Xs.D ] O.J D Q J o.] n T ) T x o.I Q D ) T T o.x r r n r q ;     O < q 9 k k n r n x D r n x x r [ f f J Y.M.H.*Xc.o.I O.T T o.D I &.n J J x D x T J I x s T V V k n n r ;     ; q s s r x n s s n n s I k s x ",
",Xs.s.c. XI.] I.f.Q.[.<.j.[.s.0.8.[ 8.j.T O   $ O n s.H.8.3.*XY.H.M.Y.*Xc.j.lX X/.Q.,X X9XxX;XsX,X;X,X4XD.;XD.c.'.I.D.[.<.H.3.,X'.Q.o.f.[.s.8.j.'.C.8.y.[ s.Q 2   O O ; Q I.Q.'.;X'.'.-. XH.0.[.s.8.M.H.Q.tXI.'.4XtX'.+X+Xs.c.;XH.*Xc.D Y.[. XO.-.,XD.8.j.s.j.M.j.M.I.D.) V -.o.D s < $   k q [ /.Y.[ ;XI.j.'.s.H.[.c.D.Q.Y.f.H.I 3.D.BX X'. X[.Q.3.H.0.8.Q Y. XJ C.o.C.M.&.O. Xj.j.o.M.0.f &.) Q J J q 9     q 2 M.s.o.9Xy.V Q.c. X&.4X[  Xo.8.f.H.I 3. X+XhX,XD.*X-.o.f.D.D.-.Q &.j.) T c.<.T s.Q D T Q.&.o.k o.8.Q &.s 2 $ $   J <.T <.V f.;X[ 8.8.O.o.[ ) f ] &.c.8.T y.Q.,X,XeX'.-.3.y.Y.C.I -.0.T T C.[ D I O.c.j.<.<.s.n y.J O.x f D f $     $ [ J ] f y.3.y.I Q O.o.I.x n -.o.I O.V I /.I.+X*XH.y.0.I s.s.s.-.&.[ o.'.[ k &.c.f.D x Q ) D O.Q Q I x Q f ; O O O V r ] [ J -.D J <.V ) V J O.x I [ r D c.H.I.'.I.H.J y.-.[ I.] D Q &.O.] ] O.) o.) ) I ] <.n <.D T ) q r 9 $ O   O 9 s r f.Q < T y.[ s k T J 2 x ] T Q V T M.j.+X[.&.0.s.T j.n T 8.D T <.J Q T [ J T ] T D ) k x Q ) I q r r 2 O   O < f &.o.q r r D Q V k r r J 3.D < 9 c.D.0./.[.8.) O.[ T n I Q 0.x n o.&.k I ) &.I D n J ) <.D s 9 f r q ;     $ 2 q 2 k x J r f x ] f n k k f &.x x J f.D.C. XC.Q [ ) T I f.I J [ D k n n ) n x n o.x r I J I n x k ; $ O   $ 2 r k q V s 9 V x 9 k J x s f ",
"+XH.3.C.Y.D.8.j./.Y.[.D.f.Y.J D.D.o.&.] ) <       k M.f.<.Y.,X*Xc.+X[.M.;XY.*X+X9X3.C.;X XeX4XsX4X+X;X*XC. X'.f. X8.I.H.3.'.M.H.*XH.j.+X8.&.M.Y.0.H.c.-.J y.o.< $     2 &./.D.Q.9XM.D.C.'.3.[. X'.] +XC.f.;X9Xo.hX9XsX*X;X[.s.[./.[.D.0.y.C.eXQ.Q /.j.O.s.H.f.f.D.<.Y.H.o.I I f.] 9   $   D 9 y.*XQ.V /.+XD.f.y.o. XM.V D.3.c./.s.Q.I.+X+X*XH.M. XM.H.8.c.8.[. X) I.-.Q.<.8.<.C.s./.M.-.<.&.Q x &.) n 9 $     T 9 ] M.f.Q.j.o.&.c.4X0.I.O.Y.,X3.o.I.s.Q.eX[.eX+X'./.O.<.0.M.s.C.&.f.-.0.M.o.3.T Q M.n 8.y.O.y.I O.[ Q <.V 9     O n T O.<.I y.H.O.8.j.C.D o.V I n V M.&.T ] y./.,X,X+XY.) 8.Q.M.s 3.H.<.f.[ x ] f.&.c.&.[ j.<.V 3.V D n < n 9 r O $ < o.Q y.s <.I.) ) O.f.O.o.T ) 3.[ &.x o.O.f.H.*X[.I./.<.k H.0.y.y.&.) o.H.I V I O.0.3.k f o.J ] ) Q I f V s 2 O   9 ) J &.T T ] T O.o.n ] D V <.T o.n k k f.<.I./.Y.H.D j.[ -.j.] n &.3.O.<.T 8.x O.O.J [ n O.J J T [ k f x r ; O     9 q k J I [ s ) s D n I I s n Q I J f k C.c.Q.'.f.c.0.J ] [ 0.[ D y.[ n o.I I o.[ D f J -.x x I J ] n s r $     $ s I k x n k I x D f [ V s r ) x k n &.C.0.M.Q.c.8.O.T I T s O.y.k V c.3.x T 3.[ D T I n T ) Q x k s 9 2 $   O ; 2 9 k k x D f s f J s x f k r ) I J n <.C.M.'.Y.o.8.D Q I s.V n T O.x r D T ) s n ] J f I D J x f r < O     < s k k 9 k 2 2 T J 9 f J J x f ",
"f./.y.Q.Y.Y.y.c.H.C.+X*Xy.s.] *XC.O.] f I q       k f.c.c. X;XeX,X+XI.<.eXj.;X*Xj.*XM.D.,XxX,XxX,X'. X X[.H.'.C.H.8.[.M.f.s.H./.D.] D.[.&.T /.[.&.C.H.8.) <.O.s ;     n &.C.3. XtXc.Y.;XD.] Y.M.,X[.sXy.I./.9Xf.*X,X9X X[.*X/.+XD.D.j.H.[ j.Y.*Xf.C.j.y.y.D.3.8.c./.0.M.M.x n <.Q 9     O Q Q '.*XC.I.H.[ H.*X8.-.j.y.[ tXC.'.c.8.*X+X,XeXtX;X0.Y.H.[.8.8.0.j.Y.T H.8.j.Q M.] <.0.;XO.o.C.o.V I 8.o.f 9     $ 3.x k M.;XC.Y. XT &.Y.3.,XQ.s.<.M.0.<.) Y.HX'.4X;X'.c.f.s.C.y.O.f.y.-.&.8.*X&.D &.j.y.J s.Y.Q ) V 3.T ) [ s ; O O ; J 3./.[ [ O.y.j.<. Xf.) Q f.o.J T s.C.&.-.<.Q.,X'.H.H.O.y.c.[ T Y.y.x O.) -.c.<.y.s.x T H.-.V Q f V ) n J ;     $ 2 [ [ <.s [ H.k 0.<.j.&.k <.] O.-.k k O.f.) c.Q.[./.'.3.) 8.3.&.s.3.o.[ o.Q T I I T H.[ x [ V J ] Q Q f f s ; $   s ) O.8.n -.-.] 0.x n n f 8.] k x T T Q J [ C.I.+XC.I s.0.O.0.o.D [ M.[ 8.Q &.n &.O.I T n J T V T ) q k I r $ O   ; f k T s f y.[ ) J &.r n I D J I n k f s y.C.D.'.D.0.<.Q x &.Y.D T D.I T -.J n o.) n s J -.J k V n J D r 9 O     ; f Q n I ] o.T V r D k n n f x x n k s &.f.C.+X/.3.T J T O.2 o.O.D V M.&.D J j.I V I O.T V J D D n f 2 < $   O 2 9 q q 9 s f V n D J s f s n s V I x k -.j.f.I.Y.8.3.J ] T o.V x D O.I s n J ] x n J [ x D x n f r 9 r ;   $ s J T I < s s s D J k r J Q D r ",
"o.H.D. X/.+X&./. XH.D.H.f.0.f.<.Q &.0.D D 2   O   k ] '.,XI.H.D.sX0.c.c.4XI.f.;X0.[.3.'.4XtXeXtX9X[. X*XsXf.H.I.Y. XM.Y.j.c.0.;XI.-.H.<.;Xo.j.H.M.y.-.o.[ ) I 9   O ; ) <.[.8.[.'.M.s.I.sX'.o.o.H.Q. XM.c.j.eXY.f.eX+X4X*XY.4XD.-.0.I.C.D.I.j. XD.&.f.'.M.c.o.3.C.M.f.<.8.O.T 0.f r     2 T o.D.I.-.+XY.Y.+Xj.[ M. Xf.C.O./.4X8.M.C.0.'.[.[.sX&.tXH.4XT Y.D.f.3.o.Q.Q.D <.H.O.c.s.C.s.J [ c.x D 0.O.r r   O ; f.n I &.H.c.H.*X[ <.o.'.D.C.s.<.-.j.C.0.y. XI.sX+X,Xy.H.0.*Xc.] J s.Q '.<.f.3.V [ 0.j.f.<.O.M.] ] T s ] [ f <     r ) y.3.<.&.[ D.8.f.C.V Q ] j.[ V 3.] M.n j.0.I.'.*X+XM.j.&.8.3.<.&.) [ C.H.n s.) 3.I T y.<.Q O.&.n D V ) D q     k J 0.0.] n O.[ <.s.Q &.) 3.&.<.y.I x f 8.0.0.y.f.*X Xc.s.c.f <.y.J 8.j.V [ s.n O.<.V H.[ D 3.n x ] ) ] k r f   $   f T 0.D.I o.] Q T V V I J T &.f V 3.J s V &.C.M.'.s.3.s.8.I y.-.T x /.I 3.o.J ) o.[ o.s ) I T J n I V 9 n 2       9 D I -.&.r ] <.f ) -.< Q J x x V n k V r ] c.j.I.M.Q <.Q ] Q c.[ ] ] T D -.] V D k J o.x ) J f V V k n 2 <     $ < r D x D r O.x -.f 3.r D V n k o.Q f Q o.0.<.C.I.-.3.J [ -.9 I Q T n ] [ r T 3.O.n J o.o.n [ s Q r q q < O     2 r s r f V f D V J x k s s J V n I < r -.8.8.c.C.s.] T O.[ ) o.T x V D D V ] V n f J &.n n r f r q 9 O O   O ; s J ] ; s T J r k V 9 x Q V 2 ",
"T '.y.<.*XQ.f.[.H.D.I.+X8.C.&.I.c.] O.o.x ;   O O J s.,XeXH.f.y.+XI.c.*X X,X/.;XM.f.D./.tXQ.9X9X,X[.M.4XY.s.I.Y.,X X8.Y.H.f.[ H. XM.H.x 4X8.3.s. Xj.8.) ] f T < O   < o.f.+Xf.+XD.j.Q M.hX4X Xx ;XQ.s.c.f.M.,X,X[.[.9X X+Xf.Q.j.O.D.,Xc.j.0.f.'.c.D.[ D.C.Q.c.f.f.O.M.o.y.O.Q 0.V   O ;   J 8./.'.D.tX*Xf.f.D.f. Xy.C.[ D.H.s.C.D.&.<.'.[.Y.4XY.'.M./.D  X0.D.[ -.Y.y.-.C.8.0.H.<.[ H.n ) y.-.) k k ) r     2 y.c.) f.M.C.s.lX<.0.O.H.<.y.Q.) y./.T &.y.Q.I.;X;X+X0.s.] ,XM.-.T Y.T Y.s.V f.f.T f.s.C.8.3.c.) V q D y.T q     $ T C.&.D f.Q o.s.M.3.<.Q O.8.M.8.f n &.0.s n 0.y.M.,Xc.H.C.y.T O.j.&.0.V M.H.[ T D f.I 8.y.-.q 3.c.J r s J D $     9 Q -.[ ) O.n V s.o.s '.&.<.D 3.C.) f O.s.k k &.s.I.Y.f.3.C.V O.y.o.Q I.f [ H.] I n M.) I f 8.J V [ T r k f <   O   ] &.&.) V Q ) ] D I ] ) o.D 3.D 3.D J k s ) j.H.H.f.[.<.Q J ) 0.s.<.Q O.I o.] J ) 8.T ) D J n I V D I k x O   ;   2 ) q ] ) O.J Q f V f.f n f V n r n T x T D y.f.c.C.D.3.I Q O.-.o.8.J D O.] T x ] D V -.f T J n D n f n 9     ; ; < k 9 V Q D V s q D V r D T f f V s q I J O.8.0.C.H.3.O.O.] V x I D V f D V Q J O.x o.) Q T [ x k q s 2 $ O     q f r x f $ Q I r s f V x n f V k 2 ) x D [ ] y.s.y.o.D 8.<.D ] I J k V J J T Q V k n n D T J s q 9 $ <     < 2 2 k Q 9 < x ) x r n q J J x 9 ",
"y.+X'.T y.M.Q.I.j.j.+X+X8.M.0.y.[ &.o.J q < <   $ ) f.[.9X*XY.f.H.'.c.) ;XI.s.+XeX) C.4XD.c.D.tX4X[.H.I.H.'.Y.y./.xXc.o.D.c.0.y. XH.D.8.I.s.8.<.j.s.y.3.3.V x       q y.H.0.<.*X4X X3.3.[.C.j.8.8.9XnX&.D  XeXI.c.4X*X4X'.'.*Xc.s.c./.Q.M.s.&.y.,X/.&.c.Q.C.y.&.f.y.f.O.y.3.o.Q q $   $ < 3.0.H.H.H.Q.H.s.4XC.'.+XQ.I o.-.0.H.<.f.f./. X[.tX[.Y.c./.D.M.C.M.Y.M.x y.[./.3.y.c.j.D C.c.I O.y.[ V I V ; O $ O Q -.c.3. Xs.<.y.'.0.M.j.] Y.3.j.3.o.Y.C.] V  X,X/.9X[.C.[ y.Y.M.y.<.M.c.O.I ) C.C.c.y.T c.[ 3.o.V ] Q O.<.n O $     x M.s.k o.H.Q y.3.O.&.M.&.&.s.[ s ] o.I.V s &.8.C.Y. Xf.y.[.Q C.0.-.c.8.k 0.&.k O.c.V C.j.D r Q 0.] Q D x q   O O 9 ; <.f.y.I J 0.3.n O.8.f.0.9 ) c.Q D k J x &.I c.H.Q.0.M.Y.-.V 8.J D.8.s -.y.o.J T 8.] x Q 3.D n ) T k n s O     r [ ] x n y.H.s f ) n -.<.q k I V j.Q x x I -.y.3.D.C.C.j.J <.3.0.[ [ I f I O.O.[ V 8.J &.D f n Q V V T k 9 <     < 9 k D k &.] r ] D f j.) D f f T q s f k k n <.&.<.f.j.[ ) O.[ D c.&.Q D J n 0.J I D D I s n T I k q q r ; O     f r k V 0.J k D x n Q n k k n n I I s s [ n J O.&.3.y.<.[ O.T V I Q D k T D r J T ] k I -.] I Q k f q q 2 O     ; f x q n k q o.Q x V x f I x 9 q r D -.9 I 3.o.o.o.0.8.3.<.D J ) J n T J I n n I V f n f s k k r q 9 ;     O $ 9 s f f k f x D r 2 x f k k s q ",
"H.Q.eXY.C.] <.9XI.f.Y.Y.&.D.M.0.[ 8.) V q   $   < <.Y.[.'.'.;X4Xc.;X[.f.H.,XY.+X*XD. XM.<.Y.'.4X,X X+XD.Y.*XY.8.M.,XQ.c.s.O.j.y.;Xy.M.Q./.y.f.) 3.f.j.M.y.I r O   $ k [ C.f.j.,X;XhXC.8.T C.c.'.D. XtXc.o.0.Y.tX<.4X+XhX'. X9X[.j.y.D.[.f.f.<.<.;XQ.<.f.H.3.O.] f.Q.C.3.&.O.[ s O ;     J M.M.C.j.Q./.<.D.j.Y.f. Xf.3.D.0.) '.[.-.[ -.f.[.sX'./.M.Q.H.D.C.3.Q.M.] <.;X0.O.-.Q.&.T c.<.&.] -.x x D q r     9 ) f.c.y.I.,Xc.&.[.y.f.y.M.D.j.T 3.f.] Q.y.J +X;Xf./.[.[.<.8.j.&.H.O.H.M.[ J 3.H.j.&.O.V O.s.M.f x ) y.o.f ;   9 $ q O.f.H.Q ) [ 8.s.j.I.n ] V n x Q Q ] <.c.y.k ) [ D.c.*XM.M.4X) C.M.D <.C.V f <.0.O.s.[ f.O.x T D [ ] o.J 9     O s -.k J [ 3.&.[.J T f -.x 8.0.$ ) ) V f O.k J x O.Q.3.s.I.c.3.c.] <.s D.3.Q &.) 3.Q T o.[ D <.-.V x ) I s r ;     $ J Q <.) n &.O.y.J r J <.n I k f s 8.o.V V D ) Q -.-.M.j.[ 8.[ o.D.o.k O.[ D O.<.O.n O.I -.D f k V n J I r O $   ; f f 2 Q x I q ] &.x s x Q T f ; I x [ J V q f O.o.o.<.0.&.8.) J Q H.D ] O.O.r s.I J D D r I n Q ] k q s 9   O   $ V s < n M.n n T k x J x D k k x I J 9 < o.f f ] O.&.8.y.-.O.J 3.M.) x V o.I f I [ I V J <.Q n V f f q 2       2 k I D q s r q ] n k J x r O.I f s r V k k n Q Q [ ] &.<.s.O.s ) o.Q x T I ) n f I J f k J f f k r 9 < O   ; ; < x V f r k k f n f < r s f r r f ",
"'.*X[.j.f.s.Q  X9XM.8.c.3.Y.c.s.0.y.Q x 9     ; f <.I.eXlX;X/.D.O.*X/.I /.,XI.Y.lX*XM.0.D.f.9XY.4X+X*X/.+X'.I.s.I.'.[.*XO.Q 8.I.Y.0.D.,XQ.y.j.J -.3.s.M.Q s < O   $ 8.'. X3.[ 9XtXH.'.H.-.T H.*XY. X'.I.s.] C. X;XtX*XsX;XD.C.c.C.f.Y.[.8.s.H.D.I.I.<.f.I.s.8.3.c.Q.M.y.] [ I 9 $   $ 2 8.C.'.H.f.H.,X&. XtX3.s.s.s. Xc.V ] tXsXM.o.T H.9XY.'.[. XM.C.s.I.3.I.0.&.s.D.H.O.[ 8.3.f.<.8.8.V 8.V D J O <     D n [ j.Y./.eX<.y.xX8.8.0./.&.+XJ [ j.Q y.D.o.s.j.c.M.Q.;XI.3.0.[ /.D j.<.M.&.y.j.[ Q 8.o.0.[ T o.I <.I.o.< $       J ] j.Y.o.C.) ] <.y.'.n n ] -.s I x k V &.o.O.< ) C.M.y.I.I.M.O.<.-.[ [ 8.O.V y.H.<.] &.[ n ) &.T I I D s ; O     O.y.V n <.<.3.[.j.[ r V o.[ <.n o.J ) r T 2 J x -.O.[ &.j.3.M.C.-.<.] <.<.] Q 8.o.&.I o.] D [ 3.x x Q D 2 $     ; x o.n [ J Q y.) 3.J V Q y.f 9 x T n I ] J n f I 9 0.y.[ 0.3.Q.&.Q D.O.V &.0.k ] 3.T Q Q ] ) n T s q x J x < O     r q D J V Q [ ; V k s Q k x &.) k D n o.D 2 q q ) O.] ) o.0.s.J I 8.o.x O.8.&.q &.) I x x r o.x s x s 9 2 $ O O   q k D k &.O.q n J x k r f q s k q x J f r Q s r D T ) ) Q O.-.D 8.M.V r n Q Q I Q ] k T Q ) n f k s s q ; $     $ q D T n 9 2 r T q s T V n [ V 9 r n I k T r 9 D o.) Q ] &.o.n ) o.] J D J ] D k T I s r [ V x x r ; O     < ; q J V f V I V 9 f x < r J n s r n ",
"I.*X;Xf.8./.<.D.*XH.0.8.D.Y.s.<.s.8.Q ;   $   q &.f.C.[.,X XY.c.H.*Xc.&./.eX[.Y.[.4XD T tXc.'.[.9X,XQ.'.4XQ.'.j.c.Q.;X/.D.C.] y.0.Y.H.9X8.M.f.O.&.[ s.D.k 2 ;   $ V -.[.;XQ.M.C.'.;X+X*X&.<.H.j.3.Y.[.H.M.8.c.O.eXY.8.[.hXeXD.f.;XH.[.'.s.8.'. XM.M.-.o.'.C.D.8.f.s.<.8.&.-.f 2 $   < o.j.c. XH.o.[.eX<.sX+X3.y.8.j.f.[.D y.,XI.T J ] ,XH.C.+XsX,XM.s.M.c./.M.c.<.8.[.'.8.O f. Xs.-.3.[ n s.) f s 9   2 9 D J V 0.f.Q.+X<.j.c.-.) D.M.f.C.J Q y.y.) j.3.0.3.D.3.j.'. XH.f.s.H.D Q 3.C.s.<.&.J j.3.<.Q j.f.T O.&.I q O   $   I c.<.o.Y.[ ] '.y.I 3.c.-.I [ C.I r 9 r Q s -.I s [ 0.c.T j.f.] s.<.I c.) c.3.O.[ <.f.D Q Q J o.-.T D n r ; $ ; < $ Q M.<.J n O.0.f.&.&.) < -.O.f.D Q J [ T r T x V f <.&.V -.-.0.C.0.&.&.[ <.[ [ 0.D -.) ] O.f x 3.n k V f ; $   ; 2 n &.-.f.n I ) k f J y.O.-.n n n 0.[ f I x s V q ] V ] ) [ O.H.y.Q o.Q 0.T O.Q Q O.n o.[ ] D f Q V f x f ;     ; O D 9 k 8.s Q J n 9 V J I &.k s x n V n J D f s 9 n Q T T I O.O.] <.&.k Q [ [ r x Q O.J 9 s k O.D 2 9 k 2       O 9 &.f I f V J x V D ) ] k n q k n q q f f D s s r s D o.[ D I s.) I ] D D n D Q Q D V 9 Q T n s f k s q 2     O < 9 q x V f s f D [ r k T J V J I s f J x f V r 9 x J I J I T Q I J Q D T J V T V f D V s s Q x f s 2     O O q q q n n x T I V s ) -.x q V V f s n ",
"M.8.9X+Xj.M.C.'.M.D.C.[ Q.H.C.3.j.) x O   O $ J ) C.'.;X4X;X'.M./.I.8.*Xf.I.H.c.H.nXf.[ C.c.f.D.[.sX+X X+XI.+XY.0.-.;XD.[.Q.-.3.M.M.s.Q.j.j.c.Y.] D 8.C.k 2 O     H.c.H.s.D.xX8.'. X*X/.,X-.H.'.0.Q C.I.I.s.y.j. XY.) Y.,XnXC.8.tXH.H.Q.I.8.I./.M.M.f.V '.3.H.8.&.8.<.<.o.Q O ;   $ q D.j.c.I.s.&.Q./.c.4Xo.*XT Y.[ 3. X3.D.c.M.-.s.M.;XD /.H.+X'.c.c.H.y.'.y.H.8.c.I.[.k Q I.H.3.<.V [ 3.o.D 9 O $   n T <.) -.j.8.) I.'.C.O.M.Q &.D.c.] ] [ j.j.) 3.-.y.-.y.8.0.0. XQ.[.s.c.J O.y.O./.Q &.-.8.H.I T o.s.D ] j.x 9 $   $ q [ Q j.Y.Y.f O.C.s.[ o.f.s.f I y.D f o.M.J T &.Q k J J <.&.0.O.[ c.s.o.D.3.f.8.) [ T [ &.[ ] T ] 0.I k f ; O   $ s f s.D.) [ r s.f.<.Q &.y.I [ 8.'.&.D r T I J f.J s D J ) <.T &.3.O.s.O.Q 0.-.o.<.V ) [ ) n s.D f Q T f 9 $ O $   < J ) o.Q ] V <.D [ O.k D 3.8.q n T 0.T r T V q J I D r T s ] O.Q o.T <.O.<.x &.[ Q ] V o.<.T V r x Q I k $   O   9 9 8.J < &.s ) k n V ] V 2 x r k k V J J q ; $ x f f k D o.I V I [ <.D ) ) x I r ] J Q x s f f Q I s q f ;   ; O ; f M.x T J 9 V ) Q V T I f D k f x f q < 9 ] 9 f r 9 n O.&.I n <.[ I Q J I V T I J f f r T D f s x f r ; $     ; s f s x D V x n Q O.k x V x f k ] I x n 2 r s x f s s I I V n n J I Q r V V J J x f k x x x n s q 9 O   O $ ; V n 9 s I I J D n k O.8.D 9 s f r s V ",
"H.<.I.c.-.H./.D.f.D.c.-.M.I.I.y.3.k $ $ O O x 3.C.Q.D.Y.;X4X4X'.C.,XH.Y.9X3.c.c.H.y.C.C.o.f.,X+Xf.4X9X4X'.H.Q.'.C.[ '.j.s.y.j.[.[.y.c.f.M.&.c.;X] n T Q 9 O   $ O.I.C.[.Q.D.4XD c.eX+XM.j.'.'.*XY.J <.3.y.s.Y.'.3.H.V M.[.4X;XQ.[.Y.f.M.Y.M.C.c.H.[.I.O.'.<.c.s.T C.0.) V 9   O O D Q H.Y.C.Y.O.I.f.f.Y.s.'.C.] j.Q f.o.n M.0.c.8.0.) -.q Q.s.j.c.M.[.I.c.y.<.M.<.0.Q.f.[ C.j.J H.O.r s.c.J 9 r <   x T C.I.) 0. X X&.0.f.Y.Q.Q.<.9 O.n ] 8.&.3.s.3.] J I ] &.I.8.o.C.f.[.-.j.] M.3.Q H.I 8.s.n ) y.&.] <.J 3.s <       r O.s.x s.H.+X8.M.T M.V 9 o.[ s T &.k D s.D.T f 0.k k 9 V T f.8.) &.<.<.&.I.j.I <.] y.D V c.8.T I o.O.x 2 9   O $ 2 I [ f.<.) [.o.O.] s.C.x 2 n k s Q Q k 2 J 9 f ] [ ) D x q ] 8.-.D -.[ o.-.y.] I ] D -.T Q k 3.O.x s V q $   O < 9 D f T c.o.k T s.x 3.s.-.k 2 s 2 q V J q 9 D Q s f ) ) n x V O.T [ I ] M.<.x V o.V ) [ n o.o.I n s 9 J n 9     9 < 2 I 0.] x D x ) ] r s 9 < 9 O 2 q 9 < x D n 9 9 f f r r x [ D n D D I n -.x s ) Q ] V n k x n k f s 9 < $     < V k r -.n o.I.3.s J D k r ; 2 r 9 ; 2 9 q 9 r [ f f q 2 f n f q x n V T Q x s n ) x V x x n D k s q f 9 <   ;   r s s 9 ; f ] &.D V D Q k x r q q q f s 2 q k J r k r r q D J J J n n T I s k k ) V n n f k n k s 9 2 <   O < < 9 n n r k ] ] n T D r s x r s k q 9 q f ",
"D.H./.+Xs.Y.y.c.I.I.8.Y.s.'.f.&.V s       r y.M.Y.[.[.;X*XH.Y.+XY.eXf.I.[.C. X<. X;Xs.I D.y.s.C.<.I.*X9X X/.s.D.y.H. XD.C.c.3.[.H./.9XM.J ) y.[.f.[ n < < O   D s.f.*XD.C./.tX3.I. X;Xy.) D.I./.eX-.T Q O.&.*XC.j.'.V 0. Xc.9XI.C.;XM.f.C.'.D.8.H. Xy.s.Y.f.-.-.J '.-.s r $ ;   r 8.c.f.eXI.*X[ c.9X[.s.<.O.9 <.V O.[ M.V 3.[ O.Y.M.D o.&.f.0.&.8.Q.*X XD.8.<.c.3.<.j.j.&.C.n f.+XV s 0.T n   O   x -.y.[.] T <. Xf.*XY.I 3.&.<.] x 2 O T V o.&.O.3.Q Q V -.[ c.-.-.] 8.y.y.C.8.f.-.&.T ] 8.&.T &.y.O.-.] x V q ; $ ; V x 3.c.I &.f./.0.c.3.&.] q r 9 q   9 r 2 ) -.V s o.D f T o.D 3.o.D T J Q 8.j.J [ c.[ I O.3.s.-.V ] 0.q 9 $ $   $ q x <.f.<.-.T -.O.M.<.r x x f s 2 9 q < $ < q f q I I I T D D D -.J k I Q I O.V <.-.V [ ] J ] I x O.f q < $ ;   $ r I f.O.f &.T f <.C.J n k f < 9 f q r ; 2 2 9 q I k < s ) f J x 9 3.o.V Q ) x k &.J O.) -.f O.V T f k q r $ $ O O f f ; -.D x 8.V n V q r r f r 9 f r ; f ; 9 $ f ; < $ ; ; r q n r J f x k V J r Q ] I s I J D k x D k < < <   $ s s I D f [ T ] Y.o.V x s n k s V r f r 9 $ ; < O 2 9 < ; r V k r f Q D n x n D n J D 9 V I D J f s q < 9   O   2 < 2 s V n r f D D ) D k V k n q s 9 r 2 r 2 $ r < q q 9 x 9 q k O.O.Q s n r x n k ] x n D f s f 2 ; $ $ O O 2 s r r q r f J [ ) k q x s s r r r $ 9 2 < ; ",
"*X/.s.9XC.3.[.M./. XI I.H.c.C.x s   $ O ; V D.'.'.+X*XlX[.H.M.c.+XC.Q.s.'.C.H.'.o.[.'.j.[ 8.c.c.Q.4X'. X;X;Xj.f.M.+X*XI.&.;Xf.Q.I.c.s.O.D 0.I./.] I < q O   x D./.H. X/.+X*X'.C.Y./.hX+Xo.f f.9XsXH.V y.s.Q c.8.<.O.o.0.4X<.y.H.+X[.c.y.I.H.[.D.0.-.<. XH.&.j.<.Q s.J q ;     r 0.f.I. X,X XH.I.c.'.'.f.-.&.O.o.J s D D D n O.I f.<.D O.c.j.j.&.<.o.I.Q.3.8. X0.s.I s./.C.) x '.j.s o.D 9 <   ;   3.O.f.[.[ 3.3.C.Y.*XC.O.s s x 9 V O q < 9 < 2 s &.[ x q -.T j.M.J Q 0.o.&.M.[ [ y.Q.I ) I.o.&.y.O.Q n k r   $   2 ] <.Q <.I.8.f.8.s.<.) D x V n f f f q q 2 ; ; ; 9 f J ] q J n k x J k [ &.Q ) ) T o.T ] ] Q -.&.V s k ] s   ;   r J &.9 M.&.<.s.I.D.) Q D k Q ] Q r n I 9 q q $ $   s $ $ k x x n r s 9 j.s.s I J x I V q V Q k V D s r 2 ; ;   $ k 9 T V s.s.r O.&.) T n x n V [ ) T D k o.Q < 9 r   O r q 2 f I k s n J ) 3.x D n r D D x x D V n x s 2 < O ; ;   O q q V I x D o.] V k k n n D <.-.9 T J k s k q $ $ O   $ < O < x r < k x V f V k k q x x T f q V q n q $ $ ;   < 9 n f k f I 8.Q Q I D n I [ s n o.V I ) s k q q s   O $ ; < f T V q r f V f k k q s x r k n x s q q 9 q O     $ 9 f f J < <.<.I D J D T T ] <.I V k k D k V f ; < 2 ; < < 9 r q 9 k T x r V n s k k s q f r r < r 2 $ ;   O 9 r f x x f k I <.-.x 9 D f f Q 9 x J r 9 q s s q ",
"3.+XC.'. X3.H.+Xs.8.&.+XC.&.[ x < $ O 2 O.<.j./.Q.[.[./.[.y.3.-.O.M.,X<.*X XO./.&.M.I.H.&.o.8.I. X8.[ C.[.sX4XY.M././.8.0.+X/.M.f./.y.D.H.c.&.<.J k     ; V 3.C.D./.M./.0.9XQ./.9Xy.H.'.j.n k Q I.J s 3.I.s.[ Q 0.C.] [ [.3.c.j.f.;XH.j.Q.D.j.I.c.y.M.[ D.3.[ [ x o.2   ; < 9 Q j.y.+XQ.D.O.Y.tX-.) I I r V n 2 k s q r $ q q n j.9 Y.O.V c.T  X3.0.&.T <.y./.0.<.M.j.M.0.f -.s.I V k 9 $ ; 9 V n y.&.O.8.3.Y.H.y.) f I o.T ] V V s V V f ; 2 2 ; O J J J I 3.T f.V I M.O.[ T ] O.D.s.o.s M.) -.[ k D 2 x ; < ; < -.D.3.o.c.D./.H.8.V J T ] I.f.<.I <.J I n f f < 2 O O   f J o.q V D ] k O.[ T I 2 I r ) r J k x 2 r r 9 q   9   r [ 8.I ] s.j.T <.c.0.J k ] [ 8.y.T I V O.) J x I f   $     < r Q Q f D n 0.-.D n k 9 T 2 k q s k q ; $ ; $     f k o.n Q O.-.<.Q y.] f x [ 0.&.Q ) O.I.] I ] I J I ; s ; ; O $ r n q 2 x n D V f J [ x x f s k q r 2 9 $ < ; < ; < ; 9 f n [ T ) ] Q J T [ o.-.o.s J C.-.[ 3.s I -.V < q ; $   ; O 9 V s ; q r Q <.] T f r q r r s q f q ;   $ 2 2 $ 9 s n r q f Q s.] D I -.&.T f Q [ J V T n J O.V k Q k < ; ; O 2 x k 2 9 9 T J x V n k 2 s 9 < 9 9 < $ $   ; 9 9 2 r x k D n ] -.J T V o.I s ) I n s n s I J D I q f 9 2 O $ ; < 9 r r r D x I J x n k f q 9 $ 2 $ ; $ 2 < < s q k V I k n 8.8.D x J I I T V V 2 n [ n f s f s r ",
"-.Q.<.8.4XM.D.Y.f.Q 0./.3.I f q O   r ) c.D.I.Y.*X+XM.M.sX*XH.y.) k 8.I &.C.O.Q -.<.f.H.-.] [ f./.3.3.H.j.M.I.Y.9X4XH.) 3.'.*Xs.O.Y.<.I.I.0.T T q 2 2 r I y.+X[.hXQ.M.+X X[.O.D I s J f f x x q s 9 r r Q 0.Q n T H.O.[ 3.M.y.s.-.3.0. XI.0.0.'.f.M.o.O.C.3.T n 2 ; $ 9   n s.c.I.c.Y.4XM.&.o.8.) Q ) [ o.] Q I o.O.J s ; s   r 2 f -. X&.k c.s.c.I.) y.Q &.&.0.] 0.3.-.] I ) J s s ; ;   &.C.D n C.M.o.[ c.c.-.I O.T o.&.s./.<.-.0.T T T [ n $ ; O $ < I q ] I -.o.D H.M.T J V k n Q n T J V r k < ; 9 ; r 9 k [ 8.0.0.s.Y.s.[.f.T ) 8.I n [./.3.I I.Q Q f V &.V V ; 9     r s [ ) ; q < &.) I q s V k O.f   k r 9 s 9 $ $ q $ ] &.3.&.J O.y.8.y.[ V J 3.&.s.-.M.-.n 3.s.O.[ Q q 3.) f q 9 ;   ; I D 9 J k T D k k T x ; k 9 s r < O s q O q 9 r x n 0.T k n V I.3.o.T [ -.0.&.s.j.) J D.<.&.Q ] [ O.r D q ; O   ; q < 9 D V n r k n [ T V x V k < < q < ; 9 9 x V n < r D V V T &.&.I I &.8.&.y.-.Q D 3.o.I j.I J 3.[ D x O 9 O $   2 x r ; 2 r ) 3.s f q o.<.] s q $   r ; q r f 9 k x k x s I ] Q Q T [ o.-.Q O.T ) n Q T n D D o.V s I x 9 < ;     9 q < 2 x J q 9 k r s x V s q k x r 9 q 2 f x q 2 s x x k I n I T o.O.I.&.f V k V ] Q q r n x ) q k q s < ; O O 9 x s ; f s D D x V n V V f 9 n r 9 2 n r k J f f x I k [ -.) V I I D ] <.] J s V &.V x k f s f ",
"D.I.y.C. XI.[.I.f.Q s.0.V x q   O r [ f.D./. X'.,XlX X XQ.c.] J k n n r s r r k k f J &.&.s.3.<.s.y.3.s.C.M.s.j.I.*X;Xc.<.C.D.f.I./.0.f.o.J k   2   q o.C.Q.4XH.9XY.tX4X4X<.] T O.[ 3.0.0.[ ) k s f ; O 9 q x T [ n y.] c.8.-.D.3.-.-.-.J O.c.c.) y.o.8.I s s 2 r O 9 V s s.,X[.8./.+XFXI.y.) &.0.Y.D.3.[.3.Q 3.C.H.c.o.D q ; O $   n y.] T f.3.3.-.O.+XJ <.) J J V D J f J q 9 9 O k 9 n Y.<.x +XY.[ T C.hXf.Q y.<.&.C.M.c.C.0.&.'.s.x M.D [ I J x O ;   O n Q ] V J n 3.&.[ O.M.D 9 q k x s k 9 r q J 9 ] J ] &.H.C.f.Q 3.&.[ D 3.'.3.] -.f.&.3.] I.[ Q k ] c.D D 9 D f $     o.I ; k T f.] V O.V j.0.j.n O.[ x T n f q 9 O.q T j.J H.O.H.f.O.I ] y.D.Y.8.3.s.] 8.8.Q f.<.-.k x s.I k r f k <   ; ; 9 T V [ o.V T k 8.x T ] x D D r r ; D c.Q ) r n -.Q Q n Q M.3.[ 3.D.0.3.) -.Q.O.D [ 3.o.o.-.Q o.] n x r f $   $ $ r D x f D n q D O.J J D n q 2 T q x f f V x V r D I D V T O.&.O.8.f.<.I C.D O.] D Q J Q o.x Q Q [ Q ; q 9 ;   O 9 < ; q O V o.q f k <.s.V $ ; r 2 n < ; V n 9 Q J k f x <.<.I V o.8.&.o.) I o.o.f [ x J ) J Q V k ) J q 9 2 ;   O < < < x D q k Q x f J s f x V k q 9 q k V x s s k n V [ O.) J O.I ) &.J ) Q n 9 [ n k 9 V V ] f k x J r 2 O   < f f q 2 2 f f s x n J I V n ) V f r J k n J J r s V T [ O.I V [ ) V I o.[ I V V [ n n D x f x ",
" Xy.O.I.'.[.I.-.Q J &.Q 2 9 q   k s.M.c.[.*X'.,XsX,Xf.<.J ) O.&.) [ [ ] x f s 9 ; ; ; f J 8.O.T 0.C.j.0.Y.;X[.I.j.3.D.<.O.f.3.8.8.) J J x f q < n f -.Q.[.I.+XC. X;X4XH.<.y.M.Q.y.8.-.D. Xj.C.O.8.o.k < q 2 ; q ] J [ 0.] '.0.<.y.f.s.o.[ J D J V s ) q f k q s k T I O.D.9X/.H.3.;X;XI.C.3.f.H.c.;Xc.&.Y.s.Q y.I D ) f.3.Q [ J < <   r x J y.-.D s j.M.<.Y.Y.D ) ] T x s r J s Q I.f O.+XJ O.M.Q.<.-.f.-.3.<.I.y.I.*Xs.] 0.y.-.[ f.-.O.f.Q x 3.V y.x < ; ;   I J 3.T o.j.3.Y.<.y.I ] 0.y.j.k r V I -.o.O.3.8.8.-./.j.'.3.Q [ o.3.I.s.T I.Y.[ T f.&.8.o.] I ] O.V Q n V D k   $     O s I I V V [ O.O.] 3.J 3.j.V J T I V k 0.&.O.M.8.O.3.s./.j.<.3.s.M.Y. X8.] J M.Y.V &.O.] ] D -.n J V V V 2 <     9 x n ] T I 2 O.-.T J J o.] I q J ) I 8.<.x r f J T 0.s.f.[ -.-.s.I.3.<.) ) s.0.O.] &.I 3.O.Q &.] I T f I x ;     2 r 9 r Q V 9 r &.V D f D q f T V n n f J k J V T f x o.] O.-.f.I.c.O.) s.s 3.8.s T ] J Q I Q x J ] s f k 9 O   O   $ r < V I x k x D T 9 O ; D V I f < n J q I V x D D O.[ ] 8.C.O.T y.-.J T ) x <.V D k I ] x x O.) 2 q q q ;   O ; < q D s q n V V n 9 s k f r r q 2 r k k k x k D O.Q I [ &.0.[ o.D f <.) k f -.f f D Q D J V k n x s 9 ; $ O O < s q q s 9 q f f V k k f V s s q k f f x &.k s x <.<.&.[ O.&.V k [ J J k n V ) n V Q V f f ",
"-.8.j.'.j.3.O.8.k s r r q k x V f.'.'./. XtX;X[.s.&.<.f.'.'.+Xj.0.s.c.3.-.C.T I 9 k O ; < q q q O.y.f.] [ c.+XY. X) 3.x T Q J I D V x f 9 ; $ ] y.j.[.;X/.Q.;XC.sX[.c.0.0.'.Q.I.'.'.M.M.M.O.D.D.D.0.3.q 9 J O   ; V J 3.o.f.Q.V c.o.D.[.C.D x J [ I V Q 0.&.D s.y.s.<.<.j.*X X9Xc.*Xc.8.M.H.Q.Y.0.Q.y.f.y.C.<.D.s.V s Y.j.y.I s 2 9 ;   2 k D ] k Q /.j.8.j.Y.D.Y.c.*XO.j.j.Q.-.c.s 3./.3.) D.f.I.-.M.*X0.s.Y.<.[.c./.s.c.f.&.0.y.n D.[ f.&.T T J [ O.n O O ;   < x T s.] s.s.<.I Q 3.8.3.I.[ ] -.8.0.&.&.8.y.Q.0.Q.[ 4XeXO.8.*X;Xf.I c.I.&.<.<.3.&.o.-.[ ] T D D <.[ V k V < $ $   2 9 k f Q &.] ) J <.n 0.C.s.] J O.D V O.O.o.] C.H.<.&.I.<.&.D.Q.j.O.[ Y.M.<.&.j.0.] &.<.n 3.V I D o.] ) T 2 q O $ $ O r n 9 V ] T Q V D &.I s 8.V 2 ) [ J V k ) f Q o.[ D.C.-.f.8.-.f.0.0.T ] [ s.&.o.O.[ 3.T &.8.r <.o.s J I q $   O < < f I x r < T n I I J 9 V k Q k I f V Q -.k f s T <.O.<.0.C.I.8.O.y.O.J <.3.x I ] ] I [ [ V x k f Q D r ; O     O < s V r f 2 f q k V k r x k V V n s ) k x x I <.Q O.O.3.c.D.) I f.O.o.n I x Q T n k J I n x n x f s s f q O   $ $ r s < < 2 9 k n k x s 9 s V x q s x s q r r T C.3.O.-.f.] O.) D n &.V q ] 3.n 2 o.o.f q D V D 9 s q q 9 O     < q q r 2 q s q x 9 r 9 s 9 s r k f s x <.V r f <.8.[ O.f.y.I x ) T D s f D Q D V I V k f ",
"[ T Q ) T D f f n V q k ] y.] f.+X/. XeX+XsXeXD.s.j.C.Y.;XQ.[.Q.D.<.Q.[.Q C.M.&.9 o.q 2 $   $ < -.-.o.I s.'.,X'.I.<.I.s.-.J V V D -.) -.k &.f.;X/./.Q.'./.4X9XM.'.j.Y.H.+XI.H.c.H.c./.+XI.) &.[.H.3.0.o.I I 9 r   $   y.8.x y.3.j.[ D.H.o.8.D.3.j.+XD.4Xf.o.O.*XM.<.H.eX X;X+X+Xj.Q.c.[.Q.'.*X[.s.I.f.j.j.f.-.H.C.[ ) C.s.Q.T T n x 9       q J s 8.C.c.O.D 0.*XQ.) H.y.Q.C.c.y.) T 0.C.I.'.D.[ f.M.c.C.j.I.*Xx 0.H.,X8.c.y.y.j.y.[ H.<.D <.-.o.J f.Q 2 D 9 O     q ; f.x 3.*Xf.T j.3.s.T M.[ 0.<.3.o.-.O.-.&.;X0.,Xf.I./.0.Y.+XD.f.f.'.J T D.8.O.[ <.3.O.0.[ ] I o.I ) k n J 9 <   $ ; 2 f J n s ] <.r o.y.O.<.0.<.T n D &.&.Q 0.8.f.V y.f.s.c.D.Y.8.3.-.y.D.[ o.c.3.] ) j.&.Q o.I Q D k Q 3.D 9 < $   O r V J <.8.T r D C.o.k T &.n q D V f I ) 8.D o.8.) f.M.j.Q./.0.-.o.-.) y.] -.3.Q ) <.3.) &.<.9 s.0.f J x f f ;   $ 2 f k f s r x I I [ V s x k T V D k k T &.2 k I 8.s.3.c.C.M.j.&.o.j.&.] D o.T [ o.V T o.I J J r f Q ) k < < $       ; f r x q x q k f k T f s f 9 x s Q k k n D y.&.0.y.c.j.j.Q T 3.O.I f ) ) f f T [ T n T ) r 9 Q n s f f <   O   2 ; r T D 9 f k k s q 9 s n n s x V r < q f ) C.-.o.3.<.D [ o.0.9 T n J V k k r <.0.f s V ) ) k k f s q < O     $ < 9 9 f k 9 f 9 r 9 k s x k n x f J Q D f J O.o.3.y.<.o.-.[ r Q I n x I D D V n n n x ",
"/.-.<.T J Q [ n k &.<.3.M.+X-. X'.'./.eXtXsX'.H.I.Q.8.M.'.'.H.[.Q.H.<.Y.f.j.3.o.n Y.] n q   ;   V ] n k Q./.j.C.Q.y.s.[.I.Q.j.<.D.*Xs.[.J +XtXC.j.*XtXhXY. XsXhXC.H.4X[.[.I.c.3.s.y. XC.Q.Y.-.-.s.I.M.f.<.<.&.; 2 $ $ $ f.q I.j.<.] <.j.3.C.j.j.'.[.lXC.) M.Y.Q.lXM.j.;XtXsX XeX+Xc.H.[.[.3.Q.0.H.H.<.Q +Xc.y.*X) &.Q.-.) M.] c.I x q r ;   $ 2 f O.<.o.c.)  XD.+X&.) tX;X[ c.+X0.8.I Q [ D.c.T D /.D.Q.eXY. X-.M.M.M.o./.y.j.j.M.<.I D ] o.D.8.] '.x 2 -.D <   O   s f.n <.H.q ] 0.s.&.j.o.s.M.Q I &.-.I.) [  XI.c.) -.j.H.,Xj.3.M.H.M.D -.8.D.O.D o.Q o.M.[ ) y.) r O.k r o.9 2 $   O   x J s x y.I.x I H.I s.0.s.< ] ) k 0.s.f.f.O.8.Y.0.f.'.Y.j.I 0.j.) H.) O.y.0.-.T ] f.-.O.Q <.n 2 I 8.x n s $       < ] ] &.[ r Q f D T V I 3.&.I [ Q 9 k ] V s o.y.f.j.Y.Y.'.c.0.[ ] D /.Q D '.[ n o.f.3.) Q D 3.c.D Q 2 x I 9     O ; 2 s k I x o.k V s n q J n ) f f O.V J s ] J [ 0.f.'./.M.f.-.[ 8.) o.Q y.I I 8.Q I -.x s I J J r &.n 2 < ; $ O   q J n k 9 n n I r s -.s f n q ] f V q k D r 3.3.y.8.C.Q.D.V V 8.Q J Q x ] <.k r I T x T -.V q V J s f x 9 $ $   $ < f V r r J k r r s f k k k n q k q 2 D ) ) -.<.-.D.o.V s k o.n T q 8.k f x k [ f.k f q J I x x k r < 2 9 ;   $ 2 r s V V 2 q 2 2 2 n k x r f n k Q f J D 3.<.s.0.s.3.D V Q I n D I V T f V J x D J D ",
"I.'.[. X XQ.C.M.C.;X;X0.'.H.[.,X[.H.;XeXlX XQ.eX9Xc.M.0.hX/.o.H.Y.s.D.f.D.<.3.3.<.I.] x D k   ;   O r x D.c.j.y.C.s.8.3.I.,X[.M.,X,X'.9XY.,X,Xj.;XD.+X&.8.'.Q.'. X,XH.+XY.Y.'.M.8.8.O.O./.,Xs.3.-.f.-.O.o. X0.s x ; O O $ f y.[ +XO.J f.4Xs.3.C.9XD.[.Q.s./.[.j.H.;XY.D.M.,X XeX X*XlX4X+X8.c.-.y./.j.y.0.D.&.s.Q Y.y.-.[ H.r &.<.[ ) x 2 O   ; 9 j.y.<.&.<.s.Q./.V O.tX,X] I Y./.&.H.y.f. X0.0.O.*XQ.'.+X9Xs.Q.&.M.s.Q C.D.0.c.c.) -.O.Q Q 0.0.O.o.[ n ] o.< <     ; T I Q 8.] I M.&.'.<.s '.s.8.x -.c.o.D o.,X[.0.y.D.C.I.I.-.) M.D.s.[ ] 8.3.Q -.0.3.&.[ ) ) 0.n D ) T $ Q V V q       q o.f r 2 s.k [ c.x 8.x Q f s.o.Q 3.[ &.[ o.C. XM.+X;Xj.f.s.M.O.0.&.8.-.Q [ C.3.] &.D <.O.0.n f ] n D D f 9   $   O <.V s 2 V k k ] I ) ) c.x f I o.n 0.n D D 3.*Xc.I.I.O.'.I.c.y.[ J s.8.n Q.&.T ) I O.[ V [ I f.D n Q 2 k Q ;     ; 9 x r T k I D x k D f n r j.T r 8.r x I o.[ 8.y.I.Q.*Xy.y.0.] &.J y.J [ [ I ] ) x 8.f x 0.J I D k k f r 9 < $   ; f r k q ) ) ) 9 2 o.Q k q n I n n 9 I I n 8.0.f.Y.&.8.3.8.q Q ) x <.I V Q 3.f J J r <.[ s I T 9 k n f 9 < $     q 9 2 k k q f q k I 9 < I D f 2 f s 9 2 T O.D.s.H.0.[ ] s k O.I I I D n J I x x D D D n n D r D n k s 9 $   $   ; 9 q q q r f ; D f q n k k I I s x n n <.-.0.c.I.&.O.Q J x k I Q I x [ I f q n V n x ",
"H.[.+X*X'.f.j.;X,X XeX*XD.4XeXH. XY.tX;XI.Y.4XtXtX[.Y.c.'.,X/.D.I.s.f.f.f.s.C.f.&.0.[ j.q V s O $ $ < $ ] ) &.8.C.H.D. X+X*XD.D.+XnX&.sX[.D.C.hXhXeX4Xy.8.'.;X*X;X;XM.Q.M././.M.tXD.C.o.H.+X0.O.H.I.-.[ s.s.) J &.T 2 O   9 Q 8.8.3.) C.<.'.eXn f./. X) Y.[.'.C.4Xf.+X,X X;Xs.Q. X+X'.tX'.D.<.0.0.c.o.j.M.c.O.) O.<.3.s.-.y.J o.o.-.y.V r 2     $ 0.j.) c./.8.Q.c.f.<./.y.H.O.8.M.C.O.s.9Xf.&.f.Y.I.+X'.y.H.Q.0.<.'.0.3.M.8.x *X) O.&.c.O.J C.O.-.J -.<.D [ V   O     2 s &.C.[ x o.[.8.[ [ 8.y./.8.<.8.o.f [ ,X;XD.f.Y.lXsX'.j.s.f.c.-.&.y.C.3.&.0.[ f.s.I o.I D ) J T 3.V k q k 2     $ s s.O.O k C.&.) o.] &.V k 0.D.<.D 0.C.D.y.O.c.H./.'.H.s.M.f.[ Q '.D.O.[ x [ '.-.T T 0.[ f.3.) s Q O.T x n f O O O   n s J ) O.T k -.0.) T T k T o.Q V <.x ) f f.,XM.'.j.&.j.Y.3.H.[ ) Q o.0.s.D <.) O.Q D ] 3.D o.I V -.s s n 9 2     2 q q &.J n k D V k 9 I I 3.f r J s J o.[ O.8.D. Xs.M.j.j.Q D C.O.o.[ D Q 8.T ) x [ D n &.n x o.x s k x q $     O < < s 9 D n s k x [ x r k n s n n 9 x x Q j.M. X*X0.V -.[ o.) O.V ] I n J -.x r ) x I k f [ o.9 k n s 9 9 2 $   2 2 2 s f s f 9 s n s r V n s q Q 9 ) f s s.y.M.[.3.V 0.8.q D Q k n T ) D D n k V x k V n J x x x k r 9 2 ;     $ 2 9 2 q k D 9 x s O f I k I [ f 9 k r <.f.M.Y./.3.[ T D x f k I [ I T r f J n k f x ",
"f.C.*X*XD.Y.4X*X,X+X/.lX+XtXM.Y.hX;X,XQ./.;XtX*X,X8.c.Q.s.y.H.<.[.H.0.f.y.c.H.<.H.0.T  X[ D x x O   O   D D ] -.D.'.M.I.H.eXQ.j./.PXo.f.'.eX4XtXj.,XY. X&.*X[.*XQ.Y.D.[.D.I.c.j.s.H. X[ j.M.y.3.D.-.y.f.3.] c.Q &.) <     < f D.M.&.<.[.n 3.nXM.D  X+X&.C.+X/.+X3.Q.nXeXf.C.lX*XsXtXM.s.I.j.Y.3.Y.c.H.3.Q [.0.I D y.I.j.O.J O.'.&.3.s.n f r     O s f.o.f.;X3.I.&.s.I.4X[.D.] -.I.*X-.j. Xj.*XH.[.Q.sX[.D.M. X8.Y.j.-.M.f.<.) '.[ <.T f.o.T H.&.[ <.<.[ n I D x O O     2 o.j.) j.3. X[ y.[ Q Y./.&.<.D <.0.o.Q.[.j.c./.lX;XH.y.C.s.f.o.<.<.o.&.3.) <.y.&.) ) s.-.f s 3.0.k n s x q <   $   ) D T s s.Q D s.&.J k ) T j.<.O.[ ,Xs.&.0.f.D.*X;XI.C.T f.j.) M.I.<.J 3.D.T M.T D M.] 3.y.[ 9 8.] Q I D f $   O O r k D O.D < n C.I D [ n D [ O.Q Q J J q 0.) D. X4XC.j.<.f.-.I.Q 3.x ) C.O.k 0.&.s.T V &.0.Q I J I ] V T V 9 ; O   < f f ] V I J V D k r ) &.O.q r s n I &.[ 0.0.'.*Xf.f.0.s.Q D s.3.) -.f D s.[ Q D J I s ] Q x [ J s k V 9 O ; O   < n ) r s k f V n Q D n q s Q V D s s r &.M.H.4X4X&.<.) T O.<.[ n x I V V o.f x ] x [ J q D &.s n n r 9 r q ;   $ < 2 q s f k x n f k k s f r 9 ) r y.k 9 c.s.Q.*Xy.x o.c.r J O.n V T o.D V k D T V r J n I D s x x s r s 9     $ ; 2 9 q s k ; r D q n Q 2 k ) s 2 J k j.D.C.[.'.y.Q T J I x x x I I I r x I D f s V ",
"c. X XY.+X4XY.<.'.eXj.tXhX,X&.[.,XlXtX XsX4X*XsXc.Q. XD.,XC.3.y. X[.8.8.C.C.D.o.8.j.0.s.-.T O.s ;       D I o.<.Q.C.c.*XM.H.'.;XtXc.M./.xXH.[.tXc.C.*X;XtX9XtX;X;XC.c.M.M.j.c.I.o.Y.f.f.9Xc.M.C.8.0.3.-.s.-.H.-.<.) k <       &.8.s &.-.[ j.;X3.3.Q.eX Xs.Y.+XY.*XM.*XY.s.,XeX,XeX X4Xj.D.[ C.s.I.c.D.-.[ I.0.[.c.J o.I.8.9 O.Y.8.3.) n k r   ;   $ o.&.M.[.I '.o.f.+X+X;Xy.o.j.c.*X<.O.j.Y.,X*XeX4XeXD.Y.f. X'./.M.&.I [.0.] C.0.j.o.8.J V 3.j.y.&.<.] q n &.k $     ; < V <.3.Y.) [.3.O.0.c.T C.0.o.Q &.J 8./. X0.Y.4X9XY.H.O.<.H./.<.3.3.n s.s.] j.<.Q [ V -.o.o.f n f.J x V n 9 $   O   k I o.Q f.) k <.<.I [ 8.V Q y.T <.H.3.]  XM.Y.H.'.f.] ] C.f.3.y.[ O.O.y.M.] V 3.y.&.[ ) -.o.r j.n x Q n s 9 $   O s [ V k x ] k o.T ] Q k -.3.V I <.[ T 9 J '.0.;X,X[.C.3.[ 8.s.] M.V o.&.) T O.0.s.] J ) 3.O.I V I s D &.D r   $ O ; f f T J [ ) k x D n D O.[ k f n I V T o.M.j.+X XC.s.&.f.3.) ] O.-.&.n x ] y.I D T ) q I o.T I V q x D 2 ; 9 O   $ n <.9 r s x V V J T I 9 q O.V x x k k y.c.I.eXI.<.3.&.D &.-.D n r Q Q I [ q ] ] s O.o.r r ] k D V r 9 s q O     ; 9 9 r k f J I s f f 9 k f q n r o.k ) f.C. X/.y.] n <.V I o.D D x T D J f J ) D q I x I Q s x n k k f 9 O $ O O 2 s f r < q x I r r f q ] n s r D V /.M.C.;X'.j.T Q I ) n D s x V T n V x I D V I ",
"c.3.D.;X;XtX*XO.,XtXc.4X;X,X[.I.*XlXeX+XxXeX;X9XY.O.M.,X9XM.Q f.H.+Xs.&./.c.D.f.J -.Q.c.&.I j.x s ;     2 k o.f.f.j.I.'.M.+XtXy.;XC.;X[.,X[.*X3.4X0.H.Y.lX*X'.I.+XM.D.3.C.c.H.f.&.+XM.f.C.s.D.-.'.c.o.3.0.&.j.8.8.Q Q s <     q J f j.-.0.C.4Xf. Xf.9X Xc.D.lXy.s.[.hXY.o.+X*X4X,X'.hXI.) Y.j.f.[ +X8.-.c.o.O. XD.I.T ] C.8.Q [ o.0.J ) k r ; $ r   V j.) D.y.H.s.y.j. X[.-.D Y.j.0.O.H.8.M.;X;X+X X'.C.j.] y.j.H.j.y.n /.-.[ 8.0.Q.<.-.[ ] -.<.y.O.&.I T J [ < 2     O ; n 3.D.j.o.c.) <.Q.8.[ j.f 8.f.c.8.) C.'.y./.sXsX+XI.] ] C./.<.T j.) c.<.8.&.o.O.-.o.f I [ V x D.D f n O.V   ;     s <.n M.<.0.] J f.D <.] ) [ Q ] '.j.&.J +X'.eX;X;XI.] V j.C.&.[ T D <.<.] &.D 3.j.O.] [ V -.D o.V f x n x f 2     $ ] < V &.o.k <.x ] ] J o.o.D -.Q f.r 8.&.H.H.,X[. X&.3.3.-.O.3.j.J o.T Q O.) 3.8.&.x V y.T I I D s J Q k k 2 ;   O ; 9 ] ) J V x f I V f I I V V D I k f o.C.C.+X Xj.3.<.M.3.] O.) <.o.D x D j.V x ) o.n V J [ J r q D J 9 2 9       < <.q D f n V ) V n I n r x n r x V J f.M.'.eXH.3.&.J [ O.] I T f I Q Q [ r D [ f n D V n J x D V s q s q O O   $ q r r s s k J r q s r x k n V 2 s V f.j.D.;XH.o.3.) o.D n V f x k n n J n k I n r D k I ] k k n n k r < ;     O 2 s k s q q n D D k 9 k O.x k k q f  Xs./.9X'.M.Q I D J s x k J n D x V k J T T J ",
"c.+X;X X4X,XH.0.lXQ.8. X*X;XlX[.hXeX4X[.+X;XeXD./.C.I.Y.Q.,Xo.0.C.*XQ.0./.<.f.Y.O.3.j.M.3.] &.o.s 2 $     2 [ C.C.O.<.[.9XeX,X[ ,X+X3.*XY.eX,Xj.sXH.H.eX;X9XI.,X8.I.*X8.s.f.I.o.y.Y.,XD.o.D./.&. X3.8.;X8.V 3.H.-.D T k 9   ; O o.V [ 0.] 3.9XD.+XI.+XH.0.C.4X3.8.[./.+Xj./.;XsX+X,XY./.T I./.M.<.Q.C.s.-.o.-.-. XY.[ 8.s.3.O.8.x y.8.0.n k r     O x D.C./.<.o.H.0.f././.T V  XO.'.] D.Y.0.I.lX[.lX,X+X4X0.-.f.I.8.y.o.M.8.3.&.Q '.3.-.-.<.Y.&.] &.-.V O.I D V 9       < I &.y.C.8.&.3.<.j.C.s.[.&.x T O.M.Y.s.0.C.[.eXhX;XM.3.I.<.0.<.D 0.o.0.o.8.o.D ] y.-.D T V D o.f.s k V &.Q $ 2       ] I y.Q O.-.o.3.J &.n ) O.n f.D.f.0.D 8.I. X+Xj.<.[ <.0.s.3.T x 3.<.o.] -.-.o.f.[ O.T T O.) ) x ) k ] I q $   O   2 V n f [ Q &.V D ) ] ] J D 3.D x J I.[ Y.C. X[./.J 3.Y.T ] 0.o.T o.-.) &.-.) s.<.9 I H.k n -.D V Q n r n q ;     ; q n f f D D V T n x V x J ] k V k s ] c.D.*X[.C.0.&.0.] ) <.) ) [ J V [ -.x T I J T J x O.D x x D x < 9 r     $ < &.r J n ] D ) x D I x r n I r n n T 8.M.[.;XH.8.D.f ) n O.o.[ x f D V T f 9 ) V n x J V n x V n s r r 9 $ O   O q k f q r s I x r k k k f V O.q r V O.C.H.*X'.[ O.o.T x ) f r x I V k x D k I x n D n D T V x k x f 9 ; ;     ; < < 2 q f 2 k n Q J 9 r x x x V r k Q.y.[.;XH.f.) D D n s n V I x V x n f x J I n ",
"c.+X9X[.Q.9X9XI.tXy.8.[.eX+X+X9X4XeXxX9XY.M.*XQ.*X<.I.+XM.j.y.y.D./.[.I.Y.-.3.D.3.M.0.) I s.[ D k 9 ; $   2 ) f.8.[.Y. X,XhX4X8.'.*X0.eXs.*X,X;XQ.Y.9XtXtX X;X4Xy.*X X<.] y.'.8.C.o.3.0.j.D.c.<.o.j.I.*XM.D T 4X8.) D V q       f 3.'./.V 8.eX[./.4X'.D.3.c.C.-.H./.tXC.y.xX+X*XH.Q.C.,XD.] j.Q.Y.) H.H.O.0.s.f.j.Q.O.) 8.3.) 3.x &./.f.J x r   <   ; ] o.y.I.C.s.I.Q.8.0.3.y.'.] I.8.M.0.[ 9X;X[.sX'.C.[.8.8.0.j.I.<.T Y.H.[ <.J c.M.y.Q ] +Xy.-.n <.<.s I o.D 2 O O   < I ) ] O.'.0.&.8.c.M.o.Q.c.8.J I '.0.o.3.'.;XtX*X;XC.s.;X0.3.&.3.<.) 8.3.y.<.n ) <.D I n H.o.D &.D r ) x V < $       D ] T O.Q J <.) s.j.D &.J 3.o.O.] 0.Q 3.'.4XtX/./.&.f.c.f.n o.s.o.] D.T ] f.c.V &.3.V &.T <.O.r &.x &.J < O   O O D s 2 D ) T <.[ ) V k 3.O.x D o.s D V c.8. X4XC./.3.8.D.I [ o.[ -.O.3.] &.<.V M.O.k ] C.T k o.J I O.x x V q   O   q s q 9 x ) D T ) V J n k T ] f V f n Q M.C.*X XQ.s.] o.T [ -.I V ) Q I <.) n O.D n T I D <.n J V n s 2 9 q <     2 I 9 r k [ J I s T J s s ) ) x J x Q o.C./.*Xj.c.C.O.2 n o.o.T n q D f k f f D D [ J n s k D V n f q 9 2 < O     q D x 9 r k T J s x n r x k ] f x n n Y.I.+X'.f.] D V n -.s x D [ n D n I x J k Q V D n x I V f r r r 2 $     $ $ ; 2 q s k x V k s s s x x s D Q V y.j.Y.+XM.y.o.n D k k Q I V s T V x x k V V x ",
"'.;X[.I.[.+X/.Q.;X8.[.4X;X*XY.+X*X,X4XtXtXH.'.*Xc.8.;XI. XO.C.I.j.0.H.+XY.j.0.c.c.&.c.0.D s.8.n [ k $     2 J &.s.sXI. X9XeXD.3.,XC.[.tXC.;X/.y.H.4X;XlXeX9XeXY.Y.4XM.f.0.Y.[.3.0.+Xc.D M.I.Q.8.) f.+XY.&.] 8.I.3.O.k I k $   O r ] H.y.T I.'.'.f.M.C.s.'.Y.*XM.*Xc.D.'. X*X,X;X[.Y.Y.T 8.;X3.8.s.c.H.0.<.j.j.y.y.3.f.Y.c.n k 8.[ J +X0.I f 2 ;     O x y.&.M.4Xo.M.y.'.c.*X8.C.[ s.I.D.8.] hX*X4X/.*X XD.0.'.T c.D.c.) y.M.3.I H.Q 0.8.[ y.I.J c.I [ 3.x -.D q r O O   ; V Q <.[.<.D.8.] I.M.0.D.c.] O.f.;X<.] H./.[.4Xj.+XI.o.&.M.f.k c.0.T 3.] y.V ) j.O.I s -.I.-.y.T x f O.x T k       O n o.J ] o.J <.<.C.C.I T s.-.T 3.O.8.-.D.[.,XQ.Q.+Xj.3.) c.) &.0.) f.J [ ] f.8.O.Q <.) Q I M.) D T r ] k 9 q     O 9 I f n Q Q [ [ Q O.f Q o.0.I n T r O.-.I.H.*X[.Q. X8.) O.O.T s.j.-.Q Q O.) f D.Q ) [ <.0.f n D ) &.f D T k     $ ; 9 D Q I T x I [ J I f n T J n J q I J I.C.*X*XH.<.) &.Q o.3.k D I O.) O.Q V [ I ] T x J 8.J s s f x f 9 ; O O   2 s k q x Q I ) q k k V V x I x I k ) [ I.Q.4XI.O.y.[ n Q V T k D f [ f r k J D x Q n x f k T J n f q < ; <       q T V 2 r f V D q f x q I x q 9 f V I Q.M.+XC.Q.&.s I T I 2 J J Q r ] Q Q r x q ) n T n s ) I f 2 q k r O       ; s n x s 9 s ] x f T n I n 2 f O.x I D.D.;XC.y.-.x D s k [ Q V f Q x k J n n n V ",
"Y.j.eXY.s.4X XI.Q.H.tX Xf.9X[.+X[.,XtX9X9X9X'.I. XC.+XQ.j.M.c.C.0.I.Q.M.s.c.c.s.f.-.s.c.y.) [ Q I ) 2   $   f -.-.Y.C.[.4X[.<.*X/.tX;X;XY.Q.'.'.C.9X[.;X9X9X+X/.Q.;XD.y. XY.H.0.n [.M.s.[.D.8.o.[.f.-.'.8.] M.j.y.O.0.r q O   O $ n &.-.C.I.D.;X+X-.'.*X/.j.4X X'.Q.M.4X[.;X;X4X X;XY.V y.9X/.0.I c.D.I.Q -.[.y.<.o.j.'.f.f.o.[ <.o.o.) I 9 r ; O     [ y.T *X0.M./.o.H.y.f.H.f.] j.*Xy.f.j.'.*X*X'.Q.[.Q.C.0.n C.H.H.I &.I.s -.;X<.8.Q 8.M.s.D f.o.O.k k o.0.n ; 2     ; n O.8.M.c.I.] s.c.C.C.<.Q <.c.c././.o.3.xX X/.*X+Xj.O.O.I.&.Q 0.o.&.3.) 8.-.0.j.J I q O.8.0.I x f k 3.r I k O $   O [ ] V D 0.) I Q H.M.3.I 3.[ [ f.'.O.3.M.+X;X9XH.*XM.Q 8.3.y.k y.D.D [ j.I H.Q V V I f.&.Q <.D J x n V J O 2   $ O 9 x T f -.T ] O.-.] T &.o.o.T 0.y.2 J y.c.H.eXQ.Q.-.8.j.J [ T f.c.&.o.J D I I 8.O.V T 8.M.s x V -.] r T o.r ;   O ; r s x V <.D 3.s s T [ D k &.s D f [ o.c.M.,X[./.[ D ) D.o.O.D Q Q 0.[ [ V Q -.I Q J n D I &.s x D q r 2 9     $ D s r Q I Q J I f 8.x f T n s x x x &.<.H.Y.4X+Xo.c.&.k [ &.V D I x k O.x n x f x <.I f x f T ] s f s $ 9 $   O   r x V Q 2 q ; J &.r f k T r ) k $ x I C.c.I.*XC.3.D V J Q x k ) Q 9 x ] D x k J x ] ) n J D k s k x f 2 O   O $ 2 9 9 s f 9 r V D f J o.f r f f J 9 <.y.D.Q.Q.j.[ J D x k ] n k D J V n x s f V Q ",
"s.C.'.[.*X[.I.4Xj./.lXD.'.9X*X/.c.tXlXeX9X[.f.D.I.Q./.Y.f.[.D.y.o.'.I.o.8.-.[.D.j.O.Y.C.O.O.D.8.n V ;   ;   9 I j.s.Q.*XsXD.-.9X+Xj.H./.[.M.Q.,X<.Q.,X*X9XsX[.C.Q.[.C.f.D.C.D.D.o.8.I.j.C.3.c.y.+XI.3.M.-.&.3.y.c.&.3.s s <     9 [ f.8.*X;XH.*X<.8.I.'. X X3.f./.Q.4X[.[.+X4X4X;X,Xs.<.'.I.+X3.[ 0.y.[.&.T  XQ.<.8.J 0. X] <.-.I.] I ] n ; k r     O V -.H.f.j.C.I.H.)  X'.I.C.c.3.;Xc.j.[ f. X;X*X XH.4XY.] f.M.<.8.] H.C.n [ ;X-.0.[ c.0.I O.'.) [ I o.&.y.x 2 $ O   ; D Q y.<.'.0.T I.*X0.J Q.) M.] f./.C.T Q '.'.tXhX Xc.0.] D.8.<.-.O.x ) x j.8.<.-.O.[ r V n 3.C.x s 0.I k J 9 ;     O k 3.I J Q j.<.) 0.3.0.J ] J ) Y.] 8.8.D.M./.4XH.C.8.J y.3./.n Q J D f.c.I o.] 8.I x o.c.I <.<.x I D k x r f     O ) [ V T Q [ Q 8.Q I -.<.V T [ [ <.x f 8.3.Y.[. X/.o.j.o.] Q o.O.f.[ Q ) O.D <.o.-.) D 3.O.2 D <.] T ; ] Q q   O   2 < x T V D J 3.k f I ) J V -.k V V ) ) 3.c.+X*Xy.) &.[ D.o.&.) [ I O.T O.I D ] D T n V J D D s n n x r q ;     ; n q x -.[ [ D Q T ] f n ) 9 J D s r o.-.j.M.tXY.8.O.] [ x I D V I J f D s V Q k 9 ) n q f D n Q q n f q 9 O O   $ 9 r n J r s 9 [ f x k T n s n x < f ] y.c.Q.+XC.3.T V n f x k [ V x k ] x ] V V f T V k Q I x r s s r < O   O $ 2 9 q s k D s 2 Q k V V x r k q V f D C.c.I.Y.3.o.T k n f &.J k n V n n n f k V T ",
"y.[.C.C.*X+X/.D. XxX;X-.I.sXY.0.<.tXeX,X4X'.8.I. X Xj.f.f.[./.M.] *XY.0.0.I  X/.O.) Y.0.O.3.C.o.Q V ; O $   2 k 0.j.f.4XM./.c.hX[.I.Q.+X4X'.;XQ.f.c.[. X;XeXQ.I.+XQ.H.C.M.C.f.j.+X[ O.<.Y.D.D.j.M.M.s.C.3.&.T Q.H.-.-.f f <     2 r Q.0.M.M.'.C.*X+Xc.Q.;X/.o. Xf./.H.+X/.eXxX X X9XD.f.H.y.4Xj.n j.H.+X<.k Y.M.<.[ -.] M.y.j.&.f.O.I ] D x x 2     O I Q  XC.-./.<.D.H.M.C.f.C.Y.C.+X3.c.] c.[.+XeX*XD.9XM.] I.8.-.f.) +XH.V ] M.M.Q I Q.0.3.o.c.<.o.s O.[ &.V q   O   ; I J j.T '.y.0.y.D.y.<./.J Q.+X) D.D.Q <.Y./.9X,XI.M.f.I '.O.I.0.<.] o.) 0.o.T r -.M.] k &.] y.T s f.V s ] ; ;   O O f -.0.f T 3.y.k I.C.0.O.Q s I &.f.) J I.c.+XtX'.c.3.O.-.Y.C.O.V O.x H.y.Q V J s.f.D n o.8.J T o.n k s r f k ;   O 3.J D s ) 0.j.n ] T -.) n T O.o.[ n x ] 3.c./.+X/.I Y.D ] 8.8.3.y.o.D s.O.o.[ D -.Q I 3.8.r J [ J T r T ) 2   ;   9 9 [ J J x D 3.n f D I J I O.f f J J Q ] c.'.I.O.3.H.[ 8.T Q T o.] o.I &.Q x J Q -.V V V J n k n f V r r O       9 < k Q V ) ) D T I k x I k V T f q J I <.M.+XI.c.o.o.0.x n &.D k J V D k r ) -.J f 9 J T f k Q q V s k 9 O O   < 2 2 k n f s k J q k D D s f k s f r J 3.s.f.M.f.-.] D V r f f [ r I k Q q I V D f J n f D I n s s s q ;       $ < 2 q r f I n ; O.k n r V k k n s s f H.y.C.H.&.-.[ k J n Q x r f n V V D n x n V ",
"s.*X/.H. XtX XQ Y.tX9X-.f.[.Q. Xy.9X*X4XeX;XM.H.[.Q.8.H. XI.I.j.<.Q.j./.c.o.I.c.&.y.[.&.8.<.&.) 3.Q <       f T f.M.I.+X/.Q.lX9Xs.4XH. X*X*X;Xc.,Xc.c.tXsXeXH./. Xj.D.C./.'.c.-.Q.c.] y.'.H.3.'.f.-.-.M.C.Q.Q f.H.-.[ s r $     f o.T <.I.nXf.I.9XM.s.,X'.D.*X;X[ y.,XeXc.tX*XlX*X'. XD.0.s.I.H.Q M.f.j.D.-.s.T s.j.&.[ 8.c.[.O.&.-.T O.[ I 9 $     k ) ] [.H.-. X[ H.D./.I s.j.M.+XC.Q C.0.[.;X/.tX*XQ.Y.o.y.0.] H.3.O.4X8.o.y.D M.&.T c.o.f.j.[ ) -.) n D -.n 2   $   s J J &.j.f.s.Q.) f.Y.y.j.3.D.M.f.) j.[.<.M.Q.9X9X*X/.8.[ f.&.j.O.j.T 3.T V -.s.f Q c.&.J /.V V &.n o.I 9 &.2   $ O 9 I f.J 9 Q -.O.8.y.[.T ) y.] 3.D 0.f.I /.f.Q.'.[.Q.0.I o.<.0.I ] y.k c.&.I D I 3.H.-.9 n D.k V n V s x r q < <     n Q ) D J <.3.J D [ 3.I Q D ) c.J x x ] [ s.Y. XI.D  X[ T Y.o.f.s.] I <.] <.V ) &.V [ D -.f T ) V ) Q f ] < ;   $ 9 D s.9 Q ) V o.x f V D I T T x q J x T I j.C.[.c.j.j.I Q 3.8.D [ <.0.] O.Q x I ] &.n D n J n J n r k r q O O $ ; q r V n f -.o.x J T k x D ] f I k r V V o.M.Q.4XD.8.O.I D f 0.Q x J J ) Q 2 I Q x k s V k f x T f k r r 2 $     < q q k V f k f f k I n s f f I < T f r 0.0.c.H.I.s.&.D T k r k ) q ) D T 9 k T T q V D n s D x k x x r $     O 2 2 9 s q r s J s [ s n r k J k o.2 2 D M.s.c.C.8.<.o.D D V f s r f V V n V V n x k ",
"/.;X+XH.[.9X[.D.+X0.;Xy.sXY. X9X'.eX,XtX4X;X'.C.Y.I.-. X XC.f.f.M.f.y.M.y.C./.[ M.H.Q.] &.] [ &.&.I < O   O J 8.H.0. X,X,X/.*XH.f.;Xc.H. X[.Y.,XnXC.I  X*X*XH.'.,XM.Y.j.Q./.j.T 0.[.8.D.[.f.<.[.-.O.c.I.s.I.o.<.0.[ Q k q O   O I Q J ) ;XeXD.M./.eXD.<.<./.;X,Xf.C.,XhX XH.tXtXeXf.Q.*XM.c.-.C.O.s.f.f./.O.T c. XM.O.] M.s.0.C.y.] J 0.] r $ ;     &.I &.;X&./.*X&.D./.-.C.*Xs.y.c.j.O.y.c.'.,X[.4X,X[.f.) f.s.0.[ 8.0.D.y.Q *X&.J y.[ s.o.T '.T &.) 0.-.J k T < O ;   J I ) D '.o.D.,XI <.D.0.0.3.f.y.D.O.8.Q.f.s.H.;XtXtX[.O.8.I.T s.&.] O.Q T D f.c.T f o.f.o.f.J ] <.V I I x T 9   O   J J s 8.D ] 0.T <.M.y.J ) j.-.) -.&.C.I H.0.D.I.'.I.D.] <.[ <.-.0.&.I o.<.I V [ 8.O.8.O.2 s.<.9 s J V I s 9   O   < &.Q I < f.I Q ) D T o.I -.<.O.&.V D r 8.2 j.M.'.C.&.Q.f.) f.I 3.3.] ] s <.) T y.J f 8.x Q V D Q V T Q r J ; $   $ r Q y.; I ] T I s f J J T Q n Q f D s I I s.s.'.H.<.-.&.J j.y.] ] &.0.[ [ Q n Q T V f Q J n q T k s r k 2 $   O r x n Q T D O.[ J T ) r J n [ x J s x Q ) O.0.M.*Xf.8.[ s ] T I ) ] D s J o.k f n x V n I k x x D V r f < 2 O   $ ; r r k T f V r V s <.q x n k I q ) f q 3.0.y.M.I.s.o.n ) I 9 n J f Q ) T f n [ ) q x V J n n k k x x q $   O $ r q r x q q q V f V s x k q T k Q r 9 V s.j.s.j.c.&.] ) x x s x x x V x f x n n x k ",
"*X9XQ.3.'.9XH.*X*X-.*XeXlX3.c.sXsXsXeX,XI.H.9X'.D./.3.+Xf.c.y.f.Q.H.+X&.o.D.4X&.I.0.O.) O.<.0.o.J V < $ O   V 0.I.3.[.'.M.4Xc.f.'.;X9XC.,X XM.hXlX[.] [.4XlX,X+X,XQ.Q.j.j.c.j.O.D.'.s.j.I.j.Y.C.M.I ) c.C.I.y.3.] ) Q n q O   O ] s.-.C.+X+XC.D.+X,XxX;XV  X+X<.4Xj.;X4X/.4X[.4X+Xc.I.*Xc.y.s.Y.j.3.o.<. Xc.J f.[.[ /.3.y.&.] H.<.D ) y.V q f     O o.O.[ I.8.,XC.Q./.3.8.9XM.[.<.o.+Xf.) I.H.Q.;X+XeX'.M.0.O.;XH.k <.j.] j.O.D.C.k o.o.D.<.J C.f.[ n s.J ) T q 2 $     I [ 0.[ M.n c.eXO.V <.*X<.8.D.j.f.Y.Q o.M.<.j.'.4X;XY.o.f.0.<.s.3.8.o.[ s.y.8.D [ V J Y.s.o.) 3.O.s q J ) < 2       o.q V M.k [ O.j.j.-.] O.j.] s.f D C.<.V <.O.c./. Xf.s.3.<.) n 0.&.T <.f s.s.x n 3.T I.T o.f [ J q [ I V 9 r     O J [ ) D ) 2 x I <.Q I <.Q J y.c.D J J x o.$ -.c.H.I.D.8.y.&.I [ 8.T 8.Q V f.T Q <.I J <.Q J &.k x J V k V s ;   O $ k I [ s V n o.f r n ] T I ] x ] V k r V Q 0.s.f.M.8.y.f.n <.3.f.) T [ T ) ) D J Q n J ) D f f D s k r k ; O   O k V n ) O.T n o.J J -.n V 9 Q x V f I T Q ] &.0.s.f.y.-.J ) T s J [ k q V ] V s I T n f [ I f k k V 9 x $ ;     $ 9 9 2 n J s x n n f ) s V D f s V x 9 x J -.o.-.0.<.I x ] Q 2 x n n D ) J n f I J k J x D J x f s r q < O   O O s q r n 9 9 I x s f x k D r D k 9 V n 2 -.f.-.-.j.O.O.3.D D f D n f x k s n V V n k ",
"H.+XQ.3./.eXc.j.*XD.3.sXtXQ.c.D.9XeXeX XM.y.9X'.y.H.D.,XM.f.y.<.Y./.4Xy.3.s.[.C.M.0.I -.s.f.y.Q V V < O O   n f.Q.j. Xc.D.;X X'.I.,XhXY.+X[.D.I.M.C.s.Y.9XsX/.j.D.I.M.I.f.C.I.Y.H.Y.D.f.<.s.Q.f.D.&.[ y.y.&.D.Y.) [ Q n <   O O -.[ &.C.Q.I.4XO.Y.;XQ.[.[ j.+X'.M.D.[.sXs.[.;XsX/.Y.+XY.s.&.D.[.j.s.<.&.y.M.<.y.0.3./.H.[ I C.-.D o.-.) n x x     $ ] 3.-.3.Y.'.0.'.H./.] eX8.I.O.3.*Xc.<.M.c.c.[. X9X[.D.M.T 4Xs.3.V I.<.] C.T <.] 3.<.D.O.[ C.s.<.r ) n T J 9 2     $ I 0.8.8.f.V O.*Xf.[ 3. XI.T  X8.) s.D.x I Q C.[.4X,X/.-.] <.] C.y.O.8.[ <.3.&.J 8.3.D s.j.) Q ) J k r D I   $     ; T r D D.<.V 3.&.0.f.<.o.y.] I.[ 9 0.D.o.D J ] j./.C.C.j.M.) &.<.O.0.y.k -.C.J q &.o.c.] Q r n n ] I x s < 2 $   2 ) ) k J V x I &.n V O./.3.  V 0.o.n V ] k x I j.j.Y.Y.Q -.0.Q O.8.Q j.I ] -.[ n T 3.O.J J V O.V k I x f J ; $   ; 2 x T n V I V Q r f T &.J x Q x J I f k x Q [ <.f.D.M.f.o.I -.M.c.Q D T J Q o.J k O.I ] D k s J f k x s 9 O     r V J J Q O.[ J O.x k &.Q f 2 T k x x ) V V T ) s.<.C.c.8.T J f I x J s V I D n J s k n r J k f n s f 2 f $     $ O T r 2 Q k r r J s J x n n V f s I 9 q n s J y.8.<.8.Q T ] n s V D J x V x x 9 D V n I f n n n f r 9 < $     $ O s 9 r V q q ) x k k k k ) x f s 2 n I $ T O.o.[ <.&.8.y.T V f J k r n n k V n V n f ",
"[.'.Y.0.8.Y.'.Q.'.sXj.4XsX[.H.T Y.*XsX;X[.0./.0.H.c. XY.D.O.C.s.C.j.s.Q.Q.0.0./.<./.[ <.0.[ J T V J $   O   J Y.D.Q.-.4XH.'. XtXy.;XI.4X[.Q.,XD.[.'.'.f.*X9X+X;XC.[.c.4Xc.D.c.Y.f.C.c.M.&.I.8.Q /.*Xf.Q [ &.'.0.-.<.) f O   O $ f '.] C.,X9X*X;XQ 4X<.Q.*X&.4X9X3.<.,X'.f.+XeX4XeXD.4XI.I.] 8.H.+Xj.I ) O.Q.'.s.j.j.j.3.J s.f.3.D M.&.r ) s   O O < f.T Y.y.j.'.<.I. Xf.'.Y.Q.] &.c.8.f.*Xo.<.D.C.+X,X*Xj.c.] H.0.[ ) H.D.3.T o.y.) f.O.Q.f.D D.8.J k 0.J f I k O   O J o.C.T [ 3.y.j.*X8.f.c.] 0.0.3.O.3.c.8.n I 8. XH.I. X*Xf.] -.3./.0.-.O.o.V D 3.s.<.y.Q 0.&.r n n r o.<.x 2 < O   < r s T [ o.<.y.Q 3.-.3.y.) T y.J I 8.o.Y.-.k [ ) <.D.'.Y.C.[ 0.0.s.9 s.3.o.n o.[ T <.[ Q <.n V I T V V r s 9 O     2 n s ) ) T D.] s D V <.D.<.; k J I 2 D ) f J T 3.y.M.c.T 0.c.f.x ) 0.3.[ f I [ x T T ) V ) ) D D r J k D k     O   f f o.k n o.O.s s n ] <.n q I k n ] n I f J f I O.8.f.3.n <.O.<.8.I T ) J Q &.T k &.n J r s q D r n k f       ; s r f D D D o.<.T n x V J n n D I k r Q V T Q V -.[ 0.y.&.I -.I <.x J x ] T s V k k V r < O.) q I f 2 < 9 ;     < $ s.D s 3.q s s k n I ) f D n x I T q x k f r 0.O.Q <.[ -.o.k I Q ) Q x f k x x o.T r k q n f n f r q 2 $     2 ; x q f T f x x k D n 2 f ] n q q D 9 D q f J &.o.) -.y.-.V q n T n f I I x n f x k f ",
";XY.C.8.+X/.eXj.&.eX4X,Xj.<.y.3.[ lX9XtX;XH.[.] I.*X[.8.*Xo.C.H.[.f.Q /.H. Xy.O.j.y.o.3.c.s.O.D n s $   < q ) C.s.f.,X*X[.c.H.sX0.H.D.tXlX X+Xj./.f.[.T I.tX,X9X[.*X/./.f.8.y.[.Q.o.s.s.0.j.-.j. XM.s.O.] y.M.M.[ I J s     O 9 -./.3.D././.tXsXj.+X0./.;X XC.;X&.,X0.;X] 4XtX,X,X4XI./.8.j.s.-./.s.<.T o.4XM.[ O.[.0.[ J I.8.s.Q o.O.O.x <   ;   s -.y.H.<.Y.I.c.M.Q.&. Xc. X8.3.y.3.+X4XO.-.J Q.sX[.*XD.C.Q D.[ O.'.O./.s.2 f.<.f.M.Q /.Q ) 8.0.D 3.O.V f f $ O   q x y.'.3.V o.M.8.eX-.s.j.8.0.;Xn y.j.O.o.s.3.[ c.c.M.*X[.c./.[ o.c.o.o.M.<.] D C.j.3.n k j.V x ) r k ] c.s   $   ; s 8.x s.o.s.3.] -.H.&.<.O.I I 8.-.J o.f.-.H.n V I 0.f.j.H.j.O.y.3.&.T V f.] D I y.&.) o.] Q r T s J T D 2 r   O ; 2 ) J V D < 3.[.s.D f k ) 0.M.f V J D f f O.9 f y.s.<.0.y.y.D.o.M.[ ) o.s.Q s y.&.V [ k 3.D x [ [ q 9 V T q   ;     r r Q f I -.) o.x x k s.n r r x D V n I f x Q V n &.-.8.O.j.3.Q ) -.Q Q [ ] q <.D D D V D s V f J s J x $       ; s [ n I T Q r o.k T x V V T -.r V J D n x s f V T ] [ [ &.3.] k M.] $ n [ 8.x J x J k n 2 ] J r f 9 2 9 <     $ s I O.r D n T k x n x s s k x k D I f T Q s f ; I ] ) ] 8.s.) q Q Q ) I q D n k J J k f J D f r s k f < < $   2 9 s r n k D s r r q n s f f I k 2 r n x 2 2 x T o.&.O.Q o.V f f T [ 9 f ) J J x x k f k ",
"[.[.,X/.eX+X'. XI 4X9XD.s.j.Y.8.y.,X4XtX9X/.Y.3. X[.s.D.Q.c.c.3.[.O.f.H.o.Q. X-.3.j.3.O.3.M.f.J k O     $ n <.H.y. Xc.9X4Xy.nXI.O.C.eX;X[.sXM.M.J  X+Xo.9X4XhX[.'.Q.'.I.I.3.3.I.+X<.s.s.f.D.s.D.I.y.j.<.[ M.M.Q &.Q V 2     < I D.'.M.s.[.4Xc.*X*XC.H.C.+X4X*Xy.D.Y.8.Y.8.'.9Xj.;XeXQ.f.8.M.8.f.;XQ O.C.D.Q.8.o.[ Q.M.f.3.o.O.8.-.[ O.<.q O O   9 x y.+X&.C.c. X&.eX[.s.) &.Q.3.c.] 8.c. XM.] V M.;XD.+X'./.H.f.-.J I.&. XQ ] O.I.[.T -.I 3.-.] M.V T y.V s O     ; < Q Q f.<.Q D M.3.+XH.f.[ s.o.9XQ D 0.y.] Y.3.T &.c.D.f.D.'.D.O.O.D.s.k j.s.O.&.<.) x Q 3.8.f Q O.D T Q o.< < O   < s ) I f.J -.s.) [ f.8.0.D ) &.o.3.n ] 0.T 8.f V x Y.y.&.0.8.-.<.o.V I Q /.9 ] o.O.j.O.o.f k D ] D r r f n   $     k o.<.q Q x T -.-.D k < Q <.<.f f f k n k V s k D O.-.Q -.<.f.o.M.3.] O.Q Q x y.V J o.n <.V x -.Q q n n k 2 O     2 s x Q J n [ s [ k Q V I r J Q <.[ x V x r s n J n <.O.) s.0.0.) s.8.V T [ &.s &.I V x x n k n s x s s ;   $     2 q J J o.] Q q f I [ ] ) n f D q k n x k k f f x k V T ) ] ] T D 8.Q D V V I n n D T k x 9 T x 2 q q 9 ;     O ; s 9 s n V f r s I D n x k s s s f x 9 n n 2 r < ) [ T V Q [ T k x k D T x J k n D x r k V n f k x s s O     $ < r f s n f V x V I V I V V f n x 2 r n n s q f s f T [ D Q D T ) o.&.f x [ T I x x x k f ",
" Xy.I.D.Y.+XY.;XC.9X'.<.j.C.*X[.j.D.,XsXtX;XI.I.j.9X<.-.H.9XM.<.c.o.[.M.&.M.Q.y.o.c.M.-.T &.0.I f O O $ f -.j.'.C.tX/.4X+Xy.,XQ.I.'.eX9Xj.4X;XY.&.Y.H.H.'.eX4X;X;X/.+XM./.0.8.Y.;Xj.C.y.0.H.f.s.Q.8.<.3.s.M.-.J O.Q x $   O f y.I.f.[.[.*XlXM.j.4XQ.4Xf. XO.<.+X9X,X) 8.8.+X/.y. X+X Xs.<.M.f.H.I.<.<.<.C.I.y.3.[ f.H.0.<.[.V D s.&.T Q O   <   9 [ O.Y.c.o.M.+X3.[.Q.s.] 0.Q.0.'.<.H. XQ.I ) 3.c.8.C.H.Y.+Xj.-.) y.-.3.H.o.o.o.j.[.q Q V &.c.y.T f T -.f 9 $ ;   q q -.) <.3.T j.Q.8.8.<.<.[ D.[.-.T ) n O.) k T ) o.8.Y.j.D.I.C.j.c.O.3.n s.3.o.Q.) T Q -.3.y.9 o.o.I Q n q       < r D ) 8.y.O.O.H.<.O.o.[ T o.&.j.[ -.n <.) ] 8.<.V x <.<.-.-.8.s.y.0.D ) &.Q.D 8.] s 0.) r D q n n ] s 2 2 ;   O f 2 Q C.o.r 9 r ] O.I f <.f T -.f.&.s ; J T ) n D T s o.&.k o.&.3.o.y.<.D <.n ] o.y.x ) <.n 3.D f [ J 2 k f ; $     $ s s 3.-.q s f ) C.M.V o.Q J ] D 0.-.f D s s r q V s V n Q T ] o.o.<.D T T &.< n V D ) V D x J J n V q <       O k <.$ r I O.Q I D D n q 9 s s k J I s x f q s k s s s k J T I D J T Q n o.x f k T n f n 9 s q D r q 9 q <     ; 9 q D D s f O V D n ) J V D V x x D r k q n n 9 f q r T [ T J V k s D k f D n V s Q n 9 q n n f f k D 9 9 $   9 f q x k r x n T I T Q J J V V q q k f f k s 9 r f q q I [ n V k n x ) [ s k ) I J n V V n x ",
"/.<.eXtXC.'.9X4XQ.+XM.O.C./.'.I.j.c.;XsXsXeX'.[.M.*X-.&. XY.8.I.f.[ C.c.M.y.f.C.j.<.O.8.-.&.[ q ;     O J f.0.Y.9X9X/.*X4X*X8.H.C.8.c.tX'.;XtXD.C.<.<.y.Y.C.+X*X9X,X*XD.I.M.8.Q.'.C.I.3.&.C.s.O.D.f.) [ '.D.n I D k <   O 2 V C.'.8.0.Y.'.eX9Xf.3.sX*XtX9X+XI H.C.M.0./.8.Y.I.k [.H.*X/.-.0.H.j.'.-.j.j.8.j.+XQ.s Y.H.y.[ 0.o.k 3.0.k q O   ; f O.o.s.c./.] M. XQ.H.D.I.O.4Xf.8.c.) M.s.3.<.I.<.f.T M.D.M./.&.s.) ;X) 0.o.j.-.[ D.C.I -.[ Q H.0.r &.s.x 2   O   9 I Q <.c.s.3.V <.*Xj.T D.H.) M.) ] ) Q y.s.[ s.Q o.O.] D.j.3.<.M.M./.n <.0.-.o.[ D.J 0.-.[ J 0.f o.Q T n q O O $ ; k V D o.Q.j.0.V 3.] &.o.s.y.f.T 0.[ Q T H.D n 0.J T $ ) ) /.] O.-.y.c.o.o.-.<.] V &.T k x Q O.k k 9 ] V 2 <   ; O n f O.I.I D T -.3.3.s.n s V n Q 8.-.r 2 ) n [ V n Q x ) D T -.o.o.o.&.3.J [ V T -.[ V J O.k <.J k k J r 2 ;       $ r s s T ] s &.Q s.M.s.n ) x k ) k T x s n f f s q s < r f o.D Q Q O.[ O.o.D -.r 0.V x ] n V r n k k k ; O O O O < Q C.s r k J ] [ ) J [ k 2 < < 2 2 r q k s 2 q s q 9 f n D D V V D I Q D [ f x x D r 9 k 9 s f n q f s <       ; 2 9 Q n J y.D x s V q 2 < < ; ; < 2 9 s r n n s f r r n V x n V n x T V f x n V r ) k 9 s D x s s r r       O s f s q f V T I J D D k x f q s 2 ; r k f s 9 < s k r < s V k J D n q x V q s D V D x I J D n ",
" Xf.+X[.c.I.eXj.y.,XQ.) -.9X+Xf.Y.H./.,XeXsX4XQ.Y.[.D.f.I.s.0.M. XO.Q y.I.c.C.D.&.o.s./.y.D V k     O n ) D.M.H.s.Y.D.lX,X4X'.9X[.8.0.c.*X'.H.'.[ +XI c.f.C.'.+X*XtX+X'.f.I.8.Y.'.j.j.3.3.C.s.&.3.j.o.] '.I.x r f 9     r D ] I.[.s.I <.[.9X9XC.[. XD.tX4X4Xj.Q ) 0.+XC.4X8.j.V *XQ.Y.+Xj.8.I.-.-.D.I.0.f.s.I.'.o.M.s.) y.s 0.I ] &.q ; O $ q T D.s.s.;X0.&.;Xj.0.O.;X<.j.C.s.T  X< M.c.y./.H.f.J ] &.j.-.3.3.D.j./.3.3.J 0.f.I Q.] [ I.n O.I.D x c.3.$ < O   ; [ j.3.o.D.I.8.&.&.<.y.] 3.y.J r J I 3.<.[ 0.C.&.[ f J T j.0.T C.0.<.j.o.D.D.Q -.[ T J c.D T J ) Q ] D T 2 ; $ $   ; V 3.T [ Y.C.Q.[ 8.Q I n J x ] 2 k V f T M.J s 3.s k J Q [ D.D ) D O.0.<.O.8.J <.k &.O.f D &.I D J f n f   $   $ r V I 0.Q D n <.Y.-.x o.x r q 2 r q < < r s 9 n n f ] ] I r T T k n Q I o.Q T ] Q ) ) T V T x ] n I ; D f ;     O O k J q s x ) 8.j.3.Q [ x s s 2 O s 9 9 2 q 2 s q r f 2 2 s f D o.n I n [ -.s V Q ) T k V Q n D q s 9 2 2 O   O < 2 r D ) V ] ) I Q n s n s q q 9 9 9 2 s < s q ; ; 2 2 2 r k x s f D J n J V n s J I k x f V k x f r ; r ;     < r f J o.Q k Q s.] f q s f n n k f f r < < 2 ; 9 q 9 9 < x s < 9 J ] J k k x k x n V 9 n k r k x r q r 2 $ O $ ; r r r ) 2 k ] o.T f s k 9 x s 9 q q < q 9 9 q 9 2 r f q 2 < f k I J J k q f s f x k x k V x k f ",
"H.sXhXI.f.s.eX X-.,X4X&.T ;X Xj. XC.0.I.,XtXsXI.3.4X[.j.M.Q.f.s.*XI.D [ +X'.8.8.-.-.s.I.y.J s   $   s s.-.Y.*XI.,XY.s.+XC.4XeXC.Y.3./.9X[.c. XO.3.'.I.c.s.f.'.[. XtX/.'.<.M.c.[.4Xy.3.s.j.c.y.0.f.<.&.-.f.s.J r q $   ; J &.3.D.[.8.c.C.Q.,X4X'./.o.[ /.,X X X[ f.s.[ ;X[ /.j.o. X*Xy.I.'.C.I.0.) c.H.y.O.-.C.3.3.c.c.[ O.9 y.c.I f $ O   x O.s.c.O. XQ.&.*XY.Y.Y.f.8.T V n <.8.8.V I.<.D j.8.f k [ <.o.k [ &.f.D.D.3.o.[ 8.O.I 0.T 0.f.n <.C.J q o.9   O   $ O.y.'.<.[ 3.Q.f.'.M.s.o.f ) J 2 f 2 < 9 k n Q y.o.8.D 8.s.M.M.[  Xo.<.o.0.M.8.) 3.J I [ <.I 8.) n ) V r x     ; O k I &.Q.) n o.0.-.T ] k q f q 9 q 2   2 < q k s s O.) < j.V O.I V ] k J Q ] Q <.D &.] J n T I f s n x r $ <     $ f r &.y.<.D o.D x 3.0.D n < f q 2 9 r $ < ;   ; O r q Q ] n r f s q D [ J n D J o.[ x ] I D n D n q Q O 9 < O   ; 9 < J ] s V O.-.[ ] V f V n x s k r f s < q 9 O 9 ; < s 2 f 9 r x k r x f D I x o.] T x V o.D k V s q <   O $ < r r 2 s J T T -.[ J V k r J ) ) D x x f q 9 < q 9 $ O $ ; < < r r 2 s J J k k n s s V J q D r f s r 2 $   $     2 k x x ] j.<.I D f k n Q J k I ) I J I n 9 q 2 $ $ ; ; < ; q r 9 r V J V V k x k s 9 f < q s r q 2 $ ; < $ ; s n f k s x s.o.T I D I x n x f J V x f n f f 9 < 2 2 $ < r r r 9 k f k r V V f f k k f r r q s 9 2 < ",
"s.9X'.c.I. X,Xc.[ M.tXH.<.D.f.8. X<.o.H.*X;X9X X-.'.H.Y. XH.O.Y.M.,Xs.] +XQ.I O.0.C.M.8.J 2 ;   O r n D.j.H./.Y.I.f.D.0.O.j.4XsX[ ,XD.8.'.y.M.I.Y.s.C.f.I H.3.f./.[.Q./.f.8.'.+X[.y.y.C.c.y.8.y.C.O.O.&.[ T x f     < x -.M.j.j.4X0.,X'.f.Q.*X+X4X*XD ) V Q.-.J 8.8.o.o.<.C.s.D j.'.<.j.D.I.D.f.y.Y.&.y.H.&.O.M.&./.I o.[ D M.J k O     2 -.s.Q.8.f.M.D.+XQ.D.M.D.3.8.O.3.2 n k T x D ] O.0.] n &.] j.[ k 3.0.0.3.c.) ) 0.C.I I y.y.D.Q &.) -.T 2 f   $ ; 9 D 8.&.M.[ 8.<.s.s.C.] V D k s q s f 9 r ; 9 2   q [ T V -.O.n [ s D ] 3.) [ ) Q Q o.f O.&.I &.3.V k x 9 $ 2     r f T [ o.j.&.3.M.+X] I k n f T s ] x J q q 9 $   $   f r s Q T T D k ) x f J V k D J 9 n x x x r f r q $ 2 O ; 2 2 n -.s &.O.I O.M.[.[ x f f <.o.J n D V o.T n ; q $   O   9 s r 2 k f V o.-.) s D x V V r D k s q n f ; s <     O ; 9 V f D [ J [ T Q k J V T V D 3.I D I ) [ n r q 2 2 ; O $ 2 x q k D O D Q ) D n V n k s D f 9 q 2 2 2 O $   O 9 r n x q k [ <.O.Q f J Q 8.] J 8.0.Q Q [ I I J f f 9 $ $ $ O ; ; 9 q 9 r x n k I J n k q s ; q 9 < < ; O $ < ; 9 9 s k r 2 x [ 3.V k J [ J Q O.D T ) T T Q I V f r r 2 < < ; ; q s q < < 9 V O.J n x f ; r 2 r r 9 < ; < $ $ 2 < s V k s x J -.y.) V x ) T T D n D D Q n J V n k q 9 2 $ O 2 q 2 2 k q 9 q J J n k x k s s r q 9 2 2 2 ",
"j.[.c.0.8.*X;Xs.y.s.sXY.f.M.M.c. X[ <. X;X'.[.9Xs.Y.*X XH.y.<.s.-.Y.;X8.j.s.Q -.'.Q.-.V r 2 <   $ 8.Q H.+XH.j. XC.[.I.] y.k y.,Xs.Q.4Xy.<.M.8.D.Y.c.O.I 8.'.<.T f.s./. X+XO. XY.3.8.D.I.y.8.y.y.O.8.<.T J D < O $ ; I 8./.9X+XH. XC.*X/.'.H.0.-.O.&.Q r k D r T [ j.Q.o.Q y.H.n o.f.y.s.) f.j.<.y./.] <.M.j.0.8.T y.s.] I s D < ; ; ; < ] C.&.H.H.f.] '.,X-.[ x n x x s s V < q $ ; q $ J j.r Q 3.T [ &.) &.+X<.) [ Q ) f.Y.3.f f.O.] k ] V T s 2 ; O O V <.I.&.J O.[ D.M.Q O.f V <.8.o.o.Q J T T D r < O 2   ; x f V T 2 o.T D ) I ) J V J k I V I Q n I s r s r 2   $ ; 9 T &.J O.-.y.f.C.<.Q I J J Q./.I.n 0.O.] D D k s f 2 9   O q k I ) [ s ) T D 3.) V s k s x 2 f 9 2 q ; $ O s r 2 n k D <.O.o.n T D 8.T I O.-.T y.y.] f &.T ] ) O.k T 9 ; <     ; k 2 k f k D D D 9 Q n k r D s k q s 2 r ;   r O ; 9 r q Q V k ] o.3.f D O.[ j.o.o.] 0.O.o.[ D D ) [ f x 9 q O   2 s k x q k ] 0.Q o.) J ) k D < q < q < O ;   q < s s 9 f V n I o.o.J J ) s.] y.<.) V o.I [ [ s V T I n q < < $   $ ; 2 9 q 9 2 q s n r x s 2 x x r s 2 2 < < r x r r r s k n I [ <.I Q Q T [ O.o.[ ] Q J V V D I Q r s x s 9 <     ; < < 2 s s k D V k D T f n f x r q 2 r x 9 ; s s q V x k ] O.T J D [ o.<.T I D k f x ) n D V D n r f x q O O $ s s V q 2 q D r I x n x k n x k r r s s ",
",X[.M.[ Q H.eX[.] -.s.O.I.3.f.O.C.3.H./.D. X+XY.;Xf.*X+XI.D.&.[ '.s. X&.j.Q.] y.c.&.D s 2 $ O < o.M.s.j./.[.[.C.[.xX9Xf.[ D x f r T T ) V O.&.O.C.D.0.J <.D.o.V &.Q.C.c.'.4XH.[.0.o.C.I.) y.-.&.8.y.O.Q r ;   $ f n o.C.I. XI. X,XeXQ.J ] k k V n n f n k r r ; < O [ x r o.0.) V O.8.D.I.-.[ 8.&.f.[ j.D.j.s.V ) 3.[ x q 9 9 ; 2 x T s <.H.) 3.9XH.) s.0.] ] -.T <.f.] O.T 8.0.D 9 <   ; q O ) Y.o.J T j.c.8.] s.D n ] J [ J f ) V D D x ; s $ O r V s f.Y.3.[ y.T H.Q.8.] J 8.y.0.[.Y.8.Q +Xo.y.) &.O.2 2 < ; O ; 9 V Q ] Q s -.] ) q k o.D I x x s 9 2 s ; r ; s < < J ) T -.o.] 8.-.c.-.J O.s.Q T f. XO.T Q.<.D I Q ] &.J s s O   $   c.8.9 < f [ T 3.I 3.V s ] q s r 9 < 9 2 s D s r [ f V I s -.[ 0.y.) ] O.c.j.s s.'.Q J ] 8.o.s.n Q I s.Q 9 2 $   < O 9 9 < f f n V q q r k I D n < q f $ r 2 ; q f 9 2 f D [ x &.0.j.I [ ] 8.0.o.[ 8.3.T &.<.<.-.n ) [ I ) s $ s   $   2 Q 9 2 2 r o.f n I O.y.3.f s $ ; q < < 9 D q 9 V J D r J s.8.Q ] ) 3.D.o.C.] 8.V [ V ) n V T r <.V I x 2 2 k     ; 9 2 2 9 r r q n n Q Q k D Q Q q q k s s x s f 9 s s V ) ] Q ] [ [ <.) o.I V [ T Q n D n Q I f s J I r 2 9 O   $ ; ; 9 k x f q k k I V I x x J s f s V r k n f s f o.[ O.c.] ) ) T <.0.n J s V n -.x k J D V ] x k k J q ;   O 2 r r 2 < 2 q q 9 f x x k f n f s f k ",
"/.] 9 r s V I Q x k k s 8.&.s.0.8.0.D.H.Q. XY.H.f.M.[.*X[.D.8.0.c.s.M.o.I.+X&.-.3.x < < $   s 3.Q.I.+X*X'.;X;XM.-.8.O.I V f k V V k s r q q $ q [ f.&.8.0.O.0.-.3. X[.c.M.3.D.y.y.O.M.y.0.<.j.<.o.[ k < 2 9 D T J M.Q.,X XI.*X;X,Xc.] T o.<.8.8.-./.f.&.I ) n q < < 2 k f j.) D ] C.y.Q 3.y.eXr o.] Q O.] O.x D ] r < q ; 2 s ; T +Xk r I.c.8.y.'.,XD.[ O.s.D.s.Q.H.C.3.) &.] Q.o.I x n   < 2 $ j.) n J s.0.) k f.Q o.[ I s k k D r f < < r   f f T c.) M.H.-.-.<.D.C.O.] 3.H.C.s.0.H.H.8.T H.j.) 8.T n &.T I 2 $   O q V D D T V ) <.'.[ <.s.O.n V Q D I n k T q k s r [ ) Q 3.J y.3.Q ] ] y.D.y.T -.M.O.] <.c.-.D 3.[ y.T D s k < < O   s q ; ; 8.<.I k f n &.3.0.f D I.Q q Q O k f.O.s 2 2 ] ] Q J 8.H.o.-.-./.H.-.3.8.D -.<.I Q y.[ D T 3.o.k 9 J n 9       < k s f ] Q 9 s D n J q V r   Q V 9 n q D o.2 f V n J V o.8.o.o.8.f.c.<.[ -.8.y.J [ y.] 3.T ) ] Q I Q 2 k k   $ ; x ; < < ; I D &.f.Q M.f f   q < s x f n ) f [ I s k x [ s.[ T 0.I.0.Q O.f.I c.[ J D J D I ) f J ) n q V k ; $   O ; ; < q r r 9 f 9 s f 9 s k f q s f r k V f V f f x Q O.O.o.] y.-.V O.[ I Q T D T V V f V x k k J D r 9 q <   O $ ; 9 s s q r s q n k x r r f 2 9 9 k r k x f D s f.&.3.&.] <.O.T D T x <.] V V o.r s Q I k I D s V V s q $   O < 2 9 2 9 9 r 9 q 9 9 r k V s s s s ",
"&.[ V Q k s < x q s < O n x D x [ C.'.Q.[.C.O.-.I.M.M./.C.M.I.s.-.f.c.8.Q.j.V V x 9 2 ; q T 0.'.y.Q. Xs.D.lX*Xc.] O.Q O.c.y.O.c.o.x ) J s 9 <   ; 9 D T T [ <.f.j.j./.*X9Xy.D ) -.8.) -.I Q V s r f q $ s r [ -.C.,Xc.C.M.9X;XH.<.O.j.tX'. XC.<.-.I./.'.-.M.f.J r s 2   ; V f ] T Y. Xc.] s. XI j.f.x J f J n V x q f I Q x k I [ s.s 3.*Xj.I.D. X0.O.C.tXM.s.Y.8.M.j.3.j.[ Q J &.M.V J V 9   $ < r n x T x J &.] V T J [ D -.o.] &.k &.s q s.) -.<.j.I j.eX-.J -.Y.[ 3. X/.0.*Xf.-.3.y.O.J O.f.Q f.<.Q Q <.I o.k $     ; 2 s 3.M.J 0.<.-.<.I D [ o.] 3.] I x 0.D x D r j.] ] ) 0. XO.Q 8.D.Y.&.o.C.I.[ Q -.<.0.-.) ] ] o.T D ] D x x 9 ;     q f f I 9 J V Q I o.[ n Q [.n q ) n k -.T n f J [ Q I D f.j.] M.y.T 0.C.j.8.O.s.o.I I 8.D &.V J ) o.D f D f < $     r 2 r J x 9 9 s x I r x q 9 T k x x s s q f T k D V 0.j.s.] <.8.s.s.o.] <.o.-.] ] 0.n 8.] T O.I T O.s x V $ ;   O $ s q $ s D ] ) r I f x q x n Q T J I I k o.V 9 J [ -.-.) 8.f.C.j.-.-.) V H.&.k T n x n [ ) r ) k q Q D O 2 $ O     ; q r q s f 9 r k s f f r f x V n V V D V x s J O.<.&.-.-.8.s.V <.<.y.Q D n J n x f x s f V J V f s s q $     O < 2 q r s 9 ; s s f q f f r r 9 s q s r q n x 3.M.-.O.3.c.-.[ J T s O.I k J &.k k [ Q s n I s J x n f 2       $ 9 q 9 < 2 q r r q r f f q q r q ",
"&.0.[ 8.3.y.J I 2 V q   $ < 2 $ 2 Q &.o.O.Q Q j.+X4XM.f.C.s.o.<.3.3.8.O.O.J 9 V $ 9 n k ) D.H.H.'.,X;XI.H.f.] &.Y.H.M.I.'. XC.C.j.V D.C.[ n I s ;   q ; r 8.y.3.T C.s./.-.O.T J Q ] V n D D f f f r n T s.j.c.C.y.M.*X+X+X4Xy.&.y.j./.4X0.D.'.Q.<.3.c.'.s.f.j.O.D D J ; 2     k n &.&.8.o.3.y.M.s. X0.c.O.f.<.Q Q 8.Q.y.D f -./.I f.3.c.0.8.eXY.&.M.<.<.H.f.M.j.] I.'.3.I.f.0.n Q D.c.[ q 9 n <   O $ 2 J n ) 3.f.O.x D 0.C.c.) O.] <.0.9 D C.o.8.C.C.c.-./.I ] H.[ 8.[.] ,X*XI.C.-.<.8.O.-.[ 3.c.&.[ 3.n O.<.8.x 9 9       $ <.8.o.s.8.s.n ] V &.3.&.8.o.O.V &.f T j.T D.I &.3.f.9Xc.f.D.'.H.o.8.I.I.I f.O.I 0.O.&.) T D J T y.I V f r < O   ; V q k ) x [ Q -.x k [ &.8.r T n T I o.V r n [ ) I n y.C.3.M.+XI.&.&.&.) <.&.-.j.] J o.[ -.T s ) ] [ s -.9 2 < ; O O 2 n r s ) x x I n x f x 0.x 9 k k I [ n J s s I k s.8.3.f.j.0.&.3.<.&.s.] Q o.[ [ V s.O.I O.x o.[ x s r r 2     $ r s 2 9 n ) x n q o.s n s x Q x J J D [ T f k ) 8.3.O.3.I.I.3.o.s.M.&.D O.o.r I I n k o.) f n n V D D r ; 2 $     $ 9 q r r q 2 f V f q s r s r n k r 9 n s x k o.8.8.<.8.&.o.3.V <.-.3.f J J J k f V D f f n n f k k r 9 9 O     O ; s J n r 2 r r q r V V n x r s s s q 9 V n Q C.&.-.j.0.V I O.0.x Q D J I ) k V &.) r s V V V k I f 9 < $   O 2 q 2 ; 2 s s s r q r 2 r r q 2 ",
"'.D.&.I.[./.8.H.[ O.k 2 < < ; ; 2 f T &.o.I o.f.+X'.+X+X8.&.I V ) V Q V x D q s V J <.<.j.[.H.D.C./.9X9Xc.-.f.y.[.I.Q.I.0.+X XM.D.) D.D.y.D Q T x f   O < I s.V 8.-.M.C.J M.J s.j.M.&.3.V 8.s ) 3.&.c.I.H.Q.M.eX Xs.tX+X*X8.y.+X+XH.M.C.c./.[.C.I <.O.O.D.<.0.+Xf.O.I D 9 9     s o.) 3.c.[ D.f.T y.+X'.O.'.y.Q.[.y.[.0.k 3.[.O.y.hX0.D. X8.I.0.[.,XO.j./.c.D.j.T -. X8.<.Q.I &.0.&.s.] [ k k 9 2 ;     x s D J ) [ V <.-.D.s.0.&.y.D.<.[ 3.c.&.Q -.&.'.y.0.I s.<.D.Y.+XC.H.-.Q.y.-.c.y.-.c.y.O.0.] V s.3.r  X<.2 r D 9 ; $   T I D 3.D.V k -.Q O.O.8.0.y.3.I x D [ ] D j.s.-.[ f.H.0.f.I. Xc.s.C.3.M.] o.8.3.T Q <.j.Q o.x ] o.o.D r D < 2       9 < q 9 D n I.f f [ <.[ D &.9 f V T ) k T &.] r x f.y.3.Y.j.0.f 3.s.s.8.I 3.y.O.k O.y.J &.<.I f I s s.D x q $     O k s x O.J   f V ) ) T y.q J k T q k I I I r J 3.c.3.j.Y.j.j.O.o.&.[ c.&.x ) <.J T s.3.Q T s [ -.D 9 r r q s O     ; q r V J x I x J q r f f x ) J f Q O.k n ] [ 8.y.0.I.Y.I.H.] -.s.8.V I [ x k ] Q D O.f V x D J n V x ; q 2 $ O O ; 9 r s < 2 x D s 2 k f x r s 9 s 2 r q V D y.s.s.s.c.[ s.&.x <.Q f x I T J f s I J q D V s q s s 9 < r < O O   O f ) D f r r q < r D k x k s r k k s s ] V [ 3.y.-.c.y.k k ) 8.n J D o.D s r D <.[ k s f ] s x T f 9 r < O   $ < 2 2 9 s 9 9 2 < r q f f r 9 ",
"[.C.-.D.Y.M.<.I.Y.y.V D I r         x s.C.f.c.y.Y./.C.M.0.0.) f.<.-.0.] I 8.[ ) &.0.Y.y.f.*X'.[.Q.hX,XY.j.D.[.f.-. XY.3.f.,XC.Q.f.C.c.] f.<.<.o.J s 2 ;   $ x r q '.M.n 3.Q.O.T 3.[ Y.3.C.f.s.y.H.C.'. XD.H.f.tXc.0.Q.9X/.M.Y./.4X*X;XY.f.<.M.Y.3./.Y.-.f.T O.M.c.3.<.] 9 ; 9 $   q o.f.O.Q O.&.T ] H./.[ D.C.4X<.8.,X<.f O.Y.<.c.'.y.[.BXj.-.Y.H.eX0.j.<.T 0.M.<.Q C.C.Q.Y.o.y.j.Q &.n D.] 2 k 2 2 O       ) 0.) ] O.I.-.y.] 8.3.[ M.T ] j.&.J k <.C.C.O.n <.[.j.xX4XM.c.0.I.j.&.3.Q.3.<.y.y.I I O.I j.f.J M.&.x J Q q O     r 0.) 8.&.V [ 3.8.D.[ T '.3.O.r I &.M.] -.<.I.-.y.3.f.Y.H.j.3.o.[.I.Q y.&.I j.j.T ] <.3.] <.] [ x &.I f o.r 9 $ O   $ s r J T <.H.r D D o.o.D V r J n 9 [ ] o.&.Q V s.f.D.;X/.O.-.s.I <.M.-.f o.c.O.V ] <.) [ 0.) I V s ) Q x n     $     n n s s f 9 k Q '.'.&.J f V [ x f q D k s J ,XY.c.[.D.0.D.y.) ) J y.<.k &.M.T D ] &.) n k J s.I 9 I ; f x 2     O q r s D 9 f r f f V D s s M.J 2 O.T s I 0.s.f.f.M.[.Y.f.j.] 8.[ I J Q O.) V Q V k &.x n T I f Q n r 9 s 9 < $ O O < q x 9 q k V s 9 D f D f f ; V k q q D J c.s.c.D.M.[ s.&.J Q V s Q J I V x r D x < O.J s s f f r q 9 < ; $     2 x f q r q q < f J r f r r 9 f s r k I o.-.y.j.c.y.8.Q n x Q J D n J n x I I [ Q D k f [ r x T x r r 2 O     $ 2 q ; r 2 k f 2 f q f k f r ",
" XQ.f.c.Y.Y.c.M./.f.I T -.T k 9 < O   k I Q o.I Q.s.&.C.&.f.'.;X4X9Xc.8.s.I.I.[.y.c.[.s.s.*X/.[.4X;XD.I.4X+XQ.+X[ tX[.3.C. X] H.y./.M.O.c.M.I.&.-.s V r O $   r 2 c.M.f H.3.[ [.j.<.Q.C.j.f.M.0.Y.c.8.C.+X,X+X+XO.-.D.9Xc.*X*XH.9XQ.Y.I.Y.D.c.[ [ D. Xf.8.3.C.0.D -.M.f.D r r ; 2   s &.[ D.Q Y.O.o.Y.tXj.C.H.M.] 8.H.I ] &.y./.3.y./.Q.C.C.Q.nXsX X-.&.-.o.0.M.M.-.-.<.D.&.D.8.] Q Y.J I o.-.J n 9     O ; y.C.-.x -.f.D.+XM.0.0.c.] -.o.T f.n H.D.I.-.0.-.c.c.,XY./.eXY.<.Y.&.8.f.'.O.M.<.3.D 8.0.D s.&.f.J [ &.o.T r O     $ < Q J ) O.f 3.-.[.[ T /.T T x <.3.&.2 D 3.H.] ) I.D. XQ.Y.3.Q C.I.n 3.-.M.O.o.f.<.-.J ] [ 3.O.n Q ) x I s 9 ; $   $ f y.n f n o.s ] J [ 3.x s I -.O.n ) ) V Q V Q D.j./.*XM.[ -. X&.] T &.8.o.s ] <.T T &.Q O.&.T T T J k 9 D s < 9     k x $ 9 q s I s T V k f.-.O.x s n < o.s J 8.+Xj.s.D.f.0.D.H.T O.o.<.O.O.y.s.] V J T J I J V 3.J r [ 2 s k r $   O < q 2 &.q n s x D ] D q D s.f q O.[ D [ 8.H.C.M.Y.H.H.y.O.n -.3.Q ] n Q [ &.J k q o.J k Q Q q -.V r s s 9 ; $     $ 9 s < 2 2 r f 9 n q r 9 n ; k s q r n D D.j.I.Y.8.J ) ] I J n x V T V f V s k f f o.n k J V x x f 2 < ; $     O < < < r 9 s 9 k V s f r f 9 s q r x r y.y.D.C.+X0.D o.I f V o.Q T x D I o.I I J D n I J f k J I f s 9 $     O < q   9 9 I I r f q q k x f ",
"M.Y.Y.f.<.O.j.*X+X/.<.V o.o.] x   <   $ f J O.] 0.c.8.;Xc.s.[.4XQ.[.I 0.4X[.j.D.*XD.+X X+X,XD. XH.y./.;X+X XD.M.f. X;XY.s.[.j./.j.0.j.[.D.<.I.[ c.o.s f q   $   $ s V I s.V I.H.*XC.Y.M.0.s.4X/.c.I.0.s.I.c.;X'.*XV /.Y.,XeXeXY./.I.[.Y.j.[.4Xc.T H.D.<.0.C.D.y.D 0.Q j.V 8.f 2 O   $ D C.y.n f.3.T eX*Xo.M.3.<.O.o.D.8.M.<.<.I. Xj.-.'.*X/.4XI.4XH.C.3.j.f.-.] y.D.D.3.J o.f.O.0.o.3.D <.o.] 0.x <   ;     ) T ] J +X-.-.8.f.<.j./.<.[ O.) D 8.C.o.y.s.C.s.y.Q.;XY.D.Q.O.j.M.f.y.s.M.D '.&.&.D H.H.] s.J J J 0.<.[ J n q $ $   ; 9 x 8.J [ O.<.0.Q D.] J J M.o.o.I V J Q.j.8.0.Q. XhX+XY.o.o./.&.T +Xx H.o.y.<.0.&.&.) o.J 8.) I 0.T s n k r O O   2 3.c.2 2 [ x Q V Q 0.n k I [ O.x n O.Q O.k &.c.[.;Xc.f.s.j.-.j.n &.M.V &.) J M.] J D <.j.[ V D D [ I Q D < ;   O   O q < s &.Q J V Q V n s &.J [ n x < n k I [.I.I./.s.f.3.8.c.k 3.s.T V s.-.I [ ] O.D k o.Q I I V s Q f 9 V x $       q r ] r n I 9 I T J V y.) ; f n o.f <.Q c.j.Y.;X0.y.] C.) n j.[ ) I s V s.J ] V Q r f D ] s 3.V n s r 2 $ O     O < q 2 q ; s D f x f ; < [ s s q x s x D /.D.[./.[ k O.) n y.[ q s ) x q J s r f Q D 9 k ] T x x f r 9 < ; $ O $ ; 2 9 k r k q f r f k r x r k s x V q 8./.j./.*X8.V 0.o.x k ] V T [ T s V x T J f V O.f V k V [ x k r <     $ < 2 ; q < J J 2 f s q x n s ",
"C.f.,X'.3.J ,Xf.j.'.+XQ ] ) C.Q f ; O   $ r V O.o.D.O.+XY.O.M.I.Q./.-.Q.'.tXY.M.;XM.*X/.[.9X,X Xj./.;X X;Xf.'.H.M.Y.s.f.8.+XI.y.8.o.;X+X&.j.D.O.M.o.<.T r O $     ; V -.j.T M.M.I.f.3.j.<.D.sXo.f.*XC.;X/.f.s.+X/./.I.'.nX*XQ.D.+Xc.*Xc.H.8.;X8.O.C.<.C.C.M.M.o.s.<.] D.) o.D r ; $   9 M.O.D 8.j.J C.9X-.J y.I.] s.c.y.D.8.Q  X[.c.c.[. X;X,XI.j.Q.M.<.0.Y.Y.8.M.<.3.s.J 3.<.H.M.D ] ) c.0.D D.f s f $     2 -.[ D ;XQ <.0.I f./.I.O.Q j.[ 0.D &.I.O.M.[.Y.Q.,XtXC.Q.H.y.y.Y.c.f.8.0.I c.0.Q [ <.o.D <.Q Q j.8.8.s 2 s.x ; ;     ; D o.<.c.D.f.&.C.J o.) ) j.n D J ) [ H.o.[ 8.Y.H.I.j.Y.-.I.H.o.-.o.&.0.8.o.&.8.T [ I 0.-.O.T J O.] n x q x $ O     q < f f Q x D T -.O.V /.V I ) D I T <.f I f.s././.s.8.I.[ c.3.n M.&.[ ) c.o.V y.I 3.8.T 0.J f T ) 8.V D 9 2 ;       9 D k J f &.J f ) k x o.x V I r V k 9 y.,X'.I.Y.8.D.s.O.-.[ [ -.I -.o.&.] D 0.8.J r T J O.n n x k q f k s O ; O   r V [ < I D r r D D [ &.k r D s Q f J M.0.M.[.+Xf.[ <.0.O.0.V ] O.I k < -.3.O.n Q D 9 D o.I T f f q k 2 2 ;     O s x < r 9 f x x f r r 2 D I x $ r k D Q H.H.,XH.] ) <.Q I &.I n f n I n ] f V [ f J n q k ] J r x 9 q q <     O ; 2 n 2 r q k k q f k 2 D s q f s x f 0.M.C./.D.C.J T -.Q s O.) ) ] D k J f I J n k I I Q Q n n x k f s 9 O     < < 2 s q $ q V n ; 9 s q ",
"8.H.+X/.s.s./.3.c. X3.[ D.M.O.) ] k <     O 9 ] ) <.0.f.Q.<.D.M.j.Y. Xc.3.I.0.+XhX9Xs.Q.C.+XsX'.'.nX+XC.hXj.O.Q.Q.9X/.O.[ './.c.<.c.*XY.<.-.3.f.c.<.-.y.n 2 O O   2 s Q -.O.M.y.,Xo.) j.D. XY.<.I.4XC.[.M.[.0.;X9XtX[.,X9X XI./.I.,Xj.D.I.s.y.0.H.H.C.c.-.M.D.<.] <.o.M.<.T Q V < ;     f k ) C.y.) C.c.O.y.H. XT y.Q.f.c.Q.y.8.y./.c./. XhX X+Xy.4X-.I C.j.c.8.f.<.-.8.y.H.-.] o.O.] O.c.M.O.D n q q ; $ O $ V D 0.f.J M.Q 3.c.;X[.<.s O.M.y.o.] [ O.Y.9X9X'.9XY.D.Y.Q.j.Q.c.0.[ &.D.I Q y.Y.T ] <.) Q 0.<.&.<.8.V s <.< ; $ O   2 x ] &.I.s.<.n &.I M.n -.] I -.I j.) 8.s.<.I.+X[.;Xj.Q.x ) '.M.T ) 8.<.<.3.-.s.I O.[ ) Q -.Q f <.o.J s D s   $   ; s &.r ) o.I Q I f.T o.3.n s D ) 8.<.&.n ) 4XD.[.[.c.O.-.T H.O.<.<.T ] T H.[ [ f &.O.&.Q -.y.D T T s f ) s 9 <       2 k f 9 c.9 9 k D n ] Q D f n V V q I s.H.Y.Q.M.C.f.<.O.s.3.-.8.n D ) o.V I ] -.) f x ) Q x V J 9 r V V f $ O     q D ] k Q k r x x 9 Q Q f J J s n V s y.s.H.[.'.f.3.O.0.-.s.n [ 8.I n n Q <.s T I ) s V Q I D f f s D r q ;       < k 2 r 9 f f n f s k s q n k r q s D -.Y.D.+XC.] J I n -.O.I k k D Q T T k s ) f J D s q k r 9 V 9 q q < O   O ; s D s f 2 r f 9 s q 2 r 9 n r < D n H.c.j.Q.H.) ] n &.O.f Q [ D I x k V k V J n x x D ) T x x V V x s 9 $   O ; 9 9 f s 2 r n n n q 2 q ",
") Q.Y.*XH.I.y.&.s.M.Q.M.C.&.s.0.[ x <     O r 8.J <.Q.) '.8.j.D.+XY.;X/.-.4XD.H.[.'.+X/.Y. X4X X;XsX XI.hXeX8.o.[.[.*X&.] Q.,XI.-.y.y.'.'.I V /.Y.y.3.j.I r ;       ; -.f.j.Y.Y.'.H.'.Q.o.D.D.o./.j.Q.+X&.*Xf.y.tXtX*X*X[.C.D./.y.D.f.I.c.8.M. Xs.) c.C.8./.c.[ 8.3.J 8.M.V Q ] f <   O O x O.y.[ -.f.M. X Xo. XO.I.'./.[ D I.I.c.4X X+X,XeXY. X X&.Q.H.-.&.c.O.c.0.-.) D. XC.o.) c.3.T o.) y.D k 2 q r $     r [ -.c.o.y.] f.f.c.j.Q V 3.H.-.&.Q /.3.Y. XM. XQ.M./.H.j.j.Q.0.0.O.O.C.) D ] +X-.O.] 0.<.3.] ] 8.Q n V O.2 r   O O O f Q s.[.[ x [ c.<.o.o.[ ) &.o.r C.) Q y.<.Y.,X*X*XC.&.-.O.M.8.o.&.o.y.f.O.[ ] o.0.&.J I ] x s 8.<.k s [ x 9 ;   O $ 0.r -.-.) T J s.I 8.J J J f 8.s.3.&.2 I +XM.;X*XH.O.V k c.0.3.r J O.) s.k o.J C.0.] T Q [ [ ] Q k n k 9 9 < O   O 9 9 f q ) n q f x 3.J D n f J I V 9 ) f.y.I. Xj.+X8.O.-.0.) I 8.Q J O.D x O.J -.O.f s &.V k J ) < f J V s 2       < V J 2 k r s r q D y.D x D o.k k x x 0.y.H.*X[.0.o.O.c.] O.T I I J x x ] ] f J Q T n n D Q n k f x V q 9 ; O     ; f q q q f r n s f f k 2 n s k s q x y.H.I.;XD.o.O.n T [ &.x I x x T T n n 9 I x 9 n V n n r 9 n q q 9 < $   O $ 9 r 2 q $ r x 9 f s V s r ] n r k r D.M.c.'.'.I ) I Q ) ] J D I I x D D n n J V n s V Q I n k V V k q 2 $   O ; 2 2 s f q q f x ) q $ 9 ",
"0.Q.O.I.0.<.s.'.j.H.D.o.Q.f.f.3.-.Q k $     ; ] s Q Y.T j.3.Y. Xc.'.+XQ.I.'.M.C.M.c.nX'.'.,X*X4X;X'.;X/.M.*XD.y.M.3.,X[.O.y.*X*X<.c.<.M.[.8.-.c.C.3.C.3.Q k q       < O.s.j.C.c.j.H./.4XO.M. X] D.o.+X+Xj.;X/.8.tX4XsX*X9XC. X'.f.8.D.Q.y.-.j.'.c.[ j.j.-.c.s.s.'.c.x ) Y.O.D V x $       x T T j.y.D. X8.4XI.c.3.s.;Xj.J 8.C.C.c.C.4X,XsX+X*X,X'.Q Q.c.j.c.y.y.j.3.&.n <.f.Q.0.D -.M.I 8.9 ) [ ) s s k ;     2 -.O.M.f.8.8.c.s.c.C.Q Q &.8.D.I.D c.Q <.,X9XtX,XD.*XC.<.D.8.3.s.0.f.c.o.0.I j.8.8.D 0./.3.n I 3.] V I T f f     O   V J s.M.D n o.M.J c.D 3.o.x k f 3.s.o.) H.C.;X/.*X3.3.j.Y.0.] Q &.o.j.8.I O.s 8.<.o.] J D T n <.y.2 D ) D s O ;     Q V ) ] o.I T o.] o.x J -.O.J <.O.s x q Q.C.,XM.0.<.Q o.y.y.J n ) T 0.o.k 8.[ H.k c.V O.) <.o.x s D x V 9 < $   $ 9 ; s < k T r J x &.x D r V o.J V s k y.0.H. XD.+X3.-.s.8.Q n [ o.T ) V o.3.J &.[ f T <.D k I Q s n n f r s O   $   n V s n x V x D M.j.x ] f <.f x r D y.f.D.,X X<.J M.<.Q s.T x Q J D k o.J J D ] I V x n [ V n f n k 2 2 ; $ $   ; r 9 q q f r V q x 9 r f J f f k s r 0.c.Y.9XD.[ &.o.D [ D ] D V 2 D V k V f D V k D n s r s k J q 9 2 < $ O     r < 2 r q D T f 9 s D f r J V k n r y.D.D.H.c.Q Q Q V D 3.V k ] ] V I J D k J x J k J I V n k x s r 9 < O     $ $ ; r x s 9 s n V < 2 n ",
"8.y.J /.c.) C.Q.C.M.O.O.c. X0.D &.o.I 9 O     q ) o.D.f.<.8.*X*X3.o.*XQ.I.y.+XI.[.[.Y.H.M.sX9XeX;X/.Y.I.D.Y.-.'.I.&.C.;XC.c.C.Q.Q.Q.0.s.j.c.'.s.O.[ /.-.J Q k <   ; 2 r o.C.I.o.[ I./. X3.Q.'.o.f.y.c.0.H. X;XhXtX,XsX4XeX'.,XY.f.D.<./.j.0.<.8.O.j.Y.s.] ) 3.Y.[.I.] ] H.C.k q ] V $ ; $ k Q s.,X3.0.4Xc.y.H./.H.8.O.<.&.&.C.+Xf.f.4X XtX[.+X;XD.j.3.Q Y.M.0.0.I.f.j.<.8.-./.f.O.Q s.n c.D s 8.D.Q r s 9 O O   V H.Q M.C.-.H.j.O.c.c.&.I Q j.y.-.j.] I.9XY.9X/.C.;Xj.j./.] 3.j.-.C.D.[ M.<.3.Q -.) [ [.s.T n o.M.T I f x q $ $     V J Q o.n 0.o.f.f V O.-.] o.J 2 I.0.J y.j.'.[.9XM.I.y.y.3.H.J J y.[ Q O.3.) x <.Q ] ] n O.M.T O.<.2 T J k r O $     D ] f D D V J T 3.[ ] o.y.[ D V n x D n [.I.9XC.j.c.O.3.<.&.k f.O.k f.-.V &.s.Q V c.o.V &.] <.V 2 V ] D 9 q $   $ 2 < q 2 V q T n s ] x T n D ) D I s s -.s.D.Q.'.D.3.3.-.o.-.Q I -.[ Q J s.T x [ T f 3.3.[ f x x I I f r f k $   O   V < k V q k J x -.T r -.f Q r n f x y.D.D.;X X3.T &.3.) &.O.x f O.O.J Q T J T T Q D x n o.T V s n x q 9 ; $ O   O q 2 r q f s n q V s 9 V n V f f x f 8.s.D.;XC.] ) Q Q k -.Q J V 9 J n D J J x V I J k q s k f s q 2 < < $       s 2 f k r x D s 2 s f f s s D k f k ] M.C.H.0.8.O.V V T [ n T T o.n D V V f V f T T T V x V x s q q q 2 O     $ $ 2 s n x q r V r 9 k I ",
"I.0.I D.f.Q Q.j.s.<.M.D.y.f.<.D O.] Q f ; $ O ; -.D.s.f.D.c.H.,X<.-.j.C.Y. XH.lX XD.I.f.H.hX,XeX4X+XD.C. X;X<.I.Y.M.3.C. XY.s.D.'.I.j.D.0.s.+XD.y.O.s.o.n 8.n <     O q <.Y.D.Q 3.4XtXy.[ H.0.H.) 0.f.'.,X;X'.+X4X4X*XeXQ.*X Xj.j./.&.I.s.) '.o.x Y.[.s.8.) &.0.+XC.o.8.c.f.s [ I k       ; n s.&.j.s.0.+X<.y.j.o.f.,X3.-.I.o.0.c.+XhX[.eX;XI. X0.[ D.C.j.[ O.C.M.0.&.0.3.) y.[ Q.f.8.x o.-.s M.c.[ r q <   O   f c.n M.s.O.D.s.f.s. X8.D Q <.Q.f.J *XD.3. X[.+XH.;Xy.Q.M.[ f.I.3.<.M.T O.c.s.) o.&.o.D.T O.-.o.j.I D k V 2 < $     9 Q J -.I j.o.x <.s.y.8.I D Q 0.0.0.I ) ,X/.*X'.Y.I.M.T y.c.n [ s.o.&.O.0.] J 8.-.] x D I.y.O.[ D 9 D I n J q   O   D T r T [ <.] [ <.) T V ) 0.s I D r -.T ;XC.,X X*XH.[ O.T j.D o.3.[ T y.x y.&.-.k y.O.k T Q 3.I V J k r q k ;   O ; q < k r D [ I n V n ) [ n k T Q q I O.j.D.H.+X0.8.0.-.I O.) J s.<.] k O.r x [ I q ] <.-.s q r ) T r s V f       ; J q n V V [ &.s D D k T n q x V J D 8.C.M.,X+X3.T ] ) f.0.x x T Q O.V [ D [ V J x V V V ] ] V r V k q q ; O O   O 9 < n r f f f r D V s k 9 D x r k k <.j.c.+XI.0.] ] k J ] O.f ) k I n J D I r f I n f k D J k 2 q 2 < < $     O 2 2 D f < < r s x k q f x s I f 9 D T f.M.'.c.M.o.T D V Q I D Q [ x n V n k V x I O.I n V n x 9 s s s q $     $ < q s k x q 2 f r s n V ",
"c.&.y.*X'.3.C.O.8.I.D.&.+Xf.V ] C.&.[ V ; O     f 3.&.O.'.M.j.;X8.y.s.+Xy.Q.I.hXf.0.+Xj.Q.+X XeX9X4X*XC.f.Q.I./.8.Y.Y.H.C.&.C.[.&.I.Q.H.f.j.Q.D./.3.] -.] -.V $ $     x ] y.&.) ;XQ.H.<.3.M.0.+X/.H.H.Q.Y.[.+X'.;XeX*XsXC.,X+Xy.H.+XD.c.&.J +X] f.;X'.0.f.O.o.-.,Xf.T 0.f.8.I 0.I r O   ; 2 D -.8.O.s.f.'.&.y.y.f.'.I.8.0.0.8.f.y.Y.lX XsX4X[.,Xk V  X*XD.[ J ,XC.C.I y.M.<.-.[ D.Q.s.&.Q 8.J O.) Q s q ;     $ V I 3.j.0.c.y.c.] o.C.C.3.[ x M.H.3.H.) ) +X9XM.'. XC.D.o.-.H.H.y.) M.D n H.s.0.Q <.s.<.r y.j.&.I n J o.J q 2 O     s I o.<.O.-.<.D Y.J C.Q I D -.c.0.c.&.) '.'.+XY././.o.&.f.3.) [ ] -.I.T ) O.n s.s.] f n Q.Q -.Q s q T T Q I s       s V x Q Q O.] T <.8.3.o.I [ T Q J ] D ] sXM.'.[.'.y.) <.T /.Q f <.&.s M.&.-.Q ) D k -.[ I o.] x V J $ x 9 n $     ; V ; s f [ J 8.T ; I T ] x x ] ) 9 T <.0.D.Y. X8.y.8.s.T ] T T s.I J f k n Q o.T s n o.O.s 2 x T D r s I r   O   ; n 9 r r V o.&.9 x ) n k ) q V V ) J o.y.s.,X/.O.T <.3.H.&.V Q D o.T k &.k O.x J s V I D J [ n r J s 9 q ;   O   ; 2 < ] x s k q f D n x s 2 k V s r s T j.j. X/.j.&.) ) x ) Q J T V D n n V D k x Q x 9 q f V D x r 9 < < $     $ 2 q I f r 9 s V J k f 9 s q x r k J Q y.f.I.c.8.T [ I s I o.n ] ) V V Q V V J J n -.n n T k x 9 k f r 9 $     $ 2 q 9 q k r < 9 r r k V ",
"j.) C.,X+Xf.c.c.C.'.3.[ D./.D I /.O.) D $   O   V V C.j.D.0.Y.M.j./.c.Y.,Xy././.<./.y.H.j.f.,XtXeX*X[.Y.I.I.j.j.s.j.'./.f.] +XM.O.M.D.[. X3.-.*XC.-.&.C.j.n V $   O   s q 3.y.M.*XH.C.s.O.j.Q.-.Q.Y.'.s.;XQ.M.f.'.*X4X4XM. X*X3.3.;XC.y.-.D.3.O.C.D.C.0.j.[ [ s.[.M.T o.s.H.y.I V 2 2       J [ <.H.Q.C. X[.8.8.3./.I.<.&.f.Y.*X0.[ sX XeXY.,X+XI 8.D./.C.0.3.O.j./.n y.Q.f.Q T 3.M.&.<.) -.<.k D T r q r O     f T H.y. X*X<.+X[ H.3.s.0.3.T C.y.M.0.x <.[.,X[.+XY.*Xy.Q 3.Y.y.&.O.[.D x +X8.y.V f.j.V o.'.O.o.r J ) j.D r 9 O     [ x &.D s.-.) 3.s.s.o.j.8.D [ ] &.D.y.I O.D.[./.4Xc.3.[ &.f.Q <.[ x ) o.c.9 x <.o.Q T ; 8.o.[ V n f 3.D Q < $ <   ; 2 J V x M.f.y.x o.o.o.n V ) I [ [ -.k T ;XM.*X,XY.o.J ] y.j.[ &.Q r D /.s.J r -.] x D ] ) J T ] f Q 9 x ; x       < ) < k f k f.n x Q r J f n o.[ T q x 0.&.D.'.Q.y.y.-.T x ) [ O.y.f ) ) s -.O.) Q I T T Q f q ) V k 9 r T 2   $   $ q r I J k T y.J I n r D y.J f n [ s J 8.f. Xj.) &.C.T y.Q q T D ) J T Q n x Q I I D Q J k [ k r T f q r ;       $ 2 2 <.V r k 2 x V r x f s 9 n n r 9 q 0.s.[.I.8.I Q &.Q D &.Q k V k V f D J Q ) n r r k f f f q s 9 2 2 $     < q 2 x < r q q k Q V ) q 9 r k x q ; x 3.s.c.C.-.Q D Q V s <.) T Q V D [ n V V J s &.r n [ f k q k r 2 ;       $ q q < 2 n x 9 9 x r f D ",
"Q.T D.eXD.<.3.+XC.0.D.y.) /.<.y.y.3.) J ; O   O O ] &.&.H.y.j.c.f.+XQ.'.[ H.+XD.j.c.*XM./.M.;X*X4X XH.3.j.+XH.) y.y.,X;XM.-.I. Xc.Y.) M.*Xs.&.[.8.<.f.f.[ I V 2   $   2 D y.0.M./.y.D.s.[.<.I.M.j.;X;X[.8.4X XM.;X XsX XM.*Xf.C.f.Y.j.3.Q ;X+XT ) C.j.Q. X[ T &.Y.s.&.[ <.3.] [ J q < O   $ f &.H.Y. X0.+X0.M.&.j.*X'.n I.Q f.D.C.)  X X9X;X+X'.8.c.I.s.*XV D '.y.I.] 8. XO.o.T 3.s.3.s.T D Q J o.x x s r   $   f Q Y.8.Y.4Xo.Y.0.y.3.T y.c.s.O.f.s.] [ &.'.9X;X+X+X XQ O.3.c.j.Q y.D.T k C.0.O.J D.8.T y.f.o.<.n O.V o.] s $ O   2 ) D x 8.T o.<.) j.0.<.M.n Q n o.-.-.Q T 8.I.,X XC.+X[ T -.y.n c.<.o.) &.O.n x D V y.0.n s.Q &.8.k I <.2 o.< O $   O f -.<.r <.o.&.J I c.<.k T x O.[ O.D r q ;XD./.,XI.8.o.D j.j.3.Q Q <.) H.] x 2 n C.f.s x O.-.V [ D [ ; q s f O     V ; s D k o.0.2 Q [ ] V D 9 ] I V D r s.n c.H./. X[ H.I D <.0.] 0.q Q &.) 3.r k [ V J x O.x r J ) s J ; n r       2 r n ; I n x f.V k n r V 3.f J < I x V 8.s.H.D.c.8.f.J j.[ ) k &.o.[ ) s D D J I o.I D V Q n k I q q r 9 $     $ ; x s f q J k < k I k q n s s T f k r f ) s.c./.f.&.[ O.n s <.V f x T J f x T Q V s k 9 J n q J r s < ; 2 $   O ; 2 f s k n r 2 x V k k ; 9 Q r J r J k <.3.f.3.-.D &.V k T x x T k ) T V f ] T x f J D x V J n f x q $ O     ; r < 2 2 9 k D k ; x n x s ",
"D.f.s.[.Q.o.C.<.0.c.;Xy.s.D.I.<.y.8.O.J < O     9 f 8.<.I.s.eX'.]  X/.I.-. X/.j.j.c.Q.D. XH.4X[.'.eX,X+XM.'.D.<.c.j.j.+X8.y.Q.+X[.D.3. XC.0.0./.) 3.3.8.J 3.Q < $     n -.M.[ j. XI.H.D./.Q M.f.H. Xy.s.y.9X X/.4X[.*XQ.Q.,XC.D.s./.Y.f.f H.+X0.D M.C.f.+X0.[ <.+XI.c.&.0.3.) n O.s O O ;   r f.I.[.Q.&.Y.H.c.J I.Y.T j. X[ f.-.*XQ c.*X,X'.4XQ.M.8.<.Y.I.) ] Y.M.C.0.-.M.V 8.) <.8.M.0.M.Q o.[ k o.Q 9 q     q V T C.<.Y. X] 8.c.y.] 8.O.0.-.Q.3.I.n -.PX'.,X,X;XI.f.<.&.f.C.) ) C.j.&.f.[ &.<.) y.o.D Q.o.T O.T &.k V D s < O     V x o.[ ] I 3.<.0.f.<.Q I ] x Q [ &.j.f.) 0.[.+X X XM.T &.3.T [ D.<.&.3.n I &.Q k ) 8.-.D J D &.n I o.q ] s <     2 n <.&.x 3.<.o.3.Q /.J Q Q ] ] O.J &.V < D.H.I.'.C.j.-.V 8.3.O.J o.<.[ o.I D k J M.Q -.x &.O.D D V D 9 s k q       r r o.s ) o.[ n I n Q 2 I ) D -.2 x f j.k 8.H.Q.Q.&.I.o.x O.&.) ) D ) O.Q ) V <.n n o.x o.D r V I x J 2 k <     $ q s T $ x n ] C.D q V r J V n I s f f x o.M.M.Q.y.o.o.Q O.&.O.s 0.o.O.[ V I V n J I V n V T x f V 2 r s q ;     O ; q n J 9 J ) D D V q r V s q V V r 9 k Q y.j.H.f.[ [ ] f x ] O.D k V ] Q k k D k r f r n q < V k 2 2 < $     O ; r 9 f s q q k s J n k 9 q T n Q V x f <.Q 3.j.s.[ ) V I J k D I s o.&.D s ) o.I f J I V D D x k n r ; O     $ 9 r q 2 2 s D n q 2 s x f ",
"j.M.Y.I.I.&.H.f.o.Q.;Xc.-.o.I.f.3.8.-.V 2   O   $ Q 3.s.[.D.I. XQ.I.H.+X9X[.f.Q.c.Q.3.y.4X[.4X+X+X;XQ.+XI.Y.H.&./.Y.M.s.f.C.D.D.M.8.f.,X-.M.Q.C.) y.s.0.I 0.) $ O     Q 3.I.O.+XM.H.[.f.0.T M.'.[ C.+X<.*X[.hX8.4X4X9X[.;X+XQ.[.j.j.M.j.k H.,Xc.<.C.c.[ Y.f.] 3.j.C.f.<.3.Q s [ T k $   $ r J M.Y.Q.j.[ &.4XQ.c.-.3.3./.+XC.Q j.H.3.c. X4X X,Xj.f./.<.D.8.3.[ M.[ D.c.I &.O.D.[ -.y.D.] C.3.O.I Q 3.n O ; O   f Q n 8.C.*XC.[ c.Y.[ -.,Xo.M.] 0.f.&.O.O.eX4X*X+X/.[.[ <.c.Y.3.D &.y.s.-.I.c.I J y.0.] T H.Q O.) 3.y.V n n s <     9 J <.-.O.o.o.C.<.Q <.-.J &.y.[ J <.Q s.3.[ j.Q.*X+XI.C.T <.f.) -.0.O.] k I J c.<.V x j.M.D ) ] s.T V D k D 9     $ T ) <.T r o.O.V Q &.&.J I -.&.f O.o.o.q s [ M.M.Q.D.M.y.o.[ ] -.) O.[ o.I O.J k Q f.I j.x T T D s V f f x r ;     < x I y.q D ) [ D s n I f T o.<.D f ) T j.q I s.'.[.y.<.<.V T -.) D o.[ J 8.] f 3.f Q [ f ) T q f n x f s f O   O ; r f ) s Q k J -.V s Q Q J J k ] q f f x O.C.f.I.s.&.f.0.[ 0.I o.V Q ] T I I D x I x V V J Q n s x 9 r s q $     $ < s V T k T T J ) I 9 s n s q s x V k n k [ -.8.y.<.O.T k T f <.I f q J [ n n J r I n V V q q n n 2 s 9       O 2 r $ x r < r Q q n k q r 2 x x n s k x <.[ <.8.8.o.n D &.T f V f n T ) k f J Q k f D I J J n k k k 9 O       $ 2 s r 9 2 r n x q 9 f n x ",
"&.j.,X+XQ.&.c. XI.Q.I.D.D.-.D.f.[ <.<.k 9   O   2 n -.Y.c.I./.'.C.I.H.I.c.H.-.D.M.*XI [ eX,X;X9X XQ./.*X Xy./.j.[.0.H.s.f.H.I.+Xf.3.j.;Xs.f.H.o.<.y.D.0.O.T V ;   O < ] 0.'.8.eXs.s.eX<.s.D.H. X-.0.Y.Y.+XM.tXI.'.4X4XI.+XD.H.H.D.o.y.C.-.Q.*X0.&.y.H.j.H.f.V o.C.8.3.Y.&.k 9 s.n 2 $     n o.y.3.0.j.j.D +XC.Y.Q.2 C.I.y.Q.s.M.[ c.D.Q.eX XD.j.I.Q.0.M.[ j.C.&.T [.y.V o.c.8.O.j.y.3.) O.y.) D 3.T 2 <   O O f f o.c.D.C.I.M.D.I.<.D.O.C.y.o.0.Q.I M.<.&.,X X*XY.;X<.<.H.[.O.Q ) 3.c.Y.o.M.V I 0.j.&.O.3.-.C.D Q T s k V s <     s [ y.Q o.Q [ Y.o.I O.[ &.<.j.-.s s.] 0.J 3.<.D. XQ.H.3.T &.0.-.-.f.) T o.3.f.o.o.) x j.3.&.J o.8.n q k ) V 2 $   ; V x ] J x q D &.-.D y.) Y.Q c.V f &.-.k 2 r -.s.C.D.-.3.8.&.J -.o.) [ [ T M.x s x j.[ 0.k k J J x J s f f 2 $     s Q ) Q D x k J T q D I V x x 3.2 V [ ) x 2 ] y.C.I.D.<.O.[ x <.) I &.o.r y.[ q I k <.O.r J Q q f k n 2 x r     ; < s s x J 8.n x I V k O.) s I D o.2 f x x 0.0.3.8.M.f.f.] -.D y.O.D D n k I T J n ) f D D I T x s k s r q <     O 2 9 2 f D s x r k J O.f f f f x q q k q f 9 Q -.-.f.j.O.J I [ r [ I f r n I V J J f I r x f r x f q 2 f 2   O O ; k 9 < J r s x O.f k k r J s s x r 2 J r f I ] T <.[ n I O.J k V x ) J Q n V n J r s n n V V k r s q ;       $ < 9 q q q q k n f 2 r r r s ",
"] D.I.9X+X3.c.C.c.8.Q.s./.D <.3.Q -.-.s 2   O   9 x c.'.'.D.H.j.;Xc.,X[ *XH.;XM.f.Y.[ 8.+X*X,XtX'.C.D.*X/.3./.H.+X0.8.+X-.f.D.4XH.f.8.Q. X0.C.o.0.3.s.&.o.k f < O O 9 o.C.'.8.Q.H.8.'.<.*X+Xs.[ f.D.j.f.[.H.9X+XH.+X Xc.*XI.Y.s./.[ M.Q.D.M.D.-.] 0.H.Y.<.s.[ y.C.k o.[.8.V Q f.Q     <   s ) [ -./.;XI.J y.[.-.[.) <.H.M.o.j.s.o.8.M.[.4X'.s.Y.Q.Q.[ ] /./.c.0.o.s.&.O.3.c.O.c.I.) I 0.Q O.Q 8.D x r k O   O x T O.8.'.j.f.f.'.0.s.s.3.3.O.C.<.f.s.o.O.<.s.Q.;X*XY.H.8.y./.8.) [ D.O.[.Q &.] O.T D.0.o.3.y.C.n J k r V J 9     $ 9 y.Q T [ ) n D.0.o.8.Q O.&.-.0.k [ Q 8.J &.V s.D.Y.Q.<.T O.J &.y.-.-.] ) [ ] I T 0.[ -.-.3.s ] I q x D Q 9 $     ; s f o.T V 9 ] [ o.I &.c.-.x 8.J x ] 8.) q f O.M.c.I.-.s.0.0.I &.) V s.[ x 8.D n 9 c.) -.f f ] J T J k q q < O   < n I V 2 O.<.x 2 ] f x Q n s V n ] f ) [ n k &.y.f.y.j.Q ] 8.x ] [ I [ ] f ] I J n k O.f.s V I q f V J 9 s <     < 9 k f r x O.T [ ) V f Q f 9 q [ Q k q k k -.[ Q [ j.C.) [ Q D C.J Q s x k Q ) Q D ] f V n D V f s f x r 2 O     < q q 9 ) &.x x J [ T [ n x 9 r V r 9 r 9 k r [ &.[ -.y.o.T ) ) T Q I k ) T x k x k D x < x k f D s 9 < 9     ; $ 9 T q n Q q V n ) V f k r Q k q k r 2 T x r I O.T O.O.) I n k n I [ V J O.J x k I f r f s s k s 9 9 < O     $ 2 q r 9 r s f x n s < 9 s k x ",
"c.C.0.M.Q.Q.C.8.3.c.4XI.j.D &.I.Q <.o.r <     O r -.M.'.+XQ.-.s.sXM.3.I.'. XI.'.y.<.H.[.C./.9X4X*XI.y.'.3.j.Q.Q.M.,XO.c.Q.D.y.8.Y.Y.j.3.Q.j./.&.f.y.O.] J V q ; $   f o.H.y.0.I.+XD.8.M.eX8.&.J s.eX*XO. XI.+XQ.c.'.;XI.;XQ.'.C.Q.o.j.C.I.c.y.&.8.H.<.0.I I.H.M.T f &.0.D.I ) j.Q   O $   V &.T /. XI. X'.f  Xs.f.4X[ 8.Q.] -.s.y.-.D.eX[.,X'.H.'.f.0.[ D.'./.O.J x s.c.3.y.8.f.8.n Q y.I I -.c.k I s ; O   O n ] f.y.c.8.H.I.I.I +XJ D.Q.] &.D O.Y.) V 8.3.+X[.;XI./.O.8.D.O.O.<.'.&.) ) 8.O.-.) /.0.n j.<.-.T -.J V J V       2 f M.O.V &.) Q Y.I.[ -.T [ j.) -.o.D ) s.[ V k <.0.H.C.y.] y.n y.'.Q M.s.n ) V s.-.f.&.V j.] x J q f <.[ f   O     k V ) 0.&.I f.-.M.f T s.I.o.k k f &.V <.o.k V [ D.f.C.c.I.0.3.-.s.) s c.<.r r 0.V O.&.[ [ n s ] k I x k q 9 ;     V J V x r <.j.8.f r r T T I q ) f [ q O.O.-.V Q -.j.3.8.J -.s.] n -.D ] ] n I I o.n k T 0.f V n 2 s V D r ;     $ 2 r D x n k n I o.J k n s n V n D D x k s k D T D &.-.s.[ s.] O.[ Q f T T T ) o.) D T f x k V x k f s D r <     $ q r 9 2 n J s r r J k V V n 9 9 k f s k r f q D J J J o.O.[ Q n <.T V D O.J q n V f V f r T J s k q 2 9 ;     ; $ 2 V s J J 2 V k x V s f q T k 9 s x 9 s I J D &.O.I Q [ I r f D D [ s V ] V s I [ q s k s r k f q 2 O     O ; 2 9 q q q r r f k r 2 < k T Q ",
"'.H.j.-.f.H.I.j.0.C.s.D.3.<.] 0.T -.Q r ; O   ; T &.8.'.8.+XD.Q.Q.*XY.H.I.Y./.*XM.O.*X[.j./.+X9X4X9X X*X) D.'.[.) sXs.] ,X;X3.o.+XI.+X0.8.c.Y.) s.s.3.o.T k < O     Q o.I.o.H.I.4X;X-. X[.I 3.Y.'.,X'./.y.&.0.eXj.I.9X X XC.I.Y.D.<.<.3.C.Q.8.8.8. X) 3.8.[.Y.3.I &.j.8.j.I x -.s $ $   9 8.j.&.) *X/.3.*Xj. XO.Q./.Q o.3.s.Y.-.C.s.C.tXD.;XtXI.C.C.I.o.0.Q.j.[ ] I Q.I.Q 8.o.[ ) ] &.&.J Q 0.-.] D <     $ q n C.3.<.D.Q.s.c.,X0.3.[ 0./.k y.s O.D.3.I o.H. XY.Y.I.Y.<.y.8.) s.O.Y.H.f Q s.8.3.O.C.o.V 0.<.) T O.x k r q     ; 9 k 0.j.V o.] <.Q.c.O.I T o.I.] D ] &.-.H.-.r 9 O.0.y.y.s.0.c.) <.<.Q Q <.[ V O.f.s.Q D V y.k I f 2 J 0.Q 2 O < 2 < o.D D [ 8.f.D y.] n O Q M.M.q k J Q k <.) 9 n x s.f.o.f.c.3.&.0.s.[ k -.s.k 9 y.D D.) &.V I f ] r n s r 9 <       ) T T J V 3.[ 0.T $ k o.n n 9 J k r s ] T k r Q ) -.) 8.y.y.3.<.J &.J Q [ V [ T T I k V [ k D k q r n s 2       < 9 k Q J Q Q f k V V n J r I T O.s k f V s x x V D o.I [ <.-.y.I o.[ D 8.) ) J ] T D V x k s V n n k 9 k < O     2 s s 9 x k f x V s D x x J x s s s f s r < ; ; r f ) Q T [ ] Q f O.I n I T x f I I k f f s D x < ; ;   2 $   O ; < 2 9 r n k s T D k V n D n ] I f s I s $ s 9 $ n ] ] D I I f n I k x n n J J k ] o.r r x k r f f 9 ;     O $ < 9 q q r r r s f k s q < s V V ",
"C.4XH.C.f.V [.c.j.C.s.I.Q.8.o.[ J O.V q O O   2 V s.H.Q. X;Xy.C.Y.,XH.] ;X X,XI.'.0.+Xs.M.*XH.xX9X9X;X[.8.;X'.o.8. X+XD.<./.] c.+X) +X[.8.j.C.3.-.-.c.<.-.; O $   ; <.O.+X3.*X3.'. XO. Xj.I -.eX/.8.;X+X&.x c. X[.Y.9X9X,XY.H.Q.f.c.3.-.s.*X8.j.<.4XT -.c.M.H.c.&.I -.D.D ] Q V 9     O ) M.c.M.<.Y.c.o.+X,X-.[.&.y.-.C.H.O.M.o./.C.-.+Xf.c.;X4X/.-.M.c.O.H.0.Q s.-.c.D.D y.J f.8.f.O.3.] o.&.) &.O O ; O $ I V [.8.f.C.+X<.f.9X[ D o.f.3.-.] <.D y.Q -.] c.<.f.C.s.Q.Y.&.Q <.C.s.M.&.) y.c.'.Q I ) D 3.O.M.[ s 8.I V 9 <   O ; D s -.c.y.o.y.y.f.[ C.D T [ s.] o.k 8.D f.] V q o.C.-.f.y.D.8.) <.C.[ D y.O.O.-.Q c.r k s.&.r T J J O.o.9   $     q c.] x r o.c.J &.T q k ] -.0.D n I V 3.I < x Q k f.Q.D <.<.y.<.<.Q Q Q Q M.k ) x ) 8.8.] s J J &.x n f 9 <     $ O ) I o.T r 8.f s f J &.T r ; n I r I I V V f k ) x Q J [ ) y.[ &.o.] ) J [ n [ k n O.r x [ x Q V x f n ; O   O ; q q x [ Q ) &.f r n O.] D D 9 x I T 9 k f s n J r I V f D ] y.] &.&.) J T T T s I D V x D s r n n x s   2       $ q k f q f x f s J Q &.n I Q f x V r s 2 s q 9 q r 9 Q V V J J Q x I I Q D n D T J x s r x s f s < 9 r ; O     O < s s < q r f T &.o.I I x D V [ T f ; n q 2 s q s x n &.Q V J x x I k r n r k ) q s x f < k k 9 9 9 $     O < 2 q s f f f k x n D V x f n x s q ",
"/.4Xj.8. Xo.*XC.D.D.-.c.Q.&.] f.Q Q x <       [ &.s.H.*X*X[.3.s.+Xs.D.y.4X+X*XQ.M.3.c.H.'.D./.*XhX,XlXI.'.H. X) j.f.,X4X<.3.o.[.y.8.C. XD.0.j.I.s.D s.y.x s O   $ r ] -.Q.Y.[.3.*X,Xc.;X3.J 0.sX*X<.0.sX0.D j.H. X&.H.+X9Xc.+Xf.H.D.[ <.I.y.Y.M.-.c.8.I.3.D.<.&.0.c.<.D T O.T q ;     k <.s.'.f.0.j.;Xf.[ eXf.*Xs.'.) q <.H.c.<.I.[ 3. X8.<.H.9X+X8.C.s.y.M.s.Q f.-.j.0.D.T V c.C.) s.[ <.J s.J n O ;   < 9 [ x D.f.] I.8.] 9X3.] Q '.s.8.o.D f.[ -.r <.) 3.8.[ f.y.Q.'.[ O.M./.y.o.-.[ &.f.Q.D J I &.-.0.) ; ] &.Q 9 ; $   < f I ) j.y.] 8.D.s.s O.3.I [ s.-.I V s C.D x s.r V T 8.-.-.s.j.] y.y.Q I [ D.&.<.&.T 3.s T 3.o.2 T D T V s ;     O q I '.] s x J c.D n o.Q T M.D f.O.< k ) k k 0.o.T f f.o.V ) <.8.0.j.3.] T -.f.) ) D n o.n J Q 9 D V J r $ < O   O < f x 0.[ r D T -.] r O.Q Q f q x 3.I T f s q n q J s O.q O.J O.&.) O.T O.k n ] O.J s &.Q k I r r J T q s O     q 2 ] [ $ o.O.O.o.r Q ] n 9 f r x s I s V r k r k k q k s s o.D ] ] &.J -.D D O.f D Q s J V f q n f k Q 2 ;   $     2 9 r k n I x I Q I T D J x Q O.D V J 9 2 O 9 x f 2 r n V x k J x D k D J x f x n k s q ; r s s q 9 9 2 ;   ; $ s r [ s < k V ] 0.o.Q k r f 9 r s 9 r f 9 V 9 < 9 2 < s V f k D k V f k r f r T I k 9 2 I q f r < ; O     O < r f r < r T x k I ] D f f s f r 9 2 ",
"8.4X/.Q j.-.tXs.j.s.3.j.j.o.c.c.&.] 9 $     O ] 0.<.D.;X*X+X<.;XY.s.*XQ.'.D.y.H.[ 8.lXD.0.Y.3.Q.9XxX;X XY.C.*X<.[ [.'./.[.I.I c.f.I.0.0.Q.8.H.O.] T ] [ I <       n O.c.c.[. Xj.hX X'.D.Y.3.I s.Y.j.c.;Xc.8.D.3.[.f.) ;X XY.Y.<.'.I.c.I  Xc.o.*Xf.o.s.I.-.8.M.T ) Y.C.V f Q n       ; [ Y.O.[.I.[ D.nXC.) s. Xs.[.;Xf.Q I o.f.M.&./.T H.J -.Q. X;XC.3.y.f.C.f.O.c.] s.f.H.Q I Q.c.I 3.J &.) [ x q     9 n [ 3.-.0.Q.<.f.&.j.f.I.T O.Q.H.[ f.q O.-.3.o.3.x ) ) [ 8.&.8.I.<.I.c.D.) ) c.o.0.D.s.x &.<.f M.s.9 0.8.T s   O   $ r &.n o.C.I.f 8.C.y.J 3.[.n T V ] V Q &.M.T O.D.n q q [ 3.&.O.O.] M.o.V j.f.y.&.0.O.V 3.f [ &.T k T x n s 2       9 o.j.D f.[ Q f.j.D D 0.3.] s.I O.<.s s o.J < O.) n V f r T s.I Q y.8.) I I -.&.n k ] n J q O.] k k k D f O     O q f I V ] V k O.T J 0.J n O r < $ ; x q r r 9 q -.) D r I k T k D o.[ [ D Q V T O.[ D < I k k V f q n I q 9     2 $ 9 n 3.< s n j.) x D s q s < ; 9 ; r ; r 9 s r q ; ; f J x [ -.x x o.<.[ n T J ) I x V o.x x r x r r k $       $ q r 2 r I [ y.T n x s s r 2 s r s < ; q r s 9 s x f 2 9 s r f f x k n k x k r f V n q 9 s x r s r 2 < ; $   < q 2   f 8.O.k ] I x V s k f f 9 9 r r < < 2 2 s < 2 q 2 2 q s n V n V k k f f q s Q f f r r s 2 9 < $ $ O   $ O < q s s q x [ I n k k r 9 9 9 2 < ; ; ",
"O.eXQ.D.<.+X9XC.j.y.Q -.M.s.H.o.) D       O s 3.f.C.Y./.Y.*Xj.H./.'.H.+XM.Y.0.f.y.c.'.o.-.M.y.Y.;XeX4X,XM.[.c.M.) C.Q.Y./.H.-.D f.<.;XQ.f.] 8.D.y.-.] T r O <   J Q 3.[.C.c.C.c.D.*X,XY.'. Xf.+X&.j.j.8.&.8.I.-.C.M.T 4X[.'.C.j.+Xy.D.o.C.D.] H.s.-.0.j.f.8.c.O.] I.M.V 9 r 2 O $ O r -.H.;Xo.3.o.[.;Xc./.I.I.3.y. X[.O.q T y.) Y.D.Q 0.D ] tX3.C.M.M.<.&.D.O.<.H.) s.f.C.[ ) H.[ [ V Q j.J Q 2 O   < ) [ 0.o.s.D.[.f.;Xy.n H.8.r D o.0.) /.s V O.D M.) T D T k ] Q Q <.0.[.C.M.) 3.y.f.V /.D [ M.] n D.o.; 3.-.9 q $ O $ r 8.'.) ) 8.[.] D.c.I ] T D.q J k ) V J &.] x Q ) J 3.Q O.8.] ) T T O.o.] [.s.] ) T V T 8.k Q V x ] O.f s $ $     < D &.&.3.M.[ c.o.H.Q q f q O f q 9 s ; O Q I $ ) V T o.D f r I V x V Q o.3.O.3.[ o.D ] J V D &.Q [ f 2 r 2     O 9 x D [ J k q ) /.I.n f < s f r 9 2 $ O $ $ 2 < q k ) I D D x r < s Q ) T D D T Q V V Q n ) V V r D 9 9 r $ O   2 < V ) ; k n I s.O.n V x s x x 2 9 q 2 2 ; < < 2 < q $ < 2 V r J D r J n Q k k n J Q D J ) ) q n q r < 9 ;   O O 2 2 q s x I ] ) Q J I n < < x 9 2 < 2 s 9 ; < O $ $ < ; ; f I T q s r f f V k r s s f s q r f n q q 2 $ O $ $ $ ] k V f Q n x f k V n J x V s q 2 r r q 9 < $ ; < $ < 9 2 2 9 2 k x f J k x r k r r J < s 9 r < ; $ O O ; $ ; r s 9 < r D J V D n x s r f s q 9 2 2 2 2 ",
"&.y.f.I.M.M.j.<.<.Y.[ 0.Q.f.3.T f 9       k ) D.y. X X XY.'.sXc.[.;XI.Y.Q.) +X+XD.f.M.Q /. X0.<.'. XeX9XD.;XO.D.j.c.[.*X0.[.H.T o.+X/.f.3.O.0.H.D.&.J n     2 2 &.0./.C.Q.Y.*X-.C.xX*XC.M.3.f.o.8./.M.] f.M.Q.H./.0.x <.+X+X/./.y.H.<.f.'./.D &.Q./.s.c.c.-.] Q [ j.3.x q <   $ $ T 8.3.;X XC.3.-.Y.*XsX[  X[ [ x s.Y.&.V 3.s.r 3.o.0.V f k I.&.3.D.j.H.s.3.s.<.f.-.&.s.j.) 3.&.T 3.n &.M.s r       x 0.f.C.) s.[.3.[.M. X;X[ M.T J f s f 3.D V O.n o.J < Q Q J -.8.O.Q 0.3.f.8.[ O.y.8.s <.I s.M.k -.j.D r f k O     9 ] n M.f.] n o. XY./.C.] ) 9 V ; 2 r < ; s s < s ) n q V 8.[ [ n J I T D T O.s.I [ [ I ) T -.] <.D n T V 9 ;   $ ; 9 x &.f.-.] &.) n x T J f k x f s r O ; ; O 2 r   r O [ ) x 2 x x ] D 0.Q n J I O.V Q T f J r T n k V s O O     9 r f k I ) V Q 8.-.n I I k D f r $ J V r 9 2 < $ $ 2   x f f f s < s f D D n T V I V r q x f s f x 9 x <   O     $ r r T T f s 3.n V n I T V T O.n J J D V f r 2 ; O O 9 $ 9 2 I 2 q q V -.n x s n x k 9 q J x f ; < < < O 2   ; 2 q n 9 2 x T [ Q x n D I x k T &.q V I s f k 2 2 ; < $ O O $ r V V 2 s q f s J x f s r 2 2 q q 9 q 9 2 $     ; q f x $ 2 ; O.8.o.s f J V D x J n n s k s s x r ; < $ O $ < ; 2 9 < 9 q f I D n s k s 9 r < 9 $ ; $ ; $ O < q 2 9 x f s r x ) ) V k k V x k V n k n f f f f ",
"D.y.C.+X'.f.3.s.y./.o.D.'.c.) x r O ; O $ O.0.Q.D.C. XeX'.8.eXM.M./.<.eXY.<.D. XI.f.I.x 3.,XI O.Y.*X+XeX*X'.y.M.'.s.eX[ [.H.[.s.3.I.Y.<.n [ C.c.3.J 9 < 2   ; 8.D.3.I.M.*Xs.'.s.<.H.+XM.*X) tXc.0.C.[ D Y.c.-.0.3.3.V ) *Xy.I.I.Q./.o.D.D.f.o.y.j.f.<.j.M.3.y.-.J 3.o.r < <     Q 3.'.f.4XD.I.I.s.s.hXM.D.eXQ.3.D J ) ] O.0.3.o.J D s.O.2 s./.] s.J y.M.f.y.0.s.] 0.I M.s.f j.Q 0.O.o.T T ;   $ r k O.y.H.H.] -.H.4XH.f.&.0.f r f V q 2 9 < s r D r o.x k k <.J I M.3.3.C.] -.I J [ j.j.k o.y.j.[ J o.&.n 9 9   $ $ n c.j.I &.s.O.&.O.s.[ f s n J f x x $ k ; 9 $ O < 9 f n q < I x D 9 r n ] [ D Q J x o.[ ] [ ) ) O.[ f f q <     O q V n Q 8.<.y.-.'.Q.s J f n <.[ k k n Q J n s 9   O O O O $ Q D s D O x -.D.Q s f f J r x k ; V ; s 9 q O <   ; ; q J V f j.J s [ o.D n I D ] n &.&.I V k Q V J k x   ; ; O < < 2 n f < s x x V x Q k k f s r q r O 9 9 $ ; ; O $ 9 2 9 2 D x V <.f V x o.[ 3.O.Q I <.J [ [ ] Q V x s q ; ; $   < s O.f < k s I T I x r x f k q r ; r 9 $ $ ; $ 9 O q q s k q f I I J I I V [ 0.T r q [ ) x o.x f I x s s 2 ; ; ; ; 2 9 ; < r 9 s 9 n x x q f s q q 2 ; 9 2 < ; $ ; 2 s x r s J n V J D I ) [ n x n I x x f V n n V f 9 s q ; $ O   ; 9 2 2 < f V I k k x x V k D f s 2 9 2 2 < q f q q k < n T I I J J I I ) J f f f n ] x x k f ",
"c.C.j./.f.C.y.Y.I.s.T C.C.f.T 2 9   O 2 k f.D.I.4X<.Y.+X'.y.D.<.[.Q.M.f.j././.'.f.C.M.s.y. Xn <.[.Q. X'.;X XM./.Y.M.0.[ y.4Xy.H.M.s.f.k c.Q.-.<.I q <     f &.Q.H././.0.f.D.9X[.f.-.Y.C.H.D Q.'.I.s ] c.o.3.Y.) k H.[ 8.H.n M.H.eXy.f.[.f.Q 3.D.y.c.8.<.Y.o.3.O.I I x <     2 n I.o.'.Q.[.j.0.eX<.H.c.o.J ) s n x < ; r D V V O.9 O.J T -.M.O.D &.[ o.<.[ Q Y.<.3.D H.c.&.[ x 0.<.T x 2 O   s D x O.C.3.f.c.0.0.n Y.) V J x k T r D 2 x f $ ;     < 9 ) k ) ] s Q D.D ] ] I [ [ x o.<.y.2 [ s.] f n x s < $ $   O s 0.C.D [ D 0.3.j.I ] D J ) 8.o.<.&.O.V [ J D x 2 9     $ q J V x V 9 2 x Q ] V f s D V f n r J f n 2   <   <   $ n J O.n Q O.-.<.0.&.I [ I o.T /.M.[ [ y.8.I ] n J 9 s 2   < ; x n [ x 2 s J ) 9 9 r 9 9 9 9 r $ q r ; < 2 2   O r s n ) D q D 3.s.8.J I [ ] ] -.8.y.Q f c.O.) I ) J ) < r < O   2 < x q 2 f f f T x D s q k s s 9 s q r < ; ; 9 2 2 k s k r k $ D M.0.] -.<.3.O.&.&.J o.[ Q [ [ I D n D n k 9 $   O ; I s 2 q ; 9 J D V 2 s [ O.r 9 q 9 ; f < 2 q q 9 s 9 q s r V Q I J ] &.O.I o.V V r k V s ] V k ) I f x q ; $ O   $ 2 2 ; 2 2 q 2 q r k k V f f V x q r 2 2 q r q 9 9 q r < s Q Q Q V [ O.o.n D ) [ k r q x J J x q s J x 9 ; $     ; ; 2 ; r q x 9 s s k ) D ) x I k 9 r r q s k r 2 r r T [ T I I I T T Q T D k s D O.x x k s ",
"j.M.C.j.I.M.I. Xc.O.o.3.-.J s q O   ; o.-.M.[.H.4Xj.H.[.eX*XM.-.Q c.[.H.O.[.3.<.H.Y.<.s.y.j.&.H.Q.8.Y.s.Q.+XD.,X+XH.y.-.y.*Xc.j.Q Y./.] 3.f.C.f r   ; 9   J Y.C././.C.'./.D.[.xX0.n f V f s 9 V T V k V T [ ] -.o.Q.I I -.[ M. X3.s.j./.+X) V C.o.f.O.&.H.[ -.o.I 9 $ ; O 9 ] s.M.-. X+X,XJ [.;X8.D k T f n I 9 s 9 f 2 $ < ; r f J 8.-.O.V s.Q y.s.j.O.J [ 0.&.[ -.o.f.O.r T Q k k O < ; 9 Q.) k y.D.o.<.Q.+XD.O.D I T &.3.f.<.M.0.I D J D s 9 q     O s f Q s f 3.I <.[ Q r s T D T r s r [ < r < q $ O 2 ; s ] O.0.0.) f.0.O.s.s.J ) ] ] -.<.M.H.-.s.] ] n V 0.Q r 2 9 O   O V D V s r D n V J s s x x k r s 9 q q < q 2   ; 9 f <.) 3.f Q &.0.s.O.o.[ C.O.n j.Y.O.D n y.0.) <.&.<.I V <   O     J -.  $ ) [ s.x r s V V [ q q f 2 q ; O q T x 9 r r n Q D s -.c.-.[ Q 0.C.f.T O.<.s.x x s.&.) Q T Q o.x n 9 9 $ 2     O q J q f ) s s n q n k s ;   x r q n s k q r J s n x k I 8.O.T ] f.c.-.T [ O.&.) &.J ) [ D I n ) D n n s q $   $ $ 2 2 2 r x x J f f o.Q < s r ; 2 D q s x q x x 9 r f x T ] [ -.<.O.J n <.n I f 9 V Q I V s f n x J n s 9 ;     $ $ ; $ 2 9 q < q k V D r r J J s s 9 q s k s 9 2 2 q I o.) D o.] ] o.o.x x I ) J ] 9 r n D f q x I V 9 < < $   O $ ; ; 2 2 2 2 2 2 r n q x r f r ; s f s s k s q q J [ [ Q ] o.Q V n n I ] I x D ) f k k f ",
"C.D.&.'.Y.Q.0.Q.c.&.) k 8.n   ;   q x [.Y.j.*XD. X,XY.tXlXY.-.O.s 9 n O 2 9 r s ) [ s.J O.<.D [ y.-.&.<.D.M.[.+X,X XH.O.C.C.M.8.-.I.Y.Q Q 0.x r < $ ; <.0.[ D.Y.C.Q.Q.,X;X8.T [ V J V k k f 9 k q 2 O < 2 I n s I 3.&.D [ j.<.*Xo.f.] j.0.Q <.H.s.0.O.M.Q V ] < 2 O $ ; r -.I.M.'.0.'.'.M.y.8.V J &.-.<.] 0.0.M.[ Q -.T 9 q 2 < $   <.n 2 k Y.T /.D.o.y.&.V n V V D V V k k f s 2 ; s f f O.9XV 8.'.C.) 8.tXeX-.T s.f.<.y./.o.H.s.&.y.] 8.-.D k k 9 9 O O O r s f I V x V Q J 8.0.Q q n J I n r r < < x x f Q &.<.8.y.H.c.k s.[ ) ] 0.j.c.n 0.y.c.D.I Y.O.) x 3.O.M.[ f f ;   $   q f f r J n I y.&.Q k Q ) 9 ) V T r 9 x 2 2 f s V f.Q 3.r -.f.o.I ] y.f.f.O.8.0.O.J &.I <.-.o.o.y.8.J k r D k q   $ O O q [ I V ; f x k 9 ] ; f 8.) ; r r ] 3.s.V < < k ) T V 0.I.3.&.-.H.D.-.o.y.I 3.s &.) -.] ) n T ] T D 9 r ; 2     q < < 9 s ) < 2 ) f V f k x 9 s.D f n f x f V [ r f f T &.-.[ <.+Xc.O.0.&.[ J c.J ] I T ] D Q x ) x s o.D x <       O s ; 2 q x D f f D f r I r D -.Q q f D r T J r f s I -.-.<.s.0.] [ Q 8.9 Q o.s s Q q J I f k s r q 9 s f 2 $ O   ;   2 9 f < r x r n s 2 s q < k q q s f s q q r f.o.T T O.8.&.&.V ) D D V D D 3.r ; q x f f V V x 2 < q 2 O   O O 9 2 r < r 2 2 V s O r f 2 s f q f s r k x s s n o.-.[ O.-.[ J n r V [ I x x V r s k n ",
"'.o.0.+X/.H.C.&.f.<.0.Q s   2 O < k f./.4X+Xs.+XsXeX'.&.[ x k V n n x 2 r s O 2 ; O n f 0.*Xo.O.f.O.o.f.Q. XI.0./.Y.Y.f.0.y.8.D.8.C.<.J I k < ; <   8.H.'.D.D.'.I.I./.j.<.J ) O.f.Y.-.<.O.0.J x I s $   <   k s V $ o.O.3.f.y.s.c.M.j.[ [ D Q ) J V D x s k f ; q n n D [ I.9X[ I.) [.eX[.o.&.3.I.[.C.s.) s.y.H.O.Q '.C.k f x 9 2 $   9 < J ] ] o.k Q sXo.<.O.f.x n k n f k s J q -.) f 0.c.f.M.+X[.-.M.Y.I.o.o.c.Y.C.c.o.f.0.y.s.-.c.O.y.T n I I 2 D 2   O $ ; k k D r n 3.f &.k O.k -.o.<.D r Q f V <.J [ O.H.] 8.Q.] ,Xs.D [ <. X X+XJ y.M.&.0.3.T y.O.&.] &.[ 3.Q J s n r       $ O r J D T 3.r [ r J D f J T 8.q T D k V T V [.k O.0.Q V f.] -.c.I.&.o.Q.Y.8.I [ s.J s.&.J -.) -.x [ I k V f $     O r q q 9 x n Q s s [ f k I q q ) s 8.-.I < 9 2 s o.O.Q D.-.-.c.y.&.0.0.T ) Q ] 8.j.T ) ] J J y.J x ] f s k < ;   $   9 q < x k q k f f V D I 8.D n x ] s 9 J ) s s V r J f.-.0.s.Q.8.3.-.) Q ] T ] x ) ] D 3.Q f [ ) k T J f 2 2 ;     r 2 9 D r f s s D x s V n s x f f 9 D n D J 2 x n ) o.3.<.0.f.T I T ] q x Q D 2 k n n n D k r s s f D V <   $     O < 9 2 2 9 s r 9 s s < q f 9 r r 2 D r q k f s.8.o.3.0.C.8.[ n J f [ k x D ) q r I o.9 n I r k s s r 9 ;     O O ; 2 9 9 q r s q n 2 2 9 f s x r s n k q s s ) 3.3.-.0.M.I V n D s k x s D J 9 k V n ",
"*X&.M.I.D.D.s.] I &.T < 2 9 9 &.&.c.c.C.+X X9XhX4XM.o.) ] o.<.] &.D.-.&.T k r q 2 <   2 s 8.D c.8.[ 3.f.c.j.;XnX<.&.o.) &.0.O.) [ I x f q r 2 < q <. XI.Q.H./. XtXD.c.O.&.8.y.f.[ './.c.&.-.<.] 3.&.f x < O O ; ; r &.J T 0.y.] Q.0.c.'.*XJ J [ I o.I n J f f O.I J 3.) C.*XY.Y.0./.Y.T o.j.-.0.s.C.0.I.C.) c.D.3.[ <.Q J &.) I 2 < ;   ; J ) q f k <.4X<.-.o.0.O.j.f.<.&.j.I.V H.T T Q.H.I D.H.[./.c.j.Y.O.I.j.j. Xc.Q.f.Q o.8.s.Q y.&.O.M.<.) &.q x k r O     ; ; r 2 x I o.M.<.V O.3.T O.y.D 8.T M.Y.D ] <.<.'.8.c.I tX,X8.0.c.j.4XD.8.I.<.o.8.-.) 8.] 8.8.] Q ] [ <.V J f r         r D D T D x 9 o.x 9 M.Q <.3.J T x k Q Q T &.0.I y.9 T j.<.I. Xf.[ y.H.0.[ &.&.-.O.O.O.O.[ ] ) n ] [ V f x 2 2 O   ; ; < k x O.x f s <.J k n f I 9 V ] k s k f J ) V J s.<.3.j.'.D.-.y.J Q o.s.x M.<.V T [ T k -.V x [ o.] n q 9 $     ; r r n s r n s 9 T ) n D x V k T q s J &.x s k Q -.[ y.'.Q.s.) j.8.[ ] D n -.[ k o.o.<.Q k J ] &.V x k s q 2 $     <   q k n x -.k n k n k q k n q r k k x x f J T o.3.C.j.8.3.I Q ] D r s I D s V I x V f x 9 s x x D V 9 $ $     O ; 2 9 9 r k r 9 f f 9 s n k f r 2 f 2 9 r D 0.0.0.O.8.y.j.) D O.J Q s x k f k r j.-.< T D r s k k s q 9 ;       $ 2 9 9 9 q 9 2 < r s x x q f f q k k r I T y.8.<.f.f.3.n D ] Q f k x f k 2 r f x k ",
"f.O.c.j.3.-.<.T k J 2 2 f J k C./.[.I.D.,X X;X*Xc.<.8.Y.C.I.I.J f.'.I.O.c.o.&.x r 9   O r 2 9 3.] ) [ ] [ c.H.<.<.<.] Q T D D n r k x V r k k c.C.M.Y.*XC.;X0.4X,XI.8.s.M.j./.s.0.s.c.c.3.) c.[.C.s.I 2 V f r     $ x x n ) 0.3.f.] I.0.M.o.Q D.f.C.<.Q ) I ) I.[ y.&./.j.9XM.+Xc.tX8.y. Xc.s.D.&.<.3.H.Q.x H.Y.y.-.J n 0.C.) [ q q f     9 n ; q ) I./.o.x ) Q.&.-.&.-.D.I.D.V c.2 -.4X8.s.;XM.'.[.C.D.3.s./.c.O.[.y.M.8.O.[ <.3.&.C.<.D H.-.<.o.J D r 9 ; <       < 9 ] x f.I.V <.) T y.Q 8.0.-.&.f.8.I D f [ Y.3.8.) H.0.H. X,Xs.I.o.y.I.o.s.-.[ <.I.o.3.8.V Q <.-.) 0.V ; J < $ O   < k f n r q ] I.f Q f.s -.j.3.r 2 I <.&.D V D.D I T &.<.C.Y.Q.-.<.M.&.) &.o.y.8.O.n 0.) [ 3.] Q ) [ J r n s f <       ; q -.c.q T s k D f q D J s k V 2 n D s ) -.n o.C.<.C./.H.H.0.&.k 3.Y.I I <.Q 3.n 3.3.J 3.T f k ) -.V r s 9 $     $ r k 9 r D D J J I q 9 x V n ] 2 f n &.k r k y.f.<.Y.H.C.s.o.0.o.Q O.I V <.3.s ) O.&.I x x ) j.k r x V f q 2     q 2 q r f f I q J V x f 2 s D V f ] s q n ; V 3.0.C.[.I.3.&.) D ) q k s n V x q V r V f Q n I f s k k q 2 < O     $ 2 9 9 r k s 9 f k 9 q k k r n V r q D k T 8.y.c.s.3.o.0.I q T k D x I n D n 2 s.o.2 V V q s n n s q r 9 O     $ < 9 2 2 2 2 r ; n r s x k s k r f s s Q o.j.0.8.Y.c.[ n f k k k n k n I f s f s r ",
"Q I J o.J V J 9 q 9 D D.y.O.[ 0.Q.'.tXH.;XsXH.8.y.j.'.;XY.I. X[ s.c.+X) C.M.y.o.I I s 2 n   O r [ T ) f.[ 3.0.s.H.C.D.9X,Xc.y.-.o.O.M.f.V I.Y.c.D.'.,X X'./.tXtXj.f.9X4XD.0.y.Y.M.f.H.f.3.3.0.y.] &.<.<.s.D 9 9 <     q s f 3.C.V c.I.<.f.8.3.y.c.j.y.8.-.C./.[.f.y.M.*XM.[./.D.+X/.f.Y.f.sX<. XM.O.[ o.C.[ D.8.8.I.<.V 3.Y.) n J f k 9     < 2 2 V f.3.0.V x <.Q.s.O.f.,Xj.k o.3.y.I /./.f.y.I.'.I.4Xc.Y.sX4XM.8.<.) c.&.0.V j.j.j.3.) o.I.T [ I Q D r x x x       O r s.J <.s.q [ y.&.3.<.I D.&.k [ 0.k T O.Y.[.I s.o.y.c.H.sX*XH.3.<.c.0.Q y.C.Q o.D.T [ s.) ] c.) D 8.D 2 V 2 < $     < < f f V T 0.2 -.C.V -.0.] O s <.&.0.J ) Y.-.n M.j.c.Y.I.H.] O.3.J y.8.Q 0.<.O.D y.T o.3.) ) [ T ] x k s x q       ; ) I ] s $ s [ n n x D D ) r s D Q n s D ) D I.j.C.'.'.O.M.c.] [ &.) 3.Q [ ) y.r ] &.I o.O.V f I Q D 2 f s s       2 2 ; r k r s x f r r n V I o.2 q x T 9 k O.D.s.I./.<.y.H.8.Q <.Q ] T o.&.-.V J I O.T x J ) 0.k q n I k r q       q r $ x Q s 9 T D k k 9 q x 9 T J n x x J V c.C.Y.[.C.&.[ O.s I 9 D D r n x q D x D x T x x r r s f s q 9 < O O O ; < 2 9 r r 2 f x q 9 f f D D D ; r Q V y.f.j.M.+X<.I Q n s V s V J V r V V ; x D k q J k f x x s q q 9 ;     O ; 2 2 2 2 k V 9 n q < n x r s n s r k V O.s.j.c.H.3.Q Q f q r n V s x I s s s s r ",
"M.C.Y.I.] o.) y.V o.D.hXy.J H. X+XI.eX,X9X[.j.I.j.c.Q.Q.Q.f.Y.y.8.f.Y.C.3.M.o.f.&.s.I n 2 <     2 r O.M.O.D [ j.9XY.s.'.;X/.Q.f.s.f.D.I.f. Xc.[.I.*XeXC.c.eXM.*X'.Y.s.;X Xy.M.8.Y.f.Y.f.0.M.Q [ ) D.0.j.&.j.x r < 2     O 9 ] [ f Q 0.&.c.'.V 0.0.y.j.Y.M. X[.C.+X&.[. XC.;XD.H.[.C.[.C.s./.s.I.3.c.f.0.<.J 0.3.[.D.&.3.0.&.x [ -.V s V 2 O   O O Q C.V T s I C.M.0.x f.[.0.k s./.c.C.s.Y.'.o.Y.<.y.Y.M.[.xX[.M.8.y.f.3.J M.<.O.3.y.&.O.8.&.T 0.V I J T 3.) k $ O O   < 8.Q n 8.r M.f.C.0.T Q C.0.[ ] s.V ] -.+XC.3.y.j.I.Y.eXQ.I.I.3.y.M.Q T c.H.D T f.I o.C.[ T y.V o.x Q [ s 2 < <     O ; x T J k J k -.-.T f.x q J ] y.V O.[ &.I.3.) -.C.+X,XQ.y.D O.s.[ C.8.] [ J 8.<.&.-.] ) D I O.D 3.] s q x r $ O   O &.D < 2 s x ] q T o.x ] D k n [ k x V f J n /.C././.c.&.j.c.y.O.k n <.O.r [ O.[ D ) D n O.J x V D o.2 r s J   O   O   r T J k f k q k n x Q o.D q < I x 2 Q /.D.s.[.f.y.M.j.O.T C.&.n x 8.-.) V Q x -.T x &.[ T D s x J f r r O     $ 2 2 n ] V 9 J x k V s q s q k ] s f ] n I c.I.'.I.y.[ Q O.9 I f I ] 2 n x f D V x n V k s x n x k f q < ; $     $ < 2 9 r q 9 k V s s x k n 9 n r T Q s s.D.D.I.;X-.D V f n I x n D n 2 f V 9 9 r D k V J V k f f s 9 2 9 $     $ ; < 2 9 I n < r k < V q s 9 T r r J x y.f.D.H.c.) J &.D x q f x k I J < r s k x ",
"+XQ.hXY.[ c.[ 4X;X+Xs.M.D.M. X'. X'.+XxX;Xf.C.,XQ.s.c.'.4XD.j.c.s.<.8.[.f.3.&.j.3.s.y.V 2 q 9     q 8.0.f.Q 3.0.'. X;X+XY.Y./.f.9X0.C.,Xy.j.Q.xX XnX*XJ [.j.M.H.;XQ.C.Y.C.f.8.M.Y.8.0.3.D.Y.V O./.'.<.Q [ Y.O.k 9 s       $ r 9 T <.) H.Y.[.c./.M.D.M.'.C.D.f.H.+Xy.f.+XD.'.c./.D.;X[.+X,X-.M.j.<.H.) M.D.8.y.I f.Q.f.&.T 0.o.D <.[ T ) q 2       T C.V <.y.o.) ,XM.q Y.[.f.[ ) 3.I.[.[ I.'.;X-.0.+XH.hX[.+XY.Y.M.s.M.C.<.O.j.-.M.Q n O.M.3.<.o.k O.<.Q &.Q k q O O     J I s j.J <.C.8.) Q x H.f.I.I ) &.O.n -.-.8.*XD.H.sX Xf.y.3.C.3.c.Q ] /.<.T 3.c.J ] j.) n <.o.T ) D 3.r s r q O     O k T k k -.3.o.n D -.2 I j.Q &.k D <.j.0.] T <.Y. X;XC.[ [ f.8.[ f.j.Q Q J &.0.&.&.J Q o.] ) q 0.f.s q x s ; $     9 ) ; ; s.x q V T J D D s s -.I 2 k n s [ [ s.H.'.I.3.I.s.3.Y.x ) ] y.9 <.k -.8.Q ] T V O.Q k 9 I 3.s r r J   $   O ; x I V ] 8.k r k k s 3.8.9 r ; ) x r O.,Xf.C. X0.s.f.O.O.&.O.-.V n <.[ J V [ V &.I k 3.O.f Q k k n f s q ; ; $   < ) V f T 9 x f x D k f f s T k f f f T I c.Q.*XI.y.o.T o.q T k x Q $ f s n J D k V n n n x V x f k q ; ; $     O < 9 q s s r n n s f k q < 9 J r T [ x <.D.H.;XD.O.V I k n T J s k I f f n q I q x Q s J D k s x f 9 9 s ; O   O ; < 2 9 f r 9 q k < x 9 f 2 J q s T J Q.f.C.[.H.o.V ) D f 9 k k k I D f r f n D ",
";XM.Q.-.f.;XM.+XQ.,X/. X/.I.0.'.D.eX4X XM.+X*XY.,Xj.j.[./.Q.s.Q.H.[ 3.D.j.y.j.f.y.[ I.I n k s   O   k ) -.x &.+Xj.Y.,XD.-.C.,X9X'.M.<.O.-.c.M.D.y.sXPX<.j.+X XxX+X9X8.M.I.C.D.s.O.H.C.) Y./.T V  XO.<.<.D.o.Q o.T x O ;     O r o.] s.I.-.Q.M.8.I.C.M.Q.3.c.I.*X[.0.s.Q.I.3.;XI.Q.xXQ.H.O.,X8.M.[ Y.[ c.c.f.y.<.&.s.<.f.o.O.T [ 3.<.<.] q ; $     k -.r I y.o.Q H.&.V C.'.'.-.[ [  X/.V ;XY.f.s.Y.+X*X;X[.8.'.f.8.C.D.s.O.f.C.&.0.o.&.<.8.) ] <.n 0.f.f J ) x f < O O   9 x x 0.O.) o.H.9 I &.8.y.8.k ) s.&.3.] s.I.I.Q.;XhX*X&.[ ) Q.j.c.O.Q c.0.O.8.3.k V y.&.J &.0.x f.I T f n f r $       r V D ; H.<.s s.[ n I y.3.V ] D [ 3.I.o.) I /.9X[.j.s.o.s.0.D O.c.y.I o.O.O.o.<.T D o.0.-.D 9 -.f.x s n s < $       9 2 x ] x J &.J q ] 9 J f <.x x x f x ] I.8.I.[.Y.3.D.&.<.f.V 8.T y.f c.y.r [ o.) V Q Q O.V f J Q n f r k <     ; 2 s < $ I <.s r q n k <.[ < f 9 Q n s [ /.y.Q.[.C.-.] ] s.O.x o.T ) T V J [ T ) Q D V o.-.s Q x s f x f q 2   O   ; &.I r T q f s V V s x x k q s f x x J s.M./.,XQ.f.o.D o.r ) s s D 9 r q T ) D D x x r f k x r r x f 2 < ; O   O ; 2 q r r r k f 9 f k 2 f n I $ f T ] c.C.D.4Xj.[ J D J T T T s r V k s D 9 T x 9 T f k k f f k k r q r ; O   O ; < 2 9 ; 2 r r q 9 s q k f x q s n T Q.s.M.;XH.-.J D k V k D k s f 9 r s s x D ",
"c.I.I.-.H.Y.4X,XQ.M.M.,X'. X[ [.*XQ.Q.[.Y.nX X*XC.s.H.;X0./.8.H.[.0.H.C.T I.s.f.C.Q M.&.x ) q ;   2 O n J O.) s.j.8.C.j.j.;X4X[.0.] <./.[.C.'.,Xs.j.nX4X+XI.,X4XY.tXM.s.M.Y.I.D.J Y.c.I I.<.-.H.M.] o.] y.y.O.I 0.[ 9 $     ; V 3.J O.c.J C.9X] /.j.I.+XT c.*XD.*X<.H.,X] H.eXY.eX,XY.O.8.;X/.0.3./.y.o.o.C.<.c.&.&.] D.<.n f f.C.<.&.J k < <   <   q r &.Y.o.V o.0.+Xf.C.;XJ 3.f.;Xj.0.M.j.4Xc.+X'.;X XC.'.4Xs.0.y.<.0.Q /.o.y.&.s.s.[ -.) s 8.&.-.O.r O.3.f r q   $   ; r D T -.f.Q I.V M.x c.] f.n D Q.V o.M.I.D.D.Q.+X;XC.f.y.0.M.c.[ [ I <.j.Q T -.[ ) <.) &.) o.&.&.8.f f x r 9 O   O   r ) s Q /.f f 3.[ x 3.<.s Q o.J H.] <.) ] Q H.eX*XC.C.V Q O.&.Q.8.J [ O.&.j.I ) I Q o.O.o.D J O.[ V k D f < ;     $ f 9 Q Q ) $ x T k ) k O.Q x x [ n x I s 4XM.Q.[.Q.0.] J f.] s.<.J I n y.] n J f.[ s T q ] n D k 2 V n f 9 s     O $ s r f ) T f s 9 Q D T q < V x I J s Q j.c.[.D.'.O.T o.M.J o.O.I [ x f ] s.x <.D I Q Q 3.n T n q s V x q 9 O $ $   x n x f r s k D k 9 x V J f r T I 2 J c.D./.;XY.s.) x o.r ] r f D V s r f V s J k D r n x x r r V n 9 2 < O     $ < 2 9 < 2 r 9 2 n J s x 9 D I [ k V C.c.C.+XH.) Q r ) J f n s s n n J Q 2 r T 2 x J r q s f f f f r q ;     O ; < < < q 2 < q 2 n r < n D r r f < D c.c.H.,Xy.) J D k I f s q f x < 9 r q s n ",
"M.I.f.3.[././.'.'.c.Q.eXsXC.C.*X*X4X[. XlX*X+XD.D.Y.M.,XD.f.8.Y.Y.y.Y.y.T H.<.C.0.M.0.f.] I J $ O O   $ k ) 8.H./.Y.f.-.8.[.0.,X/.M.0.Q.9Xy.M.eX0.I.,X4X/.+XxX9XD.+X*Xs.] Q.M. X8.Q 8.I.D.I s.j.D.f.<.V O.c.<.&.3.] x O   $   < s O.s.<.M.Y./.3.I.3.Y.4X&.*Xf.'.'.<.+Xy.&.4X*X+X9X;Xc.f.&.3.[.H.<.D.&.8.I.-.I O.M.-.<.*X3.Q 8.[ I.3.] q 2 9 r O   $ < f q [ J o.M.0.,XC.I.f.) &. X X] j.H.y.I./.Y.*X4X[.I.f.s.'.'.j.o.) <.0.O.8.T Q.&.3.&.] [ -.-.o.Q f T ] Q r s <   $   r T f.j.T T H.J I <.O.8.3.n 3.*Xr f./.-.s.+X,X*X+XI.H.M.<.o.;XI D 0.8.y.) J [ -.<.<.] T n Q J D O.] n V x q < $     < T x C.y.<.V Q y.D Y.V n s.x V ;X[ ] ) Q f.Y.eX[.s.&.D 3.Q.O.f.T n ] O.O.8.D Q 0.O.o.I T D [ &.3.r k f ] V   ;     $ I I r n T J ] r ] x Q V s x V f q I I j.c.,Xc.8.&.D ) f.-.) Q D J J &.9 ] T o.8.x $ x [ D J f 9 x J f f f     O   k r O n I x 9 V [ V 9 r k [ x D D x s.O.c.+XQ./.T J s.8.J D ) V Q o.9 Q &.T k k Q ] k T D n x f n k V < 2 9     O k n 9 n f s k s n T s f V T r x q r Q 0.c.;X X/.y.V -.k f T D s x k q s n r D x T s x 9 V J 2 k n r < < < $     $ s s 2 r ; I V 9 s D r r r < o.k J V y.y.[. X&.J s.T f I ) q ) f f k f f 9 V f s V s D r r f k x s 9 ; 9 ;     $ 2 9 2 9 9 q x ; J f q s x s x k s f H.j.I.*Xs.O.) T n r k q k k q k r f f x V ",
"3.I.c.,X,X,Xj.Q.eXC.&. X+XQ.'./.;X,X X;X,XtX'.I. XY.s.+Xf.C.Q.&.'.j.D.y.<.f.H.I.) M.c.f.T ) I s ; O $ O $ J y.c./.j.j.c.[.j.9X4X+Xc.y.I.<.H.&.D.C.f. X9X;X4X;X+XY.D.M.3.H.s.<. Xj.D 3. XQ.<.&.-./.c.O.o.0.Q &.y.y.] D 9       ; V y.H.M.8.Q.tXH.4X-.I.hXT *XY.0.y.D.;XM.0.hX[.hXtX,XM.H.&.] Q.3.I.c.I [  XH.n O.H.C.[ /.<.f.Q.I V M.o.V f 9 s     ;   q J Q.<.T <.c.H.I.sX[ n o.Q.D.] *X X8.Y.[.*X*X*X X/.D.-.Q.j.0.f.o.3.C.y.&.T f.&.<.&.T [ f.-.<.[ 3.k ; -.I x s       q ) 8.O.) s.Q.Q J D.V O.y.) [ c.J &.0.o.c. X X,X,XQ.+X<.3.<.y.J 8.<.o.8.-.8.J Q f.T x J o.<.f f 3.T x k n f < $     $ V f T k y.I y.J I ] f ) [ D -.3.] &.I 8.c.4X9X,XD.j.<.[.[ 8.J Q T 8.&.J ] T <.c.) Q o.n T O.n C.q k J [ V ;       ; r r s I f k <.f V n D I x f J k ; x f.s.Y.[./.f.o.&.Q O.I ) y.) x I s.f &.[ D [ J Q n O.n [ D s f I f k r ;   O   k r < f x r D D f f n V n J T s k D -.c.C./.*XY.&.&.<.V T J ] D o.] n T -.x x T D -.x Q ] D k f V x V 2 9 2     O k s 9 f Q x k r T I J s n V k x 9 r k -.D.Q./.Q.T V <.r V O.J q s q f < I n J f T k V k x T r k f r 2 2 ; ; O   $ < 2 < D s Q n q q x r r n n ] f x V -.D.c./.0.<.o.D k D T q I n k k f f f T k f I x V f k x k k f q ; < O     $ 2 9 9 f 9 r Q s x < r r s 9 s s q r c.y.Y.[.8.<.) x f q q q k x r s f s r r s ",
"Y.Q.Y.Q.9XH.M.*XhXf.<.Y.'.;X[.I.*X+X,X*XQ.4XQ.Q.+Xc.M.c.y./.3.] [.'.o.[.3.c.c.<.V D.Y.c.[ 8.D f 9       2 <./.M.*XD.8.D.*Xs.[.s.Q.3.M.H.C.0. X[.I.f.4XtX+X+XD./.Y.[.3.s.y.j.[ D.8.c.Q.j.I.D.o.] Q.s.s.f.C.D I 0.8.T J k ;       k [ s./.] 3.+XM.&.<.M. X) '.s.[ f.Y.I.Y.j.nX'.sX+XsXC.D.C.O.c.0.f.D.&.0./.s.V c.f.f.f.3.o.,XI.q q c.H.D s )   9 O 2 O k J f.<.M.j.,Xf.3.f.I ] I.D.&.[ [.C.3.Y.,X+X;X+X[.;X'.] 0.s.&.-.T M.I.&.T -.-.O.-.0.o.O.j.&.-.D V V 8.-.T q q     O 2 [ &.J ] ] I.D V M.j.f.o.<.] I &.D.3.o.H.[./.,X XM.[.) c.I.Q D M.) [ &.s.&.T T Q ) D ] '.I D ) &.8.r q V x < O $ O O r f n V T <.J n 0.[ x I Q J <.D T O.O.c.+X*X+X[.H.M.O.0.3.<.f y.&.-.-.Q I &.j.Q Q Q I o.f.&.x I r k ) T k 2       r n 2 q J f 3.) ) T x q ) ] f s $ I 9 8.[.j.+XM.c.3.3.[ &.-.O.O.<.J n s.T o.k T o.I ] s y.k I D s r J n x q 9   O O q 2 r s k O.o.V n Q n f [ x ) x 9 J <.D.M.+X[.M.0.) ) D J I Q ) o.[ D V ] k T [ n o.D V O.) f f D k k 9 9 $       f < r s ] n x 9 J k I r f q k f r k k 8.j.'././.O.J D J I [ x r f 2 T k n D I k ] V x s f Q n x r s q 9 O O   O   $ 9 k V 9 k r f s f s 9 r s k k J ) &.f.M.*X0.[ ) J 9 n I r n D f f s 9 q V q 2 V k s f n n f f k s 2 ; O     $ 2 9 9 f 9 r T f x 2 k s s q s s r s s.0.Y./.3.0.) r s r 9 f x x k r f x f r q ",
"[.[.D.'.+XQ.0.'.9Xy.+Xj./. Xc./.+X+XhX XY.Y.'.Y.'.s.Q.D.f.c.Q 8.Y.[.<.Q.s.<.c.T ) H.I.y.O.M.V V s O     ; ) s.<.8.I.M.c.D.3.y.M.*Xc.]  XH.'./.y.Q.I.9X4X X+XY.Q.Q.+Xc.<.y.3.s.f.<.) 0.O.0.s.c.3.M.8.H.s.f.0.J 8.<.V D V 2 O     q y.I.C.) D.sX8.f.D.f.c.<.f.-.c.'.f.8. Xj.sX*X9XY.*XC.s.D.s.M.f.C.Y.I 3.I.f.f.f.H.o.s.) <.j.s.J k I.M.[ Q Q r <       r k D o. X[ Q.s.j.J 0.j.tXM.] 0.C.O.f.I.*XQ.9X[.M.*X'.&.] D.j.o.n /.H.&.) y.O.<.&.y.<.O.y.O.y.] V D C.T V q q O   $   D J 8.D.0.C.o.k Q /.3.x O.o.J <.'.0.) j.Y.'.*XI.y.D.M.c.8.I &.*XQ D I <.o.<.Q k O.Q C.j.J ) &.8.I r V I V 2 $ $ O O x s o.I ) I s [ s.s.I s 0.I ) T [ <.3.j.+XI.Y.'. Xf.T D C.n D y.y.c.V 9 O.y.&.Q -.Q s &.&.O.) s k D I x r < O O   $ f O s T n O.n -.T k f I Q f r s n Q O.[.D.[.D.c.c.-.8.Q 8.J n s.&.q y.o.n r y.o.f V D D.q f k q s n I n r <   O O $ ; k f D &.<.J r n x r f n J ] < n M.<.c.*X'.j.&.Q ] O.J Q V &.I o.k k n T o.) J n ) f Q -.k k D s q 2 <   O   O f < n x T n Q f k f J D f q r s k n I y.f./.[.Q.3.n q &.Q x s s n 2 T Q r n V f ] V s q f D n n r s 9 9 ;         $ f Q s $ 2 2 V n s r k f q r r V I ) f.j.'.'.] I V Q f D s k D r q f s q n f q n n k f V V s r k f 9 < $     $ < 2 2 q s s s 2 V f f f r r s k s s <.y.C.Y.8.<.T f s f s D k k D r r k k k f ",
"/.H.f.j. X[.s.H./.I.tX8.H.M.8.;X;X9XsX9X*XY.+XM./.C.Q.,Xj.[ D.f.C. Xj.M.<.<.C.8.-.C.M.&.o.c.J &.9 2 O     9 T 0.j.f.0.8. XC.C.s.H.Q.'.*Xy. X<.8.4XQ.D.'.eXhX,XY./.[.8.3.Y.3.y.Y.M.,X0.D f.Q.f.) c.c.s.<.&.Y.o.0.y.D V x < $     f J Q -.8.8.Q.c./.] s.eX+Xf.c.c.'.s.s. XM.,X4XeX,Xs.I.3.[ c.Q.3.j.j.o.&.O.<.+XD.0.y.3.0.D.O.C.n T 3.j.<.&.I f O       < o.<.j.D.) D.f.Q.-.f.f. Xf.y.M.Q.y.j.C.f.[.hXQ.3. XC.j.<.s.D.<.V f.f.c.T o.-.s.&.[ &.] 8.o.3.] 0.T [ [ f q < O   ;   V ] V -./.Q <.x I 8.&.3.I ) ] 0.C.Q.k ] c.*X;XI.M.C.+X-.I <.y.Q.Q ) D V f.y.Q o.) x j.I Q -.) I 2 r O.o.D q ;     O D J k I O.J ) O.o.o.] x j.V [ [ s.c.I 8.s.'.Q.9X X&.) O.3.I -.&.0.o.k I 3.0.o.x Q I T O.n <.D ] k ) k r r $ <   $ ; o.V T Q [ [ Q ] r x &.k 9 f &.x k o.] [.D.Q./.8.3.<.8.n o.J T j.-.9 j.-.2 ] 0.) r k &.M.< k f r n r I x k O     O   9 f k J ) I k f k f q r V V [ 9 f I.] c.I. XM.T 0.] ] &.] k [ D ) x x I [ ) Q I x o.V x <.n n x q 9 9 < O $   ; s q I V n f Q k q x f I V V r f n s J [ H.j.'.M.Q k I ] Q r x r f s f J s n k q J n s k f s s V r r ; < 9 $   O O $ s I s 9 s q D k q f r k f D 9 r f [ -.0.H.I.T J I [ q x f k V 9 9 D k q D J k k x k k D D f r f f 9 < $     $ < 2 2 s x f ; < D f q q 9 r s k q q Q 0.3.D.0.] V V f f n T s s J f 2 s k x f ",
"/.j.s.] '.'.H.'.0.;XI.f.'.C.C.,X4XsX*XlX9X*XQ.0.Y.Y./.M.f.3.C.j.Q.,Xs.f.-.C.0.3.-.M.H.<.&.3.V &.k q     $ < I C.M.8.<.+XD.s.H.c.j.'.s.tXj.,X-.M.eXY.s.'.hX9X XH./.;Xo.8.[.C.O.D.M.3.n f.j.j.8.o.C.[.[ s.<.M.-.] c.] J f $ O     $ x Q ] C.I./.M.D.T f.'.D.f.[./.I.D.D.D.H.eX*X[.sXy./.[ ) H.Q.M.3.I D.3.Q <./.H.-.y.<.M.D.y.0.D 8.D j.] J J < ; ;   O s <.0.I.C.j.eXc.<.D.<.H.M.y. X8.'.I.o.y.[ *XtX/.c.;XM.c.j.0.O.[ ] 3.s.H.V I y.8.O.T s.[ <.Q o.o.) ] O.I s s $       $ V <.3.<.,XO.Q T o.<.-.Y.Q 0.Q s.y.C.f ] C.9X9X[./.D.'.Q Q M.3.O.T -.[ f O.y.O.O.] J n x -.0.J 2 k I o.) n 2 O     ; x D f Q Q y.] T 8.J &.) Q q <.Q j.y.k Q 8.+X,XeXY.O.&.Q s.y.&.J J O.V O.C.O.2 s x y.) O.o.&.x -.f ) r s k ; 2       [ D q r &.O.D ) f V 3.x q D &.r ) s V Q.C.I.I.0.O.8.] o.3.&.T s.&.2 f.s.r T T o.Q 2 n o.r x D k D q x f x       $ $ D q f n ] k f T T r q J x D n f s 0.o.c.H.H.D.T <.V ] y.] x V ] D ) I -.T V ] D ) [ o.f [ V J s q r s 9 O     < 2 s V f k k V f k J s D n J f f n 9 n x M.c.Q.0.&.] [ x D n T q 9 I r s s x x x J n f x n q s V f k < < <     $ ; < q x s f J f f 9 q n 9 9 9 J s s r Q -.s.I.3.] Q ] k q s s V x 9 q ] r 2 V ) k q s 9 x J J x s s r 9 $ O   O ; 9 q r s r q 9 f V r r q < f f x 9 2 n 8.o.M.s.) V I x r n D q q D x 2 q k n s ",
"c.I.s./.H.eX<.I.f.,Xy.f.,XI.+X'.,X9X X9X*X[.c.s.H.C./.I c.Q.O.8.+X XM.) H.s.y.&.-.M./.8.<.o.D ] ) q       ; D 3.0.T Q +Xj.[.c.M.f.C.M. XI.) s.Y./.Y.[.4XeX+XH.Y. X/.C.[ Q.j.c.-.f.M.8.0.Y.H.3.[ c. X] c.0.y.&.Q 0.o.Q k < $   O O 9 ] s.Q.Y.M.I.<.D.'.H.I.D.0.D.C.j.I.D.j.tX*XY.,XM./.[ f.I.C.[.D f sXQ.o.x s.;XH.) [ 0.y.3.Q M.s.O.Q D n n x         s n o.C.j.M.+XQ.o.[.y. X0.0.4Xo.s.D.] -.0. X,X,X[.+X/.8.f.s.Q [ <.D./.y.Q I C.[ &.T /.&.8.) 3.C.q I Q 9 n J 9 <     2 9 Q <.T 0.3.k ] -.Q.J 8.-.I.O.-.[ I T C.[.,XeX;X'.j.Y.x ) <.8.o.) Q 8.I J &.O.I ) 3.s 2 C.o.I T f 8.n J x ;     O < n f 8.k [ 0.O.I M.8.&.) f f ) Q 8.<.J J 3./.eX*X/.c.&.s Y.&.J n O.Q I &.I J I k O.Y.n J 3.I J o.r J s q k 2 O   < 2 f V r J y.&.x ] J I T T D Q V I n 9 O.-.Y.j./.D.c.y.V -.<.[ T 8.[ s O.<.J r x [ &.f ; x x k I x n n r f f       2 q -.2 n D n ] I f n x s n x n f D k J [ f.I.j.C.I Q I O.<.] n x 8.Q O.Q 3.n I o.V O.I o.D V V T 9 q f f 2       2 ; V f 9 V ] V n o.J J J f n V r k r n n 8.C.I.M.c.3.Q s f ) T f r [ f r s f n T I k s k D r f n s V q 2 O     O < 2 r f r s I f f r f x V r 2 k x s s n f.8.f.c.j.I D V n s r Q k q r &.r q J ) f s D k f n D n s r q 9 O     O < q s f q 2 9 r V x 9 f r 2 n f x 9 9 k -.[ j.s.&.I J n s n f q r x n q < s n x ",
"C.[./.9X'.*X) c.,X*Xf.o. XM.+XD.4X*X9X/.[.M.s.I.Q.f.D.[ D.Q.y.Q H. Xy.] s.0.f.'.0.C.I.o.-.O.o.O.D O O ;   2 [ y.) V Y.c.c./.O.Y.Q.c.j.Y.3.M.y.Y.y.Y.nXsXeXeXY.[.,Xj.D.c.o.f./.&.D.o.c.[ *XQ.D.) s.H.o.3.-.s.3.8.Q ) ) n r <   O $ T c.c.y.*XQ.H.f.Y.f.s.H.H.]  Xf.o./.*XO.*XsX4X'.8.Y.y.M.c.M.H.8.f D.C.D.D j.'.) 8.M.O.0.j.f.-.y.) Q k D s.k $   9 O q r H.[.o.*Xs.;XC.Q.<.c.-.0.;X3.[ M.f.&.[. X,XsX XD.;XO.y.] 3.0.Q I.;XT [ n Q.[ 8.D /.-.M.0.o.-.x ] f ] T f $ ;     D s ) &.O.s.s.&.Q ) M.] -.3.-.y.T Q 8.&.9X4X[.9X,XY.y.3.s 0.T 3.o.&.[ <.[ y.D J o.s f.n D -.I <.J D [ s T J <     $ $ T [ ] I D &.f.&.&.[.] n ) o.r &.8.c.) [ V Y.*X,XI.C.D T c.n -.8.O.Q T &.V [ 3.I 3.&.Q J 0.T s x r x f 2 r 2   O   s s ) 2 n [ ] o.T k Q k Q V V <.k f V /.0.[ C.'.s.D.f.I I Q ] 8.3.I I T x ] k J s Q 8.n r k n D f f ) 2 k 9       9 s j.2 T Q D &.I f T k 9 o.n s D T x q D 8.s.Y.D.n -.f.Q ] ) x D s.-.] I ] x <.[ D Q x I Q q V Q ; q k s ; $   O f 2 ] f q s &.x f &.9 I x k x T 2 r k n T 0.-.j.*X3.) ) r s [ n V k Q r r n f x J x r s V n r f f 2 V r ; $ O   O $ 2 q f k r D k V V x 9 x q s q n f Q -.J O.&.s.-.Q k k Q k s o.k s r &.9 9 n D 2 r Q D q s x x s q 9 9 O     $ 2 r f k r r s q x f ; r r 2 n f k < 2 s [ [ s.0.0.Q x x x V q s f r n s q k x f ",
"Q.'.H.Y.[.eXO.s.4XC.3.] f.c.,X0.4X9XeXD.tX+XH.f.[.M.C.o.j.D.M.] c.Y.3.o.8.Q.Y.+Xs.n /.T -.8.<.o.T 9       < J &.O.) ;X'.D.[.[./.c.y.-.Y.H.Y.D.0.y.*XtX4XxX;X[.+X[.j.0./.3.Q.j.8.j.y.C.8.I.<.8.C./.3.I y.Q.<.) <.s.0.T x ; $     9 s.3.3. X XH./.[.s.3./.c. X'.C.8.8.;X4XO.[.9XeX XD.s.;XM.O.Y.o.C.T o.H.D.C.3.C.) 0.f.y.o.<.O.s.0.0.T x ] &.< <   2   s T y.M.y.;X&.O.'.C.T  Xf.y.M.Q.] M.<.[ *X+X+X;X9XI.8.M.s.j.3.O.O.s./.n T I H.] c.) &.3.H.&.V -.<.2 J M.k s   <   O x 9 V y.s.0.-./.2 -.) y.c.&.s.Q c.V ] o.j.'.D.9X9Xc.&.j.I f.j.] J 8.] O.J C.8.f D T &.D k I.Q Q s o.) 9 f q < $     r T Q 3.V ] j.0.o.f.3.V Q <.3.x /.D y.[ -.J s.[.+XY.s.I &.<.V 0.T 0.V O.s.T o.[ T I k n -.<.n ) x 2 f k k 2   $   $ n f 9 n k Q ] O.n x o.T o.; M.] Q < o.j.2 ) s.C.D.C.o.-.J r Q O.T ) I k [ V f -.T D C.f k ) 2 s ) f n q x $ O   ; x J &.q n f I T n x f D s <.9 V V ) f q k O.s.D.f.y.3.&.J J ) J D 0.T [ ] I I D I ) x I V I V k n x 9 k x O     $ T < k D V k n n r I ) s f q J J f f 9 n s 8.f.<.3.[ o.I x x Q n D V k < D x s r V s V x r V k s r s r 9 ; O     2 s 2 2 x k f r q s k k r V q s s k q k k f I Q -.O.O.D n J n q J s 9 2 x r I f n q q k n k k k f r 9 2 2     O O n < f 9 9 f n f 2 9 s s r s 2 ; q r 9 r V ) [ [ &.) x f J k k f r x V s r f x x ",
"M./.I.C.Q.H.Y.4XY.3.j.D./.C.D.'.;XsXxX[.Q.,X;XQ.8.D.I.&.c.c.c.C.f.H.8.-.C.C.c.D.f.<.<.s.c.I [ T x < $ $   < Q s.M.y.Y.c.3.[.-.f. Xf.M.s.;XI.s. XM. XxX4XeX4XD.I.I.+Xy.c.0.c.y.j.s.s.s.j.s.Y.D Q.s.j.V f.Q.I O.0.[ ] J s 9 $   $ V -.0.y.'.I.3.-.I. X'.j.o.H.[.H.D.'.s.,X8.j.Q.nX[.;Xy.Y.Q.f.-.J D.D.<.M.o.c.j.[ M.8.O.[ [ <.3.M.8.] Q ] I Q 9 O 9   $ 2 ] &.8.D.D.D.+X3.8.C.'.j.D.] c.f.Y.q y.8.H.[.*XY.,Xs.Y.I '.-.o.<.y.O.J ] f.O.) 8.Q M.j.j.[ J [ [ r V O.9 f <     < k T J D I.8.J Y.O.o.D 0.&.M.D.J 0.] ] [ 3.s.D.Q.,XH.H.C.Q s.I.O.f [ T y.0.Q ] V f T f.] Q -.3.O.) n q D V s     O ; k 8.x -.&.V o.y.<.-.T Q <.8.y.n T O.f.[ n O.o.j.Y.H.-.-.&.J n &.&.I ] -.8.-.) x ) n k 0.y.) 2 O.] ; r r f 9       q q k k s ; x J T k x y.o.Q k 0.V x $ <.V f 9 -.y.Y.j.) s.) s [ ] J o.) k V f.r ] Q ] ) k k O.r s T f f 9 s       9 x q V n ) V x T k Q J J s T k J o.J n 2 x ] -.c.M.c.&.T x Q [ 0.D ] n J Q V Q V &.x o.V k n J f x D k f q       $ D k f n T k V k s T ) r 9 9 T n < f q x n V V o.y.y.3.I T J n n ] k 9 2 n x k x Q D n s s k k r 9 q s q O O   $ r 9 9 f x k x x k k x k s k 9 s s s 2 s s k ] O.O.o.[ J V I s q 2 f s s r 9 s 9 k r x k f s f f f r 2 $   O   9 2 J   s D 9 x D x r 2 2 < s < < 9 9 r k s n T I I ] ) V n k 9 s x s s x f k k k x ",
"*XQ.-.I.'.-.H.*Xj.<.D.*X<.4XQ.;XsX4X9XeXj.[. X+X-.Y./.s.y.s.f.y.D.+X0.y.D.H.f.C.c.8.[ O.c.[ [ ] x < $ $   O I s.c.+XY.I.f.I.y.C.'.eX/.o.[.M.8.[.C.+X'.9XhX4X,XM./.;X<.0.f.D.D.8.I.s.<.&.C./.T [.o.I.8.[ s.C.s.&.J D D 2 q       I 0.I.f./.*XI.O.C.lXsXH.] D.I.s.M.D.s.9XC.f.;XtX;X/.<.Y.j.&.T 0.[.I.j.T 3.H.8.T C.<.8.s.c.3.) ] &.[ O.&.I I q       9 D Q C.f.c.Q.0.Q.s.C.c.s.M.s.c.8.Y.[ s.O.-.'.*X9XI.4X3.s.[ [.] <.c.8.] x ] M.] s.-.) Q.o.J <.O.s T 0.D ; n k $     < I Q T <.&.I -.+X[ ) O.-.s.O.j.D I 0.[ k ) 0.H.I.4X'.I.<.n -.I.-.n &.f.T M.n s 8.o.[ s.] 8.T f.] n s 9 [ x 9       O D <.D J ] -.0.O.0.Q o.&.o.3.<.k T O.3.-.< O.I f.C.I.&.-.8.J ] 8.O.] ] J o.3.s q 0.Q x M.-.n 2 ] x k n 9 2 2     < V 2 I J k f ) ] Q D I H.8.k s k -.; f I I Q s T <.H.s.o.s.[ T ] n T <.n J n f.n I I ] s k V o.f f V k 9 2 2       < V x f J [ &.2 s k n <.f D x f n &.V x s x ) Q ] -.C.<.n r [ [ j.f n x n ) ) Q D 3.s y.n s x Q s f J n q <   $ < ; q x r V T k T n f x k k n s [ V $ x s f n V s O.o.&.[ f n J s J o.q q x f k f s V f 9 2 n r f s < 2 s q       < r $ < x k 9 s k k s s s s s 9 f s f 9 f f r Q &.Q Q I J V x k &.f J k n k 9 q V J r x x n f f s 9 < < $   $ O   k f k ; x r V n r s s r k J 2 9 s 2 < 9 $ f n x n T T J D s 2 f D x s f x k s s k ",
"'.Y.Q  Xf.&.C.9X/.&.c.9Xf. Xj.D.sX*X'.;Xf.'.H.I.y.I.'.D.&.s.D.T s.eXf.Y.f.C.0.'.M.[ -.) H.&.o.J J 2       ; I 0.Y.C.I.3.j.[.O.O.s. XeXs.D.*Xk H.[.Q.D. XxX,X9X0. XD.0.M.0.'.,Xo.j.C.3.Q c.I.s.C.8.<.&.-.3.f.&.3.T I D 9 2     O f 3.y.O.D.'.+X0.s./.I.H.Q I. X*X0.[ D.Q./.<.Q.Q.sXQ.f.Q.j.&.] *XQ.-.j.[ Q M./.J j.8.M.f.0.Q I ) [ y.&.) Q T ;     $ $ M.s.c.c.H.'.f.D././.f.Q.-.3.C.f.8.D I.f.o.C.Y.[. X,XQ.<.0.I.T s.M.o.D.q [ [.0.s.[ &.Y.V &.M.V x s.[ k x s ; 9   $ s V 3.J 0.&.) &.;X] -.] [ Q.x ) ) T O.O.f n s.D././.'.j.-.D 3.f.) T [ C.Q f Q ) y.f.c.I Q J &.] s k k ] ) < $ O     O ) o.D -.s.I 3.j.c.I o.] V [ Q k [ &.-.C.f k k f.<.D.y.&.D.[ [ s.V I 3.T q n Q 8.3.J J I.[ < ; x s I T 9 $ ;   O f f ; ) T [ O.] s x f n y.8.k s r )   ] < J r f ) O.-.8.3.&.[ 3.V k J 0.n V ) o.I I k T x k I T f f k n 2 < O O O x < s V r x I f.n ) k [ V n q n x f T J q V r T V <.<.[ ) 0.&.J o.&.q V J J ] <.D I ] V O.V k n T s r n f < $ O   q 9 f s f J x s T n k f 9 n J f ) J 2 x k f s D V &.J ) o.) T x k Q T 9 x T s k V x k f q f ] q s s 9 2 9 <     $ 9 9 $ < s k r f k k k k x n k r x f k r k s 2 x Q D Q V D V 9 k f.n n 2 q k n f ) T s n n n s k s 2 $ ; $   O   q $ k k 9 < q n f 2 f k f V n 2 2 f f q q 9 2 r f x D J D V s s x D n s s f f q 9 f ",
" X*XO.M.O.I. X[.Q.D.Y.'.eXI.-.Q  XtX;XY.C.;XC.s.s.Q.Y.M.&.c.+XO.[ I.s.[.c.8.O./.'.&.O.<.s.k o.I J <       r o.c.D.Y.c.c.C.'.hXQ.y.H.M.;XY.M.) +X/.[ '.C.eXsX/.C.H.f./.Q.o.D.;Xf.] M.3.y.)  Xy.8.0.c.-.y.T Q f.-.O.[ n s $ O O r <.H.-.s.4X'.,X X<.] 3.Y.0.D.*X,X3.] y.0.4XO.H.sX4X;XD.0.Y.C.Q C.] [.o.y.k <.+X&.3.<.c.&.I D &.s.-.8.) ) I x     O < V f.I.3.M.H.c.H./.'.C.&.[.O.y.Q.o.&.,X3.<.O.I /.[.eXQ.I.3.-.C.) 3.8.O.[.f o./.&.J o.8.C.x f.3.T ] 8.q f I < ;   9 O q &.] &.&.H.O.o.;X[ ] Q <.c.-.k -.3.x O.] V O.s.j.0.H.c.f.] 0.O.J y.J <.s.x r ] D.j.] k n J V D r f s.o.x       O < k &.D.o.] <.) s.M.y.o.k I o.] T J x [ &.c.J ; D 8.s.8.s.s.I.Q n o.V s s.[ s J 8.j.<.x J 3.V q J f f k V < $ ;   O k I q D x y.M.y.Q x f x Q 3.I 9 k s r n 9 f r 2 ) D I O.-.[ ] 0.n I x &.3.r O.O.D ) q Q V k T ) q k r D < ;   O < V s f V s J s I ] ] T Q r k 9 T o.k V D 2 f 2 D &.[ J Q ) 3.O.Q -.T n I T [ ) o.n I n I V k I x V k s r 2 $ O     < 9 [ k x I s f V f V J x x q x x D q r f n 9 f n T n Q ) o.I x J T n f V D r ; f x q 9 < q V q q r r 2 O     O f r < q 9 2 k s s k x x x k k n f x s f r s ; q r n V ] V V D D k [ s s r 9 k Q q x f s D x 9 q f f q ; $     $ k f J 9 [ f Q f T J n I V r s k k 9 s I k 2 k < 9 s f f x n x s k k f s r q q k q 2 r ",
"sX*Xf.0.C.'.[.3.*X'.Y.;Xy.Q.;X] '.lXtX X[./.8.f.Y.,Xy.-.C.I.*Xf.y.o.-.s. Xy.<.c.M.O.s.0.Q ) ] ) f ;     O k <.D.;X+X4XC.V y./.'.f.&.'.4X/.H.3.'.8.T [.M.*X9X*X Xj.Y.[.H.o.f.C.'.H.[ ) c.o. X) j. Xc.<.f.J Q <.0.s.&.f q     O D f./.o.f.,X X XY.c.D 3.Y.4XQ.[.f.s.c.&.j.Y.c.,X4X;XI.H.0.f.c.O.o.c.C.&.Y.V o.[.<.o.-.M.-.J ] s.M.f.Q D -.x ; $     s 8.0.c.C.f.I.0.D.*XI.y.J 0.c.[.] ] ;X*X0.] V 0. Xf.;XH.<.D.0.f.] ] 0.f.M.J Q 0.3.) O.] f.) [ O.3.I ) J D 9 2   O $ q f T 8.3.M.H.[ f.C.) Q 8.f.3.f.k O.Q ] ) ) o.) o.J 3.M.8.f.&.<.] ] Q.n T o.&.[ D.J V Q V x o.D ) s D y.V $ O       f [ &.y.8.O.3.<.) ) C.Q k J 8.] k s n T ) [ V r Q ) Y.O.O.f.0.I J D O.x f.] T o.] V 3.J n k q n 3.x q 9 r O       q I 8.f s < ] J V 9 Q Q O.o.j.<.; 2 s J 9 k J D s J s J ) Q &.O.<.] V T V y.k ) [ n [ r O.f x D &.q x 2 x $     O 2 ; Q ) x r ) D x Q.0.Y.Q o.r D ) 3.f n s r 2 s D k T T T J 3.o.k O.T ] I T <.] T V I J J D V o.x f k f 9 $ O     n r ; -.f s I x V D V D V k k r I f D s 2 r x 9 r s q f V k V x I J D f V s r r f D I s r r n D 9 2 2 9 ;     $ $ x q < n f ; k J D I Q Q J n k k r f q f s k < r 9 r n Q x f n T x D x x n r x n 2 q 2 r k x 2 k s q ;       $ ; O 2 < k k V ) V Q I n n k 9 9 s V 9 9 J s O s 9 9 r r 9 s x x r x f 9 q r r s f q 9 q ",
"Q.I.Q.j.*Xs.'.s./.tX[ M.c.Q.c.eX XeX9XsX;XC.&.Q.*X X] O. XD.+XM.c.) y.] [.H.c.&.) ] Y.8.&.I.Q k 2 O   O 2 I 8.j.*X,X/.C.O.3.+X8.O.C.+X*X'.H.*XT -.j.Y.c.D.[.9X[.c.,XC.M.8.f.0.[.sX) ] o.j.j.] H.I.M.y.Q f 0.Q ) c.[ 9 $     2 [ y.Y.j.C.Y.,X[.Y.+X-.&.c.*XC.D.Y.H.Y.-.c.] Q.Y.T *Xc.+XQ.) j.H.<.'.y.-.3.H.0.o.y.<.8.M.3.D o.y.j.&.J D -.r   ;   ; J y.C.C.s.-.*XC.Q.eXc.8.3.C.y.H.D j.c.Y.3.J T +X3.s D.Q.Q.4XM.y.] o.M.0.s.Q Q s.[.y.D I f.8.-.8.D k 8.D x r       r k n Q &.3.s.f.f.3.I 8.3.-.y.&.o.D D n 0.D V O.] [ n O.0.o.f.f.<.3.&.c.s I O.s.[ o.] 3.] s I T s.V q <.; f   O   2 q n 3.O.c.J ) f.0.Q [ O.D J D -.V < q 8.[ I &.D f n f 8.8.O.&.Q &.o.J 0.T s.[ T n ) s ] J n V s s T x s < 2       < T &.D 2 J Q 3.T &.x n J [ O.8.y.f 2 q D k n V 9 x V s x Q D [ o.O.&.n ) V [ D J J n T f ) f V f Q x n O q O   ; ; q s O.D 9 k ) o.&.I x n n k x I o.Q 9 f f s 2 n n k s V &.) Q I T ) [ Q n Q o.Q ) n I [ D ) <.] V r s 9 $ O O O $ [ J ; I k f Q n J V D k 9 9 r k D q n q 9 9 q q q 2 2 s x I D J J n n s x q r s x f n q 9 < f f 9 < ; $ O O ; 2 < s q f ) I s k k s r s r 2 ; $ 9 < r < r s x 2 < 2 2 k k r 9 x s s x k f s r s r r r 9 f q k 9 x 9 O   O O < r r k ; n V ) I Q s f r < ; < < ; O 2 O O s q < k 9 < 9 q 9 s x s r x f q r q r V r q 9 9 ",
"I./.I.8.;Xs.+X<.c.M.0.0.f.C.'.H.Q.,X,XlX+X'.j.;XI.y.T y. Xy.9X/.T O.+X[ f.H.c.I s.j.8.Q f.0.-.s ;     $ x <.j.s.Y.[.hXI.H.8.Q.) H.,XQ.&.[ I.FX&.-.j.C.-.&.eX9X4XM.eXf.I.s.y.y.'.I.M.f.D 8.&.8.c.M.M.] s.-.I k 3.j.J <   ;   V s.f.j./.;XM.*XQ.4X'.I.0./.M.) n '.H.M.[ -.o.9X&.J M.[.eXI.D Y./.O.s.j.Q 3.Q.c.Q O.) -.D.C.Q o.o.O.f ] J J 2       k j.I.o.j.Q M.'.;Xj.Y.D.s.j. XI M.3.H.j.f.[ c.C.0.n [ '.c.,XQ.s.j.] 3.D.V M.] &.<.Y.] r M.D.] <.x n n -.f 9 O     f r ] ] D 8.o.I &.Y.T ] j.] ] &.T I Q f <.] n Q V T -.&.f [ 3.&.c.&.M.<.&.k 3.0.I I.O.I o.<.Q n 3.I r T J q $ ; O   J ) D 3.&.s.<.O.3.c.J J 0.0.Q ) M.V V 3./.I r j.I q s V I f.f.Q I s.Q T <.3.J n 3.n ] x o.O.k n s k J I 2   $   $ < f [ O.-.) s.&.Q k s.V f s f k f ) x ; I x ; x k n n 9 x < I V x T O.] ] s &.) k D Q s n k k I D r r I x   ;     r 9 f D J ; J c.-.J I ) n 9 9 q   s 9 q 2 9 J 9 q f q f f s f $ f V V ] <.V x [ D V O.s I o.D [ H.n D s 9       O ; r V Q 2 r I T O.f n 2 r 2 ; q ; < ;   9 ; s 9 $ s < 2 k s s o.f r k f D r r s J f k 9 n n x 9 s 2 9 2 $     2 r r r q f T -.&.T V J n f r q 2 9 r < ; q $ ; < q O   9 9 s 2 q 9 n k k s 2 q 9 k r f k q 9 D s k $ 2     2 s r 9 r   x x f x f V q r s k s 9 9 q ; < < $ O $ ; < 9 2 $ 2 r r x x 9 r k s s s 2 q T q r 9 ; ",
"c. X[.f.C.H./.s.I.+XI -.+X Xs.&.c.4XlXeXhX+XY.c.Y.I.D C./.f.j.'.D.[ j.C.D.s.<.] 8.c.H.j.-.o.D <       $ O.o.I.M.'.C.hXQ.] 3.Q.j.'.I. XO.s.M.+Xj.0.y.] /.s.Q.4X4X'./.I.j. X0.[ [.s.s.f.o.<.H.8.] M.O.] ] C.o.Q T 3.V     O ; -.y.H.+Xs.9X8.'.eX/.f.M.I.s.+Xj.J s.I O.0.c.H.8.s.n c./.[.s.c.D.C.O.j.] c.&.C.&.o.0.O.O.j.&.[ <.Q 8.T o.n q       9 8.M.C.y.c.3.Y.<.c.I.+X8.Q.3.;XJ C.I y.8.<.&.I.f.<.q Q  X3.s.D.y.0.3.M.8.) I.] -.<.C.Q D j.Q T s.2 ) o.J ; <     s n <.o.V 0.D.y.-.D.Q &.-. Xs.x r 2 n [ -.o.n ) O.k r s I J s.f [ Q o.j.y.I T j.O.&.C.D O.-.D x O.r T k D r ;   O     s.y.k <.<.D.0.8.H.f.<.f < ; 9 r < q k V <.] 9 ] 2 r J ) x &.V x x I ] ) y.[ 9 -.&.k o.V o.o.n k k n n 9 2 $   ; ; f 3.O.) D J o.o.I.x D D f 2 2 9   2 <   ; q $ q q J D k ; x n q r n J J I ] ) D n D D k f V f V J s 9 r ; O     < n ) f f k 2 V ] ] r s f s s r q f $ k < < $ 2 k $ r < r 2 s s k V n J f x r V J T I -.f D T ) f n f < ; <   <   < s q x x n ] ] k f T f x J 9 s 9 9 r q <   2 <   $ O O ; r < r < q f q x n r 9 s f r k 9 V x 9 s 2 < O     $ < r s 2 n J k &.V x V T J D k T D r n x 9 s ; r     ; ; $ 2 r q < ; r V q J n s ; s 2 < q s q 9 q 2 $ ;   2 O s s q I ; 9 o.] <.I s k s f T J D s r D s s q 2 ; $ $ O   2 2 2 2 2 < 9 q n s q r s q 9 r 2 9 < $ ",
"I.+X[.O.3.[.[.c.c.tX&.f Y.9Xj.M.8. X4XeX,X4XD.O.[.H.8.+XC.<.o.[.s.o.c.M.y.0.f.o.o.y.D.s.] J f     ; 2 V j.C.+Xf.Q.j.+XH.M.eXeXY.H./.D.y.0.Y./.f.O.f.c.j.D.Q.Q.9X9XC.y.c.,Xc.&. Xc.s.3.-.c.M.-.H.s.T J [ Q.-.D f D $ $ 9 $ O.y.I.Y.Q.C.+Xo.c.tXH.s.s.D.f.s.[.3.x T f.f.Y.H.s.O.r c.4XD.[.D.3.c.0.-.D.&.c.D c.[.8.&.<.y.o.o.J [ 8.V s <     q f -.f.<.,XM.o.O.*X XO.I.I.[ s.k s.O.Y.I s.c.D Q 8.] k x V [ C.I 3.s.c.Q./.s.&.0.[ O.) 0.J I.I D y.-.  <.] < 9 $   D I O.H.Q J y.H.Y.D.[.O.Q f ] D 9 9 O ; 2 q 9 $ f n q 9 f I I y.J I [ I o.-.O.I 0.3.J s T o.D k O.J V o.9 ;   $ $ $ Q J <.3.y.] -.s.Y.<.f.k k < 9 f 9 $ $ 2 < 2 s 9 O k J q ) D k r D s I Q J &.T J V [ I s D n T V s f s r 9       < r < T -.n Q 8.D.O.V Q k q s r f q q D r   9 ; <   ; $ q q r q 2 < r J [ T k D D J D k s k J x n r f s ; O O   q 9 x ; I T x s J ) n f V T V J I T D k Q x f k q 2 < 2 O O 2 q 2 r r s k k V f x r f k f q x s k f x 2 q ;   O   $ f < < r D J y.J k k f o.) V T f.Q 9 [ J D f D 9   $ O O   $ < s r q 9 f x V s k 9 n q s 2 f 2 r q $ ; ; $ $ < 2 q r s s f J I V J x J Q I Q T V D V s k x x n q f 9 $ $ O O ; 2 9 ; ; 2 f D 9 f T 2 r f q < 9 q < ; 9 q 2 < 9 9 s s s n r x ) T I J D ) x D ) D f < 9 V k n q 2 r r ; O ;   O ; 2 2 < 9 r s s s s f k s q 9 r 2 ; ",
"*X4X X3.3. Xc.] s.9X;XJ 3.[.j.f.j.8.f.sX;X4XI.M.;X-.O.'.c.H.-. XQ.8.-.<.8.c.I.) s.c.M.3.I k q O     r j.Y.j./. X'.;X8.-.c.4X;XI s.D.3.c.c.I.H.M.[ -.3.3.f.I.4XY.tX XD.3.y.<.0.[.f.O.<.[ I.Y.D.Q.o.V J O.Q.-.x 2 r   O   f.Y.I./.8.D.4X/.H.[.[.*X[.J k D.Y.eXy.I 3.y.T M.0.O.k k <. X[ j.f.j.Q.D.I 8.s.c.f.[ I.n 3.s.<.) o.q &.3.k < q   O x D f.Q.*X/.] /./.I.Q.4X8.*X] Q Q n [ 3.k ] 0.D 0.[ k ] I ] 3.D '.8.T y.I.y.-.s.-.-.T [ 0.0.C.q I Q.V V s $   O   q 8.[ f.C.k Q 3.Y.Y.8.y.I k ; 2 2 q 9 ; 9 < < ; O < k x s n n x T k r &.I D V Q x O.s.&.; 3.&.Q D o.r f x   O   $ $ D f.x T s.o.j.-.8.k x f s D x k V f s k q $ $ O $ O $ n   r q r V r s r q n J D s V k s V f s r q 9 s 9 $ O   O < f n q ) o.V O.I.f.) I r D &.3.D n V n ) k s q r <   O   O $ q r $ 2 k n V k 2 I x f x f 2 q V q 9 < 2 2 $ 9 $ q x 2 x 2 I I V ) D T x T <.s.D Q T &.-.k J J D J k f 2 $ $   ; 9 < q 9 q s r n f x x s k r 9 < 2 q $ < < q ; ; < O 9 D f r k ] &.8.V V o.[ <.3.T V O.<.q -.) x V ] k < 9 ;   O   O 9 f < 9 r r x r 9 9 n V x 2 2 < < q < ; q 2 ; q q q r 9 q D ) D J V I o.O.) Q Q D f x x r x D D f k D 9 $ O O O $ ; ; ; 2 q q $ 9 x 2 n J f k x n r < f V r r q f q r f r n I D T k I o.8.J k V k s 9 2 s q n s q f f 9 ; ;   O $ < ; ; < 9 9 r r q s n k q q s 9 ; ",
"/.9Xy.I.I.H.Y.J O.I.tX&.8.D.c.j.C.D [ 9X;X+X'.;X+X[ [ Y.c.;X8.s.,Xc.Q O.C.D.f.D Y.f.<.o.D q O     x &.Y.C.Y.+XY.M.I.I.+X[.D.0./.f.Q.j.3.C.y.c.o.-.) I.c.&./.0.<.c./.[.s.&.f.[.eXC.) I.3.j.8.c.) Q ) O.-.f.T s 9   r O V H.I.D./.H.M.;X8. XBXs.'.9Xf.k O.f.[.J r J 0.[ O.V j.j.&.&.c.[ o.j.M.C.c.-.0.0.c.M.-.I ] 3.c.0.&.&.k o.] s $ $   9 o.0.I.j.'.8.8.+XY.Y.j.0.x f x k 9 k   < < 9 q x y.x q [ J Q 0.f y.J -.o.&.Q [ o.I -.o.<.0.j.Q x ] o.; $ 9   9 V r r 3.-.o.J -. Xs.3.k V V n I Q V n J V f f < ; O ; ; $ s 2 k f k n V < Q J n k n f Q [ &.2 [ D T n f 2 ;     2 < r J 8.o.) ] y.f.M.8.I I D ] [.f.c.) 3.T Q D x V f q < O O $   2 O.-.x   k D n V q 9 x x s r V 2 9 2 2 2 r ;   $ < f k q D D ] O.o.O.D [ ) T &.[ -.C.I ] [ I T D V 2 ] f < < ; O   < < $ s n q 9 s 9 J f q s x k s s q < 2 9 9 < f ; q f f r 2 9 &.D.) I o.&.-.&.3.O.<.n ) s.V f D T I J n s ; 9   O ; $ 9 9 9 r r x s n I f x r s < $ r < < 9 x r r r 9 r J x s Q 8.] V I ) y.0.T s.T Q n <.n ) &.f D D k V x < < <     $ s   < 2 $ 2 k ; q 9 [ n 2 < q 9 n k 2 f s x D k s k q f O.[ V ) O.&.-.) ] T Q I r n J s D V x r r ) s ; ; O     $ < < 9 q $ s q 9 x I D T I V D x q x I f s s r 2 s x f I T V ) J I O.O.k V x f x x 9 < 9 s k f q r f r $ $ O O $ ; $ ; 2 9 9 < < 9 f f r q f q ; ",
",Xf.C.8.0.4Xs.y.-.C.M.[ Q.s.3.D.3.D y.H./. X;XY.-.0.Y.*X3.H.8.<.Y.H.O.s.'.y.) ) Y.<.) ] V $   O x &.f.Q.M.*X[.3.+XhX-.C.c.T 8.I.O.Y.C.T f.f.Q.Q 3.8.[ o.<.s.[ Q <.c.Q.Q.c.M.I.C.) k I.D.0.[ y.8.&.y.y.) T r ; ; $ ; n I.C.C.Y.f. XD.*Xy.-.M.J Q V Q 2 O f [ f f V 8.M.8.s o.y.I J ) O.&.Q.[ &.0.0.c.8.j.3.I.) s.I &.&.) J f 9 ; $   $ J 8.c.j.0.*X*XQ 8.Y.3.D I x I n J [ J J I q r q   $ k ; s [ 0.s j.) y.j.f.M.T x [ I J ) T [ T n x I J   O $ ; 9 8.I 2 n D.c.) ) H.D.T J ) ] Q -.c.H.3.[ -.Q J T x f < 9     <   2 9 x x J 9 9 k n Q n n V x s ; f 2 q 2 9 < 2 $ $ < f T M.o.-.o.s.[ C.O.) -.8.] D Y.*XQ Q [.o.) s n 8.I x 2 2 ;   O ; 8.8.$ 2 f -.[ n T r ) V Q r q r f r 9 < 9 $ $ 9 s J f q D ] j.3.] I Q o.y.<.J O.y.<.x y.] T o.I q s y.D s 9 r <     $   q k s x D r s f s s x J V s 2 ; q s n s D r k V f r r x 3.C.) -.8.j.<.T D -.D.n f 3.Q J I V I ) n n 9 f s O O   < 2 9 r q k 9 k J q q 2 s ; $ D n s r V s r k n s V x s 3.f.J o.j.-.&.<.Q 0.n -.] I x J O.k V q x ) f q n 2 ;     9   2 9 ; < x 2 r ; I f < f n k I D 9 s f J I x f n f n -.[ ) &.s.o.-.V I T ] Q f V I s V n f r 9 T k < 2 < O     $ < 2 q q q < 9 n q 9 I n 2 q k r k V f q f < 2 x V T ] ] ) &.&.V J k < <.T k n V 9 < n r f f q q s s 9 < O     ; 2 9 9 9 ; $ < 9 9 9 r q f r ; ",
"+XY.<.3.8.H.[.s.-.O.o.&.H.] &.s.3.[ I.8.H.Y.+XH.T /.hX XQ -.0.s.M.Q.0.j.I.<.J 0.C.[ V x <   $ n s.c.C./.H.+X[.D.s.tX*X3.I V q q O s 9 ; x V [ n <.x O.D [ s.] <.I <.s.c.y.I.*XY.T -.C.M.&.8.[ 3.8.s.O.s 2 O     3.k 3.Y.Q.'.'.Y.Y. XM.<.V k k D Q n f f 2 $ $ ; < O x ] n D O.] n [ o.&.Q.Q y.-.) Q o.O.3.o.<.I T ) ) n r s $ 2 ; 9 J '.Q.y.-.3.[. XH.f.] -.o.j.3.s.s.<.[ o.y.C.[ r f q ;   < < x O.9 [ ] D.3.k I.) ) y.o.I x k n r 2 q I < 9 2 k < D f.r s M.Q.Q &.*XQ.O.[ Q y.s.3.f.H.H.8.o.s.O.] O.T I f T r 9 9   $ $ r 9 k 2 ; k n O.f f k D s J f r 2 ; ; 2 s n f r o.o.c.8.D.O.<.) I ] 8. Xs.Q -.c.8.s.] D.[ o.x I y.Q T 9 k q ;     q < ; f J I k n ] ) T k Q q k &.V ; s 2 q q r f k I n J V T '.y.T o.0.H.0.8.o.3.Q c.) -.n ) T x f J &.x k 9 f s O O     2 r q s k q r n D x k n n k s 9 f k T f D s n T < k J s.-.Q 3.f.-.8.3.O.n T s.Q x ) D I I r ] Q n I s f T 2 O   $ $ < 9 2 r ; q n q 2 q x r 2 Q ) J f D x f &.I q x T I 3.O.) c.f.y.<.[ 3.[ Q ) O.r J I x J J r D Q 9 x o.9 q O   O   < r q q 2 r q f q q 9 V n f n n 9 r n k n k k V n D o.[ 3.3.y.T <.Q T I ) T k x k q s D x f q n k < 2 q ; O     O ; 2 9 ; q q 9 2 f s s ; 2 f s s f s 9 s < q n T O.o.&.<.-.3.n n f q o.D f f x q < Q x q 9 k k r r x q ;     $ ; < 2 2 ; ; q q < < 9 9 k r < ",
"[ n q s f n o.V f ; x ] &.V O.O.s.o.H.<.I.0.f.D.j.;X4Xf.[ 3.-.8.c.Y.M.s.8.3.Q <.[ x 2 O   O D <.I.+X+XQ.Y.4X*XI.T O.x n I q n r n q 2 r 9 ; 2 q q n y.M.Q Q <.-.<.C.M.M.&.s.I.C.I o.<.o.o.M.-.O.] ) k ; ; < 2 k I.H.y.;X0.,XD.lX'.I.Q I o.&.&.<.C.f.y.-.I ] ] 2 2 < < ; 2 V T I o.s.3.3.8.<.s.8.Q I f J J s T V k q s < 9 ; < x n J -.'.3.8.s.,X*XsXH.o.C.I.3.D./.T *X-.J H.&.D.&.V n V s O 2   $ r J f f.D $ -.0.3.f.c.3.k n ] x s ] x Q s Q f q 8.<.n ] s./.&.8.C.C.] &.C.D.f.C.8.3.y.0.-.) 0.8.O.O.D x q &.[ n 9       2 2 r O x V k &.n 2 x ) V O.x V s k < T k D D V M.[ <.[.3.Q.T &.&.y.;Xy.J /./.8.J 3.3.&.O.&.o.[ ] T [ f n k x < $     $ < I k s J f V x r k r T y.x 9 V q s k n n k I ] ) x x Q.0.-.D.y.o.o.M.s.3.D &.<.I k ] V s Q D D s J r k x 2 < O O ; < $ $ q V n k x V k 9 s D Q V n k Q 2 q 2 < D q T ] f.0.s.y.s.8.<.O.] T ) I O.T I k D J s <.x T o.n s I r 2   O   $ 2 < q 2 r x x q n J x r I ] [ k n n D s.x n J <.3.o.[ 8.0.Q <.&.Q 3.I -.n ) f ] Q x [ T k D I q n o.s 9 ; $       2 2 9 O q 9 n 2 r q J f q s V k r I k x V J T ] &.8.3.s.<.<.Q O.&.) V J n x s 9 r r V x x s r x 2 9 r 2 ; $     O ; < r n 9 s V I r f s f k f s r s s s n f V &.<.-.3.f.-.[ J V T x f k x r s r 2 T V 9 < x V s r n s 9 ; O     O $ ; < 9 q 9 < 2 9 q x f < ",
"s.f k k r $ 2 r 2 < $ $ J x s x -.] C.-.H.] D O.c.C.M.O.M./.3.3.&.C.[.c.) -.I D r < ; < f O.C.Y. XM.M.'.,XY.&.o.) ) O.] o.T <.j.] J Q q ; < 9     q 2 V s 3.Q 3.] &.3.[.c.O.[ O.8.n -.) ] I T x f s ; < s x I 0.*XI.-. Xf. X XD.3.J M.Y.c.D.s.<.C.I.M.s.O.0.3.I 9 r $ $ $ ; 9 3.f D O.y.V -.T Y.o.0.] x ] D V Q f r I Q 3.V ) <.Q [ s.Q.&.Y.c.+XC.-.-.D.[.0. XQ.y.0.M.8.0.&.V x <.D.<.Q D q s ; O   $ T f x Q M.Y.c.] I M.[ O.-.J n s.c.-.<.r x M.8.-.T y.&.Q.o.f.Q.O.3.;Xy.Y.f.[.f.-.<.<.3.T -.o.o.f.8.o.s ] n [ k 2 O       O O [ k 9 0.-.q V -.x J n ) V &.o.j.x n D n C.[ s.8.o.I.3.<.H.tXM.T Q.Q.s.] [ [ -.8.0.Q O.O.x I o.Q J V n r O   $ $ <   s D k k r x n f x I I 2 [ J q r k n x f T O.n f n j.3.C. XC.3.] J s.-.D [ T ) V I &.n J s n n O.x x k < ; ;     O < 9 D 0.J < ; n V 2 r ] n s r q ) q x D [ T f Q 0.<.y.H.C.&.<.-.O.I ) D x -.Q T I ) T x 0.< [ 8.J r x s s ; O     < ; q k x x D r D D f x V Q o.f r k D o.< &.&.s.s.[ c.Y.y.O.) J [ 0.&.V n I f V V Q ] T f f J k f J f < < 9   ;     O 2 2 2 q s f r < ] k q s J D q J s f n D J o.y.f.C.f.&.&.[ J [ I k V k n s 9 n x k k n k < n r s q 9 2 ; O   O < ; s q ; I f < q q x x s r r r s V k O.J J s.0.0.y.C.&.D T n ] s r I Q r 9 r 9 Q V q 2 s V n f s 9 2 ; $     O ; ; q q < $ < 9 9 s n k 2 ",
"] [ ) [ ] V x f s ; <   $ 9   < 9 -.-.f.I Q -.C./.I.3.c.0.c.&.-.8.j.&.[ ] x s q < r < k M.Y./.I.I./.+X[.M.8.<.3.D.Q.C.Y.-.s.c.j.-.o.c.Q J q s 2   O <   < I j.J f c.I.Q.c.j.D O.O.[ x x T r D k k 9 x f y. X8.H.I.c.Q./.,XlXj.] 3.D.c.[.H.H.Q.&.Y.[ -.M.y.D.0.&.V T D < < ;   2 n ) ] -.] [ O.<.] o.s.f.0.] Q.o.<.J ] f f.s.Q x C.<.[.3.j. XM.Q.<.M.Q.Q.H.f.I.s.Q ;Xy.s.-.c.C.f T I.j.&.r f 9 f ;     < 9 s T 3.f.8.x I 0.&.y.r V M.8.-.) 8.q Q &.&.3.f.j.o.j.C.0.&.f.H. XO.<.0.H.D.o.) <.T f.] &.c.o.D &.Q f ] 3.n O k ; <   O O k q s j.f q [ ) T s o.Q 8.&.T T x J ] D '.Q.J C.T C.O.C.[.+XO.D.'.o.[ O.f.c.] [ j.T 3.J T J y.k T f x V 2 O ;     2 $ 9 O 2 D 8.s < r Q [ n <.x 9 q q 2 f n D J q ] 3.s.j.Y.s.0.V <.J c.y.k ) 8.x I V 8.x O.D I x n q I J 2 9 $ ;     $ f ) I J O q ) 9 n 2 D V Q f ; f x k T V s x 3.c.&.M.j.3.j.<.V T x y.) f [ f.r n o.&.n T s D c.) q T ; n f $ O     ; < < r r f s s f ; s k o.O.V 2 ) ] Q 2 j.s.+Xj.M.C. XH.<.[ ) Q T k I Q ] V k &.I ) T $ T T f J n x 2 s q ; O     ; < $ 2 k 2 J 9 q V k r 9 D s k I s k I x 3.M.j.c./.O.<.y.Q k k V r I f n J k O J T D k n 9 q q r 2 9 2 $ O O $ O ; 9 9 < x 2 2 2 J k q f k 9 q J D s x s O.j.s.s.j.8.3.J s r I J k f V q f 9 q x r x s f f D 9 k s < ; 2 <     $ O 2 9 ; 2 s r ; r 9 q f ",
"s.y.M.0.I.O.J &.Q T 9 9   ;   O 2 r O.C.D s &.M.s.H.H.f.&.) [ n J V q V D < r T ] [ o.T '.C.I.+XtX XtXH.j.y.8.j.+X'.s.'.0.O.s.'.M.<.D.j.[ k O.f r ;   O < J Q 2 r 3.j.o.&.s.&.[ I.&.&.V s O.&.x ) r y.D.H.-.H.lX/.<./.,XhX0.c.[.[.D.D.c.8.H.D.H.0.[.y.T o.D.D.O.8.&.[ k ; < $ $ < s J s.3.-.I ) T 0.<.o.3.-.c.j.0.] -.[ j./.y.) 8.I.C./.eX*X0.f.H.[.Y.M.4XM.0.0.O.0.Y.O.&.D.J O.C.3.o.y.&.Q q r q $   O   ; D 0.Q &.[ V y.8.C.f [ ,X0.9 o.f.D &.D ) Q M.0.n ] sX8.H.+X/./.3.3.f.D.&.s.8.s.3.0.j.3.-.n V <.] V <.&.k 9 T < $   O   x k V -.f k <.T J <.n V O.c.9 T y.T k I c.[.) ] ] 0.f.I.y.8.f.'. X) ] s.y.8.I 8.) ) -.] Q s C.s J J r T q q       ; ; x f s n s.x 9 n [ V ] k < k 9 < D J f Q k J [.j.c.Y.Q.[ ] s.-.o.O.[ V [ O.o.] T n x T n I ) s q J D r f 2 <     O 2 f 2   9 2 k 9 J r s -.I 9 r D x x o.x k I I.c.f.[.-.[ 8.<.O.T f &.[ T ) I.V n s &.x V V x [ I f T s x q q O       r k Q q f < J k 2 x q -.Q n x f k I s O.c.'.f.I.I.y.C.3.O.T T ) V J x <.J J I D r I r ) ] s T I f 2 s r < $ O   ; ; $ 2 n q f 9 x k k f 2 s 9 x ) r s V k -.c.C.Q.Y.<.Q &.J s T V D J D x x k f k V k r s q J k q k s q < $       $ ; ; ; r q s r r q 9 r k s r k k V V s &.j.M.M.[.o.D D T f n J J x x q f s < 2 r x f k k J r x s 2 ; 2 <     O O ; < 9 q s r 9 n s q s ",
"D.<.Y.-.M.0.<.<.3.o.r V s O O     s 3.) k O.M.<.j.-.<.s.3.<.I.C.3.-.Q ] ] J [ s.-.Y.<.D. XC./.tXeXsX[.y.C.I.eX3.+X X0.Q.f.[ 3.[.c.j.f.3.T I H.Q f <   ;   q < 2 V M.c.k s.j.o.) s.0.s.[ [ D.M.y.M.f.+XQ.o.C.,X X0.&.c.,X Xf.Y.'.eXI.I.M.<.M.0.c.3.'.D.O.8.c.s.<.y.0.M.&.2 ; $ O $ $ q ] ) 3.J ] Q M.f.&.o.j.j.j.y.Q 3.H.j.C.y.j.3.j.H.;XI.+Xs.D.H.M.Y.M.O.[ s.I.n -.Y.j.Q.D.) f.y.I ] 3.[ ) k x x 2       O T D.) V O.x O.T y.r O.'.3.q T 0.3.&.[ c.j.j.[ T <.+Xj. X+XI.'.c.<.j.0.-.&.M.s.-.s.&.] O.J n o.&.) ] [ x x o.9 O   O O $ ; 2 ] x n k ] 3.x r 8.[ q 8.] O.Q k J j.hX8.J M.c.C.M.f.<.3.I.j.) Q M.s.] ) T 0.-.Q D J Q O.x ) ] q x 9 x < O     ; D J s 9 n q ] n ] 0.V ; s [ Q s x k x ) x n '.C.'.[.D.[ -.C.J J <.8.T J D [ 8.Q D r T x [ 0.s s J x q x r 2       $ 2   V D q r q o.O.s O.k < f V k n [ n T ) H.y.D.[.) -.-.o.y.] V I D Q -.) k Q n x x V o.n k J D J V n q V <   ; $ J x I n q n f k 9 n J M.&.V V k x V V J C.Y.c.[.Q.O.D.-.o.D I ) n [ f -.J D x J s J s J &.s J T s 2 s r < ; O   $ ; x k s 2 s f 9 k x k 2 q 9 k J q r x x 3.M.Y.*XH.&.Q T n D ) D T x J s r x ) q f s s 9 9 ] V q k q 2 < ; O     O $ ; 9 9 x x f f n x k V D f q q I V f 3.j.I.Y.'.] n J Q 9 f [ k n n f r s < r s k k k x D s k r 9 2 2 < $     $ O ; q s q 9 r V f q q ",
"/.H.j.J H.f.o.f.D.Q n T &.9 2 O $ $ s 2 n [ O.0.&.k T C.y.H./.'.Y.0.[ 8.H.I.I.Q.y.f./.Q.I.;XC.hX9XQ.y.Q.,XY.,Xf.H. Xc.j.j.f.-.s.<.D.0.-.<.<.M.&.D r 9 $       r f J [ s O.y.y.) -.'.'.0.3.c.Y.0.9X[ 3./.C.Y.I.tX] &.j.I.D.,X,Xs. X/.D.Q.j.j.s.&.&.H.4XT V Q.I.8.O.s.D.<.s s 2 $     9 V J j.I D 3.o.H.[.O.8.y.3.O.<.f.s.-.D.f.8.j.f.M.Q.<.'.I.+X X;XD.O.O.s.<.Y.T c.-.3.0.o.s.c.&.o.3.-.J o.J 3.J r ; $     J M.[ I M.O.o.Q j.] 3.j.-.) x ) s.3.T y.'.<.D <. Xj.'.'.M.j./.j.) M.c.-.f.j.) Q.[ J V &.-.) [ O.Q V T T D Q f 9   O     f 2 Q f J r f.[ x T x 3.-.y.[ r D V V j.[.0.M.D.H.4XI.j.8.M.H.[ 8.[ j.M.] <.J 0.] T J J ] D n O.&.J 9 q f r ;     O k n <   J y.n s n I 9 r x D ) k $ V j.O.V Q s.M.;XQ.f.y.-.3.) f c.8.I Q J Q -.Q [ s T D [ 0.V s Q x 9 x r 9 O     $ s r r Q r 9 Q ) r s f r s k s k J D f ] o.8.c./.M.[ 3.[ [ 0.O.T D s o.8.f k s.&.n x J -.I f D D x n n r x ;       f q x Q D &.< r k s [ 8.[ k s I x x D Q j.H.H.+XI.-.M.Q ) J Q ] n O.n I D x V D J T r r 3.x n D f 2 s r < ; O     < V f 2 9 q k $ n k s q k x f q s s x J f.C.Q.*XM.Q <.D n -.D D D r n f s J [ r r s n r < I k r f 2 $ < 2 $   O O $ q x q J n f s x k s x x r 9 ; J k k 0.y.D./.c.[ I D J 9 x o.s x k k q x q x k f k f k V r q q q q 2 ; $ O   $ O ; 2 9 9 2 9 s r q q ",
";XH.f.j.s.8.<.-.+Xo.T T &.) k < $     < r V J s.k f y.c.&.D.H.Q. X) V j.4X*XI.I.Q.M.4Xc.Y.H.;X/. Xs.'.4X X X8.D.j.'.H.<.c.+X<.[ o.f.f.C.M.y.O.I &.D D 2 ; O   $ ; T V < &.C.y.M.&.y./.3.o.H.sX-.0.y.H.y.*XC. X;Xs.o./.M.[.;X9XH.'./.c.D.f.H.Q.s.I j.+XQ V /.I.8.<.c.8.Q V [ f 2 2 $ O $ 2 3.Q o.j.r c.lX8.Q -.y.O.3.3.y.C.Y.-.Q C./.-.I.[.Q. X+XQ.'. X] C.H.C.s.<.0.<.f.] [ ] [ s.s.O.o.] s.D s.Q f 2 <     q ] q 0./.o.I ) o.&.I.H.8.T D V s.C.D ] H.y.] <.'.I.,X Xf.0.C.3.[ I.j.3.y.j.f [.T T ) O.<.3.-.] Q ] J O.D f n x   O     9 q J T Q k ] 3.y.f T Q y.j.x V n ] [ H.c.I.Y.H.+X;XY.c.3./.'.[ 3.[ O.3.&.] [ o.] V x 8.I D x T <.O.k r q < ;       9 f 2 9 T T ; T <.D s &.x 9 k 9 2 &.[.J f '.M.H.'.D.0.0.o.&.[ V D.] D [ <.&.D T I T I J J T Q q [ V q n 9 2 $ $   O k V 2 2 J f 9 q 9 D 9 r n x r n I f s D 0.y.'.;Xc.<.Q I o.[ ] ) T n [ I ) x s.I o.q x Q ) n n x q r T D s <         < V V o.[ f 9 D x Q J x s D ) D f x 8.3.C./. Xc.<.8.D ) Q Q ] J J n f n T J s D ) x 9 <.D n D f q k s 9 < O     $ 9 $ q s O 9 f k f r f k n s ; x f f J c.D./.+Xs.Q 3.J n &.n n V k f n k I D s f s k f 2 n r q V r 2 9 9 $     O $ r x 9 D k k q r q r f f f V f T n T H.c.I.*Xs.Q V x I n J J D n q q s J q q x s k s k n r 2 9 r s 9 ; $ O   O ; < ; < 9 q 9 2 q r r ",
"<.;XH.M.0.j.O.] '.0.Q T n f.Q f <   < O   ) <.D n V I.j.f.y.c./.H.3.0.D.'.'.D.j.sXD.BX8.s.;X'.'.H./.;X;XI.+X3.8.C.Q.c.[ M.;X0.) -.j.M.M.] y.s.T o.I [ n r         q V x k y.s.] I.o.D.0.y.Q.f.Q 8.;XY.Q. Xo.I.,X'.3.[.[.,X4X/.H.'.I.M.f.3.Q./.D.] M.8.M.M.8.-.0.<.M.8.o.] <.f q $     q x T x I -.n s.+X3.&.0.H.[.0.V O.y.-.o./.I.s.y.;XeX'. X,X<.D.D./.D I.M.s.c.-.[ f.) <.&.<.&.M.[ J O.D.Q -.J s 2 < $     q s c.3.I [ -.T M. Xc.s.D J Q Y.c.[ <.0.c.j.C.j.*X,X Xy.-.j.f.C.D.&.-.[ C.x f.[ 0.o.&.[ ) o.&.&.&.D O.V 9 D D ; O $     9 x <.I I 3.V D x 8.Q 3.J s &.J M.] f.D.Y.M.[.*Xs.D.H.[ f.*X3.I [ I T s.n O.8.O.Q f ] T I J s &.) I q k < $ O   O ; f f T /.n n s ) n I -.s V n q T &.s.q s eXM././.C.O.T T s.T o.0.n D [ <.[ V x o.] Q f V f [ s ) x s f r 9 $ ;     q s s D Q O k f 9 -.x r f x k V V r T x c.M.I.[.H.3.J J ) x Q <.Q n V V J n o.Q ) r r n ] D n V 9 s Q J r q 2   $   2 x s k V k f f T D T f s o.T o.s s c.O.C.[.[.c.0.o.Q [ Q V T J n n k k O.V r V T T s T n D V q f n k q 2 $       r q r q < 9 V r r s n r f f s x f q n j.D.[.+X8.&.) J V J J x D V s V s k 2 2 V f 9 k r x s 9 n s 2 9 2 $     O   q 9 < f s V k s q f n k n ] r f r J j.0.j.'.s.D x V I D I n x x f 9 q x 9 r x r n s f x f q 9 r s 9 ; O O     ; < < 2 r f s f k k r ",
"o.D././.O.Q.c.) f.f.O.3.n j.&.J f         r ) q n ] c.C. X-.-.8.0.C./.s.y.*X[.y.[.9X+XD.C.,X*X/.'.;XD.9X;Xc.3.0.I.[.8.] c.Q.C.o.8./.M.C.T <.Y.c.) I ] o.f   $     2 D Q [ c.y.3.j.[ j.D.M.'.-.s.D. Xj.+Xy.f.C.*X*XY./.;X;XtXI.f.C.D.j.C.0.c.I.c.s.[.O.c.0.0.y.<.-.y.s.M.-.-.s r r       2 r T 3.] -.y.Y.&.D.C.Y.f.s.O.M.-.<.O.M.H.[ Y.4X'.;X X,XQ.I.C.-.M.<.y.-.] [ Q f.s.c.y.[ I j.y.I &.s.<.&.V s 9 2 ;     $ 9 D f T T &.<.I.C.8.O.J k 3.D.c.I 3.<.&.y./.H.;X'.Q.0.&.f.j. X0.3.J s.c.Q C.I Q.] <.[ D ] <.&.] D I n f V V 9     O O r n ] J s.k ] Q O.f V 3.) J [ D Y.n ] <.<.'.[.I.c.D.y.Q s.[.3.T -.) o.s.[ -.&.T 8.) ; n ) T s -.Q n r J k < O   O O r s ] Q V x x -.n f.k < I V k 3.Q ] n k I.y.[.Q.j.o.x k M.o.O.n x J 3.o.V I k c.J Q s I f ] V V r D r J s O $     < < k 9 J k ) D x s n f f x x x k q Q ) y.C.M.H.H.3.T ) Q k Q f.J x Q ] k ) J s.I D s I o.x V T q V x r r 2 ; $   O 9 9 q 2 x r n r J x D x k ] x ) f r j.O.C. X+XY.c.T o.Q J k J V V D k J ) D k J D T x k x V k f f n f 9 2 $       n f 2 < D r k q r k J q s k V s f q V j.D.[.[.8.&.V D V x J n V k k x 9 9 q 9 V n < x s s n r s q 2 < < ; O   O   r < 9 q 9 I f r q s x s s V V k D Q c.c.H.;X8.V J I n k Q k q x J r q q q x k r J k s r k s r q 9 9 < $       O < 9 q r r f V n f 9 ",
"s.-.f.Q.0.I.-.8.<.f.s./.<.<.<.T f 2 O   2   s n q s.-.0.C.0.c.c.[./.Y.3.j.sX+XO.j.,X*XD.,X,X[.I./.9X;X X[.f.O.y./.9X3.O.c.D.[.-.] H.-.;Xc.D &.I.<.Q D 3.n < <   ;   x [ Q &.y.8.c.I.+X;XJ c.D.y. X3.I.Y.[ '.s.s.sX;X;X'.eX'.+XH.8.I.3.'.c.-.'.f.y.c.3.H.o.I.C.Q f.&.&.D.-.&.k s s 2 $   < s 3.M.<.<.<.,X3.H.c.H.'.f.T D.J &.<./.f.D.C.'. X4X XI.4Xf.] Q.8.s.s.O.y.y.<.J -.Y.c.0.) O.0.[ 3.V [ -.J x r 9 ;       x V s.Q.x O./.8.<.D.k n r f.I [.I -.H.o.[ j.[.+XD.H.c.0.8.] /.O.&.Q -.y.-.&.Q s.[ &.o.o.3.[ D ) J f n J n k r   O   $   o.I D 3.I y.q I J &.s.-.V x s c.&.8.J C.I.,X*XY.O.8.M.c.j.J [ &.T <.Q 3.) n ] J ) T n r V x 8.<.s k D D 9 $   O   < ; D s V I r Q n V r n J f k 3.x J x x j.I.+Xj.s.8.D ) 8.Q r s s.) [ -.V x Q f.x k D T x I Q k q o.f -.V O O O   2 ; s 2 r k <.f k f r x D n k k f r q 3.&.D./.I.M.0.V &.o.J J f.x Q 0.D T -.9 &.[ k x o.O.q V ] 9 J n q V q ; <   $ 2 r 2 ) x V x J ) I q I ) ] V k k s y.3.D.+X4X;XD.x ] n V n Q V f D f 3.D ) k D J I n k J x f T s k s 2 < O     $ q $ < q ] 9 k s r k ) f k x V 9 k f I M.D.[./.y.) J n D J x D n q V k 9 q T n f I q V q 2 D k f s q 2 < ; O   O   k 9 f 9 < I s r q s n k r s f 9 n n -.s.c.[.3.D Q D s n [ q k n T r f r r s k s Q k 9 < f f f q < 2 2 ;     O   ; s s 2 2 s x k r 9 ",
"8.8.D.Q.-.M.8.[ ] '.] f.0.) C.-.x r     O   $ q < y.O.s.0.8. XC.-.+XQ.M.D.sXD.3.s./. X+X+XtX*X*X*XQ.[.Y.M.[.f.y.O.eXM.) 3.f.9Xc.[ M.[ 3.[.) <.c.I.) I &.&.9 <     $ 2 V o.[ ) &.+X'.'.+XD D.Y.o.*X) /.[.f.Y.j.C.hX/.*XI.4X3.[.[.8.O.I.j.Q j.D.tXc.] j.H.o.c.[ &. XI.I o.D.f.x k x $   $ O ; x ] c.J 3.*X<.O.) j.C.y.) O.n O.c.0.0.M.eX9X,X*X XC. X0.[ C.s.c.M.y.f.3.3.x T y.+X0.[ ] s.o.s.J k 0.M.k n x <   <   D ) O.8.T ) 8.[.s.[ D T 3.M.k y.&.0.J 3.Y.c.'.,X4Xj.Y.c.J -.j.[ &.8.3.j.] O.o.T O.3.3.f -.H.D T V &.J x J V x   $     2 I ; O.I [ ] n ) Q 3.O.f.] r s Q.-.T 3.C.Q.*X X[.s.f.D.C.j.s o.&.n <.T O.3.O.q V [ T f T j.f I O.9 V V s 9 $       ; r r s x q r r ) Q J 2 [ n x J r s J ) H.Y. XH.C.0.I -.0.o.q j.0.) [ &.s D 0.Q s T o.q ) I &.x V k f J q 9   $   O q n ; q x ) J < V k r V T V f ] s s Y.3.y.[.Q.M.s.C.J ) ] x [ O.T &.s ] ) r o.8.Q x x O.x r D s I k f k V 2   $ $ < 9 x 2 r J <.J r k f Q I n Q D D s <.0.I.Q.;X'.<.I x V I V [ x x I &.] k r ] s T n n s Q T V r k D 9 9 9         9 ; r f D f n f q x x 9 V q k 9 n s I y.M.Y.Y.) Q Q n n I n f r D s s I D o.q r x D 9 < k x n s 9 f ; < O   O O   9 s I r < 2 q Q k k q k x s n 2 s n ) s.C.[.0.] T f n x D s k D V 2 x k f q n s r x s r n r r 9 9 r 9 O   O   O ; 9 2 r n < s s s q ",
"8.n D.*X3.j.-.8.M.D.) o.j.f.&.8.Q f <           r <.8.o.<.j. Xf.-./.,Xs.H.*Xy.Q.Y.Y.tXH. X4XQ.nX9X'.[.[.j.D.<.j.3.H.-.y.c.o.Y.eX'.j.O.O.0.s.H.f.[ J y.<.V n ; O     $ k O.<.3.c.f.c.4XC.) C.<.O.*Xj.C.,XM.s.eXy.,X+X[.Q.tXM.'.Q.[ c.f.c.D.y.) y.H.3.D.8.8.<.j.Y.Q.C.T ) j.c.J < T q O     2 [ C.H.T 0.+X8.y.o.M.j.) D ) Q C.&.s.O.3.;X,X*X+X X'./.f.c.] I.0.3.0.j.3.<.J &.<.Q.C.O.&.<.n <.3.V 8.D.Q V s 9   O   q s r V s.) <.I.o.k 8.H.O.y.k ) &.O.) [ C.H.eX+X Xf.D.Q -.I.O.[ Y.] o.j.) c.I -.[ o.o.Q D.8.n [ k c.O.s D x 2 2 O   $   n f ] Q j.J ; V -.8.0.V x n f.k C.D o. X*X;XC.H.'.s.&.f.s.x [ <.] &.f ) I x n O.o.x D C.8.I ) ) ; k J n r ;     O 9 x x 9 f D r n [ 8.Q s 2 [ n x k O.Q [ [.I.;XQ./.c.o.D Q &.s ) 8.<.Q Q x -.<.k f ) x Q J f <.f f D s s q ; O ;     Q n 9 J I r f n x r x k k ; ) f x r M.Q D.H.4XQ.<.) f.r I T f j.) [ r D n 9 [ -.x r T 8.r $ T J T q k D x 2       O ; s n V [ y.n r n J s n f o.r n s -.[ I.Q.;XI.] I k J O.T n n D I D r Q f Q T V f k V q I D 9 k x 9 9 2   O   $ 2 < s s x q s D q x s f n s s x n k x O.f.c.I.j.-.Q x V Q D n k J x V J n T k r n o.s q 2 k V f 9 f < 2 $     $ $ r s D r 9 r f J f k s 9 s f n r f k Q 0.f.Y.s.) J x D x n s k D k q f k q s x n x k q k I s q 2 2 9 2       < <   ; 2 s D x 2 f x s ",
"j.x s. XO.-.f.M.I.8.&.0.0.j.] T V q k 9       O s T O.[ Q C.j.o.J '.lX0.M.j.j.4Xf.y.j.0.4X[.,XhXlX/./.tXC.0.o./.*XY.-.j.c.O.0.Y.Y.0.o.3.j.H.O.<.&.Q 3.&.f ] s $       s [ &.<.c.y.;XM.D f.c.j.;X,Xc.s.0.-.0. Xj.[.tX+X+X4XQ.'.H.s.o.C.9X3.8.D.&.J Q.[.M.J &.8.c.Q.c.Q &.-.M.Q r ) q     O 9 I &.n &.3.<.;X8.8.-.s.y.0.f.[ <.y.-.H.3./. X9X9X'.Y.f.I j.D.M.3.O.M.y.3.[ 8.D.0.<.8.f.f.<.I -.j.J 8.0.) f 2 q O     $ J &.-.0.T H.M.Q Q M.) Q y.O.[ '.<.o.O.8.c.*X+X[.f.c.&.s.y.Q s.D.<.I s.T 8.8.[ &.] [ [ j.D J 0.n Q D q V I 2 O     $   n T T O.y.V D C.&.I.) n &.I y.T *X&.Q [.'.+XD.Q.'.<.) f.O.D O.-.&.<.V 3.T ) y.O.x 2 J '.o.Q V f 2 V V s f < O     2 s s f x ] n n Q <.J s J V J V ) <.) T *XD.;X/./.s.Q J I O.n J s.o.k <.O.-.V D k 9 s o.T k ] n f D r q f $ O     O s.r r 9 3.x [ n 2 ) J Q r V -.r [ r V k D.c.*XM.<.J <.f n T J y.T Q s V I V ) [ f D I o.r 9 Q V V 2 f J s ; O   2 ; f k I r V <.x q k D q s f &.r s r ] f M.H.[.j.) ) J V y.T 9 V <.x n s Q f [ J f n x V r D V k k s 9 q <   O   ; ; 2 s r k s q ) s k q n k k q x s x s T y.f./.j.&.) D J ) J J n n n I V k k D D V T k f s f x k r k 2 9 ;     O ; q 9 f 9 q s k x f k x < r n f f r q I -.3.c.j.T n V I x k r x V q f r s 2 x x n k f q k I f q 2 2 9 <         ; O r n f s q 9 n D f ",
"s.3.8.I.] ) /.c./.s.O.[.I.O.) Q o.r V r   O   < J f y.) M.8.M.Q )  X+Xj.C.O.D.'.f.I.Y.Y.[.s.9XsX4X[.[.9Xf.s.8.+XI.<.-.s.c.D. XY.3.y.O.s.c.C.V 0.D.o.J &.Q T D   O     r ) ] [ 0.[./.y.3./.c.Q.I.[.Y.I o.*XD.I.&.Y.hX*X4XY.'.[.D.3.[.0. Xo.k /.-.M.+XY.[ &.I.Y.<./.s.J y.T f.Q ] J <   O $ ; 9 s [ M.M.<.+XI.T 3.J 4X&.O.3.I.-.0.C.<.+X;X*X+X[.eXV ) j.+XH.<.V Y.M.j.x 8.H.j.) 8.0.D.s.-.] 0.[ O.) n 9 r r     O O 3.3.j.M.-.M.f.Q ) o.o.3.<.[ y.[.-.Q T Q M.[.9X'.H.y.Y.-.D c.c.C.T ) Y.[ n [ y.&.Q -.-.] V &.j.I V q q 0.3.O 9 O     2 V D J &.-.I T y.0.J -.T ) ] D <.y.n 9 C.I.[./.+Xj.<.O.<.o.o.y.[ D T n o.Q O.c.o.[ n 9 ] [ I D q n [ f s q ; O     $ 9 9 V V T ] s Q o.I k k n q s y.k D f /.M. X'.D.3.V k O.j.o.D ] s T I.-.I O T Q q k V O.o.f T D f q q s 9 ;     $ &.J q ; q y.D Q s I s n   x ] $ x k 2 o.3.M.'.M.s.3.x D T ] -.<.n ) n I o.T J T I J D Q f f Q x f k 9 J s   O   s O I r n r D 3.T s s r D s f ) k f s V 2 s.C.D.s.<.O.&.f 3.V q I 3.n I I Q k Q x f ] V q ] n k ) s q r s ;   $   O ; 9 r q V J r Q x f s x s n s q q f f J <.s.H.0.O.[ I V J D ) V k n I x D s I ) J s V r J r n V s x 2 9 ;       < < 9 s q s f f s x k D 9 f D q x q 2 J o.&.y.j.) n V J n f 9 x x q k f q < n D s 9 k s q x s q 9 9 2 ;     O 2 q O 2 f 2 9 f f n x r ",
") D.C.Q.O.[ I.j.I.c.n I.4XT f f./.D s <   $   O x n O.8.c.0.C.] I.Q.c.D.c.<.D.c.*XH.'./.H.+X4X'./.,X XD.o.C.I.'.Y.&.I.Y.8.<.'.M.T 0.<.[.c.j.) 0.c.Q Q 8.<.D x         q Q [ O.f.Q.8.y.M.,XY.&.s.Y.Y.s.O.j.3.f.eX/.9X*X9Xf. X[.f.) '.*Xs.o.&.) f. Xj.-.[ 8. XM.8.H.<.T &.Q y.O.-.x 9 ; $     k ] I.M.D.<. XQ I.0.s c. XV [ -.&.j.C.0.,X4X+XI.I.;XT <. XC.I.I o.&.s.M.J -.Q.f.o.-.Q s.0.<.V O.f.J T k s T s   O   < < [ [.-.I c.-.[ 0.I c.) &.-.y.&.o.o.r I H. X*XI.+X8.Y.I ]  X[ O.C.<.'.D k c.&.o.k <.j.J <.y.<.o.$ D ) T o.x ; O     f r q Q Q y.x T x s.o.D Q &.M.) ) -.O.Q D.Q.*XC.[.f.j.] T <.O.s.-.J I I J 0.) n < O.Q 9 [ &.T -.n I o.9 J $         < f x f x J T f -.s.o.f k V s J Q -.s f H.H./.*XC.y.T q ] s.-.J ] f T C.V x O k y.<.f r Q c.9 I V r r 9 < f <     ; q J f s < 8.2 ] k J V f x f 3.f 9 9 J -.V s.Q./.-.j.T s &.s.Q 0.V ] D I T V D T Q r T &.f 9 I D x ) < D x       2 9 o.2 s I O.&.V x f r T n r D s V k s r y.D.c.C.s.3.<.k J D x T V ) Q T ) D s I V [ x r O.k s [ r 9 k f ;   O   $ 2 s q q J Q s V D s n r r V n 9 s r k n T 3.8.c.3.o.D k x V ] I x n V n ] x J T J f I r V 9 n J k x < 2 O       9 ; r k k x k s f V f V s f x r V r 9 D ) [ <.s.O.D n n J x 2 x k f s V 9 9 n D r 2 k f r f 2 q 9 2 < $         2 q V J q < q f r 9 9 ",
"D M. X/.] 8.s.I.-.8.<.M.C.&.D j.M.n r 9 $ O     ; f O.T C.[ /.) I.C.'.M.o.D.Y.Q.<.M.Y.4Xc.Q.eXQ.;X*XY.M.3.M.Y.Q.s.&.Y.I.o.3.*Xc.) 8.T ,XQ.3.I C.8.I 8.o.&.o.f <   O   < I O.3.M.Y.] s.;XM.j.Y.y.Q.-.C.y.y./.s.'.eX9X4X,Xj.;XI.<.Q.f.j.<.y.sXj.x O.D.Q.'.8.H.&.C.c.-.<.D 8.f.3.] n 9 $     2 ) s.-.8.Y.3.8.M.0.<.&.D.M.q /.o.T 3.[.C.*XeX9X/.H.c.<.[.c.J 9XT x j.o.c.y.O./.o.&.I -.o.O.0.o.Q f.I T n k ] r   $   f n c.I.f.&.y.s.8.'.] T ] 8.C.f.J J <.J s.H. X*XY. Xj.f.T <.s.J s.-.c./.k <.T s.<.s [ j.D y.3.I J k I k x ) s ;   ;   q ; r <.Q ] 0.J I s.o.Q Q <.O.Q ] I C.8.<.D.,Xf./.'.M.V O.3.T &.0.3.) ) D T o.J 9 o.o.k [ 8.J &.x V T 2 D 2 O     O q J Q r n ) f x O.f.T V x -.k V ] ] T I M.Y.I.+XM.s.o.V D ] o.I y.&.s o.x f r D 0.-.Q n q s.n s 9 f f x ; f O     r < q s f I n x [ q ] 9 r Q ) I k q 9 &.s V 0.j.'.[ 0.&.s ) j.x ] [ T n ) V x [ I k J T ) x r x x V T ; x x     $ $ f [ 9 9 D J D f s f n k T r T r V f 9 k 3.c.y.H.0.0.[ J r T J T f I Q T V D r I J I 2 D n s k D s q k r $     $ 9 r k q f n D q r I s D 9 q J n r k r x k V <.-.j.<.[ D n D x V Q n n k n ) n n Q k V x J x q q D f x ; ;     O $ r $ f n k x f s k V s k k r r s x 9 9 x V T ) 3.-.T n k Q D < k k x q D q r k V k r f s k x $ 9 2 < $         < 9 ; 9 9 ; f I r 2 2 s ",
"] C.Q.I.D M.j.c.-.3.+XI.[ c.y.8.] D x s <     O O T T y.f.M.I.0.s.C.9XD.[ C.I.4X3.'.<.*X X+XxXM.tX/.H.Y.Q.M.M.j.s.D.c.s.) C.[.-.y.s.V H.s.O.] '.&.O.8.D I -.x 9   $   ; T 3.y.j.f.'.I.'.C.3.Q.0.D.[.3.j.<.D.9Xc.lXsXhX'.D.,Xc.j.H.C.[.-.Q Y.-.[ Q H.[.[ M.] [ y.j.s.f.I s.s.] ) J 9     O f o.y.Q D.'.&.C.f.8.] <.f.O.Y.s.O.3.f.c.c./.;X4X'.+XD.Y.M.O.3.I.&.D H.8.I.f.I <.I f.o.f.) 8.3.M.[ <.) I ] f n 2   O O x 2 -.o.T j.-.T f.f.I O.D.0.&.f.T f ) f.M.I.+XsXQ.D.D.&.[ 8.-.[ Q y.M.<.x j.s.T o.I ) -.V O.-.V Q k Q V q ) I     $ $ ; q n -.O.I y.j.; Q ) [ <.o.D ] I.k &.8.[ <.'.H.[.*X3.V y.<.) T o.<.D n x ] f.o.9 9 ) o.-.&.V Q x f s f f 9 $ O O ; f J I s n Q k n I ] k J ] I n s k O.J J -.f.c.H.c.3.o.J Q ) o.T O.-.V V O.x k ) o.V 8.J r ) ) q 2 f f V 9 2     ; r k k 9 k 9 k r O.s <.9 I J <.r k k x ) ; &.s.0.H.y.-.) Q k O.V n [ ] s o.T V O.V n o.n x J D s q V k s s 2   O ; < 9 s r x n q n J q V n r ) k Q x k q r f &.<.&.y.y.0.Q V n I Q T V s V J x D x x D T 9 x r q k f k s s < O O   < s r k f J f f s 9 I f n q 9 Q f r q s k f D O.O.O.[ [ I D I x k I x k s n D n k Q f n s I x s 9 k r k ; $     $ 2 f $ n n r s s k k x s s n 9 r s s < q s s D J [ o.T V f T V < f V k q k k s f V x s k r s x < < < $ O     O O $ 2 9 f q < f k r q q s ",
"-.Y.j.H.V Y.Q.Q M.0.M.s.) 0.<.&.8.<.D 9 $       2 T Q I.H.I.M.M.H.M.Q.+XH.<.y.4Xj./.3.M.'.9XhXtX+X/./.I.+XQ.M.I C.*X<.0.] H.M.<.8.s.f./.T j.H.3.I j.-.T x I x <   O   < [ j.j.f.y./. X&.o.f./.C.8.,XO.<.s.,X*XT ;X9XhXc.C.+Xf.;Xs./.s.s.Q <.+X8.&.*Xc.o.;X[ ) D.c.D.f.&.<.&.q o.D r ; O   q o.c.M.<.s.<.O.f.0./.y.n j.j.D.[ <.3.H.s.-.M.*X+X*X3.[.f.f.M.0.3.J s.3.Q.3.o.] -.I.8.[ [ Y.I c.y.-.D ] s.x 9 $       9 k &.&.T /.) /.3.o.I '.J j.I <.<.Q D I.Q D.H.'.D.y.C.J o.C.Q.O.n o.C.I o.s.D.D s -.-.[ I ] 0.T n D J k f k <       ; $ V n D &.f I.3.n D C.8.T &.&.D 0.[ n 8.x o.c. X X/.Q T O.[ -.Q D -.T [ <.&.&.J V f O.<.Q J I o.Q r $ T V ;     $ 9 k V x r s f Q D V f V y.q O.V r s Q.n r x [ y.f.C.&.o.) o.s J <.] Q T x f.T k r o.] 3.V T s ] f s q s q 9 O $   2 O x 9 k f n J s q r ) Q O.s n V s 9 s q x O.O.0.s.j.-.J O.x J J Q n y.9 [ Q k J x <.n k V J n s f J s Q s     O $ 2 n ; D -.o.r k s x ) f x T V D J f 9 k s o.) ] o.j.8.) q O.x [ Q n s r 9 o.) s D n &.k ; D 9 k f V f q   O $   2 f 9 s V [ f q n 2 I f s f 2 ] q 9 $ k f q D J T [ O.&.J k n n D I x x f D k V V V x V k s f f D r 9 k ; $     $ s V 2 I n 9 r f n k s s r V 2 f f r < s s r I I I Q J D s I x < s J s q q V s f D r 9 x r < s r ; ; $     O ; ; s r s k 2 < k s s f r < ",
"D.Q.f.c.<.Q *X<.H.Q H.&.0.o.c.I &.I r f O O   $ D [ D &.I.C. XC.T ,XY.s.Y.y.0. X;X/.c.M.Q.,XtX4X4X8.Q.,XY.+Xs.&.c. Xy.D <.[.C.H.Q ) /. XO.j.f.T y.&.&.] x D V O     < 9 &.I.f.'.O./.'.f.y.s.4X[.8. Xc.J D.+X/.<.9XhX9X+X[.Q.Y.*Xc.s.O.j.) '.'.j.C.I.<.y.+X3.f &.c.c.s.y.o.f k ) Q 9 2     D O.f.y.f.c.c.I 0.;X+X;Xx O.D.C.[ &.s.s.H.3.M.9X9X*XC.s.H.O.H.D M.C.) ] j.s.-.o.H.j.] H.<.O.) ) <.] D -.J k f ;     2 9 D &.3.3.f.<.f.) 8.8.Y.T Q ] -.] ) 8.o.I Q.Q.*XI.C.I.-.<.Y.M.<.D 3.8.n H.T y.f [ 3.&.) J T 0.C.J s V 9 s f 2     ; q f V ] &.k k M.y.Q ) ] j.r O.T D n 8.o.< ) j.c.I.'.M.8.V V -.o.y.8.<.J T Q ) T D I x ] &.3.s <.n q 9 9 D 9   ;     9 T 2 x ) f Q [ ] [ n T k n ) s r D 8.-.9 x n 3.c.f.&.&.O.O.n <.[ D f.] V ) O.s f <.x O.] f n n I k f r s 9   ;   f $ k k ] x o.Q J 9 n n D.V   s ] $ s D 9 J I &.<.&.&.-.V j.T I s ) &.Q r Q V T J k x Q k V k s s s J s n O ;     < s f r s f <.Q q q o.[ n 2 f x q n n n ; k ) n -.[ o.3.J f 8.D J s O n s n ) [ k n n D D k r q r r n s 9 $     2 2 9 2 s x k k k r x x f q f q J r < k r n 2 n k V J ] ) T D f k ] n n r D Q ; V k D V s q Q x q n ; s O ;   O O $ k q r I D q f x x s s f f r k D n k J x 2 9 k Q Q T V I ] x q I J [ ; f s f r Q ) 9 2 s 9 9 s q 2 $ O O   O 2 9 9 f I I r 2 x ) r s f s ",
" XC.j.M.8.o.[.H.f.-.C.C.-.o.M.] &.o.V s         T J ] I.C.8.,Xy.o.[.Y.O.+XD.f.c.M.I.[.j.&.Y.lXtX*XI.y.,XY.C.<.c. Xc.-.Q I 0.Q.tXy.-.s.s.c.H.8.D &.y.j.3.J r < O   O   < 8.s.D.c.8.D.D.D.s.&.I.'.&./.C.3.j.s.;Xs.[.,XlX[.H.C.*Xs.j.3.3.C.C.f.Y.s.O.o.I.C.3.f.) <.M.Q O.c.O.k D <.V 2       s 8.[ D j.[.s.&.y.j.H.T o.n D.[.0.k 0.D.0.&.j.,XhXY.f.M.M.I &.Q.H.0.8.[ &.&.M.j.3.-.c.M.&.D f.] -.V f.J I x 2 $     2 T o.O.-.s.'.<.&.<.c.y.'.T ) 3.T D ) <.] y.y.I. X4XI.c.f.o.8.<.0.] [ H.Q O.x -.V f.Q 0.c.< [ &.0.n x J s x f 9       r y.D V I ) f /.j.3.[ J T O.x -.J ] x Q ] T 0.C.f.j.I.M.J ] ] [ M.<.0.T D n x <.&.8.O.f 0.D s s s q J ) r < O   O < $ O.o.k ) J V f.O.r n O.s n x x D T 0.-.x n J Q y.f.c.0.-.Q -.s.n s <.] k 2 ) o.T V T ] D q I s k n q q $ ; O $ q x 2 s k ) -.C.J f k D I ] ] 2 s f x O f 9 q f ] ) &.&.<.&.3.-.s ) D O.[ f Q Q ] J f V -.k T [ f ; r ) k r     ; < f r T r V r D k O r [ x r q q D n f n s r q ) x j.) I 3.-.&.T s I J f Q n s V J s k k x f q 9 r f k q     O     r D k q f x 9 2 s s f x k k k s V q r k 9 s ; k s n k I T J J x n ) n D k J T k D f n x f r I s q k 2 9 ; O     2 2 k V x V s $ r D x k s r s k x x f r n k 9 r s x Q Q V V I k s Q x D f s x J x T x < r n s 9 q ; 2 O   O O ; q 9 r 9 9 9 q x V f J D n x ",
"C.-.M.H.0.<.s.y.C.f.c.'.&.Q M.] Q O.D 2   O   < T f.8.f.I.s.I.&.[ &.j./.y.0.D.Q.Y.,X/.j.J &.xX;X*X[.3.Y.*XI.-.c.'.0.y.s.8.0.j.D.-.3.c.8.C.j.8.&.s.8.Q V D f < < $   O f 3./.C.Q.4XM.<.*X;XM.s.s.s.Y.Y.8.M.c.I.*X0.[.sXD.[.M.+Xc.Q.y.f.f.Y.s.s.3.3.s.y.<.T 3.'.8.-.D o.f.0.D f f.Q <   < 9 ] C.Q o.'.f.4XQ.Q 0.c.o.8.[ 8.4Xy.D &.c.M.-./.[.+X*Xf.j.D.I.[ [ H. X] x [ y.Q.0.O.0.8.O.o.n c.) 3.n s.D I f $ O   $ f 3.<.o.0.j.I.) f.f.3.f.I.T V &.x o.C.c.J ) T '.I././.s.f.I <.<.) f.o.M.-.D f s.T M.[ o.&.q 8.o.] V ] I s s < ;   $ ; 9 ] s ] 8.3.k +Xf.D x D ) [.o.<.o.o.J [ I.D ] 0.8.0.j.c.O.s.V [ H.I &.o.D s ] 3.3.V r D 8.n x O 9 x o.o.; O   2 O $ Q 3.J I Q x D ) Q ] k r Q J f I s I 0.f O.2 x [ C.-.f.j.o.I O.] n V J <.f V I C.T T T n x s o.s 9 n 2 2 O       f J x V q [ J I f x 9 < n x o.r q f [ < q k 9 x ] V Q I ] o.8.[ I ] D J Q k Q J I J f f Q q I Q q r J I 9 $     2 2 V n < 2 ] k D o.n I J D 2 q J [ s n f 2 q 2 n s y.V D [ o.s.k x Q D x Q D 9 x x k n n x f q q s f s f $   $ O $ 9 s O.f 9 s q s V x f x k V k n V s q r $ 9 $ k s k x I T D D V V I x V f f k I I D k r f s n 9 9 q 2       ; O n s ; s 9 9 f k J ) T T J n D ) ) J 2 ; r r 9 s 9 2 I Q D n n s q V s r V q x I k f q < s k 9 2 q < O     O ; q f r s x V x n [ O.I I V f s ",
"'.-.<.s.c.'.s.I '.y.s.Y.8.J f.) J ] x $   O O r [ O.&.3.M./.,Xy.j.H.H.;X) j.;Xf.,XC.] /.I.&.eXnX*X/.H.<.+X Xy.y.H.D.f.&.c.Y.s.&.) s.f.<.H.c.-.<.8.&.) ) I r $ <     r f 8.I.C.'.+Xc.8.9XI.<.&.c.*X+XY.C.3.<.8.+X<.D.eXQ.9XC.Y.+X[.c.s.&.f.[.O.O.0.0.D.] j./.D.<.I T j.j.<.T f &.V       q 8.f.&.&.H.H.'.<.C.8.Q J 0./.C.8.H.<.x &.f.f.[.M.Q.eXY.D.D.j.<.&.I.f.T ] Q s.+X-.D y.8.) T ) 0.O.&.T I O.V 2 $     9 T y.y.[ y.s.D.) Q.I.I ] 8.<.o.[ n o.D.M.) f Q +XD.f.Y.f.M.o.y.0.s /.D I.O.r o.3.s.-.[ J k Q Q -.) r ] V q q         9 r s I 8.C.-.] M.8.x ) -.<.c.I n O.-.s f <.T ] Q 3.j.&.0.y.j.T 8.D.x Q s.] J &.J J f 9 8.Q 9 V r r T ] k $   $ O $ V o.o.I x 3.s I k D V q n s [ $ ; n O.n r j.O r O.c.) -.y.[ V ) J V Q Q y.V O.D y.T ] x s r f [ x 9 f 2 < O     < o.o.f r < ] V k f f 9 k J <.O.s < V D s r D k n Q k k D T J 3.D -.J J x J I ] V n ) D r ) k n n r f k <     $ O 2 9 n x J V I f J I x 3.x T r f [ O.2 V r r ; r r s I q k n x O.x I T f s V D r V f k D n x f s f f q ; <       9 n n 2 J < 2 f x Q o.I s f q k 9 x n k 2 9 ; 9 < r 9 9 D T J x x n n n J D n f 9 D s f k 9 f f f < 9 ; <   $ s n n T s r T k q n V n k r r 9 2 q s s q s r V x f x s 9 < s f f n n k x f 9 x s f V k 2 r q s r $ $ < ;     O ; 2 s x f I o.&.T f k x q f r 2 < ",
";Xj.[ 8.3.D.j.&.I.-.f./.f.Q &.Q o.] f O $     s 0.Q [ -.Y./.Y.[.Y.[.c.[.H.[ Q.I.s.0.s.c.'.4X;X9X'./.[.3.c.Y.C.8.-.D.H.3.M.;XC.[ <.o.H./.T <.D.I C.-.<.8.I 2 $     $ f n H.8.*XD.D.j.y.[.O.] 0.*XQ.I.3.tXJ k I.D.f.8.hXsX+XI.H.[.f.c.-.[ s.;X8.-.o.8.D.f.Q. Xs.0.] D Y.D.D ) ) s O   $   k 3.y.M.c.f./. XI.;Xf.3.3.] -.M.Y.0.y.O.[ V D.D.&./.'.;XD.[ -.Q.s.M.8.I s.8.s.C.&.V 3.M.0.I &.3.&.T &.V <.r $ $     D ] f.C.) O.y.+X<.s.Q -.Q j.Q D [ 0.y.y.-.D I Q f.H.C.D.j.[.c.[ <.I j.o.3.O.k J j.I.o.f s s s.] O.x ; J f q 9     O 9 n s n [ Q o.0.8.n J ] o.8.3.o.n J D D.s I J o.3.I &.c.-.0.0.8.-.3.-.n D s.I o.&.k q T T O.V 9 D x x D k ;       9 2 D O.) T n -.k r r y.&.3.s V J 9 k T s.x k 0.r s D I -.3.[ -.k -.8.s J y.O.T k J D Q k x V 9 k n n q < < O     $ x O.-.J ] n n J O.D f x k x &.D f 2 V s J s x x s k k r ] ) Q T Q I T n Q D I T x f T J f [ V r n J q   $     O 9 2 x f 9 q -.J s 3.f.T k k q r x s n q r q x < f V s 9 9 < r s V V V n f f k V x I r s D r r r q r r 2 O       O q J J r r r D J f x V r 9 < $ 2   q 9 9 2 9 2 q ; < $ < f k k f s x x s f s V V s D 9 k n 9 f f r ; 2       ; D k x n < V 3.[ n x s q 9 f q 9 q 9 2 < 2 < < s q $ < ; ; $ 2 q s n D x s x r 2 n f k V 9 q r s q $ O     < 2 r s r k V x x x n x s f k r r q 9 2 ",
"I.j.[ C.8.y.8.-.0.s.C.;Xs.] T T 3.T r O ;   $ V 0.j.f.&.I.M.y.,X-./.D.I.y.8.*Xj.&.M.-.'.*X3.I.,X'.+XD.+XM.I.Y.) I.'.'.j.] C.Y.D.o./.M.y.<.<.&.f.c.] [ &.x ; ;   O r f <.c.Q.[.Q.[.C.s.Q.0.D.Y./.s.0.o.9Xo.O.c.M.o.3.;XeX+X*XD.[.f.H.O.[ C.C.H.C.3.y.&.I.8.M.M.8.&.O.c.<.V ) I <   2   s <.f.H.C.M.D.I.c.+XI.c.s.o.Q.-.9 /.-.D.o.&.I D.D.] -.I.,Xj.<.y.s.c.y.s.[ 3.j.0.-.f.) I C.s.O.3.] J J 0.J J ;       s O.o.f.c.D &.j.Y.<.&.[  Xq j.) 3.s.) 0.<.O.k c.&.I -.c.j.s.Q.j.D -.j.f.T &.T J -.<.I.x T T q c.c.q q I ) r ;       9 ) o.r Q Q I n 0.<.) -.C.f ) ] I V [ f y.T I I k Q T O.y.-.-.o.0.f.O.I [ T <.k &.] n o.f x I x n T r V r $ ;     9 D J J I ] s.k J I 3.f ) Q O.s x Q q k s.f.  ) I s k n s 0.&.D ) V o.3.J ) 3.D Q q ] V 9 n T J k V s V 9   $   $ ; 9 f k I ] c.I o.T V f f r O ; O < q 2 < s D q s n k f x 9 T n D x [ V T V ) I n k V k n n V x J s s n 2   ; O $ r n 2 n s q q Q.0.f 9 r r f 9 $ 2 ; $ $ O 2 9 f q 9 Q 9 < q ; q r 9 D x f f k f x n V r f D s s q 2 < < ; O 2 ; 2 9 9 s n n D D J x r q r q 9 ; 2 2 $ 2 O O ; < < < O $ < s < ; q f k n V f r < s f r f q J x 2 r 2 <   ;   $ 2 ; s O r V D k ] J x V n n f x s q r q ; $ < < $ q 9 ; 9 r x 9 9 9 r k D n s k f < k 9 2 f < 9 9 < $ O $ ; < q s n V n J ) Q Q V x x s s x n s f x k ",
"+XM.] I.H. X0.T [ I.D.I.<.T o.] &.x 2   $   k [ <.y.Q.C.&.0.9X+XH.s.j.;Xf.H. X8.[ Q ,XM.0.Y.O.9X;X,XH.sXI./.H.V '.'.Q.+X0.f.-.j.y.I.o.[ C.f.-.j.T D ] O.x     $ $ x I D.-.+Xc.'./.M.D. XM.Y.D.f.c.s.s.H.c.H.V 0.Q f.M.'.4X*XI.[.Y.D.0.T M.j.D.Y.s.I f.M.o.I.3.T ] Q.s.k D I 9 <   $ $ ) C.H.I.s.lX&.j.[.,XM.Q '.k Y.c.o.<.] T ] <.s.M.c.Q k  XI.9X] &.j.C.o.D.[ f.] O.s./.) f Q.<.&.O.x ) J &.k < O   O s Q 3.j.s.y.n y.j.-.<.y.-.+XT s.] 8.M.D I V [ -.Y.3.V k ) 3.o.8.&.] y./.s.<.D ] -.[ s.O.2 f.3.f 8.-.  I -.I 2     $ 9 T [ Q s -.<.s.-.8.] f.M.I.r k 9 ; n ] &.O.) k ] k s V O.3.T [ o.<.f.O.Q 8.o.&.V o.k J 0.r f T s x T r r ;   O $ < r M.) r O.O.3.I H.V Q < q 9   q $ $   q V Q ; x f < k T s [ V V s T T J o.&.I V J J T Q 2 O.D k n n r f O O $ O q r T n k V [ -.x s.O.r q 9 2 q q O 9 2 $   ; $ ; 9 s D f f < q < r J ] D n D n T n s T n x x J q J f 2 ;   O   < 2 I J q x n n x x < V T f ; k s q f ; f $   2 ; 2 < $ x 2 2 9 9 9 9 < n n k s s f s f s f f k s s q ; O O $ ; < < 9 r r n T T V x s k J V D [ f 2 x f s s 2 < $ $ $ O O O 9 k 9 $ 2 s s k n f V s f q q < < s r < 2 $ $   2 < s k 9 2 q D O.O.V J x V I I J f J V x x x k s r q     O O ; 2 f ; O $ 9 s D I D f k V s 9 ; r 9 9 2 ; O $ < r n 9 s n V V T [ ) k f n V f k T O.f k n n ",
",X[.0.f.&./.s.<.Q Q.f.] O.V C.<.] r ;     O J -.0.D.I.I.<.] 4X,XO.-.*XM.f.M. XH.Q [ 4X[.j.M.<.D.tX,X,X+Xf.H.M.] '.Q.&.C.M.M.D c.8.0.O.O.f.[ 3.j.f.o.x f x <   O q -.f.'.C.8./.Y.'.f.M. XH./.C.8.<.3.f.M.c.f.I 3.f.j.0.+X XD. XM.I.3.M.J y.[.<.c.-.] j.<.8.8.M.V T ;XD.r q k 2       [ M.H./.D.C./.-.) 4XM.c.<.Q 0.T '.O.) j.8.I 3.y.s.T V T +X3.j.D.s.f.[.I [ f.D.T 0.0.s.3.-.H.<.J D k H.x V r   $   < ) o.3.+Xy.j.D 0.f.&.C.M.[ I Q V T [ 3.r M.s n C.T r k V x ) x o.O.8.0.[.0.<.] &.&.I -.J y.-.q V f.J $ D D $   $ $ D T y.<.s q o.y.c.*X;Xk x O q q < O 2 9   f q 9 D r O V s O.3.f O.8.D ) Q I ] D Q n x V O.9 D D r V T x f   ;     I D n <.) J Q ] M.n x f q f q 9 r 2 $ f $   O r $ O k 2 n V < x r V ; D O.D D ] J I J D s D o.] < q 9 2 2 ;   2 2 s r < J 9 n O.Y.C.Q f q D I k x s r V k ; $ 2 ; O   $   f 9 2 9 ; q n T [ r f x r k s 2 x 9 q q r < $   2 ;   9 ; x 2 I x x J Q V V J ) I r T Q o.] 9 ] T J r n $ O ;   ;   r q 2 9 2 s r q k x n q k r r < f q ; ; < < $   O ; 2 9 s f q k [ o.n k V I O.&.n s [ V r J x V x f s < ; ; $ O   ; q x < < q < 2 s r 2 9 k k D s s 9 9 2 9 $ 2 < k V 2 q 2 2 T ) ) s n J T o.) I T D V V x k n J V s ) 9 $ $ O O   ; q < 2 q 9 r r 9 s n <.k x f D D 9 r s r r 2 2 f r s k k k J T V D J T I x k D J s f k k ",
"Y. Xj.s.) M.s.Y.8.0.8.) o.-.f.] q ; $     q 0.3.s.D.C.Y.<.y. X9X&.[ /.H.o.s.Q.,XQ o.+XI.c.s.0.s.'.*X[.,X*Xs.I.O.s.M.f.C.&.*XT ) o.I.C.O.3.c.[ j.j.[ q q     O f &.3.8./.'.C.Y.j.D.0.'.+X3.M.j.0.0.f.y.'.s.&.] 0.3.0.c.+XH.I.[.'./.V 3.f.j.*Xo.] <.H.y.8.&.y.s.-.Q Q.o.r 2 ;   $   Q s.D.Q.j.8.C.f.8.'./.H. XQ x I.M.+Xc.k 3.I.r -.O.Q f V r Y.O.-.0.s.I.C.8.) c.I.f.Q &.0.[ -.j.Q J V J <.n ; ;     9 Q 3.f.c.D.y.] 3.j.j.[.j.j.<.Q D n 9 k T s T n x s.n f D D 3.O.[ ] D o.<.j.[ T Q y.-.k T f.3.[ 9 I y.r r r ; $   < I I T &.T V T x C.c.T ) k 9 2 f ; < f O ; $ <   < r V $ s k D s x f J J V J V k O Q f x ) ) x k J x 9 < ;   O   O I &.n n T ) T 3.] V k k D J V D s I x q s 2 O O < $ O   s r q V ) $ s n o.T f f k x k r s f q 9 r r   < O $ O O q k 9 9 s s I D ] ] n T V [ T f.O.J x I Q I x f s q ; $   ; O $ 2 $ ; f 2 x k O x s 2 f r r < r O ; q 2 ;   < f I q x r q $ [ y.o.x D ) ) &.D.O.V D ) 8.T T f O.T D s V $ 2       f $ r q ; 9 q < 9 ; 9 ; f x q 9 < 2 q 9 2 ; 9 q q q s f 9 r ] j.T I T ] y.) 8.x x s Q q Q J r n x x x 2 ; 2 $   $ ; I <   2 9 < 9 f 2 x T k 2 r f V 2 k -.q q ; T r < s ; D Q O.x I I o.) ] I n I x D D n k V Q T x V ] 9 9 <     ; q 2 < ; < 9 q r r n J V V J I T x x q r < s q s q s n f o.) D I D I D s.I 2 V f V T 9 9 ",
"/./.y.0.[ -.-.j.H.y.y.Y.j.y.Q V r     O   Q f.Q./.j.y.f.s.I.;Xy.M.8.[.Y.] o.D.hXy.<.j.c.Y.I.y.0.tX,X,X*X[.c.D.8.;XY.C.0.H.y.C.&.<.;XM.T V o.0.&.3.D < O   ; < J y.3.f.c.D.f. X-.O.D.0.D.Y.) Y.y.&.c.[ M.-.s.<.O.f.o.H.8.y.0.s.c.D.[ I ;X XH.&.<.H.M.0.c.f.-.O.] [ ] x x ; $ <   V [.j.M.'./.Y.[.y.D.eX/.D.*Xc.f I &.'.j.q I D.8.) Q [ C.8.T ) J Q &.O.M.3.O.O.H.] f.8.T T <.s.f.] [ D ) V <     ; ; -.y.c.j.[.s.f j.4XO.&.] f q n < < q q   $ q ; r f T r [ &.J V n ] [ -.Q [ ) Q ) O.f.<.n I <.[ V s J n s q       s r o.o.) I V O.'.) n k V x n T Q J x n D n q 9   9   O   s ; q f V n I D V q Q O V V q f r x x ; $ ; < $ 2 $ ;   f s o.o.D V T 8.f.-.J I ) n O.I.c.[ T 3.) k k x x r < $ ; <   $ I D.k ; s J o.$ D 9 n q $ ; 9 ; f s 9   q q 2 O O q k s q s -.J I ) T D ] <.[ J O.c.T f 8.] T T k x [ V f r $       2 < < s k k 9 q r n r n f r 9 2 f r   q 9 k r f f r V J s k [ O.T ) O.-.3.[ V ) y.T s O.[ T V ) V T s n f 9 2 O O O ; 9 9 < q q < < O ; r n 9 < q 9 q $ x 9 q 9 Q 0.V V < x J &.O.x O.O.3.Q 3.[ D x x D s V I q n s k n r q r 2 $ O O 9 O O 2 2 2 r r q 9 r 2 2 s s k f f Q 9 q O x 9 < r s D &.D ) [ <.o.T Q I J T x V D V x V I J x x ] r 2 ; ;   O $ $ ; < 2 2 2 < 2 s k s q r s s f n s s 9 x f s q f T D o.) T ] ) n k Q n J D f k D < 2 ",
"[./.-.o.o.&.3.<.M.[ 0.'.f.O.r s O     D k 8.c.M.f.Y.[.H.I.s.j.8.) 0.9X/.&.8.y.8.-.M.D.Y.D.3.I 3.Y.C.*X*XQ.j.f.D. Xc.<.0.M.s.+XC.0.H.-.x Q c./.o.s q <   O J D T '.j.C.f.3.8.,XM.c.[ V [ Y.<.C.D.&.D.O.H.-.c.&.I <.-.f.-.o.f.-.y.C.Y.&.Q.D.-.-.<.D.y.-.<.3.<.8.) J V 9 9     s o.j.c.c.c.Q &.&.M.D.y.s.] x n Q ; 9 < k f < n o.T Q k f -.) V f o.) o.I <.&.0.s.8.Q 0.j.&.] o.O.<.V T 2 ; <   9 s I x j.3.) y.+XD Q c.j.V k D r Q n V x k V n 2     2 ; $ < <.o.f x [ ] j.O.I x f x V V T D r k x n 2 s s $ < O   $ < ] y.O.0.f q 3.s.y.D ) &.) O.o.f.f.Q ) O.[ ] k k r 2 <         9 ; J f Q s r q D s 9 V s   9 9 s 2 q < 9   ; 2 9 k ) 9 c.k -.[ [ &.Q s [ M.s.V [ /.f.V T 0.] V n ) o.I q 2 q $   $ x 8.  s n n O.r <.; 2 s s f f 9 I r r 2 T 9 r < ; k n s r x 8.o.-.o.[ 0.j.8.[ J -.J Q ) [ ) -.O.9 9 c.] r 9 9 r $   O O 2 V 9 n s q q y.k D < q k   [ s.x V f I s q ; r k T f ] ] ) T 8.f.c.<.&.r D y.] k I o.J J V n &.x x n r r 9 O   ; $ 2 < r r < < $   f I k r s 2 q x r < V 2 V Q s 2 r V ) <.T 8.s.j.-.I ) O.s ] I s x s I r n q k D f k n s ; O     O < < $ 2 q 2 n q 9 < 9 r 9 r f 9 s 9 9 ; s r ; k 2 o.[ T &.3.f.Q T Q J I J n x V V x n D V k k ) k 9 2 9 $       O ; 2 2 < ; < q r 9 < 2 2 < r k f f r V x f s V O.[ O.O.&.3.O.n D x r ] k r J Q s r ",
"Q. Xo.] &.C.I.0.0.n 0.s.0.] f 2     2 ] ) Q.'.Q.*XD.'. XY.Q.+Xj.[ ] c.D.0.&.] o.j.Q.&.-.3.<.T s.D.8.C./.[.I.c.Q.'.M.0.M.] c.c.y.c.-.O.n 8.H.<.x 9 ;   $ s ) y.C.3.y.D.*Xj.C.eXlXC.k D q O <   q < f r o.n Q D o.O.0.] o.I ] ] O.<.&.y.C./.) I c.f.-.<.[ O.<.s.Q s r $   O f O.c.f.f.j.C.&.Y.sXH.[ n n T V s s f s q < ; $ < 9 q k q k D O.n J O.D I Q 8.o.V -.o.o.o.[ <.O.V V T n q <   q ; j.[ ; s.0.n o.Q.'./.3.) I <.-.f.O.y.f.Q V s.y.0.k r 2 < $   O D q r r -.D y.J ] Q [ ] T f r f f k 2 2 < 9 ; r O O k o.I &.f.D ) x Q M.0.I ] 0.y.Q j.3.c.M.) [ 8.O.n y.) J 9 q r r $ O 2   x 9 J 9 q I 8.J n T 2 k f k f 2 <   r 2 f < f O.x T J &.c.] I [ &.0.C.j.n 0.O.y.T q ] 8.o.D V o.-.] k k k ; < $ O     k n f x f Q s s ] D s s x ] q x f 9 < s f q f V V f V y.O.3.O.&.f.3.<.-.[ O.r 3.f.f -.) V I x [ x J r f n 9       ; r   r 9 2 f 0.k x k D Q k ) Q 9 ) k k q q q x k Q T 3.o.] O.-.o.c.T <.J s ) <.D J ] D I s I &.n I k r f k <   O   ; ; r r 2 q 2 < 9 J T x s q s s 9 x f ; &.k r V D 3.Q Q -.-.3.y.o.x o.I J T I 2 n s J n V s k D k n D k 2 $     $ 2 ;   ; q 2 x f k 9 < q 2 q q < < 9 9 9 r f r D x 8.] 3.<.<.s.D ] o.J D V V k n x k x V V k x I n s r r < O       O ; < 2 9 2 r s q 2 9 9 2 q r r s f x x x f J 3.3.-.8.0.y.) D ) J r J q f n J s q ",
"M.+X<.s.8.'.'.M.<.x o.] ] J <   O < 3.<.O.I.D.C.M.[.Q.H.D.y.f O x 2 q x k q < f D <.n [ y.C.O.y.-.s.D.H.M.f.y.c.f.y.D.j.o.c./.y.0.0.y.Q 3.o.r q ; O   ] 0.[ C.+Xf.Q.[.4XD.<.J n f n x s 9 f f < <   2 r < f V j.j.I J <.f.s ] Q.&.] 8.O.f.o.J f.0.] 3.<.o.J J r 9   ; 2 x C.[.o.;X<.Q.8.C.;XO.[ J ) [ 3.3.D.o.-.o.O.Q k q $   ; O 2 x J s.x I D 8.D Q f.s.q Q J D I s V V r V r 9   q s 9 $ M.k o.y.<.o.j. XQ.c.O.o.f.j.[.D.s.3.f.x Q s.<.&.) D f q q <   O   f x [ f r s k J k 8.<.T V n x n q q x s n k s V o.] Q f.8.-.x [ ] 0.] 0.c.f.8.0.y.[ O.s.Q T O.-.q 8.V n 3.n Q <     O   9 2 x s k J Q T s r O f f x f s r 9 D k n x V c.Q n f.] ,X'.] [ f./.&.o.-.I.<.] x n -.&.o.J D ] ) ] n V n n 9 ; O   < < q s ; n q ; q J 9 n n n n x n f 2 r f V f r J Q f s C.&.-.D.C.-.] ] <.O.I J -.-.V ) T s O.D f f Q Q V k ; O < O     < 2 $ V Q f k q x r q [ V 2 x J s 2 k f J T J V O.O.O.8.C.-.) o.V T V x T 3.D T T T Q f ] T q -.n 9 I r x <     $ $ 9 q < q 9 f $ n J 2 r x k s r s r s &.9 D f O.J <.3.0.Q.3.] n Q [ T T x f < n x V I n s k V f x D k 9 < ;     O $ O ; 9 9 2 r k < ; f s q q r q q 9 9 9 r x I y.<.8.f.0.-.s.V ) o.J V x n x k f s k D V x n n n k x s 2 < O       O < 9 q < q q 2 2 9 9 < s 2 2 q f r f n f I 3.0.3.s.8.-.n V I ) k f s D q k r q ",
"0./.f.[.j.H.f.c.<.) Q J ; $   q ; O.Y./.c.O./.y.J V x k s 0.-.k 9 k f 2 9 9 $ O $ V r f f [ ] M.o.s.3.J x <.f.D.f.M.M.y.] [ I.] Q j.O.D I s r 2   s Q D.'.f.Y.D.0.,XxX/.0.T Q &.Q &.V J f.Q V T x 2 q     O $ n s 2 ) I J T J 8.j.M.o.J V &.T I J V Q V s s q $ $ f ] J <.[. Xy./.O.Y./.Y.[ Q 3.j.C.0.y.3.[.3.f.c.y.&.] I f < ; O ;   r I < f V J < s Q M.0.I.-.k D V T V s k $ 9 Q T ) Q J <.&./.j.3.<.+Xy.[ O.0./.C.0.Y.f.-.C.O.f f.o.n x 3.o.[ J s 2 < ;   ; f I ; s ] s.0.[ J ] ] ] D r k n Q [ Q 3.2 I O.) ] 3.3.J Q T 0.3.&.0.+X&.C.0./.8.) ) -.T V I f.) j.[ ) ] q O.) D O     O < 9 q s V I s.q 9 [ T V k f ) I V J s 9 f D [ J V T J y.D.-.c.+X/.I ) I.-.) J T ) &.) ) Q I Q V [ n V V D r n O   O O ; r < n 2   n x ; ) Q x n o.n 2 n x k k r r V I k k 0.0.c.Y.Y.-.J J [ 8.D n Q [ T x &.I [ n k J x J D V q < 2 O     2 r x J ] $ 9 0.n s r V r k s s f 9 D x J J D I 0.o.0.C.Q.f.-.V J q k O.J T 8.J V I ) D o.V 9 0.Q 9 O.< T 2     $   ; < $ 2 2 9 $ x f O f V 9 D D   f D s < T o.M.f.s.s./.c.Q [ k -.n ) V x n 9 x V x D x r f n f x D k q 9 9 $     ; ; $ ; $ < 9 r $ 2 D k 2 9 f f q q q 9 r 9 Q C.s.0.Y.8.3.y.V n I V x k f n k s s k D D n n s n k n f q 9 O       O ; < < < 9 9 < < 9 2 ; k 9 9 9 s 9 s x n [ 0.s.s.M.&.Q n n r T n r f D q f s s ",
"3.C.c./.j.f.[ &.o.O.J f   $ f y.] C.Q. XH.-.xX9X8.D.D.o.I T n ) o.] n k x 2 $ s   O < q ; n s ) ] I Q ) f.,X8.&.8.o.] o.J ) 0.[ D o.x q < 9 s $ s ] C.M.D.D././.Y.c.&.I &.M.M.0.M.j.8.8.D.<.D  XI Q k k 9 ; $   x   D c.) n 9 s.0.&.) f.[ O.D J f k n q 9 I D D D y.M.-.I.I.j.'.j.j.lXH.O.<.s.C.H.c.y.Y.s.Y.M.f.y.8.f.j.&.D V I 9 $   < q < 9 V k J O.T J ) <.Q T D <.8.o.Q k f x f.) J O.o.o.I.C.O.H./.C.[ D.[.f.;Xj.c.M.f.[ Q.0.x y.0.I f ] f.s.o.s 9 s s 2   2 f   f T y.J V q n ) -.T 9 D <.O.I O.O.9 V T n J 0.] I o.C.-.<.f.[.,XD 8.] j.o.o.&.o.] o.D j.<.n T O.s s O.D ; s <       $ ; 2 9 <.J q V ) 8.s V k &.k 9 9 s k T T [ f.x y.9 s.<.j./.[.&.<.f.C.V J ) 8.) ) ] T O.) T n -.x k J k n I $ O   $ O 2 O $ < q -.[ 2 Q k x -.o.f $ q x V s q k s k o.&.<.D.Q.0.3.T x I ) c.I k o.O.] J ) J o.Q x V n q x T x q 9 O       ; D < s < O ) $ k ] V Q &.r r x s V V f x n s.H.y.D.C.3.y.-.J Q q x <.T k Q.V V x T T I D n O.] x ) 9 n q q O O   O ; $ 2 < ; 2 f 9 2 k k s x ] 9 2 f x T D ) [.s.M.Y.I.'.] O.) V ) f T r [ s k V k f D r V V f x D x r r r 9 O   $ O O $ O 9 9 q ; q V f < < r s 9 f q q k s <.f.D.f. X-.O.&.D s V n s x n n x k f x V D V x r D f x n k q $ O     O $ ; ; < 9 2 < 2 q 9 ; r q r < r s n x V -.s.c.C.I.[ D I n < n n s r k q r r 2 ",
"3.f.j.f.y.s.Q V f x <   r n <.M.I.<.eXQ.c.H.C.,Xs.Q ] [ c.j.0.s.s.Y.y.) o.O.J r q   < <   9 f -.f.D ) ] 8.Y.[ Q.Q.V O.D I V x D n q k k 2 ) T I o.) '.Q.Q.C.M.eX[.j.O.f.8. X/.I.Q.D.O.y.<.Q.<.I.3.c.D &.x $ 2     < T ) J D j.c.-.[ C.j.) 3.[ ) O.I J o.&.8.o.c./.s.f.c.,XY.3.s.Y.tXH.3.M./. XQ.C.s.0.Q.y.D.;Xs.3.) 3.C.8.) ) [ n < 9     < 2 x ) [ -.3.J I J ] ] n y.&.[ j.[ O.f.8.8.o.O.-.C.D.I.D.D.Y.C.s.j.Q.M.[.[.s.f.<.s.M.-.) &.8.D 3.) <.0.O.V x f 2 r $     $ 2 O.] D J f x I &.I 2 I j.I ; [ r J 9 q D o.O.J 2 3.Q.3.C.eXH.f.[ 3.0.j.n [ 3.o.8.I.T -.I k &.O.O.[ C.r < I f       ; < q T ) 9 k -.) J Q x x f.J f r D ) n n T M.T ] f j.j./.Q.I.x H.I.] D T O.j.n x ] n <.] I V 0.x s ) x x r s f   O   $ q s r 9 f D $ c.f x 8.  < D n f Q x f I 2 r H.s.c.Q.Y.y.&.D j.n ] <.k T O.r O.f J Q D T o.) k s k n r q s < O   $   r $ O 9 f 9 n x n k I x q s n s s I f D D s.s.0.Y.c.D j.y.o.[ n q T 3.I C.I Q s J J s I Q V T ) k x 2 f V O     O < ; 9 < r f q ; r s r ] T x s 9 9 q s f y.I.s.C.[.<.0.-.) I f ) I n s ] f f x x 2 Q f T D x n J x r r s q ;       ; q 2 ; ; 9 < 9 f r r 9 q r 9 x 2 9 x &.M.C.C. XQ.&.x T I x I V q D Q x n n x x n V V x f T s x J D s 2 ;       O ; < ; 2 2 < 9 r q 2 2 r f $ s n T n x <.s.c.H.Q.) n J k 2 k x n q k r s r 2 ",
"o.<.8.T I T r q r 9 J O.8.Q j.y.y.3.I.[./. XH.&.0.8.O.C.-.Q.O.C.<.'.-.j.J f.O.J x x   $ ;   ; &.O.O I y.y.s.O.y.y.n s.I j.<.T Q I O.f ) s.] I.y.<.M./.<.tX*XtX/.0.0.j.I.8.I.Q.j.Q.I.) -.c.D.j.s.8.y.V /.&.f r     O $ r x T 8.8.) o.c.] I 0.y.c.o.s.j.8.o.I.D.[.s.-.M.f.;X0.T ] D.lXj.D.H.,XH.'.f.&.c.y.y.M./.M.c.-.-.3.-.O.[ [ o.J 2 O $     q q J 0.x D D [ T &.] ) 0.<.3.) Y.j.0.y.0.y.8.) 3.+XH.s.+Xs.Q.H.I.C.D.-.&.8.3.J 3.M.o.-.8.] f.-.I 3.q -.D n ; q 2 O   $ q 3.<.$ q f D ) &.D s n M.V < ] -.k I ) 8.0.o.V D M.f.j. X[.'.s.0.[ &.O.) <.s.-.f.f.Q &.J J V 8.[ ] [ x r O.n   ; $ $   q q n D s V ] y.] q n I J ] n f o.s r I c.O.f 3.c.H.c.C.j.V [ s.<.x Q ] [ ) I o.o.D n Q x ] 9 V [ r 2 &.k I $   O   < n ; O k [ k O.O ] s 2 [ f ] n 9 k J Q n s 8.0.I./.C.<.) &.o.9 s 0.o.J k I j.D n k x ) ) o.x n J n k s k ; 2   2 O   q x r q 9 J x n T s < q T n 9 s Q k Q ) [ y.D.[.<.) O.0.[ f.f x 9 ) s.T 2 <.r o.k n [ x r n D O.x r x x <     O $ < 2 ; r V f 2 r q f ] o.< 9 k 9 s 9 ) <.f.s.+XH.<.&.T T k s <.V T 9 T x V ; s x D f f I q f I k r f r < <   O O < x f O < r < f 9 r s < ; s k q q s 9 x /.D.H.+XC.I o.) f J T D x r D k n k x J x f V f f T V k D k r 2 2 ;     O ; ; 2 < 2 q 9 2 2 r < r < 9 9 q V n 9 8.s.f. XH.) V Q V 9 s [ r r T s s r q ",
"O.) k J s r I J o.s.M.y.O.Q eXtXc.-.M./.Q.f.&.D.Y. X<.Q.s. Xs.j.&.j.Y.<.0.D.j.k ] &.J <   $ O q s ; Q 8.f.T &.o.c.f.8.f.;X/.0.0.T C.f.H.j.-.&.s.y.C.j.<.tX9X'.f.M.Y.sXC.I.-. X[.3.f.M.0.8.s.f.s.I <.s.Y.o.) V 9 $ $   O < f ] [ s -.-.M.[ 8.s.Q.3.M.8.c.y.c.y.f.y.j.;XY.Q.0.x O.*Xy.Q.lXI.D.,XD.C.M.y.j.-.8.I.D.M.Q 3.M.j.[ &.o.c.n q ; < $ O O q r s V q ] [ y.j.[ J s.-.s.<.] s.D j.0.&.o.f.y.I.&.+X3.*XH.Y.[.s.&.8.<.c.Q &.s.C.8.<.<.3.O.3.&.O.D Q r J Q s q ;     O Q ] 2 x 0.T I J n I [ ] D f s s O.[ s &.H.D s ] M.c.Q.*Xf.H.M.-.T j.&.) 8.y.J D.-.V ] O.) I <.T x n I Q J f <         q < ) T r x ) 0.r f q I M.D D < f 9 s r s.3.o.0.Y.+X XQ.) o.O.0.] f o.&.] J V ) o.Q I s f x I D T ) k k 9 J r $     ; q $ q V j.q f Q x s k n I f J $ r '.x x x 0.D.'.M.8.<.] T J f O.c.o.f Q o.D &.n Q [ J J 8.J 2 ] n x f V ; 9       2 s 2 < x r x x V T f f f I k n k n k x ] s.j.Y.I.-.3.Q o.] <.f ) s I [ Q x <.D <.k J T ) f V x I r s V x 2 O     O 2 q 2 n V 9 ; f k r x k ; r r q n f Q 0.C.C.+XM.o.) T o.V f [ V ) s n f D q s n D n k ) x n D s s k r r 9 $       q 9 ; < q < s q r r r 2 r f 9 9 r q n Q.c.C.[.j.) -.T n [ I V s s x n V V J I V x V f s J x f V k s r q <       $ ; q 9 2 9 9 2 2 q 9 2 ; f k 2 r f V c.f.j./.f.I f f V r q J x f r s s r q ",
"H.<.[ f.<.y.I.C.+XM./.[ &.Y.;XeX/.j.;X+Xf.c.D.'.[.+XJ Y.Q.9XQ.0.0.8.C.8.&./.M.Q Q -.y.k ; 2 O     < T O.y.I O.O.f.Q 3.H. X[ -.C.o.I.Y. Xy.Y.<.+XO.C.C.C.*X*Xc.f./. XhX Xy.&.;XQ.D.O.M.y.&.O.s.D.y.3.j.j.) C.I f q 2     O 2 V J k <.y.f.o.D O.Y.c.M.y.9X) y.D.0.3.[.3.M.c.I.f Y.M.D.;X*X'.Q./.I./.<.M.C.f.8.o./.M.J <.j.s.) y.8.O.r I I r         2 2 Q s y.[ ) j.j.T y.y.3.o.o.I 8.M.<.) ) '.V C.[.c. X*XD.j./.0.<.] C.s.8.3.3.y.8.n J &.&.8.<.J I ] V J 8.x r q       s V 9 V M.s D J k f o.O.D D f k D.&.2 &.&.o.<.<.M.'.4X[.<.<.0.&.] f.) &.y.3.q '.] D T y.o.V T J T Q o.D r r D 2   O O $ 2 J n I ) n -.k x D -.Q T x 9 < J f 3.j.s.n C.H.Y.Q.0.<.o.j.3.&.x ) J I Q T Q ] J x k <.V 2 2 <.o.J q r k 9 2     $   f 2 0.y.2 f o.k n ] k k n f 9 Q M.k k c.c.C.*XC.<.o.D D o.s O.&.[ s <.s.V n D Q J V f T V ; -.J s k f 2 < ;   O s k 9 q V 9 9 s x I f J V V s ) D s n q O.f.C. XH.f.o.D Q J ] n o.f D V J I Q ] o.k k f O.x D k x q k V f q ; O     2 s 9 f n r 9 f s q k < ; k r s x s T 0.M.I.[.y.) V T -.I x J V ) k r r V f 9 x n D f ) x x n s r k f s q $     O r q < 2 2 ; s q q r k 9 q s q 9 s f J Q.j.I.+Xy.] -.V n T T n V x x V k n D V x x x x k V k s x k s f s 2       ; ; 9 2 2 9 q 9 9 9 r 9 < f k q q q J D.s.M./.8.T k f V s k k n k 2 r s s q ",
"Y.c.*X'.M.j.8.3.Y.[ c.s.'.Q.0.eXM.'.4XH.<.D.'.c.D.'.&.I.M.j.Q.[.H.3.-.D.) D.j.s.n D c.o.x 2   $ $ $ x J Q ] J 8.o.c.D.s.0.y.T ,XI.I.C.Y.-.*Xf. XT f. X;X/.Y.C.Q.Q.+XI./.-.C.[.j.H.] C.'.y.o.y.s.[.0.3.f.Q Q.D V f s O   $ $ s k D I &.J O.3.o.c.j.3.j.I.k <.[.s. Xj.8.0.Y.0.H.Y.C.;XeX[.y.+XI.c.Y.] H.f.Q.3.] Y.f.O.<.3.o.I 0.8.k D O.3.f         O 2 k r &.) x j.0.f <.H.f.D ) [ o.s.[ -.c.) <.*X'./.9X+XY.[ I.3.H.T H.&.c.O.) 3.0.x ) ) f.y.f.k x y.y.D O.V 9 r $ O   ; 9 < s o.s D k D c.Q.0.J s k ] f.[ r Q x j.D.&.H.4X;XC.<.] -.<.f.0.J ) y.&.q /.] <.Q 0.V f ] o.o.J o.n r s ] r ; $     9 r x o.[ r Q ) f &.J s Q V s x c.M.] -.s.y.C.9XY.s.f.[ ) &.j.Q x D s T o.) J Q T J D ) J V k D ] J x f r ; < ;     2 x 9 M.V q D &.n I o.s f J < ) 3.x D s  XM.C.+XD.3.D f J 3.T ] V ] n &.) T s O.o.k k k J x s o.V 9 k q x ; $     O 2 s f q 9 k x r D s V n f q I J q V k 3.0.D.;XC.M.k T -.x T ) J r D V k ] x [ Q D ; s <.k V n x k V x 9 r < O     2 s 9 < r r q r q q k q 2 s s n r r [ 3.f.H./.s.[ n Q [ D n D D D x r k D x < f k I s I r r x s 9 s n q 9 O O   $ s q ; < 2 < r 9 9 r x q 9 f f r f V V C.j./.;X8.] [ n k s Q V ] x f D r s k s f n k D n D n f k k s s r 2 O   O ; 2 ; ; 2 q s r q 2 q s q 9 r k x s x c.0.C.Q.&.Q x D x r I f s k x r s s r ",
"0.H.lX*XQ.&.&.s.;X;X] n H.Y.Q./.c.xX[.C.*X[.H.H.[.*XY.f.<.[ D.,X'.-.y.I.s.&.H.f.] D j.0.) q   ; $   < 9 f x k 8.s.J c.<.f.T 0. X/.c.C.D.O.Q.H.I.<.3.;X4XI.Q.*X+Xc.4XH.o.I.Y.Q.I.s.8.D.'.T Q D.H.j.<.3.c.3.j.I I x x $       < s Q y.f.-.I y.J <./.0./.&.f.D.Q.Q.M.<.H.&.'.s.Q.'.*XeX*X[.f./.0.M.c.j.<.0.Q.-.c.c.8.f.0.j.o.T ) [ T f.] O.f 2 <   ;   2 D Q ] T T M.O.[ C.C.D.Q I D.8.O.I j.C.J C.*XC.*X[. XI.f.f.o.D.8.-.0.] [ Q -.o.O.s.) <.o.f.) k s.y.) T k 9 q $ $     O $ q n f D J [ C.&.T I 9 q <.o.o.V T &.<.&.o./.,X/.y.y.O.<.<.I.3.] r f.O.V y.) C.] O.x k [ [ O.V ] f V k J < $       $ k o.D k k J V n J x k c.< I x [ T 9 ] T C.Q. XD.s.s.V J &.M.T r I D [ ) T V D [ ] k x x Q n f <.k D q f q ;       f $ V T 9 f k 3.k D V < Q s s 3.I V V r j.f.[.Y.y.3.x n Q ) T I n I I &.f ) [ o.&.V 9 f [ f D D q n f x Q 2 ; O     $ f n r f o.T q n r s f f s s n 2 x ] y.f.H.*Xy.3.) ] y.n D [ k x D I k o.I I -.T q n s.f n D n D D k q r < O     < q < 2 9 9 9 s r q q f r r s k f x <.0.c.I.[.D.3.D ) D n J T J f x x I I n 2 f k T f k f f f s f k k q 9 $ O     9 ; O 2 2 q q 2 < s f 9 9 s k s f D x 0.s.Q.*X8.] Q J k f I J V f q J r r k k x V k D V V D x k k r q q < O   O ; < < < 2 9 r r q 9 q s s 9 9 k x k n j.8.c.D.[ Q n n s q T r 9 k J q s s r ",
") s.8.D./.Q D.Y.j.xXH.Q c.'.H.&.D.eXY.H.9X+XD.f./.'./.8.0.0.c.C. X0.c.j.s.] Q.0.f.&.s.3.[ J 9 O   $   $ n O [ y.) I.f.3.f.M.Q./.f.0./.M.[ s.'.[.c.<.;X+XD.Q.4X+XM.+X XO.D.D.[.;XI [ c.tXy.O.c.j.f.8.O.&.Q.D.<.x Q T 9 O O   ; k k s.s.3.Q &.s.I.Q.] D.s.<.Y.o.M.M.D /.D.Q ;X;XI.4XD.[./.c.j.C.8.M.s.) D.I.y.-.c.0.f.<.I.-.] ] O.] C.[ ) k s 2       2 T [ <.J T M.H.j.y.3.C.) &.M.s.I ] H.&.C.s.[.+X[.[.c.Y. XO.O.y.8.) D.Q O.-.&.f &.s.s.T D o.f.T o.D -.] s r q < $     $ 9 k D.O.J T ] <.J j.r f x s.) [ n ) f.Q &.j. X,X*X3.'.O.Q [ j.) [ x s.8.Q Q I M.[ Q V n O.I &.I I r n V f < 2 O     $ n <.f 9 D J k x s.9 [ -.V 2 s x <.I D 0.Q.H.*Xc.j.[ ] 3.8.) Q r Q J ) J O.T r D o.n ) s D 9 T 0.f J 9 r r $     ; O O k $ q x n J n V s 2 n k x ) q D q r D.c.*XD.3.y.V T o.T r n Q x ) 0.D I [ I D V J f V k ) n ; o.q T J < ; $   O < q k D s O.I s f f r f J V 9 k 9 f 8.j.c.D.+Xs.o.'.Q ] I k T D Q V J V ) ) f f.D n V c.k f n k I D k x f < O     $ 2 < r f n x r 9 q r k V f k q k V O.8.D.I.+XY.<.n J x V I ) D s D J T D f r s s J f q J I f s J D q q 9 $ $     2 $ $ 2 2 r 9 2 < k r r 9 r k r q x I 3.j.H.[.0.) I D f J V T ; x s n s f n V V n n n x k D V f x s q q 2 O   O $ $ r q 2 < < 9 r q r 2 r s s s q f D f.8.f.M.-.O.I 9 s k I s r D J q s f s ",
"8.D.) H.H.&.*XQ.eX0.) <.[.;Xj.M.;X X4X+X XeX Xc.s.D.Y.I.c.0.3.s.,Xj.f.8.&.<.H.8.y.y.8.-.[ O.D 2   ;   O V q 0.s.&.0.D.H.j.<. XH.y.j.,Xf.o.<.M.'.c.y.*X XQ.[.'.Q.'.D. XD.3.M./.+X<.Q <.[.H.y.f.M.c.M.] o.'.I.8.D ) ] f < ;   $ n <.&.[ ] &.o.s.j.'.T M. XD  X[ f.;X3./.M.3.9X4XY.C.*XY.o.,Xf.3.0.C.&.<.Y.c.C.I M.j.3.-.H.o.O.c.O.J -.s.[ x s 2     $   9 D <.J T C.'.Q k o.j.D Q 0.q ) 8.D.&.0.[.9X/.lXj.0.'.H.O.-.0.3.&.j.8.<.3.<.n ) -./.o.T Q j.) o.f o.-.D s q q $   O $ 9 k V V T n -.I.T s q x T 0.x D D J ] [ H.[.+X;X*X3.*XQ D ] o.Q ] ) -.j.Q I I -.[ ] s ) H.Q ) k J [ q Q r r s ;     < r I f n T Q k n c.I f ) V 2 r <.j.f n J 4XQ.Q.H.f.j.) H.T V r J I x ] V &.) q x 8.D x D y.D k o.k D x 9 9 < O   <   r < ; f f x 9 J J x s 2 I f n s x s x ;XD.[.Y.y.c.T T ) [ n x &.J o.o.Q r o.) f x -.n s V o.V r ) q D f $         9 2 2 n f D f D q x n f J V x D f s 0.y.f.H.'.D.3.I.] n J f n O.[ V x n V J s y.n x x f.V q f f Q n r D n 2       O ; < q x I D q < r k s n f ) 2 f k ) [ C.D. XH.] k V D Q J T n n I V V f q V s r k f 9 J I k x J n 9 9 9 $ $   O q < < q < s 9 q 9 V q f r r f r 9 k ) O.c.M.Q.s.) J k x J D V 2 V k k x k x n k k J n k s D V f n f s r 2 O     $ $ q r q < < 9 q q r < r r s f 2 r n <.<.0.C.j.-.J 9 k D V x f I V q s f s ",
"O.C.3.[.3.y.;X/.HXc.] D.Q.H.'.Q.;XC.+XY.Y.+Xs.H. XH.8. XQ.s.[ 3.tXy.M.-.y.s.C.3.[ 0.-.<.[ O.Q k ; O     2 I o.-.<.c.Q.I.&.C.c.j.-.s.,Xy.s.c.8.Y.j.j.'.[.;XeXC.f.4Xc./.C.M.C.j.Q.8.[ M.D.'.Y.j.8.Q I.3.C.f.0.T y.V T s < ;     s T x [ s.Q O.] [./.I s.3.) +X&.3./.0.[ ;X-.+XsX[.Y.4XI.&.9X0.&.<.y.c.j.0.&.c.0.0.c.&.0.C.) <.'.D [ J H.[ V s 9 O O   O V c.s.I ] j.C.T ] ) &.) J -.o.8.8.O.[ O.Y.*X*XQ.C.3.D.H.8.O.0.D.<.&.<.y.<.[ -.T ] C.O.) Q -.I y.T D <.O.r q r O   O   $ 9 f n <.k J O.n q 8.I ) &.9 J 3.D k &.I.'.;XQ.C.0.c.Q O.<.T y.o.I Q D.T ] Q I [ O.J O.I.n Q D ] f.9 &.q 2 2     O O q f r J ] o.9 J D Q J f V n n x 0.O.x 0.;X[.[.0.M.H.Q I o.&.q O.I n <.x D D x O.-.f q 3.s.) Q T x r I q r q   $   2 q 9 q V 2   D x J J r n x f J x [ I D I.C. X Xs.c.] T n T ] 9 ] o.<.x o.r M.] k s V f D k [ n D r f r f 2 $ <   $ n V s k I f r o.9 n D s f f J T x r -.&.s./.I.I.y.V 8.T x x f 8.] J s f n k I &.I f n f.J 2 r f ) k < n D 2   O     ; 2 q q s f q q s r < 9 q 3.s r r [ D c.c.[.C.I x J Q o.V V f J Q k k q q ) x r f x q k x V D k r s r 9 $ O     2 $ q r < r 9 s r J q x f r f s r x V J f.s.I.c.) J k T f T q n x s x D x f s q f ) V x s J V s n f s r 2       ; < < 9 r 9 9 q q 9 q 9 s ; 9 V s 9 f [ &.<.M.M.[ r k x V x V r V n q s f s ",
"I <.D.D.'.I.C.D.9Xj.Q.f.C.H.j.9XY.*X*Xj.H.8.&. X;XY.I f.Q.y.) T 4X-.j.0.C.y.j.y.0.&.M.3.&.D ] s 9 O     ; I D s.T j.+XH.Q T D./.Q Q.0.O.;X&.3.M.-.Q.3.,XeXhX4XM.C.'.Q.o.'.Q.I.M.-.3.C.s.C.I.D.O.O.c.s.8.3.0.) y.&.k V f $   < O < -.&.y.&.I C.M.o.&.-.<.[.+X3.0.f.) y.+Xy.4X;X9X[.,XC.c. X3.O.y.Y.c.O.H.f.-.) C.s.s.<.3.-.0.c.V -.&.o.8.n f f $ O     n Q r x 8.I s.f.Q 0.<.j.) s.T o.o.[ s.&./.'.4X4XM.C.C.[ D M.c.0.) -.s.) o.T c.f.-.y.<.] <.&.I ) o.T 3.) D s $ ;     $ 9 I I T J n j.x f I O.) ) o.2 T M.J T <.) M.hXD.-.c.C.) s.) T 0.I.V k I.J J &.) T Q J s.-.9 &.I [ x k ) J q r   $     f k -.I 8.J q o.-.T s [ k D f n j.Q < 8.8.Y.H.I.c.j.V x 3.) k o.) I ) n Q ] &.3.I 9 9 o.-.I Q k 2 n I r r s     $   x $ q r D J x o.s V n I q 9 I n J x J -.C.Y. XH.8.T n D V <.n I -.r O.[ n [ f ] ; 9 Q O.V J x s k k s q q O   < O V k n 2 n n V n k V J V < D J q V r x &.c.f.I.j.c.n -.x s x ] ) ) O.2 x T r O.x I k k &.f r f k D k 9 Q V $   O     2 r < $ f q f n ; r r q J n q q q n q c.f.Y.j.x ] o.D Q x k n V D x f V r V r f k n k D k n ] 9 q k s < ;     O O q < 9 < q 9 x r q q q s I r q 2 s V D ] 0.s.<.Q V n J D f T x r s D f s 9 V n V f f D x k x k V D s 9 $   O $ ; ; ; 2 9 9 q q 9 ; r s r 9 r r s V r I o.O.&.-.) k x s k f 9 J k k k f r 2 ",
"0.H.,Xf.j.s.Y.H./.0.hX3.0.f.Q.xX XxX X*X9X<.f.[.,Xj.[ 8.9Xf.o.O.Y.] &.[.<.0.C.0.f.C.0.[ ) o.] V O   $ O ; D V 0.3.C.D.Y.) Q 0.[.y.y.3.C.sX[ 8.M.-.y.Y.;XtXeX;X/.s.'.f.8./. X[.O.s.s.M.C.Q.M.&.o.O.y.H.Q s.Q.T &.&.V V V O   $   s T H.] ) s.4Xo.I y.j.f.f.8.C.V s.I.&.C.M.M.,XtX;XY.I.s.+X-.<.D.f.Q.k j.I.q [.c.s.Q 8.f.y.) s.] f.s.I ] D f s O   $ O O 2 x ) c.&.y.Y.Q f.I 0.C.0.&.y.O.&.c.&.'.+X;X XH.;Xj.k D Q.Q.H.n Q j.s.] D c.H.&.o.) o.H.-.[ ) O.] [ T f < O 2 O     < D k 8.[ I n &.f J J [ T J r ] s.J n r J c.;X*X&.c.O.H.] V O.8.M.q J 3.) J f.Q n f O.<.J ) s.V k ) V T J r q   $   ; x J x T s.T r &.I T f ] ] ) r x [ r x T s./. X Xf.&.Q f 3.x J <.O.T I f I [ <.T ) V 2 k ] n J s s k n f < O   O     < r x n f [ x V I I n r f r r o.D s 9 o.f.Q.*Xc.-.J k J 3.s.f s f x 0.0.k f k J D k k ] I x V V f r q q 9 $   O   f s k 2 r x s q r I I n D I I f k k [ &.[ c.H.H.8.) s.9 Q ] T -.o.Q f Q I Q n x Q n J T x r x f f V k k n <       $ s 9 s n s x x < 9 9 r s k r r f r r k -.<.s.f.o.o.-.s T ] V J D ) k n V x q x k I f s V s n Q s q r s ; O     $ O 2 < 2 < 9 2 s r q s q q n 9 q 9 f 2 n ] <.&.0.3.O.n n x r D x f r D k s q k k n n f D k f k f V V f q < O     O O 9 9 9 2 < 2 q s 9 s r 9 q q s n r J ) ) O.8.O.D n r f k 9 D f q f s q < ",
"[.D.Y.) 3.f.,XD.f.<.nXH.j.o.I.lXeXnX'.4XtXO.s.Y.eXf.] &.tXy.o.f.9XO.x  XD.Q.D.) f.Y.8.T &.s.T k q < $   O n V 3.T Y.f.f.J s.j.'.M.8.3.s.j.] D.c.y.0.j.;XtX*XtX+XD.M./.M./.0.H.8.c.f.&.D. Xf.J ] /.C.0.&.D.C.&.-.<.Q D I         s q 3.D J /.M.Q T C.+Xf.[ s.0.<.s.j.c.O.C.4X;X;XeXj.Y.j./.<.<.'.Q.o.Q Q H.j.C.&.0.T j.f.8.&.y.] <.y.D I J f q $   ; O   q <.O.f.-.M.o.&.s.) T '.<.D &.&.[ c.<.Y.[.9Xy.I.[.I.k s.D.M.H.k D <.j.&.f 0.Q.O.&.[ Q <.O.O.] -.-.V V 2 s 9 9 $     O r Q <.o.I [ D O.) J Q V I 3.] [ V n f n I.;XH.I.0.C.H.r &.C.Q Q V f.3.T x 3.&.n r 0.-.) Q c.k D I J x D r <       q 2 f V q j.T s x V <.n J Q I x n V n o.D D. X Xc.<.o.O.q 8.k 8.y.<.Q J f J I J 2 o.3.x ; T V o.k T V f n q   <     r s n < k n Q ; n I <.x f x 9 s o.x I q V M.C. XM.0.Q k V 8.O.I k Q r f.o.f O k ] <.V < x O.n n x k s q 9 2 ;       9 q q 9 I o.J n s D k f V T [ J < q 8.3.k f.f.Q.&.O.f.9 ) <.n -.] D n T n T k T n n [ I I r x x s V V q f 2     ; ; x < q T n k s 2 s < q V s 9 s f r 9 n I <.0.c.s.T [ n V ) x J k o.V n x f < V n I q s V r k D k 9 q s $     O 2 $ < 2 9 q 2 q 9 r r f q 9 k q q 9 r k f x [ O.f.<.J V x k q V n n r k k f f r f x V f V f s k f n V q 2 $     O $ ; < 9 s k s 2 2 r q k f 9 9 q r k r n D V ) <.&.I n s V V 9 x k 9 x x f r ",
"H.<.c.0.y.3.*XH.Q.Y.*X[.+XD.I./.hX;X*X X;Xy.O.c.tXY.I -.+X&.o.Y.;X8.] D.Y.y.3.-.c.j.j.I y.M.I 9 V 9     O x x Q T j.&.D.3.c.s.;X-.[ y.Q.M.[ M.3.D.[ 3.+X*XhX[.[.j.-.[.,X8.f.8./.D.c.D D.'.f.] T H.,X<.J j.C.-.] 8.[ T D O     O < I T s c.;Xk M.y.*X<.C.[ 0.j.f.c.V  X8.<.FX;X;XeXs.I.I.c.y.O.Q.8.8.Y.s.Q &.-.M.y.&.0.0.-.M.&.Q J [ &.o.I k < ; $     q D f.] 0.c.y.) <.M.J 8.s.<.Q o.Q o.Q.f.C.;XeX'.3.'.0.o.j.O.8.M.D I O.y.c.k 3.H.I ) ] Q O.Q [ &.-.3.x f 9 Q k <     O O $ f.) &.f.[ 0.) D.n T Q o.M.I V r ] n f.C.+X/.I.j.Y.8.T o.&.&.) V '.M.x J J 0.J s y.0.J 3.T ) T n I r n r $ O     2 r $ x T O.r ] 2 D [ k ) o.I s [ s ) O.) <.H.[.c.f.c.O.f 8.k o.O.o.) D f D T J k T Q V n s.J J k Q n 2 f r       $ V 9 x k V 9 k k Q 8.s V I 3.f f n I ] n x 8.f.I.H.s.o.x D T V ] Q 3.s [ V k q s -.-.) k 2 &.Q s 9 n D r < 9 ;     $ < 9 2 9 f I V D f n f D D J V x q n -.n n 8.3.H.3.-.<.I f O.f ) D J n x J s I ] s D [ V T r r n x k f s r <     2 O k < q f n r r f 9 f 2 I f r k q q q k V 3.8.s.y.I ] Q r n J I r T V k k 2 s x D n 9 s V r k f n q r r $     $ 9 < < q q f 9 s 9 f f s q s x r 9 9 9 r 9 f o.I Q D V D k x r x n V r 9 s r n r k s x f V f s f s x n 9 ;     O ; < < < 9 k D n q < 9 r x f 9 q r q q f k k x J ] ] T f f I J 2 r n f s s r q ",
"+Xo.8.'.D.-.Y.H.<. X9X8.O.<.3.I.tX+XeX[.+XI.3.s.'.[.J 0.+XQ 8.Q.[.8.j.D.j.] O.I.Q.<.j.) &.c.Q f s <   O O f q r y.C.<.I.M.M.y.I.0.D j.+XsX) s.0.0.0.] eXtXQ.9XH.c.&.,XH.0.y.s.8.Y.Q.I Y.C.0.s.Q y.D.j.I *XH.V 8.-.Q T k <   O   r s y.] f.Q.s.f.'.j.J H.] 3.C.O.C.[ Y./.I Y.9XlX;Xy.I.Q.f.f.<.M.C.j.O.c.o.O.y.M.0.-.&.O.<.M.T O.) I M.3.D n ; $ O     f V 3.T c.C.T 0.f.O.] f.D 3.M.3.n ] [.M.8.Y.;X4Xc.D.<.y.y.T s.c.J Q y.s.Y.) ) [ I 0.y.] ) ] ] 0.-.&.V f D J s O     $ < < D D n 3.I Q [ [ r <.o.&.I T V 9 T ) j.j./.,XD.j.s.J [ T ) <.[ T j.s.x 8.I o.V x f.D J 0.] k ] k D q x f $ $   O n   s I O.9 O.<.$ x ] ) ) [ -.f 3.9 D V T f O.*X/.c.D.J ) 0.J J n I ] D f D O.3.V f k ) ] 0.f x I n s r s r $   $   k V k r k ] M.x I x V ] s.] J ; 9 <.J q Q k f.f.D.3.o.V o.k V D ) J Q f J T n q ) T 0.] s D Q s 9 n D s < 9 O     $ < 9 9 9 2 x x n n ] T J k ) D x s x J r ) <.0.s.f.8.T O.f Q x J V Q k x ] x V J Q I D f V k 2 r n s q f 2 $   O q O 9 9 V r q s k q 9 J 2 V r f V q q s f n ) o.&.&.[ &.n r D <.] s k q f D f q f J I q q k f n f V r s 2 O O   $ 9 < 2 q q f 9 s 2 s f s q f x s 9 r r r q k [ T Q Q [ n f x s x f k q 9 r q k q f q r f V s r f r k f q ;     $ < ; $ k r q s s 9 9 s r f q 2 q r 9 2 x s s n J J I Q f f V n 9 r D k 9 r r q ",
" X) 8.xX9Xy.c.&.M.M.4XO.0.H.<.Q.tXtX[.H.Y.D.'.j.0.Y.Q 0.,XI M.c.9X<.y./.3.8.8.C.Y.<.8.0.T s.] V 2 ;   $   9 f x I.H.s.D.f.j.s.8.f.<.Q.]  X-.[.&.0.8.I.,XeXD.4X9XQ./.j.Q.] s.j.0.c.H.O.Q.y.3.c.<.Y.] c.M.eX[ &.0.] D J s 9   O   $ T 0.8.M.D.3.I.8.I 8.f.y.8.j.c.8.Y.H./.T H.eXhX Xf.Y.Q.Y.f.M.s.D.[ ] c.M.<.3.H.O.8.s.J O.f.&.3.3.J s.[ x V 9 O     $ x ) 0.[ j.&.T j.y.y./.T r C.s.3.3.I s.Q.&.0. X'.;X&.s.f.M.<.3.<.) [ 8.<.Y.-.T x &.C.y.T I &.o.s.&.) I D o.q q $       2 9 ) k J y.T I.V V ) s.f o.2 O.D x k &.I y.C.;Xc.&.f.J x 3.D.D f 0.&.[ Q f.&.f D ) -.V 9 I.n I V k f r f f $ O   $ s D s V 3.9 ) C.s f O.y.x n 8.r I D V r k D ) Y.Y.s.f.x [ ) I [ V D Q J I I ) I f r D 0.o.I s ) [ r q V k 2 ; O     k T 9 2 x M.0.Q Q ] r T [ [ k ; 2 -.o.; I 9 &.<.c.3.-.[ <.f J J I I O.s D O.q f D I y.J J x x n n x f r 9 2     $ $ 2 9 s r J T I k I 0.<.r ; ) [ V q f k T ) O.0.o.8.3.n [ T D n V I T r D n O.r f <.n s D k I r 2 x k s r ;     < r 2 $ r J o.9 9 r 9 I s q r < s D k r r q f V ) o.] ] Q q x Q -.J r r 2 f Q ] O k V -.f < q n D n V r q O   O   O 2 ; 2 9 2 q 9 q < 9 r s q f r q 2 f k q q 9 q n J D n V k x k V r r q k f q r q s q 9 s n r r s q r q < O   O < 9 9 < n r < 2 q q r s q r 2 2 r r 2 2 f 9 q k V x V T V n f r x x I k 9 r f s ",
";Xs.c.Y.0.T /.Y.8.<. X/.f.s.<.+XsXBXH.c.c.s.9Xf.8.Q.) 3.[.&.I.y. X3.&. X3.0.-.0.y.f.&.c.T [ -.V 9 <   O   r I ) I.-.8.;Xs.) 3.I.) C.*XJ 8.H.,XD 8.C.Q.4XhXC.tX4XY.'.s.j.<.0./.I.3.3.3.I.c.s.<.M.D.3.M.M.8.I I.D ] I n r <       9 ] <.Q.c.C.o.'.J ] <.j. X) D.[.Q Y.M.H.o.[.*XeX+XH.C.[.'.0.C.-.y.3.o.D.[.&.0.8.&.f.C.Q I f.f.-.3.Q [ V V n s       $ D -.3.[ 3.<.3./.Q ,XI.Q k D.f.O.c.o.3.Q.O.y.[.9XQ.8.O.M.s.0.I 3.0.-.) [ f.3.s.) <.] T o.0.o.[ &.&.J I Q ] 9 r $ O     q r O.k ) O.y.-.] r 0.y.2 J x o.J T T x [ ] 8.4X-.-.s.8.D 0.D.J q 0.-.J O.] -.s Q o.O.) k s.T D x k 9 k 9 r O     $ f V s -.I n T f.[ x D ] D T Q ; k [ J r f [ ] 8.C.M.y.Q I k k O.] J T D T V V r [ n k 3.3.J n V D q q x q         q J 2 O o.] I Q T &.k ] n V D 9 k < o.s.n q f V <.0.s.s.3.] n J O.n O.o.V r o.s n J T o.n D D f n V k r 9 < $   O 9 O r r V k ] k x q D o.<.q 9 k V f f ) k V T I O.[ ) o.J [ ] J V x Q J s x k &.x k ) V r T V I s r f f f < O     2 r V O f x -.r < 9 r Q < f r r r f x r q 9 r I [ ] T D V V J I D n 9 k x r D ) $ k s [ f q 2 V n V k 9 <     O   O 9 < 2 9 9 9 r 9 9 2 r s 9 s 9 q < f s s D T k I k n T J x k k T s 9 s n f s q f s r 9 r k q q r 2 9 <     O ; 9 r r r s q 9 q f f s r s r q r f 9 < q q 2 2 q f n V D D J f 9 D x D k ; 9 q q ",
"I.f.Q.D.j.O. X3.&.M.C.nX0.s.I.[.sXnX/.H.D.j.,X<.D.;X) 8.M.M.Q.j./.j.Q Q.[.I.8.3.&.D.o.8.Q s s.D < O   $   x Q I &.O.C.sXo.I j.+X] M.H.C.O.I.I.<.<.y.I.4XxX9XY.C.H.9XI.f.O.'.j.-.8.] 0.H./.H.I I.j.H.C.s.O.s.O.[ -.[ k r   O   O ; Q y.s.D.y.) D.D.k -.c.Y.<.0.C.J 0.O.[.-.-./.hX*X[.3.*XH.-.0.Q y.C.M.c.j.3.o.o.j.y.8.0.x 0.8.o.&.<.T n Q f s       $ D [ x D 3.D.D.c.O.O.V &.x Q 9XT x 0.s.3.D ] [.4XI.y.s.I.s.[ n Q.H.<.) 3.o.0.I.T o.o.j.j.[ I ) I &.V J ] V f s     O ; x x T ) 0.0.n 3.J ) ] s.Q q T n T T [ k [ Q f.c.D.0.f.8.I 8.3.) 2 8.3.J -.r ] Q ] I 8.0.r j.Q D ; T < D 9 q O     2 f x n -.<.J k s.T I V k Q Q q J ] T k s V n J <.8.C.O.o.I ) I 3.) I ) x s 9 Q &.8.] D &.o.r s 2 r D D s 2 $     $ 2 ) V s V f V x y.0.q J f 9 I x n $ 8.3.&.; 9 f y.&.f.s.3.n T ] o.f D -.n s I O.n J D T [ f D V f s f f 2 O     ; s O f k Q D 0.r x f n s ) s q 9 V k 9 T 9 s Q x J &.D T o.8.T Q I f ] T V q O.T I n 9 O.q f Q k 2 k r < r       O 9 r [ $ f k f 9 s x r q f k k J s 2 k r r 9 r ] ] D D V Q &.D x f ) q V I 2 r f r f 2 k s n 9 V f x r ; O O   O   ; r 9 2 q r 9 k q s 9 s f 2 r 9 r < q ; < ; 2 2 O.f q x I k r s Q r < f x s k r V f k q 9 k 9 9 q < < $   O ; 2 9 9 q r r r r r k n x f k k k x k 2 ; s q r 9 < s D J x f I k 2 x 2 f f 2 q s s ",
"H.3.j.Q.Y.[ sXy.n I.C.9X/.tX;XlXtXeX;X*XC./.Q.c.[.'.) D.0.c.s.f./.<.0.f.s.c.8.O.Y.Q.O.C.V s C.T <   O     x &.O.Q s.f.[.&.I -.8.y.j.j.Y.-.y./.I.s.I ] [.xX9XC.y.c.,Xs.8.Y. XY.) Q.] 0.3. XI.-.8.M.f.C.D.] &.y.-.n J I s     $ O s s.j.s.C.'.s.&.c.[.o.s.[ j.f.3.8.Q ;Xo.;XO.0.9XQ.Q.s.Y.s.j.Y.&.M.M.y.s.y.3.8.T 3.D I C.-.-.I Q &.0.D 8.T f 9 O O   q O.8.x o.M./.,X0.r 8.I &.C.T ;X&.D &.I Q.x  X,XY.'.I.y.C.s.s.I <.y./.O.D T y.Y.] 3.8.o.O.Q D O.<.) r -.D I x ;   O   s ) x x O.s.<.O.) [ [ ) -.n k Q 2 ] f.Q q I [ j.0.H.y.3.<.Q &.-.n I y.f.] r J Q &.y.f c.) x 8.n s J O.s r k O     q 2 D J D.I f.Q 9 j.V J Q D &.f.2 J T n J V s V s O.<.-.0.[ -.J f Q ] x -.J k V [ -.] V f O.V q f 9 2 O.] $ $     O 2   [ O.f J n [ x T ) r s s 3.r s k T 0.r <.$ < o.[.Q o.O.&.O.I I k f J 0.x V n <.[ J J I k s T D 2 V f r   <   $ < V 2 r r Q ) J x r f 3.r [ n x 9 n Q 2 V Q s <.2 < T T I O.-.D 3.Q n D f k J o.D V I k o.q r I x 2 9 f s $     2 ; 2 k 9 ; n 2 f s f V x q q V x ] 9 k s k r x s r o.V V r n D V J D k x D D 9 9 s n D n s q J D k r q ;   $     $ q $ f k r f q n D T q q f 9 s k f q < 2 q   ; r 2 -.q x s f n x f k f r s s k I f 9 s 2 q s 9 s $ r $   $ $   < f x x f q V n n V D V n x s s n J r f ) D 9 2 < 9 s k k s x n x f f s s V s s f f ",
"/.f./.c.*Xj.D.*XT o.'.D.Q.4XeX9XlXsX9X/.M.Q.j.C.+XD.0.s.3.'.3.<.D.s.I.<.O.[.j.o./.y.8.D.V n c.D q $ O O ; J 8.0.O.M.s.'.f.I 3.8. X0.<.'.f.s.Y.[ f.] &.'.lX9XD.c.+X-.j.M./.y.'.O.0.8.D.C.<.&.M.s.M.0.s.y.] 0.3.[ T J n r O   O O J f.Y./.Y.[.0.V M. X) o.3.f.D.j.3.[ 0.&.eXx <.+X,X;Xf.Y.C.I.I.<.0.y.j.-.J O.[ &.-.3.f.D.y.o.O.3.o.3.I O.x k r     O x 3.C.I [ M.[.c.] T <.x j.8.H.-.y.8.x ] c.I /.[.Y.9X+Xf.f.y.3.[ [ M.0.o.V O.y.D.Q I Q o.o.D D &.3.O.k [ n D 9 ;     9 I [ k &.n 0.&.f c.3.Q x T O.k s T D Y.[ r q V n y.y.f.O.y.O.<.[ s &.o.y.Q s Q 3.s.y.n [ n J J -.s k T r f   $   $ < s   8.f.O.y.D ) 0.O.J [ J Q ) f Q V f x f r T k J o.[ &.-.3.) I O.s.q -.o.k T T I q n T ) O s k V J Q s   ;   O $ ; ) I V < x J n s k J f x r Q ; O n ] x r O.q s x O.) [ O.-.V T ] x J D f.n ] J n Q ] D s 9 s J Q 2 9 2 q         I T s x < -.D ] V k T M.o.8.I s s Q <.s s V x D < 2 n J T [ ) n [ J V T D D V I x n J x Q r q x n f r q $     < k J x < $ 9 f k J D n D k 9 q n n Q f s s q q f 9 2 k r f f n I x f k x n V k x s r f k k r q k f r 9 2 $     ; < r k O ; 9 s Q k k k D 9 2 2 9 q q 9 2 2 9 r r r     f r f V q f s r s s q r s r k q 2 q ; 2 k r < $ 2 $ O O ; $ ; 2 s J Q I V V x f q 9 2 < < q 2 9 < < r q q 2 < < 9 r s s n n x x x s q s 9 q r s ",
"0.H.c.[.-.D.D./.f.y.D.[ M. XeX4XlXlXhX[.Q./.<.M.+Xj.f.-.0.;Xj.3.s.&.D.y.3.+X8.&.y.8.&.[ -.I x V 2 $     q ) 0.s.3.c.&.D.s.H.3.s.C.C.[ Y.c.8.8.&.H.<.3.C.,X;XQ. X'.[ D.Q.4Xo.j.C.8.C.[.0.-.<.T  XH.<.[ o.[ y.&.O.3.I s <     < r o.) j.sX/.-.Q -.c.s.Q o.D.Q.<.f.f.3.r 8.Y.O.<.;X,X,XD.c.Y.M.M.3.&.<./.s.Q 0.T <.&.f.f.3.f.) O.] 8.) I -.f 9 O     2 q ] &.) O.D.I. X3.c.I T f.) s.8.o.y.] Q I ) I.f.&.'. X/.0.Q -.s.J [.y.V &.8.y.s.o.Q ] 8.O.V T O.o.O.J T x x   $ ;   f T [ T k Q D.3.T y.f I f ) 3.D 2 <.s 3.x 9 s J V D.3.3.s.f.0.O.Q ) 0.n <.I k T y.8.T r r V [ [ I V 2 D r r   $ $ $ Q I n -.o.f ) &.T O.-.x [ [ ) f s r [ k k k r J s r ) [ [ 3.-.&.&.o.T 2 O.) f <.D s I I I T < [ x k x f <   O   2 q r T ; I V k s J J k T T ) V J r V c.I.9 V ) q 2 < n ] ) ] [ n ) O.J Q I &.n Q V k n J V f s k s T r $   $   $ $ f r D f D.) r ) ] J J ) &.I T f 2 r I &.k q f J k 9 2 f n n V D D J x V Q Q T k J n V J V D x s q s r 2 $     $   I Q s < 2 n 8.k V V x k 9 ; < 2 9 s r < r 2 s f q q < < 2 s r k r f k s r x n D k r s f f s r 9 2 < ; $         9 s k < f k f J s r s x 9 9 2 2 < $ $ $ ; < 2   <   f V n r k s k s s f r 2 2 k q r r s f q s ; 9 9 <     ; 2 2 9 r r x ] &.] D I J x s s s q 9 f ; O < $ O $ 2 2 < ; ; 2 9 q r s f k V f 9 q r r r s ",
"y.'.8.sX[ Y.I.f.f.;X<.] C.Y././.tXtXeX X/.Q.j.H.H.s.s.3.M.'.I.-.y.o.f.c.0.D.o.<./.8.O.[ 3.) n f $       n &.s.c.3.-.c.f./.<.8.+Xo./.[ M.&.[ O.c.Y.0.y.f. X;X X4XD.3.D.,Xc.T j.Y.+Xo.C.y.0.j.[ '.Y.0.T <.s.s.<.3.3.D 9 $     9 D -.s.C.[.Y.I.s.<.f.&.[ c.Q.D.Q y.'.f.I y.] s.T H./.+X+Xs. Xf.C.C.o.] Q.M.8.j.I ] 0.s.3.<.j.Q <.Q 0.n J -.s $   O   D ] H.y.Q.f.8.y. XI.-.s.) f.O.D O.&.f.T k ) 8.C.<.D s.D.+Xs.V 8.o.8.H.f.T [ y.<.o.-.] ] 0.] J o.) V T Q I k 9 2     $ T y.[ k s Q j.-.r I -.Y.x c.O.<.I [ D x s n O.J n [ <.<.s.<.y.T J c.&.D T D V T f.<.J J r f c.Q f D D f ;   ;   O s 3.k r <.] ] <.I ) I I.[ J D n s I I 8.f r V q s 9 r ] O.Q &.) -.<.V k ) o.T V <.n Q T n x T s D q f 2 ; O   O 2 I n 9 Q D ] s T I M.D q x n x s r 9 k 8.M.$ D D r < 9 T I V n x I I ] Q T o.V D D V T s f I I V k q k k <     ; r k r s T Q y.V 3.] V k k k 9 ; ; O ; < 2 k q r f D n q ; q k q r T I n k x V I T f Q J D V D x I x 2 <         O 2 V s D V $ 9 ) [ r r r r r 9 < 2 O O   $ O < 2 r 9 9 r r < < 2 2 r q f x q 2 s x s r q s f s r r < O O O   O ; < < < < V D Q n f s r f x k r r f q 9 < < < ; O   < 2 $   ; < V o.f k f k n s 9 r s 2 < 9 q 9 2 9 2 O   O $ Q x ; $ 9 x D D I I k n D J n x n k r k n q 9 9 ; < O $ $ ; < < < < < q f k n D n f k r q 2 2 ",
"Y.[.3.I.+XH.] D.j.,Xc.o.I.y.Q. XtX9X X/.D.D.+X/.-.0.Y.y.c.Y.I.Q 8.C.H.s.] 3.8.0.;Xc.Q T 0.Q D s $     2 Q s.H.Q.O.[.3.3.Q.Y.I.O.s.c.O.M.&.J <.j.j.-.c.j.*X9X*X,XI.,Xf.'.j.Q f. X'.&.O.O.M.f.c.f.3.y.I 0.j.0.-.Q J q ; $     s T j.c.<.f.'.[.<.) D.0.s.M.c.] 8.f.Y.[ y.-.D o.Q 0.c.Y.'.j./.c.f.D.3.o.M.j.f.0.] [ y.<.-.c.-.V 0.j.) s J I $ ;     f [ j.c.o.'.I.I c.D.y.[ f.] ) 8.j.n f x &.y.0.0.3.&.Q D.j.H.c.&.o.<.3.3.y.I 8.] 3.&.f.) T 8.] Q [ I n J ) n r       2 J J y.Q f f -.&.O.J f.y. X2 f.J 3.) r ) q q ] 8.D r   I D J ] &.T T I.[ -.n I Q J 8.) V [ k n y.V 2 O.I 2 O     9 s 3.I 9 ) 0.y.] O.I O.-.s.O.9 < < r D ] T < ; x < 9 q k [ T k [ I ] o.x o.<.n ) V n f -.n r 2 V J s f r 9     O s n [ n f n r [ T y.T D r ; ; < O $   O   9 D   r f s r k I x s r < k V D J T o.k J D I J k V T n s f s < 2 $   O < r D q x D ) H.Q ) x s r 2 9 < 9 9 2 2 <       9 9 q f q $ ; r 9 r Q D s x x f n V s I x x s x r n q ; $     < 9 9 s V k 9 k T k 2 x x s r f k k k k x r < O ; O < ;   $ < n < 9 ; 9 k q r f r q q 9 < 2 9 q 9 2 < 2 ;   $ < $ $ 9 9 s 9 r o.[ V q n V D D D x k k x n x f r 9 < $ O   O ; 2 2 9 2 s 2 9 r x D x f V s q 2 q 9 $ $ $ r O 9 $ 9 f.) k s f J ) I V V x T I D x x x f q f s f x 2 2 f ; O O O $ < < < ; 2 r r s f r q f s k k k ",
"0.4XO.s.+X-.T [.c.s.9X8.Q.T H.I.tXtX;X*XQ.C.,XM.O.8.,X-.<.[./.&.o.I.'.j.&.&.M.D.<.y.x I M.Q q 2     O f [ j.Q.'.f.T H.y.eX3.I f.Y.3.<.y.'.x o.C.f.o.C.y.Y.,X,X,X9XH.y.,Xs.I [.0.0.j.c.D 3.y.y.3.[ f.) O.-.8.<.n f <       r ) <.j.*XI.f.j.D.y.j.[.O./.] 8.-.0.-.H.I T O.I [ 0.s.C.D.M.H.M.Y.O.<.8.3.c.M.0.&.o.O.y.[ ] j.Q n 0.Y.T 2 f f       9 [ <.*Xj.0.D.I.s I.Y.8.M.x o.D f.Y.T s V 0.T y.0.J V V Q.c.<.j.f.&.3.C.J Q C.O.o.&.8.H.) ) y.) D D D ] D J q ;     ; s T o.H.T < k f.I V V [.k 8.q Q q J I q I r r Q x k s 2 V 2 x O.J [ 3.C.<.&.k ] Q k O.J J o.s o.o.x   o.O $   ; k n -.<.2 V <.3.;X-.O.O.q r $ x $ ; $ <   q ; $ < r $ r s r ) 9 < Q I n J D ) T 2 ] f k Q J D V r f I r f       2 J ) k n q 2 T V 8.V f f s k k 2 f 9 q ; < ;   ; O $ 2 9 r r r f r s s < I k s I x x s k x s x V k 2 9 q < ;     2 r ; 9 n k $ y.M.o.q k D k ) J V n x V V s f 2 <   $     ; s 9 O < q q k f 9 x x r k f r r < r < q < 2   O ; ; 2 r q 9 s x q D ] n r n J ] V n D V D J V ) I k 2 9 $ 2 O   O   k O 9 $ 9 q q f f q q f k q q q 9 < $ ; < < O 9 s 2 2 r 2 ; J ] o.D V n ) ) Q n n k D n f T J x s 9 2 < ; $ O   <   f $ 2 $ ; 2 s x r s D k x s k f 9 r q 2 ; V 9 q O.I Q ) J I Q J J ) [ O.) D x x x k f s q k D q r I s 2 ;     O ; < < ; 2 9 9 q 9 9 k k D Q ] ",
"3.tX0.I.f.) 0.+X8.&.'.Q.'.T -.&.*XtXtX4X4X/./.3.8.y.*X8.<.Q.*Xj.o.<.C.f.M.0.c.I.) I Q f.<.I x       q Q -.j.H.C.-.c.D /.;X] <.O.'.&.o.<.tXT J D.M.o.D.O.3.I.+X+X[.C.&.H.H.) c.8.y.O.+Xs.n O.M.0.3.y.<.&.&.j.-.D r ;     2 ] s.f.D.C.c.Q.0.T o.,XH.o.c.] j.s.3.) Q.&.V &.] o.&.3.Y.f.M.Y.c.'.&.] <.f.j.M.] <.) [ f.&.o.8.[ ) &.y.Q < ; 9 O   2 ) s.8.D.] ) &.s.O.M.D.I.H.J D 3.Y.'.n r -.<.r f.k ) k 2 c.f.T f.<.&.C.y.Q o.M.3.3.) ) 8.I &.<.V x k V <.k s O       x &.o.8.O.f [ [ <.0.Y.&./.[ x D x 9 r x n k r V V   < r n D k ) ) V I <.3.-.J n O.T r <.o.<.O.x D O.; < $   O   2 &.) O.k k &.0.M.j.O.k 2 f s ; s r 2 2 <   2   < ; 2 $ q q < J $ 9 V n r s n f x r T f Q O.f r n n q ;     O   2 J o.] q f r ] s.Q V s D Q O.[ o.f ) V x q r < ; $     $ $ 9 9 T k r r n q D f 9 x 2 x q 2 q q f r < < 2 ; O <   q q s ; n J n 3.D V Q V O.I J f.-.) ) x T Q n n x n < ;     O q q ; ; 2 2 < r < s s r k r r 2 O s 2 2 9 ; ; 2 9 2 q s q 2 q V 8.<.J D V D &.o.J V J n n J D J ] n n r q q $ $ $   <   q 9 2 $ q x s < q D I f r q r q 9 2 2 q < s x r r x f s &.O.J x ] [ O.J I k k s J n k J n s r r r 9 < 2 O   $   s ; 2 < ; < q r < q I f n s f f r k r f 2 q f ) Q n x ) I J J J ) o.] ) D k k k f f k s f k n s f I V q 9 ; O   O $ ; 2 q q r k f f V r f n D ",
" XI.Q.M.C.] [ /.'.*X) [.D.0.0.I.H.;X9X'.9X;XI.y.y.j.H.Q.D.f.+Xy.0.] 8.] C.M.f.f.] -.O.3.Q f       O I y.j.C.C.0.&.M.c./.M.] [ f.4XT V 8.'.8.Q -.M.o.Y.O.] s.Y.D.+X[.8.M.H.0.D. X-.0.j.'.-.D D.+X-.I &.3.3.j.x r       ; D s.M.8.[.H.M.I.c.D.C.j.o.Y.n Y.I.I c.o.O.) 3.[ 8.T Q -.y.J f.y.f.M.<.T c.Q.C.D.J C.o.<.3.8.<.o.[ Q x V n r ;     2 ) s.0.f.c.c.0.s.-.D.Y.Y.c.;X-.f ) I.0.I Q D 3.D k ) c.&.s y.3.n f.] <.0.3.) 8.y.] j.&.n I J y.-.D O.f k -.< $     O k T 3.] D.V ; C.D.s.J T D $ f < 2 < ; ;   <   ; q k V n x q ; 9 Q q I 9 x V Q n O.f.T 2 O.T ] q T < k q   O $ O r n 3.j.s n 0.j.j.I x J V ] x I D f V s x q ; $ $ ;   $ ; < ; 2 x 2 D s r 2 < 2 s x 9 s r f s k r ; O O O 9   < n T Q V D x Q D <.T T Q O.) s '.j.f.n 3.] D f x f D f O ; $   O r I.V 9 O r x < x q q q n D 9 k 9 r 2 2 9 $   2 < q Q q < 9 O.[ n J n I <.3.[ &.T j.) D &.J [ Q J x n Q k r < ; O $ ; 2 2 ; < 9 f < 9 < 9 k q s r ; n r 2 k q x n s 2 9 k k r q T y.-.V ) s.8.Q ] V n D k k D D x O.D ) r x r ; $ O     ; x V 9 q s f 9 ; f D V r 9 9 s k f r 9 k 9 f n r k T I c.8.D I Q ] T &.k I D D s D x k n f r f n n s < 9 O r       O ; < ; ; 2 9 ; s ] J T x k f r x 9 k k f o.f.x n V ] ] [ o.-.0.<.T Q D V J D k f n r n r q s r k n r q 9 < O     O ; < < 2 r 9 < 9 q q q 9 ",
"s.Y.D. XQ O.&./.T <.+XM.H.M.D.C. X8.4X4X Xj.I.,XM.s.<.I.D.H.,X0.&.Q Q f.<.H.[ s.f.0.s.o.r < ;   O $ 3.D.H.D.I.0.&.+Xj./.<.T f./.'.I 0.T Y.-.T 3.&.M.I.k 3.c.f.H.c.,Xj.y. Xj.C.I.D c.<.Y.H.<.s.M.n T <.M.-.n s O $   < q D Y.j.'.[.0.-.sXQ.0.C.&.n D.8.8.j.<.o.D &.] Q T [ r D M.&.k o.] ] j.D.-.c.H.C.] ) /.s.&.] f.3.o.D Q J   < O < O ; [ s.&.y.D I &.[ f.s.f.-.) f ) k r O x 9 q 9 n &.y.n n n O.n r <.Q I Q ) Q &.Q /.Q [ o.y.T ] ] D ] [ D s r $ ;   ; q T 8.] n j.&.s f.j.J J s n k x r q s k O 2 <   2 O O < f n s ; 9 n Q D k f r r x s n Q V 9 J n x 2 r $ r   O   k k f.[ D.T J ] eX<.V I Q 3.Q O.&.] f.[ 3.k I x r r O   $ O O $ O 2 s ; ] ; O 2 s q ; x 9 D 9 r 9 < ; $ 2   2 f s V T r T 3.D < s.Q I I 8.f.C.T k f.D.&.J y.] V ; I y.J D < q   $   $ n O 9 D s k < D $ D D f x f.f n < q < ; q < 9 ) k D   k n D O.T k -.<.H.0.] T <.T f.O.n ] T o.D f ) Q D 9 s k <     O ; 9 ; 2 9 9 $ < k x r s k   s I k f k k k q ; s T x f ] [ &.Q o.0.&.j.o.D s T 3.s k Q ) J J k ] f T D < f ; O   $   s J 9 r ; < V q n V n r Q T q x J s V q [ Q k r k k -.3.o.[ <.D.O.f k T f x T n x x f V V f J r r r k q ; O     ; q x f s r q 2 2 9 f < r x 2 9 J Q T I n V [ k k x [ O.-.&.<.8.<.] ) I V V V f s V f f r s f r s V q q s r $     O ; ; ; < < 2 9 9 9 q r r ",
"0.s.4XY.O.V M.Y.J ) Y.8./.C.I.s.&.3.o.[.H.j.4X[.3.y.f.H.Q.s.'.0.T o.8.C.&.0.) s.f.y.) f O O     ) n 8.4X3.J 8. XC.;XC.Y.3.) -.3.j.j.&.Q 0.Q f.0.) <.3.[ &.&.[ Y.<.D.j.3.I. XY.&.T 8.0.I.D.3.8.f.) &.y.3.V 2 2 $   ; k c.f.C.3.y.H.f.c.*XxXH.c.k q s < q q q V q I D I T O.J I O.n n O.O.f.Q -.<.<.j.j.I O.c.3.o.[ ) n o.T f q r 2 $   r y.o.y.&.] D O././.j.D D D f 9 f s r $ O < < O $ q k $ x n n q I ) ) J [ ) [ f ) D T &.[ [ -.Q r I ] s s O ; < O k V < ] J D o.0.f.s.[ I ] Q <.-.] O.<.J V ) 8.I 9 2         O 9 q ; $ < T s < s n D D k q r r r q < s r 9 $   q x ) q n C.) y.D ] <.O.Q &.o.M.s.O.s.I 0.0.n ] T n ] Q k < x q           D 9 D O ; s J k 9 9 < q r r k < J 9 < q x x f [ V f &.s.I T &.) [ -.Y.D.] &.C.-.I O.T <.x T x Q O.J I f f s 9 $   < $ ; q 2 9 r V ; J q k f f q x q r 9 < 9 q f &.Q Q V x 9 <./.[ 8.0.3.y.[ 0.O.] I <.T k ] T D x s J T T n x k 2       O < $ 2 ; r s r k n s 2 < r D k r k s s r 2 O q J V x T 0.[ 3.0.8.O.-.] J k J O.x x D T T s k [ x ) n q k r q O O   9 k s s < ; r 2 r x D 9 n n q V I f x s T n n k V ] O.Q O.s.3.-.T f J T k n I s r D x J J k D s k n x q ; $       $ < q n T Q I V n n ) o.V k <.s.I n x r f Q x I [ o.-.<.s.[ [ Q ) ] T x x I J k r s x k f k f s k k r s s 2 $ O   $ $ ; < 2 9 q q 2 q f x ",
"+X[ *X/.H.J /.I.O.] f.8.M.3.s.c.8.) y.O.D.eX*Xf.o.D.[.M.+X0.Q.8.o.0.c.Q.c.y.] ) J -.J r < $ O D Q M.j.C.f.M.I.Q./. XD.8.x q x D J s.x V x r 0.-.Q o.[ -.y.y.3.M.8.3.y.y.f.'.j.) O.O.0.j.M.8.0.c.T ] &.D $   O O k <.I c.Q.j.c.9X;X/.j.) -.k V s r $ 2 r 9 $ ; O O O 2 f ) ] Q V Q J ] J D.Q 8.Q -.c.j.Q <.-.o.Q Q -.) T f 9 ; $   < Q M.y.T y.&.] y.C.c.-.Q k ) I ) -.[ ) T T x < 9 O     <   s r r n T x [ ) D O.y.9 x V f D T D k 9 < f s O < ;   < <.o.< D -.T D -.,X;X<.) O.s.] D.s.o.s.f.f n &.&.] V s k < 9 O     ; < 9 s 9   $ s f f k V k f q f < q x q k x r V x Q s j.3.H.Q <.0.J &.-.c.c.H.c.j.8.T <.<.T J Q V o.k s s ] n 9 < O $   2 O 9   ; 9 n 2 9 < 9 f q s D q x s k I I r 2 ] T q ) D I y.] ] f.+XC.O.O.c.D.J J ) o.] ] s Q Q D I Q D x D s 9     ; $ $ < < f ; $ D 9 s f k k r n k r 2 9 s q s Q D V r ; 8.s.o.c.M.f.O.x o.0.I D ] J k J J n x n k J Q Q V n r ; ;     O $ 9 9 k n r 9 x n 9 9 n V q x J s q r x D V n V T o.s.O.Y.j.O.[ ) ] D V n T J V k V ] r V ) s o.I f f f k $     $ < q 9 < ; < q 2 x n 2 k x r x x 2 f k V q V V ) y.3.] s.H.3.J J s Q V x V I f r [ I ) ) x x r f n x q < ; ;       $ O $ ; ; 2 f V r T -.I 2 f J f x k r q D k ) -.3.j.j.H.] O.Q Q T T V n T Q n q q n n k x x f r n f f f q < $   O O ; < 2 9 9 9 q r s s ",
"4XQ 0.H.C.o.c.8.T I <.[.j.Q J j.&.8.[.J -./.[.f.s.;X/.) f.-.D.y.f.j.s.c.M.y.] f V Q s       n y.<.f.H.Y.s.Q y.) J I 3.[ k r q 2 < f ; q $   f J n x V I 0.<.<.Q D I &.y.<.M.c.M.s.O.-.3.y.&.0.s.D n V 9 O 2 r n c.C.Y.y. X3.9X X'.s.I n I J J ) T Q Q q f 9 O s ;     $ r x f $ o.T O.s ] I c.Q D ] [ I ) T [ Q [ I 2 q 9 2   $ x V c.+X) <.<.8.*XQ.3.I T 0.j.c.c.0.8.3.f.c.8.V [ [ f ; $ r     < ; T k f T Q q J o.D o.C.x < 2 n f k 9 2 k k q 2 k V j.D k -.Q [ o.<.0.Q I 0.s.Y.8.'.C.O.C.j.V o.o.r V I x T r r < O     O r D   $ Q 0.&.V s x s x ; q x &.o.x I x n D o.T I s.o.c.s.3.o.&.0.Q.Q.y.j.8.C.o.) J ) f D &.x o.T x q n s V q   ;       < ; < $ x 2 O q V [ ; f V V f n s f r 9 s 3.O.D D k T Q.O.M.Q.,X3.V H.s.Q D -.[ ] I <.r ] V n I [ I D V f k q     O $ 2 < 9 ; V Q D $ 2 [ 9 f Q x 9 < 2 k q $ D f s T x 3.Q y.f.M.-.Q T V -.I n I ) D x D ) J Q k V D I n D k q 9 O   O O 9 q f x r < k V r q q f f k k 2 r q V Q D s V o.-.y.c.*X0.) ) T T x T V x Q I f x ] J I J 2 [ &.x n x V r 9   ; 2 $ ; 9 9 ; f ; f r < k k r s q 2 s s k 9 n I <.c.s.f.H.j.<.I Q f T f x n D x s o.T Q Q k s f f x n r < 2 2 ;     ; < 2 9 2 2 q f 9 < r x r 2 q q x x f s n k [ -.0.C.M.s.J -.[ x V T I I T I n n r x x x V n k f n f f k r 2 $     O $ ; < < < ; 9 q q q ",
"T k f n q f f 9 q q V c.[ f n D.&.8.f.T ]  XY.Q.j.+Xc.[ j.0.y.8.I.H.f.3.<.[ ] D s 2 $   n D c.Y.'.'.M.+XlX3.<.D.-.J ) x q x r q 9 $ 2 9 2   O 2 2 O < V o.D D k k y.f.f.-.O.] [ -.] T ] O.V ] J r 9 2 $ O 9 J 8.c.4Xf.c./.;Xs.D.o.Q o.s.f.c.j.8.J &.f.T o.o.k 9 q ; O     ; < $ &.k V r ) [ -.[ x V J [ n n J x f r ; 2 ; s n &.y.c.C.M.] 0.3.;X*X0.[ 3.c.Q.'.c.D.y.&.8.y.s.O.I M.3.x s r x 2   $   r 2 f k x V Q f T [ ) x V J ] J D n n k k o.J x J ] n 8.n o.y.y.D.) o./.c.Q.s.<.j.j.Q f.o.I 3.I x s D O.Q Q 2 < < ; O   $ 9 < $ n V q ; ; x Q O.2 9 T O.s   8.V s 2 V n 0.M.T o.C.O.) C.I.c./.x c.[ s.&.) V x &.) T -.] r o.s r f Q 9   x     ;   O ; O n s $ k ] -.$ r n T n V ; r n D D 3.] V 0.2 D.O.C.Y.Y.3.s.-.H.Q D o.O.<.x I I Q [ n D J o.D T s k I s ;     O O 2 ; r I D D O 9 [ < T T 9 2 9 ; k I s k r q y.Q <.f./.c.&.n Q <.T ] I x V Q T D J [ J o.V J x x x J k s s ;       < 2 < s k s k x q s 2 I ) r < r V s k x s k [ 0.3.M.[.H.o.o.T T D s ] I k ) ) n k T Q n I q D <.n n r f s s     ; ; < r q $ s ; q 9 ; 9 r k x s f r 2 s s k Q c.j.s.I.j.O.3.[ ) k I f x f x n s J V n V f s J n k n r 2 9 9 < O       ; 9 2 ; $ < 9 q r s s s s 9 f f f s x n 3.s.j.I.H.<.I [ [ x I I I T T V x I x k k V J x f V n f k x r 2 < O     O $ ; ; ; ; r r q q ",
"f k s 9 2 9 2 ; < O $ < 9 O T s.-.J T T D. Xf.s.8.f.&.f.Y.j.<.0.C.j.0.o.T V f r $ ; r I f.8.Q.Y.9Xf.] [.4X+XH.3.Q V O.&.o.0.o.<.V x x k k $ 9   O ;   x J 3.T x k 0.s.C.C.O.V Q x J x D J 9 s < ; f s n n k [ f.Y.0.D.f.;X'.C.-.O.8.Y.Q.M.s.H.o.c.3.c.Q ) y.j.J r r < ;   O $ q ] 2   D I.3.s <.Q T ] 3.V V s 9 r n ) ) x ) &.s.-.'. X8.) &.+XeX<.3.I.[.H.c.H.3.f.s.8.s.8.o.) 8.c.&.n ) T n q 2   $   O $ n n ] s q 0.T Q k D f [ D T J s n Q O.<.f x <.I -.I s.&.3.8.s.;XY.o.'.C.s.<.j.o.M.Q V I O.o.I J [ &.) s q 2 < ;         < [ ) s < $ f x J $ s -.] r k o.I I I J [ 3.-.J V +X8.3.4XI.f.c.x y.&.8.Q 8.Q O.8.<.] o.x q V V n J T 2 s ) ;   O     < < s 2 r f [ T 2 9 n I n I 2 D T V q Q D &.D o.<.y.f.H.j.I j.f.j.V D &.O.] k I T I ) I J V ) x ] k x ) 9 q O O     < 2 2 2 ; f q V k n n q   s n ; 2 T q k n r 3.O.y.[./.f.J ] 0.J T <.D x V n I [ T I n ] T ] D r x D k f f <       O 9 $ < s f s f f x r ) ) q s n x s k f r n o.y.f.Y.I.] ) 0.T [ D r J I f T I V k V V q ] D 9 ) V n 2 q s f       $ ; q 9 $ s s r 2 ; 9 k Q I q q q ; r s k ] I.j.M./.3.) 3.] J f D x x k x D n n n f n f s ) n r n r 2 9 9 ; O   $ $ $ ; ; ; 9 s 9 k n f 2 ; 2 q k f f r f D f.C.H.Q.I.3.) J T Q [ I n D T V k V J n k D I k s D n k x n s 9 2 ;     O $ ; < < < k f r 9 ",
"D k x s n 9 9 ; O $ $   <   k f q T V Q H.T 0.o.D.s.o.3.8.&.O.y.O.I I V k x < 2 J O.T <.j.<.0.M.tX[.f.Y.Y.y.) &.s.0.y.s.&.0.-.Y.] [ [ ] D 2 f O   ;   $ f f.I r 3.0.f.y.f.) s I T &.o.T V x k D D <.] 3.y.&.j.c.M.I.+X/.4XD.-.3.j.C.c.[.Y.H.H.D s.&.C.3.3.8.y.k I [ D s O     O 2 < 2 ] M.D < s.J J ] [ [ [ V Q 3.D ] s.<.s.y.s.&.D.Y.I T M.eXj.j.Y.[.Q.Y.M.D.o.j.8.o.-.H.8.) &.j.8.) 3.O.I f ;   2       f D D D n -.k ) V ) k T [ <.k < <.s.V [ o.) &.V [ C.] o.C.s.D.'.y.y.C.s.<.] <.I <.Q f T c.<.O.I k ] s n f r 9 2 ; O     q O.D ; 9 q D V D q n <.D q f <.) Q f J H.-.o.n y.C.Y.+XI.Y.C.8.&.o.y.<.D j.[ O.0.T k O.V 9 I x k x f 9 k V < O $   $ q q r r r s T n 9 q f V I -.q r 9 9 ; J ) s.D s.y.Q.Q.D.<.O.<.3.0.T D ) &.V I J &.x J J n n D f ] I x D 9 s r O   O   r q ; $ I s k r s 2 < 2 f D r   f I I D J o.f.H. Xc.3.Q -.f.q V j.n k T n I &.D I k I Q O.Q 9 V n x k k 2 O O     r 2 ; 9 s r r n s 9 k s r n f 9 q f r q x Q -.c.I.s.T [ <.T <.D k f n x J x V n I n r [ Q 2 k V I k x x V ; $ $   ; 9 2 2 r V r < 2 s n ) V ; q r r r q n ] H.c.Q.+X3.[ ] I D r V n x V n n J V n f V k q ] k 2 f 9 2 9 9 < O       $ 2 < ; $ ; r < ; q k f r k x k x r f D f.c.D.Q.f.O.T D x T ] I f k D D x x V n k x V k s n V k x x s q 9 <     O $ ; < < 2 r q q 9 ",
"o.-.y.o.Q Q ) s q r O ; O   ; ; 9 J ] x ) 0.o.j.*X+X/.H.0.O.) I I f n k f ) J <.O.H.o.Y.,X/.8.c.Q./.+Xs.&.<.C.C.f.s.8.M.s.c.o.j.<.O.s.y.T x s k ;   <   s J 2 s 8.-.y.k D o.) -.I. X/.<.I O.Q c.8.D.) &.j.y.Y.j.s.[.eX,Xf.8.M.+Xc.Y.&.+Xf.j.f.<.<.8.C.0.c.[ [ I ] 0.) k < <   $   $ $ f T 9 k T o.O.<.T f.y.] c.o.3.I.s.T Q.hXsX<.M.y.< I Y.y.j.'.Q.c.M./.s.s.3.y.3.<.&. X8.] &.<.3.Q o.o.0.<.x r     ; $   s 2 T q r y.T s.s.k O.o.V k [ ) f Q O.&.[ x ] O.o.n 3.3.;X9XD.M.y.Q ) o.<.3.k Q s.3.[ [ O.) I I n k 2 r k k q ;       < T s < n r r f f s k o.D n q s J j.f T I.) 3.[ y.c.c.,XI.T /.y.3.O.0.[ o.o.O.8.o.f k T I V V k s s s V V r f O $       $ q J ; f V J < k < n V 8.q < 9 D r s D y.<.H.C.'.;XM.o.<.] 8.o.] ] Q Q T T D T ] D r f n k s ) o.f s r r k     2   9 ; 2 9 s.9 2 ] 9 9 n D < r x ; 9 H.) < O.] j.Y.[.j.3.<.x O.Q Q s.n f o.Q Q ] f [ n D Q &.] 9 I n n x x 2 O $     < q q r x s 9 f 9 q s r n V s n k k 2 r ] 3.0.H.H.0.<.<.T D 3.k T q k D I f D J ] I V Q ) s r n V k n f k ; $     < r q r 9 V $ < q s r k q < Q f D r ; D ] c.M.Y.*X8.] k J ) s D D k D k 9 x f k q n f 9 [ x 9 q 2 2 q r 2 $ $     $ 2 9 2 < 2 $ r f q 9 2 q k s s x f k J f.s.D.+X0.[ T &.V J J J k r x V n x f k s s x k f f V k f k r 9 2 $       O O $ ; ; 9 9 9 9 ",
"y.8.H.y.) 3.Y.J q O.k ; ; O   ; < k q k J -.O.3.I.j.c.-.I.Y.Y.) [ I ] 3.I.8.j.H.I.Q s.I.eX+X[.Y.Q.tX8.y.M.I.'.s.0.H.j.'.c.8.o.H.y.] H.Y.n J J ) q ; $   $ 2 < T &.3.k ] V Y.T y.3.j.0.&.O.-.c.I.[.3.M.3.'.o.s.I.0.M.*Xc.s././.lXQ.H.0.Y.[.s.8.s.0.J [ <.s.I O.<.0.8.x O.r s $ O   O   O x s r 8.c.8.k D ] c.-.<.O.Y.] T &.[ f.C.[ <.H.V ) C.s.I.;X/.f.C.C.C.0.s.c.<.O.I f./.T x j.D.o.D s.0.] f V q O       ; s O.r ] O.q <.3.V V I Q o.V D I o.<.V Q s.] k ) -.j.H.4XI.c.f.0.x y.y.y.o.T &.0.o.J D o.D -.n V 9 J V k I D 2 O   $   9   < J r 9 V O V V <.D 9 V V &.8.] n [ <.s.D.0.D.[. Xf.0.8.3.<.[ f.T ] y.J <.&.n k &.3.T D V f ] f J r 9 x f O     $ < 2 ; ) V s n n 2 Q V f k f s < r ) ) ) C.) C.D. X/.-.C.Q y.f.] J O.f ) J n x o.V s V &.k n < ) T x r q x   ; ;     2 f < o.) 2 f k k 2 ] q < x ; q Q ) f q M.0.M.Y.C.M.] o.V &.D -.o.x D <.O.O.9 Q -.n V J Q D q [ D r D x q   ;     ; 2   q s s ; f q r s n D f q f f k r f x M.j.H.f./.0.] n I I x J J f D D ) q ) ] s x k ) k D x k q D D f $ ;       q f 2 9 f 9 < r n r q 9 $ k f k 2 2 I I Q.M.[./.) J I n ) x V n D k k 2 f V r k x k n J n q f < 2 k s < ; 2 O     < 2 ; $ ; ) T q r r s < s s r r n D f y.f.C./.j.O.Q T I k Q n f x x f s f q r s s q q s k r f s x q q ; <     O O $ ; < 2 < s f 2 ",
"O.I.D.-.T 3.[.O.q O.O.k < $ ;     2 < f I &.o.-.Q.J -.C./.8.s.+XH.'.o.H.f.D.D.] 0.s.H.H.xX9X[.Q. X0.M.M.Y.'.s.y.c.Y.H.H.M.<.O.<.<.<.8.'.[ D ] J ] V 2   O $ $ s V ) r V T f.o.<.y.j.H.0.f.C.I.*XC.8.Y.[.+Xj.[ '.M.H.[.c.I./.[.'.+Xc.&.c.+XM.] [ Y.] &.T <.s.j.O.3.) ] f.s V f     O O O q < $ Q ] Q y.y.T f.<.) s.O.Q o.f.<.Y.c.f j.f.<.M.j.Y.tX'.H.-.H.j.C.O.8.M.I.0.J f.s.[ I c.<.T O.s.[ J n [ V 2 O   $ < 2 J   V D   [ Y.k f k o.j.n D Q V o.V &.&.J x 0.I.c.sX,Xj.D c.s.&.Q <.3.0.n ] [ o.n T f 0.&.o.$ k ] [ V T s 9 $ O       ; q q ; < V r J &.Y.T 9 f I D.x ] -.D f.f./.f.Q.,X+XT &.&.c.f.-.O.o.T 3.k 0.[ ) ) I O.2 9 J V D k f ; q T s < $ O     2 s ) q   V V < x f 2 T r q I J o.D Q [ s.M.'.Q.f.8.c.V 0.H.] s T k n 3.V -.o.J Q x k k I f x ) J V 9 V $ $ O     ; r 9 [ x ; < k f f T r s f 2 n I Q q 9 3.c.D.[.f.<.Q Q I -.[ [ n D f o.n I s Q <.f D x T n k ) n s f s k 2 <     O 9 9 s r q 9 V x f r f x q 2 f J 9 2 D ) s.s.'.I.c.0.I D [ x n ) f s V V I k J ) f k s T q k x k r V x f ; <       2 q ; < q 9 9 2 s q 9 q < k x k r 2 n O.H.C.I.C.] T x I J x f s n k n r f x r f k x k s r q s 9 q s q 2 2 < $   $ < 2 ; < q s s 2 q f f 9 s s k k J T T c.f.Q./.y.Q D V D x n x k k f f r q 9 s k x k s q q s k s x q r < < O O O O O $ $ $ 2 r r 2 ",
") Y.0.<.-.0.Q.0.x o.-.0.r < $     $ O 9 k I J Q c.) y.j.y.f.s./.*XeX8.o.3.c.'.-.0.j.Y. XlX/.*XnX*Xj. XQ.C.j.D.C.s.0.y.<.D.c.C.[ H.3.J Q.f.I Q D y.&.f $ O     O ; f ; 9 ) ) &.) f.o.<.o.H. Xj.j.H.-.M.c.H.o.&.eXI.D.Y.I.4XY.+XI.'.T f.D.c.f.) -.[.) O.D 0./.j.D &.O.o.&.I T s <     O   ; 2 s o.O.[ 8.I o.-.s.&.3.-.M.-.c.] s.M.I M.c.+X*XM.Y.*X'.I.[ M.<.c.o.s.3.H.0.[ D.o.0.0.O.o.] O.] Q o.] [ I s $   O $ O ; J n n T [ O.r -.D -.M.9 I 8.I D V ) o.s -.8.c.[.hXD.c.] f.O.y.) -.-.8.f I Q o.k &.] I O.O.f 2 O.-.n D < 9 $ O   ;       < D I q I Q I 8.J x q 8.x j.k -.8.0.o.O.I.*Xs.y.<.[.) s.C.<.T [ I <.n y.J <.) [ I V n V T V V s < s D r ; $       r D n < 9 r V 2 I 2 n 8.n 2 r q <.n x f j.j.*XQ.j.s.&.) 0.0.Q n I k ) ) V J k D D V f s k n r &.D f 9 J q O   O     < $ f $ 9 2 x 9 k s 2 s q 9 I V x 2 s ] H.D. X8.<.Q T o.<.] V f o.n <.x D I [ 0.q J k T V I I f T f s J r <       2 r 9 r q k D s f r q s f r f n q 9 x Q s.j.Y.C.3.&.V I ) V J o.9 f D n D D s ) V k s ] f f I f r x f f 9 9       $ ; $ ; 9 q f < 9 q 9 q q f s q r 9 k y.C.D./.D.<.[ r Q k f D f k s n f n D r s x n f q r x r q r r 9 9 9 $ O   O ; $ O < r 2 9 q 9 k r q r 9 s r k V I f.0.H.Y.s.&.] J n s s x x s r f s 9 x k k f f s r r r f s k q q < < O     O ; < 2 2 2 2 2 9 ",
"<.y.[ M.C.f.y.&.I 3.Q D.x T $ < O O   O $ q k J 0.<.M.I.8.8.<.M.Y.[.H.I j.Y.[.'.J y.[.Q.c.c.hXeXC.I.[.M.<.y. XQ.D.j.s.-.f.s.H.I /.0.O.j.j.) Q <.0.8.D q $   O   ; k 2 n 0.) c.3.y.3.y.M./.Y.3.D.+X-.8.D.,Xy.D.+XH.j.Y.*XtXI. X X[ c.<.Y.*XQ ] y.'.O.[ T C.H.0.I J 3.<.O.] J x f $         f ) y.8.3.) &.M.C.M.-.I.T 3.] y.O.3.-.f.) f.;XQ.*X[. XQ.H.<.3.&.0.<.s.o.D.M.8.f.] 8.o.O.3.] Q T o.<.&.I V s 2 O       k o.D [ D I y.D 8.I 3.I.V O.8.f s I H.o.J -.C.Y.eX+Xy.j.D.O.D 8.-.O.&.] I Q O.) I &.[ I D I V V Q Q f x q 9 < O   O     9 J T k s x &.y.y.n n I 3.s o.) V 0.-.J f.'.9XD.j.M.+XO.) y.o.] D Q 0.T &.D o.Q [ r x V D J V q r f q 2 f ;       O q k < 9 x n r r ) f r V n k 2 s M.D ) O.D.D.'.H.f.[ o.0.<.T T T D V o.s o.T I k x V J r f J f -.n 2 s D f ;   O     O $ ; ; s 9 s 9 f 9 $ q 9 2 x r 9 r V o.I.D.[.8.f.[ ) <.-.x f ] O.I o.D k T T [ k Q n V n I I x [ x s J 2 ; O     $ 9 O q s V k < f f 9 f D x q f k 9 k V s.c.I.0.f.o.T ] x [ I T x D I n J V 2 o.Q x x <.D s I f s x s x s q     $ O O ; < 9 f V 2 q s 9 9 q r r < q q V 3.M.C.[.Y.y.[ q J k f T x f s V k V n s k n x s r k J r 9 q r 9 9 2 O       $ $ $ 2 r r r f 9 f 2 r s r f q r k D 3.y.D.M.&.Q J x x x x n k r r f k s n k s r r r q q r s s s 9 2 < ; O     O < 9 q 9 q 2 2 r ",
"j.<.8.D.f.C.3.I ) H.I <.I j.k 2 $         ; k I I M.Y.[.<.[ 3.M.0.I.c.D.y.lXY.y.I c.+XQ.j.C.9X/.I.I.+XI.s.H.y.j.s.M.f.y.-.y.[.y.D.8.&.O.Y.0.0.-.O.3.[ D <   $     <   Q 0.Q f.0.H.H.s.*X XC.3.+X X) ) I.[.[.s.0.D.M.[.;X X/./.[.f.O.j.I.;Xy.D ] /.D.O.Q D.3.y.y.r [ f.c.) x o.f 9         s J o.T D D j.Q /.-.D  X2 3.M.[ 8.I.s.y.V H.eXQ.,XD.M.y.j.c.] 3.-.0.-.] j.H.3.] 3.y.J j.3.J o.f.] J -.o.V r q <     O   x n D k n M.] Q n o.y.J Q Q < Q o.o.[ n [.Y.[.,X*Xj.8.c.T J O.O.[ o.[ [ <.-.D r [ f.D q ) 0.f J k s x I q q ; ;   O $ 2 r ; f D r o.I q f T o.3.f k J O.f [ -.D.H.4X+XM.M.y.<.T o.o.O.D Q j.I I I T [ J ) ; ] <.n J ; V I r r x <         ; < < 2 r &.$ r n Q ) x k k 9 k 8.V V Q Y.I.+XQ.Q.s.8.<.&.[ J V D D Q V ] o.) < ] D f x &.] n ) V q n n k 2 ;     O O q 9 k 9 ; < x x x 9 q f 9 < q f n D -.C.Y.[.s.C.O.] ] &.s n <.&.) x ] f Q J x J T D f V n T J J f s n $ ; ;     ; r O 2 r n s q k k s k k r 2 x x ; D x 3.s./.j.I.3.] [ x [ n k O.T J f T k q o.) x n 8.I < r f f x s D k q     O O O < 2 q k n q q f 9 < q 9 n 9 q q I I f.c.Y.H.<.I k n I V n s f k I x f q k V V s 9 r k x f 2 2 r q < ; O O   O $ < 2 9 r r q f 9 r 2 f s f f q s s f Q 8.c.j.&.] T n n n D x f s k k k k r r s f f r 2 ; r s f r q 2 < $ O       $ < < < f 9 9 r ",
"0.8.I.y.] H.C.) 8.H.I I 3.s.D V 2   O   O   r x x  XY.s.o.-.y.O.I.Q.&.'.) xX,XI D.'.Y.Q.;X[.'. X+X[.[.4XI.f.&.y.D.[.j.y.] 0.I.o.0.O.J 3.+Xo.3.[ o.-.-.] r   O   O 2 9 -.8.o.8.y./.M.) D./.y.&.[.[.&.H.f.D.Y.0.M.Y.[.9X XC.'.Y.f.H.c.3.&.4Xf.k O.j.'.y.[ f.) y.j.I <.<.-.] I Q r q   $ O O 9 r k o.D y.o.O.+X) o.c.V s.c.-.[.M.n &.8.[.sX XC.<.3.<.f.C.J -.-.M.8.8.&.8.&.) 0.8.o.-.&.O.s.Y.D f <.f.I 2 9 q O     O k 3.Q J I /.) I x I D x s I D T ) <.I D 0.I.*X*X X3.y.8.) I ) 8.3.[ <.I <.[ T D s 0.8.] x o.k I f n J &.f f < <   2     2 ; V s n s.J 9 -.&.f &.q I 0.n -.x y.8.I.4Xj.) c.3.8.-.] -.O.[ V j.x [ T &.D V 3.q j.3.9 T q ] Q 2 n r ; O O     ; 2 r < J ) q 9 I J n k < q k D &.c.J f 9XH.;Xc.f.s.&.Q <.<.q I -.f ] n J J J Q [ V < D j.] n J k $ J s f 2 <     $ ; 9 $ f < r < V f V q 9 n q ; n I n r O.y.Y.[.f.C.3.) n O.D D T 3.) r -.V ] J x x k I I ] n D V x x k x ; < O   O q n q $ < x f x r q k x 2 ; f k D 2 x f &.f.D.C.c.3.I T J n s f y.I x q I f n J I f x <.Q < 9 f f k s J k 9       O ; < 9 s f s r 9 r 9 ; q 9 J q q 9 D s 0.C.H.D.&.D J V T T x r s k I x k r k V n r q k n k f 2 2 r q < $ O       $ < 9 9 9 9 9 f r 9 2 r 9 r f q k r r k o.8.f.3.<.O.J n k V k f k n x f s s f k k f s r r r f n r s 9 9 $         $ < 9 9 q 2 2 9 ",
"3.0.I.0.[ f.H.&.C.j.J I s.] n o.x O O   O   < < [ f.o.8.c.O.) 8.*X Xf.I.O.,XtXs.I.I.j.s.+XhX*X[.D.D.H.Y.y.s.I.c.&.Y.s.-.Q s./.o.) &.<.C.c.x ] j.-.) o.] k 9 O     O 9 I D ) ) <.I.y.o.8.I.<.o. X-.f.'.) C.[ -.s.'.4XlX+XC.C./.0.H.] Y.8.j.0.T 0.&.c.M.3.0.T <.-.0.y.[ x ) O.s k f < $ O O < 9 n ] T f.Q H.c.s ] D s.'.8.[ y.D k j.f.D.'.Q.c.H.Y.f.H.f.Q ) s.C.M.c.-.O.) 3.0.O.] J &.c.s.c.k T <.s.Q r 9 q $     $ T D O D D D 3.I f Q J o.x Q J -.O.V &.) D.C. X;XI.o.C.-.T Q &.M.3.Q -.V ) T ) ] [ [ y.x -.) q J V J T o.k k < $       q Q n q V x I x r D I I I r -.s.J ) ] J c.+X;X0.[ y.0.c.3.o.<.O.&.s 0.T O.) 3.q f V n &.n 2 Q k V k O f r ; O O     2 r s 2 O.I r 9 ] n q T s ] J s n O.q < [.C.*XD.H.f.) ] -.[ r <.0.q ) q o.] <.j.I s 9 k &.I V x 2 ; I q f ; ;     O <     < 9 T f k q k r 9 f q 9 Q I s 2 O.3.M.[.c.f.3.I V &.O.D x ] k D 8.V x f D x q J &.o.D x x n V k x 2 2     O q x f   < f f f q 9 f k 9 9 n k V r 9 n [ j.0.j.s.[ T D V k n V 0.J f k J V J f J k n [ T r f k f f r J s ;       ; 9 < q f r r k 2 2 9 2 r 9 x ; s q s f o.c.D.M.O.I Q ) x ) D f f f J n V n s k k f k n n x f q q r 9 9 <       O $ ; < 9 9 q q f k 2 r r 2 f n f k s x k [ &.0.O.) I n V n x n x k x n x s x n n k r r f n q f V s k q q ;       O ; 9 r f 2 2 2 9 ",
"j.8.f.M.f.[ 8.O.c.M.Q ) o.I n O.I ; O   O   < $ ) T D y.[.-.T +Xj./.Q.Q.s. Xf.*XY.Q -.'.9XsX,X9X Xf.tX-.] 9X*X3.J +X[.3.D [ H.[ O.8.f.-.o.c.<.j.3.D T I n k $       q r q [ o.f. X&.[ ) *XD.&.C.&.tX-.V D.o.f.y./.9XxX9XQ.<.+XC.o.O././.D.) &.-.8.-.D.j.8.Q -.&.s.[ 0.Q n <.x I J r $     O q ) -.&.[ I.s.) f -.C.M.C.3.<.<.T <./.[ M. X*X X Xc.j.Q.3.3.Q D.f.c.T 3.O.s c.I.s.J &.o.f.-.0.x O.O.O.T n f 9 $   O   $ O I D &.k j.o.s Q I y.I [ x -.[ n O.o.y.Y.sX XI.8.c.I f <.M.s.I D [ ) V J T j.o.Q n T O.-.x V I J I J k s ; O O   O $ ; D &.f ) I J I J I [ x n I <.I n 9 V -.+X+X<.y.D.H.s.] -.O.<.[ r -.y.r ] I T k s O.J r Q <.V 2 s s J D 9 O     O < 2 r 9 D s.O r k ] k D O O.x 9 I J f Q M.H.'.Q.[.O.<.8.I J ] y.Q r D s O.[ y.n T n r ; n I D r ; I I 9 f O $       ; O f < r ] V f k f f r 9 ; 9 Q D 9 s 3.8.s. XH.<.O.x ) <.8.J Q n 2 8.c.D < 2 ] o.s k O.D n x Q n x q s 9 2   $   ; 9 r   q s q 9 k x s s f s f Q s q r O.J y.s.j.Y.) <.I q I Q T &.J x I J T J f T D n I V q f k s r q D q O   $   2 s 2 q k 9 s D 2 ; q q s q r $ V s < x n 3.j.y.[ I T -.2 ] n f n V Q V V x f f k n n f s f s s s q 2 r 9     O ; ; $ < q s r r s x 2 x n f q x 9 < ; k s T ) 8.3.-.O.Q T V x J V s r n V f 9 f V n s 9 q s 9 r n r k r r ;     O O $ < 9 r r s s r ",
"I.&.s.Q.3.3.&.y.f.H.3.o.x Q 3.T J f ; O       $ V s x C.c.eXD.f./.O.f.0.'.*X8.tXY.3.0.I.hX'.tX9XI.Q.4X) D.H. X] 8.s.I.[ [ 0.D.[ J D.3.y.c.T Q.Y.T V o.o.s n < O   O   2 D Q M.<.j.j.c.I.j./.y.3.y.[.) M.I.8.Y.y.,XsX9X+XM.[.Q.3.s.3. XH.o.y.s.O.o. Xf.-.-.T &.y.0.O.C.O.Q V ] T r q $       < f V s <.f.&.n o.H. XQ &.<.O.-.Q O.O.[ *X[.Q.*X/.8.I.M.D.] &.C.c.O.D <.&.&.I.f.n J f.-.O.-.c.f -.O.[ ) Q V <       O   9 J <.o.D 8.x V -.J o.c.n k -.J [ o.T 0.'.;XeX0.O.Y.s n c.s.C.) f Q <.3.2 &.C.T ] o.x 8.O.s J V [ s 2 9 q 9   O     O 9 8.[ n I [ -.o.I V x V V 0.Q x ] < I j.Q.,XC.s.D.Q.&.o.&.-.s D T s.3.r T -.&.q n s.s D [ O.&.O V 9 x x < O O   $ <   ; f x [ < $ V I r I V T q D s n ] J f.D.'.<.0.<.<.] n ] 8.&.Q n n V I o.Q < 9 -.V s I x ] T s n V 9 q <       ; 2 2 < r q V q r ] V r O D s   f f T D c.T j.Q.H.f.0.) x <.[ V k 8.q ) ] n s $ D y.T k 9 ] n x x x k s q 2 ; $   O < < $ 9 9 T k x < V f < x k x ) q r x 3.; s.-.s.M.I 3.I f J O.] O.V x V ) n f T n r ] k T n q q k s ; 2 q <     $   f $ r 2 x x s < 9 9 q x q r r f s 9 9 D -.s.j.<.T J V x n V n s f ] D n r q x D n s r q r 9 s s q q r 2       2 9 9 r 2 q f r 9 x s s 9 k s q r q 2 k D k [ &.&.[ T I D n V x D J k q f V 9 r k k r f f r < r s s f 9 $ $     $ $ O < q 2 q r r s ",
"[.0.j./.c.) &.y.j./.y.0.) n y.T ] x ;         $ < x [ f.M.Q.Q.j.y.&.c.*Xf.I.3.4XY.c.M.'.,X[.tX4Xc.9X;X0.T [. X8.] 3./.) -.C. X-.[ H.0.Q.8.T D.+Xr n c.s.D s ;     O   9 Q J -.&.j.y.f./.I.Q.] ) c.H.-.3.D.D.I.<.,XlXtX X;X/.c.O.H.s.C.s.&.j.j.) ) +Xc.k f.) [.0.8.I Y.) I ] y.) s q $       ; f x n y.&.Q o.s.f.-.<.] 8.[ 8.I s.) 0.9X*X,XI.Q.3.M.I.[ y.-.f.s.J s.&.) ) -.y.&.I M.&.Q c.<.k I -.<.Q V s < $ O   $ 9 V V x 3.Q n V T ) J O.<.q ] I n J j.r O.H.9X'.-.0.8.J <.M.O.s.] 9 T ) 0.T J H.[ f 9 O.[ x o.V k J 9 9 s k r O O     $ < T x V O.J Q <.J J T Q x 0.I I r D 0.Y.Y.'.Q.H.D.c.&.J f.f O.D Q  XI V Q x ) D f 3.D [ ) x Q r J < 2 k 2 $ O   O <   r o.r n I r O x I r k O.s D &.r D ) J M.M.'.8.s.3.n o.I O.Q Q ) Q n f J Q k r I I s V ] V V 2 I r 9 r ;   O O ; s s s s < s 9 x I 9 s 9 f s r r D D r V Q 3.s.j.-.[ J D &.J D I <.D k V k k k ) [ ] J f J V f r V n k r 2 ;     ; $ < O 2 2 n r x r k k s s Q ] k k < x f f 3.O.8.f.] 0.) D D [ V Q J J x D k n Q J f I f D k 2 f n f 2 9 9 O   O $   q 9 x q 9 s r q f f r x r s r r r q q n [ &.0.[ n J D s s n T f s n n x k q s k k s q q r s r s f s 9 $   O   < < 2 r q s s s 9 f q f 2 2 f q 9 2 2 r k s J ) o.[ ) T D x n k V V s r f k q r k k r r f s q s r r f 9 O   $ O ; ; $ 2 q < 9 9 q q ",
"[./.f.y.s.y.f.I Y.M.8.s.8.J &.n <.D <       O O r I 0.3.I. XD.-.H.<.Q D.f.tXC.eX/.j.c.D.;X,XlX XI.D. Xs.0.-.Y.C.V O. XI 0.I.*Xo.) Y.C.[ Q <./.O.o.Q 0.) k 9 s $     ; 2 r ] D.o.I.j.8.M.I./.I Q c.,XY.T o.I.4X0.;XBX;X/.*XM.&.8.I.c.0.8.<.0.f.[ D ,X0.) -.) '.3.[ ) [.T [ -.-.J f q $       ; k V I s.T O. XI.D <.D.] 0.<.O.x o.D.H.c.Y.tX[.[.<.H.H.] c.y.0.-.k Y.y.) T <.c.s.[ ) O.<.s.Q &.[ n M.[ k r 2 ; O     n k k [ j.k Q J O.D I -.r ] I r k ] Q.x O.M. X4X<.c.] o.-.) J M.V s O.Q C.) J O.x &.Q 3.J D T ) V V q r x k 9         2 q x f Q T J ] [ D 0.O.Q V J ] x D Q 8.3.Y.*X[.M.f.-.T Q o.I n J 3.y.f ) 8.V k V D [ V I ] q n s D 2 < 9 ; $     ; 9 ; 9 o.2 9 -.x   x -.k s 3.r n 3.s x I x [ M./.j.M.y.D &.) T x Q T J V V Q o.J s s J Q [ J s [ x 9 < q r O   O   ; J s 9 q 9 r 2 s f 2 x n V k q $ I Q < ; Q O.&.j.O.] I ] [ x ) &.T [ 2 I I f x Q V &.[ n x D k f V V x s 2 O     <   < $ 2 9 s r q r s n D $ V D k r $ D < x ] 0.o.-.Q o.D V s V x x x J x J x f J J n f s n f 9 s f r 2 2 ;     O < ; < q n k 9 < 9 r n f 2 s q f r q q r r f V [ 0.O.J Q I k x J O.x s 2 f s k s r r f s q q r f r s x f <     $   ; ; 2 s q f s f 9 r r n q ; f s 9 q s s q r x J ) ] ) I V x k k x k r s f s r q s s 9 2 r s s s q 9 r 9     O   $ < 2 q r 2 q q r r ",
"<.Y.y.) o.'.[.&.'.O.0.M.s.o.k D 8.I 2         O 9 n <.O.I.lXf.-.Y.xX8.f.8.<.C.lXH.O.<.3.[.;XlX/.C.Q.I.D.C.c.C.C.J -.+XT s.M.Q.J C.M.O.) y.M.c.I c.O.] Q I f r     $   9 Q Q <.C.y.c.y.8.3.j.Q c.8.H.8.j.s.3.I.&.;XnXH. X/.M.O.c.D.j.O.y.f.3.y.O.Q I.[ M.Q [ f.[ Q M.Y.D -.[ n V f q $       2 n o.Q c.0.f.j.O.o.8.M.O.<.C.J ) O.Y.s.T [.9X9XC.) I.-.j.3.M.j.&.) <.D.] D M.c.[ &.T n y.0.0.8.<.V c.] k s 9 $     9 O J O.T -.J s T n O.Q n Q y.Q Q J 3.-.J o.C.*XsXc.M.) 0.8.[ y.<.[ 2 s.O.y.0.J I f H.&.n V 3.V o.I n s s x s $ O       9 f k V o.k ) o.D V f.-.x r [ n I T o.n <.D.H.I.C.D.o.x -.f.o.q o.0.T n ] 8.] r k ) I x r 3.J f 2 r 9 9 ; $       < 9 < q n s s <.f k n ) I q ) q k J Q 9 s Q ) C.f.D.c.o.J f <.I J 8.Q k J ] [ ] J x k O.Q Q k ) T s $ r s q     O   < D 2 < q s k s D 2 k k k T n ; ; V <.9 r k T o.0.[ [ T Q V s ] Q x &.q [ ] f r T x &.O.x x V D D x x k q ;       ;   q q q s r k x x D Q &.2 x n x ; 2 k 9 s T 3.O.o.] Q V T s n x k k V f I V r k V D 9 k V x r 9 r 9 2 ;     ; $ s x 2 r x I x q s x I x 2 s s k f r r r q r r [ &.&.] D x n V J [ x s q r r k k r r k x r q r q r f k r $     $ O 9 9 q s q s f f 9 f s V f r r r q s V f 2 q k V I T I D n x k x x f q f k q s q r r 2 < q s r r 9 < 2 ;         $ 2 2 q q 2 9 9 9 9 ",
"j.8.-.D <.Q.Y.y.D.[ 0.[.0.O.s &.3.T q O       $ q ) 0.3.Q.,XH.C./.'.0.&.f.'.j.;XY.3.0.D.Q.9XxXsXc.D.c.M.,X8.8.D.) 0.[.O.c.y.C.I D.H.V f.0.I.) &.s.8.Q -.[ f ;       q s q O.M.O.C.M.o.<.c.Y.3.'.] y.y.;X0.o.y.y.,XhXY.4X XI.j.C.I.y.I f.Q.0.<.Q s.3.3.<.] 0.I.D 3.'.&.D O.) V J f 9 O   O   < n 3.8.c.o.8.8.) [ [ Y.y.T D.k Q 8.I.&.&.,X X,Xc.j.Q.-.[.O.y.0.o.o.) /.<.) H.y.) s.3.f 3.-.j.3.0.[ [ V k k 9 O       ; Q V V [ [ 9 [ y.&.8.q D s.Q o.V y.I o.] &.[.+X'.f.) 0.f.&.0.T o.) ] V M.O.o.Q T 0.T I ) ) V J n s s s k s O $     $ q f s V -.n [ I T Q T o.r r 3.V V [ ] s &.j.I. Xc.<.o.s.3.f.) n I f.r Q D Q k V I T [ f k s.[ f q < 2 9 2 <     O ; < < D k D k 8.9 J f k s f q s k k O.; 2 J f.-.f.f.s.[ J f &.I ] 3.) V J I I I T Q T T [ T 9 J k 2 s n r ;         q f 2 s f f s V <.9 f q r n x r s V <.k k < r 3.) -.s.8.&.T O.0.T n <.f D J I k T n Q ] f J k V D k k s 9 $     O O   f k r k r x s < f k ) 9 s k q < f < ; s J D ] ) ) I I o.x n f D I V 2 n D k f n T 2 x D x q r s r 2 $   O q 2 x I q f k I x f k x D f 2 k x f k k s r q q q <.T [ &.D n ) T V D f f I f k x k r s x n s 9 q 9 s x s <       O $ r q r f r k n k q n k n k D r r 9 r x r ; 9 f k V J J V x k x x x f r x x q k s s s 9 9 s f 2 9 < $ $ O   $ < ; 9 q < 2 r r f f f f ",
"Y.<.c.Q 8.0.M.j.s.<.] /.3.O.] <.3.T q O       O q -.8.<.'.M.*XY.;XM.D.H.3.D.3.c.4XD.y.9XY.HXxXBXC.M.O.Q.*X&.]  X] f.c.0.j.3.c.O.I /.y.y.T s.&.&.<.y.n ] ) q O 2   O   q J [ &.C.4XY.n O.H.Q.s.Y.&.0.Y.[.] M.s.f. XsXsX4X'.8.'.Q.j.3.) M.H.O.] D H.y./.T D M. X] f.j.x &.&.&.-.V k 9 O       < n &.3.8.Q 3.c.0.T ] *X0.k j.] k &.'.[ 0.H.*X9XY.[.f.s.M.3.O.&.-.&.y.Q.s.3.0.O.8.c.-.x o.&.3.<.<.-.D x V n 9         q V q J Q 0.T &.&.C.V D f I j.V q <.O.<.J x M././.<.-.y.<.D J ) M.o.] D [ -.8.[ D ] -.8.) q V x x r x s k s $ O   O f k x x J y.f o.) I <.D ) n f D I k 0.V k ] -.s.I.H.j.3.&.o.T Q J J <.D J r ] 2 Q ] I s.< T O.V r D s < q < $     ; < 2 f ) I n 9 0.9 s q ) 9 [ < V f D x D s f 8.n 3.3.<.3.T -.I J [ I Q ] V x I [ &.o.D s 3.) 9 $ r r ] V <     O O   s D q s q s q x ] q < q J q r x 2 Q Q D s q 9 I.I Q O.-.[ I 3.&.k x &.n r n 3.] x D D T x o.x x k x f q < O   O $ $ < f n r k r f s < k x ) n k r s 9 r x 2 f f x x x J D T [ x x x J D x 9 V n f x x Q q f D f ; s f q ;       q q s x q x k x 9 x x k k r r D D q k x s q q r r 3.n J o.I Q &.Q D V k x [ k k k s r f x k r 9 9 q f f 9 O     O < ; r q r k k D I V k J x x k I k f q 9 q 9 < 9 9 r x J I D n x x x x f s x n r k s s q 2 q f r $ < ; O O   O < 9 2 r s q r n D V V n n ",
"<.f. Xf.T ) H.+Xs.s.) 0.] 3.0.O.0.T 9         O O I &.o.D.D.'.C.H.H.] *XQ.D *Xc.9XM.y.;XH.FXsXeXI.Y.D.y.+X8.Y.Y.) C.-.j.8.&.j.8.) j.M.f.&.O.M.<.I y.k J <.s     O O ; r f 0.M.0.C./.J O.<.3.0.j.D.) 8. Xj.I.] n M.hXBX[.H.] /.Y.3.8.0.C.y.) ] I M.c.'.[ D y.c.s.0.&.V y.3.-.&.f k 9         9 I -.T y.I.0.] c.s.o.y.O.I y.f.T 3.-.) -.<.;XtXf.c.o.0.&.j.-.3.j.s.c.s.&.3.] I 3.o.3.J ) 8.&.I ) s.D D J V <       9 <.s 2 0.T ] y.D Q ] 9 3.2 <.Y.J s T T I n O.M.H.D.0.f.c.0.) O.<.3.f.) n ) T M.8.x ] -.Q x f I D J s V f f r       O I n x T Q y.f &.8.x o.I ) ) k k x o.<.I 9 q T j.c.y.0.0.[ Q 3.x T 0.n M.s s &.D ] ) V &.2 Q D k 2 J k 2 9       O 9 < r ) Q ] r r O.r 9 f &.V -.q x x Q q Q n k J f ] &.] ] T <.x T 8.V [ o.n V ] o.] J s ) I f V 9 ; f 3.s         ; < s T q q < f r q s 9 < r ) 9 2 x q O.f T f r s c.J ) Q o.] I -.I D x [ I n D <.-.q D n n V O.J k s f r < O     $ < < r q x q k k q 2 9 q n D k n   V r r ] f q q n r k D D Q Q D J n n r k x D s r x r I r q D s $ 9 q ;     O $ 2 f q q q x x k r I I n x k D [ T q k n s 9 q r r V s s x n J I x D J k x I f s f 9 s k k s q q r s 9 < $ O   O < q 2 r r f V x n V n f n r f s x f f s q < 2 9 2 2 9 s V D V n n x k k f s k x r r r q 2 < r s < O ; $   O O $ 2 9 9 k J V n D D s r r r ",
"D.Q.f./.I -.j.M.f.c.s.] x 8.s.-.s.Q 2           n O./.c.s.*X3.0./.3.y.D.eXn f.C.;Xc.'.*X'.sXnXsX'.H.[ Y.f.M.D.D.[ /.[ C.&.o.j.0.8.-.[ c.&.y.Q.) V M.J k 3.q $ O     ; D [ f.-.[ <.'.I &.j./.Y.] C.f.D. X<.-.-.k 0.hXeX/.Q.0.C.3.y.s.f.c.0.<.3.Q f.O.j.O.y.[ ] D.<.3.] -.<.Q V k x 9     O $ f [ f.3.Y.Y.Q &.4X-.y.x 3.j.<.0.<.y.x y.0.o.C. X8. Xj.C.s.H.y.<.<.O.j.3.) 8.-.Q O.V 0.M.c.I x J 3.8.V V V f $   O O V I r ] [ ) Y.0.o.o.V I ] T [ 0.D k I D J I '.8.f.Y.Q.8.-.y.3.<.D ] y.V r Q -.y.o.V O.J k x x k I J r V s s 9     O   Q k r Q Q O.O.<.8.k n 2 [ D [ s o.] 0.D 2 J x O.8.y.<.y.&.T s.x n &.[ [ r D T O.O.T r < I J J T < f r $ $       ; 9 ; s O.) [ r T J f s D D ) I q 9 J [ J 2 x f J x &.] T T <.Q J ) f.f D [ D T ] n 9 q r -.f q q s f ) n <   $ O   < 9 q r ; s q n s r s 2 k 2 n 9 < x [ -.q Q n $ q I s o.V T I x T q I I [ ) ] J D &.f n k q x ) T s s q < O     O ; 2 9 k 2 k q x n 9 k J q J V V -.q f f x J s < s 9 9 f x x V n V I r f r V V f < k f < V r 2 J k < ; <     $ 9 q q V s q s x V J Q D D s r r V Q x s n n r 2 9 q 9 $ x k q x V k x s J r f f k f V 2 s x f q q r f f $     $   ; r s q f k V J f s q r 2 2 $ 9 ; ; 2 9 s r ; < 9 O q 9 q k x x n D x f f f r s f r q r q < < f f ; $ ;     $ ; $ 2 q r J o.] J f 9 q q 9 9 "
};
